; generated by Slic3r 1.3.1-dev (Build (Unknown revision)) on 2020-03-04 at 16:34:23

; external perimeters extrusion width = 0.44mm (2.86mm^3/s)
; perimeters extrusion width = 0.56mm (4.14mm^3/s)
; infill extrusion width = 0.50mm (3.66mm^3/s)
; solid infill extrusion width = 0.56mm (3.10mm^3/s)
; top infill extrusion width = 0.56mm (3.10mm^3/s)

M107
G92 E0
;D3D:START:START
T0
M104 S215 T0

G21
G90
M107
T0
G28
G29
M109 T0 S215 T0
G0 F3000
M107
T0
G92 E0
G0 X0 Y149 Z0.1 F3600
G1 Y49 E6.5 F1200
G0 Z1
G92 E0
; Filament gcode

G21 ; set units to millimeters
G90 ; use absolute coordinates
M82 ; use absolute distances for extrusion
G92 E0
G1 Z0.300 F7800.000
G1 E-2.00000 F2400.00000
G92 E0
G1 X63.196 Y101.546 F7800.000
G1 E2.00000 F2400.00000
G1 F1800.000
G1 X65.804 Y101.546 E2.08639
G1 X65.804 Y101.696 E2.09136
G1 X86.804 Y101.696 E2.78708
G1 X86.804 Y104.304 E2.87346
G1 X63.196 Y104.304 E3.65557
G1 X63.196 Y101.606 E3.74494
G1 X62.931 Y101.281 F7800.000
G1 F1800.000
G1 X66.069 Y101.281 E3.84892
G1 X66.069 Y101.431 E3.85389
G1 X87.069 Y101.431 E4.54961
G1 X87.069 Y104.569 E4.65360
G1 X62.931 Y104.569 E5.45330
G1 X62.931 Y101.341 E5.56027
G1 X62.665 Y101.015 F7800.000
G1 F1800.000
G1 X66.335 Y101.015 E5.68185
G1 X66.335 Y101.165 E5.68682
G1 X87.335 Y101.165 E6.38254
G1 X87.335 Y104.835 E6.50413
G1 X62.665 Y104.835 E7.32143
G1 X62.665 Y101.075 E7.44600
G1 X63.359 Y101.915 F7800.000
G1 F1800.000
G1 X63.565 Y101.709 E7.45573
G1 X63.943 Y101.709 E7.46831
G1 X63.359 Y102.293 E7.49584
G1 X63.359 Y102.671 E7.50842
G1 X64.321 Y101.709 E7.55374
G1 X64.698 Y101.709 E7.56632
G1 X63.359 Y103.048 E7.62942
G1 X63.359 Y103.426 E7.64200
G1 X65.076 Y101.709 E7.72289
G1 X65.454 Y101.709 E7.73547
G1 X63.359 Y103.804 E7.83415
G1 X63.359 Y104.141 E7.84541
G1 X63.398 Y104.141 E7.84673
G1 X65.681 Y101.859 E7.95426
G1 X66.059 Y101.859 E7.96684
G1 X63.776 Y104.141 E8.07437
G1 X64.154 Y104.141 E8.08695
G1 X66.437 Y101.859 E8.19448
G1 X66.814 Y101.859 E8.20706
G1 X64.531 Y104.141 E8.31459
G1 X64.909 Y104.141 E8.32717
G1 X67.192 Y101.859 E8.43470
G1 X67.569 Y101.859 E8.44727
G1 X65.287 Y104.141 E8.55481
G1 X65.664 Y104.141 E8.56738
G1 X67.947 Y101.859 E8.67491
G1 X68.325 Y101.859 E8.68749
G1 X66.042 Y104.141 E8.79502
G1 X66.419 Y104.141 E8.80760
G1 X68.702 Y101.859 E8.91513
G1 X69.080 Y101.859 E8.92771
G1 X66.797 Y104.141 E9.03524
G1 X67.175 Y104.141 E9.04782
G1 X69.458 Y101.859 E9.15535
G1 X69.835 Y101.859 E9.16793
G1 X67.552 Y104.141 E9.27546
G1 X67.930 Y104.141 E9.28804
G1 X70.213 Y101.859 E9.39557
G1 X70.591 Y101.859 E9.40814
G1 X68.308 Y104.141 E9.51568
G1 X68.685 Y104.141 E9.52825
G1 X70.968 Y101.859 E9.63578
G1 X71.346 Y101.859 E9.64836
G1 X69.063 Y104.141 E9.75589
G1 X69.441 Y104.141 E9.76847
G1 X71.724 Y101.859 E9.87600
G1 X72.101 Y101.859 E9.88858
G1 X69.818 Y104.141 E9.99611
G1 X70.196 Y104.141 E10.00869
G1 X72.479 Y101.859 E10.11622
G1 X72.857 Y101.859 E10.12880
G1 X70.574 Y104.141 E10.23633
G1 X70.951 Y104.141 E10.24891
G1 X73.234 Y101.859 E10.35644
G1 X73.612 Y101.859 E10.36901
G1 X71.329 Y104.141 E10.47655
G1 X71.707 Y104.141 E10.48912
G1 X73.989 Y101.859 E10.59665
G1 X74.367 Y101.859 E10.60923
G1 X72.084 Y104.141 E10.71676
G1 X72.462 Y104.141 E10.72934
G1 X74.745 Y101.859 E10.83687
G1 X75.122 Y101.859 E10.84945
G1 X72.839 Y104.141 E10.95698
G1 X73.217 Y104.141 E10.96956
G1 X75.500 Y101.859 E11.07709
G1 X75.878 Y101.859 E11.08967
G1 X73.595 Y104.141 E11.19720
G1 X73.972 Y104.141 E11.20978
G1 X76.255 Y101.859 E11.31731
G1 X76.633 Y101.859 E11.32988
G1 X74.350 Y104.141 E11.43742
G1 X74.728 Y104.141 E11.44999
G1 X77.011 Y101.859 E11.55752
G1 X77.388 Y101.859 E11.57010
G1 X75.105 Y104.141 E11.67763
G1 X75.483 Y104.141 E11.69021
G1 X77.766 Y101.859 E11.79774
G1 X78.144 Y101.859 E11.81032
G1 X75.861 Y104.141 E11.91785
G1 X76.238 Y104.141 E11.93043
G1 X78.521 Y101.859 E12.03796
G1 X78.899 Y101.859 E12.05054
G1 X76.616 Y104.141 E12.15807
G1 X76.994 Y104.141 E12.17065
G1 X79.277 Y101.859 E12.27818
G1 X79.654 Y101.859 E12.29075
G1 X77.371 Y104.141 E12.39828
G1 X77.749 Y104.141 E12.41086
G1 X80.032 Y101.859 E12.51839
G1 X80.409 Y101.859 E12.53097
G1 X78.127 Y104.141 E12.63850
G1 X78.504 Y104.141 E12.65108
G1 X80.787 Y101.859 E12.75861
G1 X81.165 Y101.859 E12.77119
G1 X78.882 Y104.141 E12.87872
G1 X79.259 Y104.141 E12.89130
G1 X81.542 Y101.859 E12.99883
G1 X81.920 Y101.859 E13.01141
G1 X79.637 Y104.141 E13.11894
G1 X80.015 Y104.141 E13.13152
G1 X82.298 Y101.859 E13.23905
G1 X82.675 Y101.859 E13.25162
G1 X80.392 Y104.141 E13.35915
G1 X80.770 Y104.141 E13.37173
G1 X83.053 Y101.859 E13.47926
G1 X83.431 Y101.859 E13.49184
G1 X81.148 Y104.141 E13.59937
G1 X81.525 Y104.141 E13.61195
G1 X83.808 Y101.859 E13.71948
G1 X84.186 Y101.859 E13.73206
G1 X81.903 Y104.141 E13.83959
G1 X82.281 Y104.141 E13.85217
G1 X84.564 Y101.859 E13.95970
G1 X84.941 Y101.859 E13.97228
G1 X82.658 Y104.141 E14.07981
G1 X83.036 Y104.141 E14.09239
G1 X85.319 Y101.859 E14.19992
G1 X85.696 Y101.859 E14.21249
G1 X83.414 Y104.141 E14.32002
G1 X83.791 Y104.141 E14.33260
G1 X86.074 Y101.859 E14.44013
G1 X86.452 Y101.859 E14.45271
G1 X84.169 Y104.141 E14.56024
G1 X84.546 Y104.141 E14.57282
G1 X86.641 Y102.046 E14.67150
G1 X86.641 Y102.424 E14.68408
G1 X84.924 Y104.141 E14.76497
G1 X85.302 Y104.141 E14.77754
G1 X86.641 Y102.802 E14.84065
G1 X86.641 Y103.179 E14.85322
G1 X85.679 Y104.141 E14.89854
G1 X86.057 Y104.141 E14.91112
G1 X86.641 Y103.557 E14.93864
G1 X86.641 Y103.935 E14.95122
G1 X86.435 Y104.141 E14.96096
G1 E12.96096 F2400.00000
G92 E0
G1 X63.196 Y48.454 F7800.000
G1 E2.00000 F2400.00000
G1 F1800.000
G1 X63.196 Y45.696 E2.09136
G1 X86.804 Y45.696 E2.87346
G1 X86.804 Y48.304 E2.95985
G1 X65.804 Y48.304 E3.65557
G1 X65.804 Y48.454 E3.66054
G1 X63.256 Y48.454 E3.74494
G1 X62.931 Y48.719 F7800.000
G1 F1800.000
G1 X62.931 Y45.431 E3.85389
G1 X87.069 Y45.431 E4.65360
G1 X87.069 Y48.569 E4.75758
G1 X66.069 Y48.569 E5.45330
G1 X66.069 Y48.719 E5.45827
G1 X62.991 Y48.719 E5.56027
G1 X62.665 Y48.985 F7800.000
G1 F1800.000
G1 X62.665 Y45.165 E5.68682
G1 X87.335 Y45.165 E6.50413
G1 X87.335 Y48.835 E6.62571
G1 X66.335 Y48.835 E7.32143
G1 X66.335 Y48.985 E7.32640
G1 X62.725 Y48.985 E7.44600
G1 E5.44600 F2400.00000
G92 E0
G1 X63.565 Y45.859 F7800.000
G1 E2.00000 F2400.00000
G1 F1800.000
G1 X63.359 Y46.065 E2.00983
G1 X63.359 Y46.446 E2.02264
G1 X63.946 Y45.859 E2.05059
G1 X64.328 Y45.859 E2.06339
G1 X63.359 Y46.828 E2.10945
G1 X63.359 Y47.209 E2.12226
G1 X64.709 Y45.859 E2.18644
G1 X65.090 Y45.859 E2.19925
G1 X63.359 Y47.590 E2.28153
G1 X63.359 Y47.971 E2.29434
G1 X65.471 Y45.859 E2.39475
G1 X65.852 Y45.859 E2.40755
G1 X63.419 Y48.291 E2.52320
G1 X63.800 Y48.291 E2.53601
G1 X66.233 Y45.859 E2.65165
G1 X66.614 Y45.859 E2.66446
G1 X64.181 Y48.291 E2.78010
G1 X64.562 Y48.291 E2.79291
G1 X66.995 Y45.859 E2.90855
G1 X67.376 Y45.859 E2.92136
G1 X64.943 Y48.291 E3.03700
G1 X65.324 Y48.291 E3.04981
G1 X65.435 Y48.181 E3.05506
G1 X65.435 Y48.141 E3.05639
G1 X65.474 Y48.141 E3.05772
G1 X67.757 Y45.859 E3.16623
G1 X68.139 Y45.859 E3.17904
G1 X65.856 Y48.141 E3.28756
G1 X66.237 Y48.141 E3.30036
G1 X68.520 Y45.859 E3.40888
G1 X68.901 Y45.859 E3.42169
G1 X66.618 Y48.141 E3.53020
G1 X66.999 Y48.141 E3.54301
G1 X69.282 Y45.859 E3.65152
G1 X69.663 Y45.859 E3.66433
G1 X67.380 Y48.141 E3.77284
G1 X67.761 Y48.141 E3.78565
G1 X70.044 Y45.859 E3.89416
G1 X70.425 Y45.859 E3.90697
G1 X68.142 Y48.141 E4.01549
G1 X68.523 Y48.141 E4.02829
G1 X70.806 Y45.859 E4.13681
G1 X71.187 Y45.859 E4.14962
G1 X68.904 Y48.141 E4.25813
G1 X69.285 Y48.141 E4.27094
G1 X71.568 Y45.859 E4.37945
G1 X71.949 Y45.859 E4.39226
G1 X69.667 Y48.141 E4.50077
G1 X70.048 Y48.141 E4.51358
G1 X72.331 Y45.859 E4.62209
G1 X72.712 Y45.859 E4.63490
G1 X70.429 Y48.141 E4.74342
G1 X70.810 Y48.141 E4.75623
G1 X73.093 Y45.859 E4.86474
G1 X73.474 Y45.859 E4.87755
G1 X71.191 Y48.141 E4.98606
G1 X71.572 Y48.141 E4.99887
G1 X73.855 Y45.859 E5.10738
G1 X74.236 Y45.859 E5.12019
G1 X71.953 Y48.141 E5.22870
G1 X72.334 Y48.141 E5.24151
G1 X74.617 Y45.859 E5.35002
G1 X74.998 Y45.859 E5.36283
G1 X72.715 Y48.141 E5.47135
G1 X73.096 Y48.141 E5.48416
G1 X75.379 Y45.859 E5.59267
G1 X75.760 Y45.859 E5.60548
G1 X73.477 Y48.141 E5.71399
G1 X73.859 Y48.141 E5.72680
G1 X76.142 Y45.859 E5.83531
G1 X76.523 Y45.859 E5.84812
G1 X74.240 Y48.141 E5.95663
G1 X74.621 Y48.141 E5.96944
G1 X76.904 Y45.859 E6.07796
G1 X77.285 Y45.859 E6.09076
G1 X75.002 Y48.141 E6.19928
G1 X75.383 Y48.141 E6.21209
G1 X77.666 Y45.859 E6.32060
G1 X78.047 Y45.859 E6.33341
G1 X75.764 Y48.141 E6.44192
G1 X76.145 Y48.141 E6.45473
G1 X78.428 Y45.859 E6.56324
G1 X78.809 Y45.859 E6.57605
G1 X76.526 Y48.141 E6.68456
G1 X76.907 Y48.141 E6.69737
G1 X79.190 Y45.859 E6.80589
G1 X79.571 Y45.859 E6.81869
G1 X77.288 Y48.141 E6.92721
G1 X77.670 Y48.141 E6.94002
G1 X79.952 Y45.859 E7.04853
G1 X80.334 Y45.859 E7.06134
G1 X78.051 Y48.141 E7.16985
G1 X78.432 Y48.141 E7.18266
G1 X80.715 Y45.859 E7.29117
G1 X81.096 Y45.859 E7.30398
G1 X78.813 Y48.141 E7.41249
G1 X79.194 Y48.141 E7.42530
G1 X81.477 Y45.859 E7.53382
G1 X81.858 Y45.859 E7.54662
G1 X79.575 Y48.141 E7.65514
G1 X79.956 Y48.141 E7.66795
G1 X82.239 Y45.859 E7.77646
G1 X82.620 Y45.859 E7.78927
G1 X80.337 Y48.141 E7.89778
G1 X80.718 Y48.141 E7.91059
G1 X83.001 Y45.859 E8.01910
G1 X83.382 Y45.859 E8.03191
G1 X81.099 Y48.141 E8.14042
G1 X81.480 Y48.141 E8.15323
G1 X83.763 Y45.859 E8.26175
G1 X84.145 Y45.859 E8.27455
G1 X81.862 Y48.141 E8.38307
G1 X82.243 Y48.141 E8.39588
G1 X84.526 Y45.859 E8.50439
G1 X84.907 Y45.859 E8.51720
G1 X82.624 Y48.141 E8.62571
G1 X83.005 Y48.141 E8.63852
G1 X85.288 Y45.859 E8.74703
G1 X85.669 Y45.859 E8.75984
G1 X83.386 Y48.141 E8.86835
G1 X83.767 Y48.141 E8.88116
G1 X86.050 Y45.859 E8.98968
G1 X86.431 Y45.859 E9.00248
G1 X84.148 Y48.141 E9.11100
G1 X84.529 Y48.141 E9.12381
G1 X86.641 Y46.029 E9.22420
G1 X86.641 Y46.410 E9.23701
G1 X84.910 Y48.141 E9.31930
G1 X85.291 Y48.141 E9.33211
G1 X86.641 Y46.791 E9.39628
G1 X86.641 Y47.173 E9.40909
G1 X85.673 Y48.141 E9.45514
G1 X86.054 Y48.141 E9.46795
G1 X86.641 Y47.554 E9.49589
G1 X86.641 Y47.935 E9.50870
G1 X86.435 Y48.141 E9.51853
M106 S255
G1 Z0.500 F7800.000
G1 E7.51853 F2400.00000
G92 E0
G1 X65.823 Y101.677 F7800.000
G1 E2.00000 F2400.00000
G1 F2400.000
G1 X86.823 Y101.677 E2.90290
G1 X86.823 Y104.323 E3.01666
G1 X63.177 Y104.323 E4.03332
G1 X63.177 Y101.277 E4.16428
G1 X65.823 Y101.277 E4.27804
G1 X65.823 Y101.617 E4.29266
G1 X66.280 Y101.220 F7800.000
G1 F2160.000
G1 X87.280 Y101.220 E4.98602
G1 X87.280 Y104.780 E5.10356
G1 X62.720 Y104.780 E5.91447
G1 X62.720 Y100.820 E6.04522
G1 X66.280 Y100.820 E6.16276
G1 X66.280 Y101.160 E6.17398
G1 E4.17398 F2400.00000
G92 E0
G1 X63.895 Y104.007 F7800.000
G1 E2.00000 F2400.00000
G1 F1800.000
G1 X63.493 Y103.605 E2.02455
G1 X63.493 Y102.871 E2.05623
G1 X64.629 Y104.007 E2.12559
G1 X65.363 Y104.007 E2.15727
G1 X63.493 Y102.137 E2.27143
G1 X63.493 Y101.593 E2.29489
G1 X63.684 Y101.593 E2.30311
G1 X66.098 Y104.007 E2.45044
G1 X66.832 Y104.007 E2.48212
G1 X64.418 Y101.593 E2.62946
G1 X65.105 Y101.593 E2.65911
G1 X65.105 Y101.993 E2.67638
G1 X65.552 Y101.993 E2.69566
G1 X67.566 Y104.007 E2.81858
G1 X68.300 Y104.007 E2.85026
G1 X66.286 Y101.993 E2.97318
G1 X67.020 Y101.993 E3.00486
G1 X69.034 Y104.007 E3.12778
G1 X69.768 Y104.007 E3.15946
G1 X67.754 Y101.993 E3.28238
G1 X68.488 Y101.993 E3.31406
G1 X70.502 Y104.007 E3.43698
G1 X71.236 Y104.007 E3.46866
G1 X69.222 Y101.993 E3.59158
G1 X69.956 Y101.993 E3.62326
G1 X71.970 Y104.007 E3.74618
G1 X72.704 Y104.007 E3.77786
G1 X70.690 Y101.993 E3.90078
G1 X71.424 Y101.993 E3.93246
G1 X73.438 Y104.007 E4.05538
G1 X74.172 Y104.007 E4.08706
G1 X72.158 Y101.993 E4.20998
G1 X72.892 Y101.993 E4.24166
G1 X74.906 Y104.007 E4.36458
G1 X75.640 Y104.007 E4.39626
G1 X73.626 Y101.993 E4.51918
G1 X74.360 Y101.993 E4.55086
G1 X76.374 Y104.007 E4.67378
G1 X77.108 Y104.007 E4.70546
G1 X75.094 Y101.993 E4.82838
G1 X75.828 Y101.993 E4.86006
G1 X77.842 Y104.007 E4.98298
G1 X78.576 Y104.007 E5.01466
G1 X76.562 Y101.993 E5.13758
G1 X77.296 Y101.993 E5.16926
G1 X79.310 Y104.007 E5.29218
G1 X80.044 Y104.007 E5.32386
G1 X78.030 Y101.993 E5.44678
G1 X78.764 Y101.993 E5.47846
G1 X80.778 Y104.007 E5.60138
G1 X81.512 Y104.007 E5.63306
G1 X79.498 Y101.993 E5.75598
G1 X80.232 Y101.993 E5.78766
G1 X82.246 Y104.007 E5.91058
G1 X82.980 Y104.007 E5.94226
G1 X80.966 Y101.993 E6.06518
G1 X81.700 Y101.993 E6.09686
G1 X83.714 Y104.007 E6.21978
G1 X84.448 Y104.007 E6.25146
G1 X82.434 Y101.993 E6.37438
G1 X83.168 Y101.993 E6.40606
G1 X85.182 Y104.007 E6.52898
G1 X85.916 Y104.007 E6.56066
G1 X83.903 Y101.993 E6.68358
G1 X84.637 Y101.993 E6.71526
G1 X86.507 Y103.863 E6.82942
G1 X86.507 Y103.129 E6.86110
G1 X85.371 Y101.993 E6.93046
G1 X86.105 Y101.993 E6.96214
G1 X86.507 Y102.395 E6.98669
G1 E4.98669 F2400.00000
G92 E0
G1 X65.823 Y48.323 F7800.000
G1 E2.00000 F2400.00000
G1 F2400.000
G1 X65.823 Y48.723 E2.01720
G1 X63.177 Y48.723 E2.13096
G1 X63.177 Y45.677 E2.26191
G1 X86.823 Y45.677 E3.27858
G1 X86.823 Y48.323 E3.39233
G1 X65.883 Y48.323 E4.29266
G1 X66.280 Y48.780 F7800.000
G1 F2160.000
G1 X66.280 Y49.180 E4.30586
G1 X62.720 Y49.180 E4.42341
G1 X62.720 Y45.220 E4.55415
G1 X87.280 Y45.220 E5.36506
G1 X87.280 Y48.780 E5.48260
G1 X66.340 Y48.780 E6.17398
G1 E4.17398 F2400.00000
G92 E0
G1 X63.895 Y48.407 F7800.000
G1 E2.00000 F2400.00000
G1 F1800.000
G1 X63.493 Y48.005 E2.02495
G1 X63.493 Y47.258 E2.05769
G1 X64.642 Y48.407 E2.12895
G1 X65.388 Y48.407 E2.16168
G1 X63.493 Y46.512 E2.27923
G1 X63.493 Y45.993 E2.30201
G1 X63.720 Y45.993 E2.31197
G1 X65.734 Y48.007 E2.43692
G1 X66.480 Y48.007 E2.46965
G1 X64.466 Y45.993 E2.59460
G1 X65.212 Y45.993 E2.62734
G1 X67.226 Y48.007 E2.75228
G1 X67.972 Y48.007 E2.78502
G1 X65.958 Y45.993 E2.90997
G1 X66.705 Y45.993 E2.94270
G1 X68.718 Y48.007 E3.06765
G1 X69.465 Y48.007 E3.10039
G1 X67.451 Y45.993 E3.22534
G1 X68.197 Y45.993 E3.25807
G1 X70.211 Y48.007 E3.38302
G1 X70.957 Y48.007 E3.41576
G1 X68.943 Y45.993 E3.54071
G1 X69.689 Y45.993 E3.57344
G1 X71.703 Y48.007 E3.69839
G1 X72.449 Y48.007 E3.73113
G1 X70.435 Y45.993 E3.85608
G1 X71.182 Y45.993 E3.88881
G1 X73.195 Y48.007 E4.01376
G1 X73.942 Y48.007 E4.04650
G1 X71.928 Y45.993 E4.17145
G1 X72.674 Y45.993 E4.20418
G1 X74.688 Y48.007 E4.32913
G1 X75.434 Y48.007 E4.36187
G1 X73.420 Y45.993 E4.48682
G1 X74.166 Y45.993 E4.51955
G1 X76.180 Y48.007 E4.64450
G1 X76.926 Y48.007 E4.67723
G1 X74.912 Y45.993 E4.80218
G1 X75.658 Y45.993 E4.83492
G1 X77.672 Y48.007 E4.95987
G1 X78.419 Y48.007 E4.99260
G1 X76.405 Y45.993 E5.11755
G1 X77.151 Y45.993 E5.15029
G1 X79.165 Y48.007 E5.27524
G1 X79.911 Y48.007 E5.30797
G1 X77.897 Y45.993 E5.43292
G1 X78.643 Y45.993 E5.46566
G1 X80.657 Y48.007 E5.59061
G1 X81.403 Y48.007 E5.62334
G1 X79.389 Y45.993 E5.74829
G1 X80.135 Y45.993 E5.78103
G1 X82.149 Y48.007 E5.90598
G1 X82.895 Y48.007 E5.93871
G1 X80.882 Y45.993 E6.06366
G1 X81.628 Y45.993 E6.09640
G1 X83.642 Y48.007 E6.22135
G1 X84.388 Y48.007 E6.25408
G1 X82.374 Y45.993 E6.37903
G1 X83.120 Y45.993 E6.41177
G1 X85.134 Y48.007 E6.53671
G1 X85.880 Y48.007 E6.56945
G1 X83.866 Y45.993 E6.69440
G1 X84.612 Y45.993 E6.72713
G1 X86.507 Y47.888 E6.84468
G1 X86.507 Y47.142 E6.87742
G1 X85.358 Y45.993 E6.94867
G1 X86.105 Y45.993 E6.98141
G1 X86.507 Y46.395 E7.00637
G1 Z0.700 F7800.000
G1 E5.00637 F2400.00000
G92 E0
G1 X65.823 Y101.677 F7800.000
G1 E2.00000 F2400.00000
G1 F2400.000
G1 X86.823 Y101.677 E2.90290
G1 X86.823 Y104.323 E3.01666
G1 X63.177 Y104.323 E4.03332
G1 X63.177 Y101.077 E4.17288
G1 X65.823 Y101.077 E4.28664
G1 X65.823 Y101.617 E4.30986
G1 X66.280 Y101.220 F7800.000
G1 F2160.000
G1 X87.280 Y101.220 E5.00322
G1 X87.280 Y104.780 E5.12076
G1 X62.720 Y104.780 E5.93167
G1 X62.720 Y100.620 E6.06902
G1 X66.280 Y100.620 E6.18656
G1 X66.280 Y101.160 E6.20439
G1 E4.20439 F2400.00000
G92 E0
G1 X63.493 Y101.795 F7800.000
G1 E2.00000 F2400.00000
G1 F1800.000
G1 X63.895 Y101.393 E2.02516
G1 X64.648 Y101.393 E2.05842
G1 X63.493 Y102.548 E2.13064
G1 X63.493 Y103.300 E2.16391
G1 X65.400 Y101.393 E2.28317
G1 X65.507 Y101.393 E2.28791
G1 X65.507 Y101.993 E2.31445
G1 X65.552 Y101.993 E2.31644
