; generated by Slic3r 1.3.1-dev (Build (Unknown revision)) on 2020-03-04 at 15:10:39

; external perimeters extrusion width = 0.55mm (4.37mm^3/s)
; perimeters extrusion width = 0.70mm (11.44mm^3/s)
; infill extrusion width = 0.62mm (13.45mm^3/s)
; solid infill extrusion width = 0.70mm (3.81mm^3/s)
; top infill extrusion width = 0.70mm (2.86mm^3/s)

M107
G92 E0
M104 S200 ; set temperature
G28 ; home all axes
G1 Z5 F5000 ; lift nozzle

; Filament gcode

M109 S200 ; set temperature and wait for it to be reached
G21 ; set units to millimeters
G90 ; use absolute coordinates
M82 ; use absolute distances for extrusion
G92 E0
G1 Z0.350 F7800.000
G1 E-2.00000 F2400.00000
G92 E0
G1 X80.174 Y85.181 F7800.000
G1 E2.00000 F2400.00000
G1 F1800.000
G1 X80.357 Y85.009 E2.00777
G1 X81.202 Y84.331 E2.04128
G1 X82.124 Y83.765 E2.07478
G1 X83.110 Y83.318 E2.10828
G1 X83.899 Y83.061 E2.13396
G1 X91.823 Y81.024 E2.38709
G1 X92.322 Y80.916 E2.40289
G1 X113.988 Y77.096 E3.08360
G1 X116.281 Y77.095 E3.15457
G1 X118.438 Y77.875 E3.22553
G1 X120.199 Y79.345 E3.29649
G1 X121.353 Y81.326 E3.36745
G1 X121.663 Y82.470 E3.40410
G1 X122.357 Y86.409 E3.52787
G1 X122.358 Y88.703 E3.59883
G1 X121.578 Y90.859 E3.66979
G1 X120.612 Y92.147 E3.71961
G1 X92.946 Y120.968 E4.95571
G1 X91.096 Y122.322 E5.02668
G1 X88.167 Y123.005 E5.11972
G1 X84.167 Y123.005 E5.24348
G1 X81.908 Y122.608 E5.31445
G1 X79.920 Y121.464 E5.38541
G1 X78.441 Y119.712 E5.45637
G1 X77.648 Y117.560 E5.52733
G1 X77.542 Y116.380 E5.56398
G1 X77.542 Y91.380 E6.33752
G1 X77.571 Y90.713 E6.35816
G1 X77.722 Y89.641 E6.39167
G1 X77.929 Y88.835 E6.41741
G1 X78.313 Y87.823 E6.45091
G1 X78.420 Y87.596 E6.45868
G1 X78.956 Y86.654 E6.49218
G1 X79.445 Y85.981 E6.51792
G1 X80.123 Y85.236 E6.54910
G1 E4.54910 F2400.00000
G92 E0
G1 X86.567 Y91.691 F7800.000
G1 E2.00000 F2400.00000
G1 F1800.000
G1 X86.567 Y114.780 E2.71442
G1 X85.767 Y114.780 E2.73918
G1 X85.767 Y91.430 E3.46166
G1 X85.798 Y91.234 E3.46781
G1 X85.878 Y91.108 E3.47242
G1 X86.040 Y91.004 E3.47838
G1 X94.545 Y88.876 E3.74966
G1 X113.841 Y85.474 E4.35590
G1 X113.980 Y86.262 E4.38066
G1 X94.501 Y89.696 E4.99265
G1 X86.640 Y91.672 E5.24345
G1 X87.192 Y92.178 F7800.000
G1 F1800.000
G1 X87.192 Y115.405 E5.96212
G1 X85.142 Y115.405 E6.02556
G1 X85.142 Y91.410 E6.76798
G1 X85.152 Y91.252 E6.77291
G1 X85.216 Y91.003 E6.78084
G1 X85.339 Y90.778 E6.78878
G1 X85.421 Y90.679 E6.79275
G1 X85.619 Y90.516 E6.80069
G1 X85.848 Y90.408 E6.80853
G1 X94.415 Y88.264 E7.08177
G1 X114.348 Y84.750 E7.70803
G1 X114.704 Y86.769 E7.77146
G1 X94.632 Y90.308 E8.40209
G1 X87.265 Y92.160 E8.63712
G1 X87.817 Y92.665 F7800.000
G1 F1800.000
G1 X87.817 Y116.030 E9.36005
G1 X84.517 Y116.030 E9.46216
G1 X84.517 Y91.391 E10.22452
G1 X84.531 Y91.173 E10.23127
G1 X84.570 Y90.970 E10.23768
G1 X84.634 Y90.773 E10.24409
G1 X84.722 Y90.585 E10.25050
G1 X84.833 Y90.410 E10.25691
G1 X84.965 Y90.251 E10.26331
G1 X85.116 Y90.109 E10.26972
G1 X85.283 Y89.987 E10.27613
G1 X85.465 Y89.887 E10.28254
G1 X85.656 Y89.812 E10.28892
G1 X93.883 Y87.753 E10.55130
G1 X93.878 Y87.724 E10.55221
G1 X114.854 Y84.026 E11.21126
G1 X115.427 Y87.276 E11.31337
G1 X94.762 Y90.919 E11.96263
G1 X87.890 Y92.647 E12.18189
G1 X87.318 Y92.697 F7800.000
G1 E10.18189 F2400.00000
G92 E0
G1 X86.178 Y91.390 F7800.000
G1 E2.00000 F2400.00000
G1 F1800.000
G1 X94.629 Y89.268 E2.05005
G1 X113.602 Y85.922 E2.16073
G1 E0.16073 F2400.00000
G92 E0
G1 X86.130 Y91.305 F7800.000
G1 E2.00000 F2400.00000
G1 F1800.000
G1 X86.178 Y91.390 E2.00037
G1 X86.167 Y114.468 E2.08684
G1 Z0.650 F7800.000
G1 X86.696 Y91.791 F7800.000
G1 F3600.000
G1 X86.696 Y114.909 E2.71048
G1 X85.638 Y114.909 E2.73901
G1 X85.638 Y91.426 E3.37248
G1 X85.678 Y91.186 E3.37904
G1 X85.784 Y91.020 E3.38436
G1 X85.885 Y90.936 E3.38791
G1 X86.000 Y90.881 E3.39135
G1 X94.518 Y88.750 E3.62822
G1 X113.945 Y85.325 E4.16036
G1 X114.129 Y86.366 E4.18889
G1 X94.528 Y89.822 E4.72580
G1 X86.769 Y91.773 E4.94163
G1 X87.331 Y92.286 F7800.000
G1 F3600.000
G1 X87.331 Y115.544 E5.56905
G1 X85.003 Y115.544 E5.63187
G1 X85.003 Y91.406 E6.28303
G1 X85.014 Y91.234 E6.28768
G1 X85.086 Y90.952 E6.29554
G1 X85.148 Y90.820 E6.29948
G1 X85.320 Y90.584 E6.30734
G1 X85.544 Y90.398 E6.31521
G1 X85.805 Y90.275 E6.32300
G1 X94.386 Y88.128 E6.56161
G1 X114.460 Y84.588 E7.11150
G1 X114.865 Y86.882 E7.17433
G1 X94.661 Y90.444 E7.72776
G1 X87.404 Y92.268 E7.92962
G1 X87.892 Y92.724 F7800.000
G1 F1800.000
G1 X87.892 Y116.105 E8.41151
G1 X84.442 Y116.105 E8.48261
G1 X84.442 Y91.388 E8.99203
G1 X84.456 Y91.164 E8.99667
G1 X84.497 Y90.951 E9.00113
G1 X84.564 Y90.745 E9.00560
G1 X84.656 Y90.549 E9.01006
G1 X84.772 Y90.366 E9.01452
G1 X84.910 Y90.199 E9.01899
G1 X85.068 Y90.051 E9.02345
G1 X85.243 Y89.924 E9.02791
G1 X85.433 Y89.819 E9.03238
G1 X85.633 Y89.740 E9.03682
G1 X93.797 Y87.697 E9.21026
G1 X93.791 Y87.664 E9.21097
G1 X114.915 Y83.939 E9.65306
G1 X115.514 Y87.336 E9.72417
G1 X94.778 Y90.993 E10.15814
G1 X87.965 Y92.705 E10.30293
G1 X87.393 Y92.756 F7800.000
G1 X86.327 Y91.341 F7800.000
G1 F1200.000
G1 X94.629 Y89.268 E10.43053
G1 X113.724 Y85.901 E10.71969
G1 X86.327 Y91.341 F7800.000
G1 F1200.000
G1 X86.192 Y91.402 E10.72222
G1 X86.179 Y91.391 E10.72251
G1 F1200.000
G1 X86.162 Y91.373 E10.72287
G1 F1200.000
G1 X86.089 Y91.188 E10.72528
G1 X86.192 Y91.402 F7800.000
G1 F1200.000
G1 X86.167 Y91.543 E10.72773
G1 X86.167 Y114.591 E11.12153
G1 Z0.950 F7800.000
G1 X86.696 Y91.791 F7800.000
G1 F3600.000
G1 X86.696 Y114.909 E11.74517
G1 X85.638 Y114.909 E11.77370
G1 X85.638 Y91.426 E12.40717
G1 X85.678 Y91.186 E12.41373
G1 X85.784 Y91.020 E12.41905
G1 X85.885 Y90.936 E12.42260
G1 X86.000 Y90.881 E12.42604
G1 X94.518 Y88.750 E12.66291
G1 X113.945 Y85.325 E13.19505
G1 X114.129 Y86.366 E13.22358
G1 X94.528 Y89.822 E13.76049
G1 X86.769 Y91.773 E13.97632
G1 X87.331 Y92.286 F7800.000
G1 F3600.000
G1 X87.331 Y115.544 E14.60373
G1 X85.003 Y115.544 E14.66656
G1 X85.003 Y91.406 E15.31772
G1 X85.014 Y91.234 E15.32237
G1 X85.086 Y90.952 E15.33023
G1 X85.148 Y90.820 E15.33417
G1 X85.320 Y90.584 E15.34203
G1 X85.544 Y90.398 E15.34989
G1 X85.805 Y90.275 E15.35769
G1 X94.386 Y88.128 E15.59630
G1 X114.460 Y84.588 E16.14619
G1 X114.865 Y86.882 E16.20901
G1 X94.661 Y90.444 E16.76245
G1 X87.404 Y92.268 E16.96430
G1 X87.892 Y92.724 F7800.000
G1 F1800.000
G1 X87.892 Y116.105 E17.44620
G1 X84.442 Y116.105 E17.51730
G1 X84.442 Y91.388 E18.02672
G1 X84.456 Y91.164 E18.03136
G1 X84.497 Y90.951 E18.03582
G1 X84.564 Y90.745 E18.04028
G1 X84.656 Y90.549 E18.04475
G1 X84.772 Y90.366 E18.04921
G1 X84.910 Y90.199 E18.05367
G1 X85.068 Y90.051 E18.05814
G1 X85.243 Y89.924 E18.06260
G1 X85.433 Y89.819 E18.06706
G1 X85.633 Y89.740 E18.07151
G1 X93.797 Y87.697 E18.24495
G1 X93.791 Y87.664 E18.24566
G1 X114.915 Y83.939 E18.68775
G1 X115.514 Y87.336 E18.75886
G1 X94.778 Y90.993 E19.19283
G1 X87.965 Y92.705 E19.33762
G1 X87.393 Y92.756 F7800.000
G1 X86.327 Y91.341 F7800.000
G1 F1200.000
G1 X94.629 Y89.268 E19.46522
G1 X113.724 Y85.901 E19.75438
G1 X86.327 Y91.341 F7800.000
G1 F1200.000
G1 X86.192 Y91.402 E19.75691
G1 X86.179 Y91.391 E19.75720
G1 F1200.000
G1 X86.162 Y91.373 E19.75755
G1 F1200.000
G1 X86.089 Y91.188 E19.75996
G1 X86.192 Y91.402 F7800.000
G1 F1200.000
G1 X86.167 Y91.543 E19.76242
G1 X86.167 Y114.591 E20.15622
M106 S239.7
G1 Z1.250 F7800.000
G1 X86.696 Y91.791 F7800.000
G1 F3600.000
G1 X86.696 Y114.909 E20.77986
G1 X85.638 Y114.909 E20.80839
G1 X85.638 Y91.426 E21.44186
G1 X85.678 Y91.186 E21.44842
G1 X85.784 Y91.020 E21.45374
G1 X85.885 Y90.936 E21.45729
G1 X86.000 Y90.881 E21.46073
G1 X94.518 Y88.750 E21.69760
G1 X113.945 Y85.325 E22.22974
G1 X114.129 Y86.366 E22.25827
G1 X94.528 Y89.822 E22.79518
G1 X86.769 Y91.773 E23.01101
G1 X87.331 Y92.286 F7800.000
G1 F3600.000
G1 X87.331 Y115.544 E23.63842
G1 X85.003 Y115.544 E23.70125
G1 X85.003 Y91.406 E24.35241
G1 X85.014 Y91.234 E24.35706
G1 X85.086 Y90.952 E24.36492
G1 X85.226 Y90.696 E24.37278
G1 X85.320 Y90.584 E24.37672
G1 X85.544 Y90.398 E24.38458
G1 X85.805 Y90.275 E24.39238
G1 X94.386 Y88.128 E24.63099
G1 X114.460 Y84.588 E25.18088
G1 X114.865 Y86.882 E25.24370
G1 X94.661 Y90.444 E25.79714
G1 X87.404 Y92.268 E25.99899
G1 X87.892 Y92.724 F7800.000
G1 F1800.000
G1 X87.892 Y116.105 E26.48089
G1 X84.442 Y116.105 E26.55199
G1 X84.442 Y91.388 E27.06141
G1 X84.456 Y91.164 E27.06605
G1 X84.497 Y90.951 E27.07051
G1 X84.564 Y90.745 E27.07497
G1 X84.656 Y90.549 E27.07944
G1 X84.772 Y90.366 E27.08390
G1 X84.910 Y90.199 E27.08836
G1 X85.068 Y90.051 E27.09283
G1 X85.243 Y89.924 E27.09729
G1 X85.433 Y89.819 E27.10175
G1 X85.633 Y89.740 E27.10620
G1 X93.797 Y87.697 E27.27964
G1 X93.791 Y87.664 E27.28035
G1 X114.915 Y83.939 E27.72244
G1 X115.514 Y87.336 E27.79355
G1 X94.778 Y90.993 E28.22752
G1 X87.965 Y92.705 E28.37231
G1 X87.393 Y92.756 F7800.000
G1 X86.327 Y91.341 F7800.000
G1 F1200.000
G1 X94.629 Y89.268 E28.49991
G1 X113.724 Y85.901 E28.78907
G1 X86.327 Y91.341 F7800.000
G1 F1200.000
G1 X86.192 Y91.402 E28.79160
G1 X86.179 Y91.391 E28.79189
G1 F1200.000
G1 X86.162 Y91.373 E28.79225
G1 F1200.000
G1 X86.089 Y91.188 E28.79465
G1 X86.192 Y91.402 F7800.000
G1 F1200.000
G1 X86.167 Y91.543 E28.79711
G1 X86.167 Y114.591 E29.19091
G1 Z1.550 F7800.000
G1 X86.696 Y91.791 F7800.000
G1 F3600.000
G1 X86.696 Y114.909 E29.81455
G1 X85.638 Y114.909 E29.84307
G1 X85.638 Y91.426 E30.47655
G1 X85.678 Y91.186 E30.48311
G1 X85.784 Y91.020 E30.48843
G1 X85.885 Y90.936 E30.49198
G1 X86.000 Y90.881 E30.49542
G1 X94.518 Y88.750 E30.73229
G1 X113.945 Y85.325 E31.26443
G1 X114.129 Y86.366 E31.29296
G1 X94.528 Y89.822 E31.82986
G1 X86.769 Y91.773 E32.04570
G1 X87.331 Y92.286 F7800.000
G1 F3600.000
G1 X87.331 Y115.544 E32.67311
G1 X85.003 Y115.544 E32.73594
G1 X85.003 Y91.406 E33.38710
G1 X85.014 Y91.234 E33.39175
G1 X85.086 Y90.952 E33.39961
G1 X85.148 Y90.820 E33.40355
G1 X85.320 Y90.584 E33.41141
G1 X85.544 Y90.398 E33.41927
G1 X85.805 Y90.275 E33.42707
G1 X94.386 Y88.128 E33.66568
G1 X114.460 Y84.588 E34.21557
G1 X114.865 Y86.882 E34.27839
G1 X94.661 Y90.444 E34.83183
G1 X87.404 Y92.268 E35.03368
G1 X87.892 Y92.724 F7800.000
G1 F1800.000
G1 X87.892 Y116.105 E35.51558
G1 X84.442 Y116.105 E35.58668
G1 X84.442 Y91.388 E36.09609
G1 X84.456 Y91.164 E36.10074
G1 X84.497 Y90.951 E36.10520
G1 X84.564 Y90.745 E36.10966
G1 X84.656 Y90.549 E36.11413
G1 X84.772 Y90.366 E36.11859
G1 X84.910 Y90.199 E36.12305
G1 X85.068 Y90.051 E36.12752
G1 X85.243 Y89.924 E36.13198
G1 X85.433 Y89.819 E36.13644
G1 X85.633 Y89.740 E36.14089
G1 X93.797 Y87.697 E36.31433
G1 X93.791 Y87.664 E36.31504
G1 X114.915 Y83.939 E36.75713
G1 X115.514 Y87.336 E36.82824
G1 X94.778 Y90.993 E37.26221
G1 X87.965 Y92.705 E37.40700
G1 X87.393 Y92.756 F7800.000
G1 X86.327 Y91.341 F7800.000
G1 F1200.000
G1 X94.629 Y89.268 E37.53460
G1 X113.724 Y85.901 E37.82376
G1 X86.327 Y91.341 F7800.000
G1 F1200.000
G1 X86.192 Y91.402 E37.82629
G1 X86.179 Y91.391 E37.82658
G1 F1200.000
G1 X86.162 Y91.373 E37.82693
G1 F1200.000
G1 X86.089 Y91.188 E37.82934
G1 X86.192 Y91.402 F7800.000
G1 F1200.000
G1 X86.167 Y91.543 E37.83180
G1 X86.167 Y114.591 E38.22560
G1 Z1.850 F7800.000
G1 X86.696 Y91.791 F7800.000
G1 F3600.000
G1 X86.696 Y114.909 E38.84924
G1 X85.638 Y114.909 E38.87776
G1 X85.638 Y91.426 E39.51124
G1 X85.678 Y91.186 E39.51780
G1 X85.784 Y91.020 E39.52312
G1 X85.885 Y90.936 E39.52667
G1 X86.000 Y90.881 E39.53011
G1 X94.518 Y88.750 E39.76698
G1 X113.945 Y85.325 E40.29912
G1 X114.129 Y86.366 E40.32765
G1 X94.528 Y89.822 E40.86455
G1 X86.769 Y91.773 E41.08039
G1 X87.331 Y92.286 F7800.000
G1 F3600.000
G1 X87.331 Y115.544 E41.70780
G1 X85.003 Y115.544 E41.77063
G1 X85.003 Y91.406 E42.42179
G1 X85.014 Y91.234 E42.42644
G1 X85.086 Y90.952 E42.43430
G1 X85.226 Y90.696 E42.44216
G1 X85.320 Y90.584 E42.44610
G1 X85.544 Y90.398 E42.45396
G1 X85.805 Y90.275 E42.46176
G1 X94.386 Y88.128 E42.70037
G1 X114.460 Y84.588 E43.25026
G1 X114.865 Y86.882 E43.31308
G1 X94.661 Y90.444 E43.86652
G1 X87.404 Y92.268 E44.06837
G1 X87.892 Y92.724 F7800.000
G1 F1800.000
G1 X87.892 Y116.105 E44.55027
G1 X84.442 Y116.105 E44.62137
G1 X84.442 Y91.388 E45.13078
G1 X84.456 Y91.164 E45.13543
G1 X84.497 Y90.951 E45.13989
G1 X84.564 Y90.745 E45.14435
G1 X84.656 Y90.549 E45.14882
G1 X84.772 Y90.366 E45.15328
G1 X84.910 Y90.199 E45.15774
G1 X85.068 Y90.051 E45.16221
G1 X85.243 Y89.924 E45.16667
G1 X85.433 Y89.819 E45.17113
G1 X85.633 Y89.740 E45.17558
G1 X93.797 Y87.697 E45.34902
G1 X93.791 Y87.664 E45.34973
G1 X114.915 Y83.939 E45.79182
G1 X115.514 Y87.336 E45.86293
G1 X94.778 Y90.993 E46.29690
G1 X87.965 Y92.705 E46.44169
G1 X87.393 Y92.756 F7800.000
G1 X86.327 Y91.341 F7800.000
G1 F1200.000
G1 X94.629 Y89.268 E46.56929
G1 X113.724 Y85.901 E46.85845
G1 X86.327 Y91.341 F7800.000
G1 F1200.000
G1 X86.192 Y91.402 E46.86098
G1 X86.179 Y91.391 E46.86127
G1 F1200.000
G1 X86.162 Y91.373 E46.86162
G1 F1200.000
G1 X86.089 Y91.188 E46.86403
G1 X86.192 Y91.402 F7800.000
G1 F1200.000
G1 X86.167 Y91.543 E46.86649
G1 X86.167 Y114.591 E47.26029
G1 Z2.150 F7800.000
G1 X86.696 Y91.791 F7800.000
G1 F3600.000
G1 X86.696 Y114.909 E47.88393
G1 X85.638 Y114.909 E47.91245
G1 X85.638 Y91.426 E48.54593
G1 X85.678 Y91.186 E48.55249
G1 X85.784 Y91.020 E48.55781
G1 X85.885 Y90.936 E48.56136
G1 X86.000 Y90.881 E48.56479
G1 X94.518 Y88.750 E48.80167
G1 X113.945 Y85.325 E49.33381
G1 X114.129 Y86.366 E49.36234
G1 X94.528 Y89.822 E49.89924
G1 X86.769 Y91.773 E50.11508
G1 X87.331 Y92.286 F7800.000
G1 F3600.000
G1 X87.331 Y115.544 E50.74249
G1 X85.003 Y115.544 E50.80531
G1 X85.003 Y91.406 E51.45648
G1 X85.014 Y91.234 E51.46113
G1 X85.086 Y90.952 E51.46899
G1 X85.226 Y90.696 E51.47685
G1 X85.320 Y90.584 E51.48079
G1 X85.544 Y90.398 E51.48865
G1 X85.805 Y90.275 E51.49645
G1 X94.386 Y88.128 E51.73505
G1 X114.460 Y84.588 E52.28495
G1 X114.865 Y86.882 E52.34777
G1 X94.661 Y90.444 E52.90121
G1 X87.404 Y92.268 E53.10306
G1 X87.892 Y92.724 F7800.000
G1 F1800.000
G1 X87.892 Y116.105 E53.58496
G1 X84.442 Y116.105 E53.65606
G1 X84.442 Y91.388 E54.16547
G1 X84.456 Y91.164 E54.17012
G1 X84.497 Y90.951 E54.17458
G1 X84.564 Y90.745 E54.17904
G1 X84.656 Y90.549 E54.18351
G1 X84.772 Y90.366 E54.18797
G1 X84.910 Y90.199 E54.19243
G1 X85.068 Y90.051 E54.19690
G1 X85.243 Y89.924 E54.20136
G1 X85.433 Y89.819 E54.20582
G1 X85.633 Y89.740 E54.21027
G1 X93.797 Y87.697 E54.38371
G1 X93.791 Y87.664 E54.38442
G1 X114.915 Y83.939 E54.82651
G1 X115.514 Y87.336 E54.89762
G1 X94.778 Y90.993 E55.33159
G1 X87.965 Y92.705 E55.47638
G1 X87.393 Y92.756 F7800.000
G1 X86.327 Y91.341 F7800.000
G1 F1200.000
G1 X94.629 Y89.268 E55.60398
G1 X113.724 Y85.901 E55.89314
G1 X86.327 Y91.341 F7800.000
G1 F1200.000
G1 X86.192 Y91.402 E55.89566
G1 X86.179 Y91.391 E55.89596
G1 F1200.000
G1 X86.162 Y91.373 E55.89631
G1 F1200.000
G1 X86.089 Y91.188 E55.89872
G1 X86.192 Y91.402 F7800.000
G1 F1200.000
G1 X86.167 Y91.543 E55.90118
G1 X86.167 Y114.591 E56.29498
G1 Z2.450 F7800.000
G1 X86.696 Y91.791 F7800.000
G1 F3600.000
G1 X86.696 Y114.909 E56.91861
G1 X85.638 Y114.909 E56.94714
G1 X85.638 Y91.426 E57.58062
G1 X85.678 Y91.186 E57.58718
G1 X85.784 Y91.020 E57.59249
G1 X85.885 Y90.936 E57.59605
G1 X86.000 Y90.881 E57.59948
G1 X94.518 Y88.750 E57.83635
G1 X113.945 Y85.325 E58.36850
G1 X114.129 Y86.366 E58.39703
G1 X94.528 Y89.822 E58.93393
G1 X86.769 Y91.773 E59.14977
G1 X87.331 Y92.286 F7800.000
G1 F3600.000
G1 X87.331 Y115.544 E59.77718
G1 X85.003 Y115.544 E59.84000
G1 X85.003 Y91.406 E60.49117
G1 X85.014 Y91.234 E60.49581
G1 X85.086 Y90.952 E60.50368
G1 X85.226 Y90.696 E60.51154
G1 X85.320 Y90.584 E60.51548
G1 X85.544 Y90.398 E60.52334
G1 X85.805 Y90.275 E60.53113
G1 X94.386 Y88.128 E60.76974
G1 X114.460 Y84.588 E61.31964
G1 X114.865 Y86.882 E61.38246
G1 X94.661 Y90.444 E61.93590
G1 X87.404 Y92.268 E62.13775
G1 X87.892 Y92.724 F7800.000
G1 F1800.000
G1 X87.892 Y116.105 E62.61964
G1 X84.442 Y116.105 E62.69075
G1 X84.442 Y91.388 E63.20016
G1 X84.456 Y91.164 E63.20480
G1 X84.497 Y90.951 E63.20927
G1 X84.564 Y90.745 E63.21373
G1 X84.656 Y90.549 E63.21819
G1 X84.772 Y90.366 E63.22266
G1 X84.910 Y90.199 E63.22712
G1 X85.068 Y90.051 E63.23158
G1 X85.243 Y89.924 E63.23605
