; generated by Slic3r 1.3.1-dev (Build (Unknown revision)) on 2020-03-04 at 15:10:29

; external perimeters extrusion width = 0.55mm (4.37mm^3/s)
; perimeters extrusion width = 0.70mm (11.44mm^3/s)
; infill extrusion width = 0.62mm (13.45mm^3/s)
; solid infill extrusion width = 0.70mm (3.81mm^3/s)
; top infill extrusion width = 0.70mm (2.86mm^3/s)

M107
G92 E0
M104 S200 ; set temperature
G28 ; home all axes
G1 Z5 F5000 ; lift nozzle

; Filament gcode

M109 S200 ; set temperature and wait for it to be reached
G21 ; set units to millimeters
G90 ; use absolute coordinates
M82 ; use absolute distances for extrusion
G92 E0
G1 Z0.350 F7800.000
G1 E-2.00000 F2400.00000
G92 E0
G1 X82.415 Y65.753 F7800.000
G1 E2.00000 F2400.00000
G1 F1800.000
G1 X84.168 Y64.274 E2.07096
G1 X86.320 Y63.481 E2.14192
G1 X87.500 Y63.375 E2.17858
G1 X112.500 Y63.375 E2.95211
G1 X114.759 Y63.772 E3.02307
G1 X116.747 Y64.915 E3.09403
G1 X118.226 Y66.668 E3.16500
G1 X119.019 Y68.820 E3.23596
G1 X119.125 Y70.000 E3.27261
G1 X119.125 Y130.000 E5.12909
G1 X118.728 Y132.259 E5.20005
G1 X117.585 Y134.247 E5.27101
G1 X115.832 Y135.726 E5.34197
G1 X113.680 Y136.519 E5.41294
G1 X112.500 Y136.625 E5.44959
G1 X87.500 Y136.625 E6.22312
G1 X85.241 Y136.228 E6.29408
G1 X83.253 Y135.085 E6.36505
G1 X81.774 Y133.332 E6.43601
G1 X80.981 Y131.180 E6.50697
G1 X80.875 Y130.000 E6.54362
G1 X80.875 Y70.000 E8.40010
G1 X81.272 Y67.741 E8.47106
G1 X82.378 Y65.818 E8.53970
G1 E6.53970 F2400.00000
G92 E0
G1 X110.900 Y128.400 F7800.000
G1 E2.00000 F2400.00000
G1 F1800.000
G1 X89.100 Y128.400 E2.67453
G1 X89.100 Y127.425 E2.70472
G1 X89.900 Y127.425 E2.72948
G1 X89.900 Y127.600 E2.73490
G1 X110.900 Y127.600 E3.38467
G1 X110.900 Y128.325 E3.40711
G1 X111.525 Y129.025 F7800.000
G1 F1800.000
G1 X88.475 Y129.025 E4.12032
G1 X88.475 Y126.800 E4.18917
G1 X90.525 Y126.800 E4.25260
G1 X90.525 Y126.975 E4.25802
G1 X111.525 Y126.975 E4.90779
G1 X111.525 Y128.950 E4.96890
G1 X112.150 Y129.650 F7800.000
G1 F1800.000
G1 X87.850 Y129.650 E5.72078
G1 X87.850 Y126.175 E5.82830
G1 X91.150 Y126.175 E5.93040
G1 X91.150 Y126.350 E5.93582
G1 X112.150 Y126.350 E6.58559
G1 X112.150 Y129.575 E6.68537
G1 X111.651 Y129.624 F7800.000
G1 E4.68537 F2400.00000
G92 E0
G1 X110.588 Y128.000 F7800.000
G1 E2.00000 F2400.00000
G1 F1800.000
G1 X89.588 Y128.000 E2.10445
G1 X89.515 Y127.985 E2.10482
G1 X89.500 Y127.737 E2.10605
G1 E0.10605 F2400.00000
G92 E0
G1 X110.900 Y72.400 F7800.000
G1 E2.00000 F2400.00000
G1 F1800.000
G1 X89.900 Y72.400 E2.64977
G1 X89.900 Y72.575 E2.65518
G1 X89.100 Y72.575 E2.67995
G1 X89.100 Y71.600 E2.71013
G1 X110.900 Y71.600 E3.38467
G1 X110.900 Y72.325 E3.40711
G1 X111.525 Y73.025 F7800.000
G1 F1800.000
G1 X90.525 Y73.025 E4.05688
G1 X90.525 Y73.200 E4.06229
G1 X88.475 Y73.200 E4.12573
G1 X88.475 Y70.975 E4.19458
G1 X111.525 Y70.975 E4.90779
G1 X111.525 Y72.950 E4.96890
G1 X112.150 Y73.650 F7800.000
G1 F1800.000
G1 X91.150 Y73.650 E5.61867
G1 X91.150 Y73.825 E5.62408
G1 X87.850 Y73.825 E5.72619
G1 X87.850 Y70.350 E5.83371
G1 X112.150 Y70.350 E6.58559
G1 X112.150 Y73.575 E6.68537
G1 X111.651 Y73.628 F7800.000
G1 E4.68537 F2400.00000
G92 E0
G1 X110.588 Y72.000 F7800.000
G1 E2.00000 F2400.00000
G1 F1800.000
G1 X89.588 Y72.000 E2.10445
G1 X89.515 Y72.015 E2.10482
G1 X89.500 Y72.263 E2.10605
G1 Z0.650 F7800.000
G1 E0.10605 F2400.00000
G92 E0
G1 X90.029 Y127.471 F7800.000
G1 E2.00000 F2400.00000
G1 F3600.000
G1 X111.029 Y127.471 E2.56651
G1 X111.029 Y128.529 E2.59504
G1 X88.971 Y128.529 E3.19007
G1 X88.971 Y126.971 E3.23209
G1 X90.029 Y126.971 E3.26062
G1 X90.029 Y127.396 E3.27208
G1 X90.664 Y126.836 F7800.000
G1 F3600.000
G1 X111.664 Y126.836 E3.83859
G1 X111.664 Y129.164 E3.90141
G1 X88.336 Y129.164 E4.53074
G1 X88.336 Y126.336 E4.60705
G1 X90.664 Y126.336 E4.66987
G1 X90.664 Y126.761 E4.68134
G1 X91.225 Y126.275 F7800.000
G1 F1800.000
G1 X112.225 Y126.275 E5.11415
G1 X112.225 Y129.725 E5.18526
G1 X87.775 Y129.725 E5.68918
G1 X87.775 Y125.775 E5.77059
G1 X91.225 Y125.775 E5.84170
G1 X91.225 Y126.200 E5.85046
G1 X91.454 Y126.720 F7800.000
G1 X89.500 Y127.289 F7800.000
G1 F1200.000
G1 X89.500 Y127.789 E5.85804
G1 F1200.000
G1 X89.536 Y127.964 E5.86130
G1 X89.624 Y127.982 E5.86293
G1 F1200.000
G1 X89.711 Y128.000 E5.86428
G1 X110.711 Y128.000 E6.18293
G1 E4.18293 F2400.00000
G92 E0
G1 X90.029 Y72.529 F7800.000
G1 E2.00000 F2400.00000
G1 F3600.000
G1 X90.029 Y73.029 E2.01349
G1 X88.971 Y73.029 E2.04202
G1 X88.971 Y71.471 E2.08403
G1 X111.029 Y71.471 E2.67907
G1 X111.029 Y72.529 E2.70760
G1 X90.104 Y72.529 E3.27208
G1 X90.664 Y73.164 F7800.000
G1 F3600.000
G1 X90.664 Y73.664 E3.28557
G1 X88.336 Y73.664 E3.34839
G1 X88.336 Y70.836 E3.42470
G1 X111.664 Y70.836 E4.05403
G1 X111.664 Y73.164 E4.11685
G1 X90.739 Y73.164 E4.68134
G1 X91.225 Y73.725 F7800.000
G1 F1800.000
G1 X91.225 Y74.225 E4.69164
G1 X87.775 Y74.225 E4.76275
G1 X87.775 Y70.275 E4.84416
G1 X112.225 Y70.275 E5.34808
G1 X112.225 Y73.725 E5.41919
G1 X91.300 Y73.725 E5.85046
G1 X90.726 Y73.752 F7800.000
G1 X89.500 Y72.711 F7800.000
G1 F1200.000
G1 X89.500 Y72.211 E5.85804
G1 F1200.000
G1 X89.536 Y72.036 E5.86130
G1 X89.624 Y72.018 E5.86293
G1 F1200.000
G1 X89.711 Y72.000 E5.86428
G1 X110.711 Y72.000 E6.18293
G1 Z0.950 F7800.000
G1 E4.18293 F2400.00000
G92 E0
G1 X90.029 Y127.471 F7800.000
G1 E2.00000 F2400.00000
G1 F3600.000
G1 X111.029 Y127.471 E2.56651
G1 X111.029 Y128.529 E2.59504
G1 X88.971 Y128.529 E3.19007
G1 X88.971 Y126.671 E3.24018
G1 X90.029 Y126.671 E3.26871
G1 X90.029 Y127.396 E3.28827
G1 X90.664 Y126.836 F7800.000
G1 F3600.000
G1 X111.664 Y126.836 E3.85477
G1 X111.664 Y129.164 E3.91760
G1 X88.336 Y129.164 E4.54692
G1 X88.336 Y126.036 E4.63133
G1 X90.664 Y126.036 E4.69415
G1 X90.664 Y126.761 E4.71371
G1 X91.225 Y126.275 F7800.000
G1 F1800.000
G1 X112.225 Y126.275 E5.14652
G1 X112.225 Y129.725 E5.21763
G1 X87.775 Y129.725 E5.72155
G1 X87.775 Y125.475 E5.80915
G1 X91.225 Y125.475 E5.88025
G1 X91.225 Y126.200 E5.89519
G1 X91.441 Y126.726 F7800.000
G1 X89.500 Y126.989 F7800.000
G1 F1200.000
G1 X89.500 Y127.789 E5.90733
G1 F1200.000
G1 X89.536 Y127.964 E5.91059
G1 X89.624 Y127.982 E5.91222
G1 F1200.000
G1 X89.711 Y128.000 E5.91357
G1 X110.711 Y128.000 E6.23222
G1 E4.23222 F2400.00000
G92 E0
G1 X90.029 Y72.529 F7800.000
G1 E2.00000 F2400.00000
G1 F3600.000
G1 X90.029 Y73.329 E2.02158
G1 X88.971 Y73.329 E2.05011
G1 X88.971 Y71.471 E2.10022
G1 X111.029 Y71.471 E2.69525
G1 X111.029 Y72.529 E2.72378
G1 X90.104 Y72.529 E3.28827
G1 X90.664 Y73.164 F7800.000
G1 F3600.000
G1 X90.664 Y73.964 E3.30985
G1 X88.336 Y73.964 E3.37267
G1 X88.336 Y70.836 E3.45707
G1 X111.664 Y70.836 E4.08640
G1 X111.664 Y73.164 E4.14922
G1 X90.739 Y73.164 E4.71371
G1 X91.225 Y73.725 F7800.000
G1 F1800.000
G1 X91.225 Y74.525 E4.73020
G1 X87.775 Y74.525 E4.80130
G1 X87.775 Y70.275 E4.88890
G1 X112.225 Y70.275 E5.39282
G1 X112.225 Y73.725 E5.46392
G1 X91.300 Y73.725 E5.89519
G1 X90.726 Y73.752 F7800.000
G1 X89.500 Y73.011 F7800.000
G1 F1200.000
G1 X89.500 Y72.211 E5.90733
G1 F1200.000
G1 X89.536 Y72.036 E5.91059
G1 X89.624 Y72.018 E5.91222
G1 F1200.000
G1 X89.711 Y72.000 E5.91357
G1 X110.711 Y72.000 E6.23222
M106 S239.7
G1 Z1.250 F7800.000
G1 E4.23222 F2400.00000
G92 E0
G1 X90.029 Y127.471 F7800.000
G1 E2.00000 F2400.00000
G1 F3600.000
G1 X111.029 Y127.471 E2.56651
G1 X111.029 Y128.529 E2.59504
G1 X88.971 Y128.529 E3.19007
G1 X88.971 Y126.371 E3.24827
G1 X90.029 Y126.371 E3.27680
G1 X90.029 Y127.396 E3.30445
G1 X90.664 Y126.836 F7800.000
G1 F3600.000
G1 X111.664 Y126.836 E3.87096
G1 X111.664 Y129.164 E3.93378
G1 X88.336 Y129.164 E4.56311
G1 X88.336 Y125.736 E4.65561
G1 X90.664 Y125.736 E4.71843
G1 X90.664 Y126.761 E4.74608
G1 X91.225 Y126.275 F7800.000
G1 F1800.000
G1 X112.225 Y126.275 E5.17890
G1 X112.225 Y129.725 E5.25000
G1 X87.775 Y129.725 E5.75392
G1 X87.775 Y125.175 E5.84770
G1 X91.225 Y125.175 E5.91881
G1 X91.225 Y126.200 E5.93993
G1 X91.429 Y126.731 F7800.000
G1 X89.500 Y126.689 F7800.000
G1 F1200.000
G1 X89.500 Y127.789 E5.95662
G1 F1200.000
G1 X89.536 Y127.964 E5.95988
G1 X89.624 Y127.982 E5.96151
G1 F1200.000
G1 X89.711 Y128.000 E5.96286
G1 X110.711 Y128.000 E6.28151
G1 E4.28151 F2400.00000
G92 E0
G1 X90.029 Y72.529 F7800.000
G1 E2.00000 F2400.00000
G1 F3600.000
G1 X90.029 Y73.629 E2.02967
G1 X88.971 Y73.629 E2.05820
G1 X88.971 Y71.471 E2.11641
G1 X111.029 Y71.471 E2.71144
G1 X111.029 Y72.529 E2.73997
G1 X90.104 Y72.529 E3.30445
G1 X90.664 Y73.164 F7800.000
G1 F3600.000
G1 X90.664 Y74.264 E3.33413
G1 X88.336 Y74.264 E3.39695
G1 X88.336 Y70.836 E3.48944
G1 X111.664 Y70.836 E4.11877
G1 X111.664 Y73.164 E4.18160
G1 X90.739 Y73.164 E4.74608
G1 X91.225 Y73.725 F7800.000
G1 F1800.000
G1 X91.225 Y74.825 E4.76875
G1 X87.775 Y74.825 E4.83986
G1 X87.775 Y70.275 E4.93363
G1 X112.225 Y70.275 E5.43756
G1 X112.225 Y73.725 E5.50866
G1 X91.300 Y73.725 E5.93993
G1 X90.726 Y73.752 F7800.000
G1 X89.500 Y73.311 F7800.000
G1 F1200.000
G1 X89.500 Y72.211 E5.95662
G1 F1200.000
G1 X89.536 Y72.036 E5.95988
G1 X89.624 Y72.018 E5.96151
G1 F1200.000
G1 X89.711 Y72.000 E5.96286
G1 X110.711 Y72.000 E6.28151
G1 Z1.550 F7800.000
G1 E4.28151 F2400.00000
G92 E0
G1 X90.029 Y127.471 F7800.000
G1 E2.00000 F2400.00000
G1 F3600.000
G1 X111.029 Y127.471 E2.56651
G1 X111.029 Y128.529 E2.59504
G1 X88.971 Y128.529 E3.19007
G1 X88.971 Y126.071 E3.25637
G1 X90.029 Y126.071 E3.28489
G1 X90.029 Y127.396 E3.32064
G1 X90.664 Y126.836 F7800.000
G1 F3600.000
G1 X111.664 Y126.836 E3.88715
G1 X111.664 Y129.164 E3.94997
G1 X88.336 Y129.164 E4.57930
G1 X88.336 Y125.436 E4.67989
G1 X90.664 Y125.436 E4.74271
G1 X90.664 Y126.761 E4.77845
G1 X91.225 Y126.275 F7800.000
G1 F1800.000
G1 X112.225 Y126.275 E5.21127
G1 X112.225 Y129.725 E5.28237
G1 X87.775 Y129.725 E5.78630
G1 X87.775 Y124.875 E5.88626
G1 X91.225 Y124.875 E5.95736
G1 X91.225 Y126.200 E5.98467
G1 X91.417 Y126.736 F7800.000
G1 X89.500 Y126.389 F7800.000
G1 F1200.000
G1 X89.500 Y127.789 E6.00591
G1 F1200.000
G1 X89.536 Y127.964 E6.00917
G1 X89.624 Y127.982 E6.01080
G1 F1200.000
G1 X89.711 Y128.000 E6.01215
G1 X110.711 Y128.000 E6.33080
G1 E4.33080 F2400.00000
G92 E0
G1 X90.029 Y72.529 F7800.000
G1 E2.00000 F2400.00000
G1 F3600.000
G1 X90.029 Y73.929 E2.03777
G1 X88.971 Y73.929 E2.06630
G1 X88.971 Y71.471 E2.13259
G1 X111.029 Y71.471 E2.72763
G1 X111.029 Y72.529 E2.75615
G1 X90.104 Y72.529 E3.32064
G1 X90.664 Y73.164 F7800.000
G1 F3600.000
G1 X90.664 Y74.564 E3.35841
G1 X88.336 Y74.564 E3.42123
G1 X88.336 Y70.836 E3.52182
G1 X111.664 Y70.836 E4.15115
G1 X111.664 Y73.164 E4.21397
G1 X90.739 Y73.164 E4.77845
G1 X91.225 Y73.725 F7800.000
G1 F1800.000
G1 X91.225 Y75.125 E4.80731
G1 X87.775 Y75.125 E4.87841
G1 X87.775 Y70.275 E4.97837
G1 X112.225 Y70.275 E5.48229
G1 X112.225 Y73.725 E5.55340
G1 X91.300 Y73.725 E5.98467
G1 X90.726 Y73.752 F7800.000
G1 X89.500 Y73.611 F7800.000
G1 F1200.000
G1 X89.500 Y72.211 E6.00591
G1 F1200.000
G1 X89.536 Y72.036 E6.00917
G1 X89.624 Y72.018 E6.01080
G1 F1200.000
G1 X89.711 Y72.000 E6.01215
G1 X110.711 Y72.000 E6.33080
G1 Z1.850 F7800.000
G1 E4.33080 F2400.00000
G92 E0
G1 X90.029 Y127.471 F7800.000
G1 E2.00000 F2400.00000
G1 F3600.000
G1 X111.029 Y127.471 E2.56651
G1 X111.029 Y128.529 E2.59504
G1 X88.971 Y128.529 E3.19007
G1 X88.971 Y125.771 E3.26446
G1 X90.029 Y125.771 E3.29299
G1 X90.029 Y127.396 E3.33682
G1 X90.664 Y126.836 F7800.000
G1 F3600.000
G1 X111.664 Y126.836 E3.90333
G1 X111.664 Y129.164 E3.96615
G1 X88.336 Y129.164 E4.59548
G1 X88.336 Y125.136 E4.70416
G1 X90.664 Y125.136 E4.76699
G1 X90.664 Y126.761 E4.81082
G1 X91.225 Y126.275 F7800.000
G1 F1800.000
G1 X112.225 Y126.275 E5.24364
G1 X112.225 Y129.725 E5.31475
G1 X87.775 Y129.725 E5.81867
G1 X87.775 Y124.575 E5.92481
G1 X91.225 Y124.575 E5.99592
G1 X91.225 Y126.200 E6.02941
G1 X91.406 Y126.741 F7800.000
G1 X89.500 Y126.089 F7800.000
G1 F1200.000
G1 X89.500 Y127.789 E6.05520
G1 F1200.000
G1 X89.536 Y127.964 E6.05846
G1 X89.624 Y127.982 E6.06009
G1 F1200.000
G1 X89.711 Y128.000 E6.06144
G1 X110.711 Y128.000 E6.38009
G1 E4.38009 F2400.00000
G92 E0
G1 X90.029 Y72.529 F7800.000
G1 E2.00000 F2400.00000
G1 F3600.000
G1 X90.029 Y74.229 E2.04586
G1 X88.971 Y74.229 E2.07439
G1 X88.971 Y71.471 E2.14878
G1 X111.029 Y71.471 E2.74381
G1 X111.029 Y72.529 E2.77234
G1 X90.104 Y72.529 E3.33682
G1 X90.664 Y73.164 F7800.000
G1 F3600.000
G1 X90.664 Y74.864 E3.38268
G1 X88.336 Y74.864 E3.44551
G1 X88.336 Y70.836 E3.55419
G1 X111.664 Y70.836 E4.18352
G1 X111.664 Y73.164 E4.24634
G1 X90.739 Y73.164 E4.81082
G1 X91.225 Y73.725 F7800.000
G1 F1800.000
G1 X91.225 Y75.425 E4.84586
G1 X87.775 Y75.425 E4.91697
G1 X87.775 Y70.275 E5.02311
G1 X112.225 Y70.275 E5.52703
G1 X112.225 Y73.725 E5.59814
G1 X91.300 Y73.725 E6.02941
G1 X90.726 Y73.752 F7800.000
G1 X89.500 Y73.911 F7800.000
G1 F1200.000
G1 X89.500 Y72.211 E6.05520
G1 F1200.000
G1 X89.536 Y72.036 E6.05846
G1 X89.624 Y72.018 E6.06009
G1 F1200.000
G1 X89.711 Y72.000 E6.06144
G1 X110.711 Y72.000 E6.38009
G1 Z2.150 F7800.000
G1 E4.38009 F2400.00000
G92 E0
G1 X90.029 Y127.471 F7800.000
G1 E2.00000 F2400.00000
G1 F3600.000
G1 X111.029 Y127.471 E2.56651
G1 X111.029 Y128.529 E2.59504
G1 X88.971 Y128.529 E3.19007
G1 X88.971 Y125.471 E3.27255
G1 X90.029 Y125.471 E3.30108
G1 X90.029 Y127.396 E3.35301
G1 X90.664 Y126.836 F7800.000
G1 F3600.000
G1 X111.664 Y126.836 E3.91952
G1 X111.664 Y129.164 E3.98234
G1 X88.336 Y129.164 E4.61167
G1 X88.336 Y124.836 E4.72844
G1 X90.664 Y124.836 E4.79127
G1 X90.664 Y126.761 E4.84320
G1 X91.225 Y126.275 F7800.000
G1 F1800.000
G1 X112.225 Y126.275 E5.27601
G1 X112.225 Y129.725 E5.34712
G1 X87.775 Y129.725 E5.85104
G1 X87.775 Y124.275 E5.96337
G1 X91.225 Y124.275 E6.03447
G1 X91.225 Y126.200 E6.07415
G1 X91.396 Y126.745 F7800.000
G1 X89.500 Y125.789 F7800.000
G1 F1200.000
G1 X89.500 Y127.789 E6.10449
G1 F1200.000
G1 X89.536 Y127.964 E6.10775
G1 X89.624 Y127.982 E6.10938
G1 F1200.000
G1 X89.711 Y128.000 E6.11073
G1 X110.711 Y128.000 E6.42938
G1 E4.42938 F2400.00000
G92 E0
G1 X90.029 Y72.529 F7800.000
G1 E2.00000 F2400.00000
G1 F3600.000
G1 X90.029 Y74.529 E2.05395
G1 X88.971 Y74.529 E2.08248
G1 X88.971 Y71.471 E2.16496
G1 X111.029 Y71.471 E2.76000
G1 X111.029 Y72.529 E2.78853
G1 X90.104 Y72.529 E3.35301
G1 X90.664 Y73.164 F7800.000
G1 F3600.000
G1 X90.664 Y75.164 E3.40696
G1 X88.336 Y75.164 E3.46979
G1 X88.336 Y70.836 E3.58656
G1 X111.664 Y70.836 E4.21589
G1 X111.664 Y73.164 E4.27871
G1 X90.739 Y73.164 E4.84320
G1 X91.225 Y73.725 F7800.000
G1 F1800.000
G1 X91.225 Y75.725 E4.88442
G1 X87.775 Y75.725 E4.95552
G1 X87.775 Y70.275 E5.06785
G1 X112.225 Y70.275 E5.57177
G1 X112.225 Y73.725 E5.64288
G1 X91.300 Y73.725 E6.07415
G1 X90.726 Y73.752 F7800.000
G1 X89.500 Y74.211 F7800.000
G1 F1200.000
G1 X89.500 Y72.211 E6.10449
G1 F1200.000
G1 X89.536 Y72.036 E6.10775
G1 X89.624 Y72.018 E6.10938
G1 F1200.000
G1 X89.711 Y72.000 E6.11073
G1 X110.711 Y72.000 E6.42938
G1 Z2.450 F7800.000
G1 E4.42938 F2400.00000
G92 E0
G1 X90.029 Y127.471 F7800.000
G1 E2.00000 F2400.00000
G1 F3600.000
G1 X111.029 Y127.471 E2.56651
G1 X111.029 Y128.529 E2.59504
G1 X88.971 Y128.529 E3.19007
G1 X88.971 Y125.171 E3.28065
G1 X90.029 Y125.171 E3.30917
G1 X90.029 Y127.396 E3.36920
G1 X90.664 Y126.836 F7800.000
G1 F3600.000
G1 X111.664 Y126.836 E3.93570
G1 X111.664 Y129.164 E3.99853
G1 X88.336 Y129.164 E4.62785
G1 X88.336 Y124.536 E4.75272
G1 X90.664 Y124.536 E4.81554
G1 X90.664 Y126.761 E4.87557
G1 X91.225 Y126.275 F7800.000
G1 F1800.000
G1 X112.225 Y126.275 E5.30838
G1 X112.225 Y129.725 E5.37949
G1 X87.775 Y129.725 E5.88341
G1 X87.775 Y123.975 E6.00192
G1 X91.225 Y123.975 E6.07303
G1 X91.225 Y126.200 E6.11889
G1 X91.386 Y126.748 F7800.000
G1 X89.500 Y125.489 F7800.000
G1 F1200.000
G1 X89.500 Y127.789 E6.15378
G1 F1200.000
G1 X89.536 Y127.964 E6.15704
G1 X89.624 Y127.982 E6.15867
G1 F1200.000
G1 X89.711 Y128.000 E6.16002
G1 X110.711 Y128.000 E6.47867
G1 E4.47867 F2400.00000
G92 E0
G1 X90.029 Y72.529 F7800.000
G1 E2.00000 F2400.00000
G1 F3600.000
G1 X90.029 Y74.829 E2.06205
G1 X88.971 Y74.829 E2.09057
G1 X88.971 Y71.471 E2.18115
G1 X111.029 Y71.471 E2.77618
G1 X111.029 Y72.529 E2.80471
G1 X90.104 Y72.529 E3.36920
G1 X90.664 Y73.164 F7800.000
