; generated by Slic3r 1.3.1-dev (Build adea0d9) on 2020-03-03 at 01:58:37

; external perimeters extrusion width = 0.44mm (2.86mm^3/s)
; perimeters extrusion width = 0.56mm (4.14mm^3/s)
; infill extrusion width = 0.50mm (3.66mm^3/s)
; solid infill extrusion width = 0.56mm (3.10mm^3/s)
; top infill extrusion width = 0.56mm (3.10mm^3/s)

M107
G92 E0
;D3D:START:START
T0
M104 S215 T0

G21
G90
M107
T0
G28
G29
M109 T0 S215 T0
G0 F3000
M107
T0
G92 E0
G0 X0 Y149 Z0.1 F3600
G1 Y49 E6.5 F1200
G0 Z1
G92 E0
; Filament gcode

G21 ; set units to millimeters
G90 ; use absolute coordinates
M82 ; use absolute distances for extrusion
G92 E0
G1 Z0.300 F7800.000
G1 E-2.00000 F2400.00000
G92 E0
G1 X65.696 Y45.696 F7800.000
G1 E2.00000 F2400.00000
G1 F1800.000
G1 X84.304 Y45.696 E2.60413
G1 X84.304 Y48.712 E2.70203
G1 X68.304 Y64.712 E3.43667
G1 X68.304 Y85.288 E4.10474
G1 X84.304 Y101.288 E4.83938
G1 X84.304 Y104.304 E4.93728
G1 X65.696 Y104.304 E5.54141
G1 X65.696 Y45.756 E7.44227
G1 X65.431 Y45.431 F7800.000
G1 F1800.000
G1 X84.569 Y45.431 E8.06364
G1 X84.569 Y48.822 E8.17374
G1 X68.569 Y64.822 E8.90838
G1 X68.569 Y85.178 E9.56930
G1 X84.569 Y101.178 E10.30395
G1 X84.569 Y104.569 E10.41404
G1 X65.431 Y104.569 E11.03542
G1 X65.431 Y45.491 E12.95353
G1 X65.165 Y45.165 F7800.000
G1 F1800.000
G1 X84.835 Y45.165 E13.59215
G1 X84.835 Y48.932 E13.71444
G1 X68.835 Y64.932 E14.44908
G1 X68.835 Y85.068 E15.10286
G1 X84.835 Y101.068 E15.83750
G1 X84.835 Y104.835 E15.95980
G1 X65.165 Y104.835 E16.59842
G1 X65.165 Y45.225 E18.53377
G1 X65.531 Y45.327 F7800.000
G1 X66.065 Y45.859 F7800.000
G1 F1800.000
G1 X65.859 Y46.065 E18.54331
G1 X65.859 Y46.442 E18.55559
G1 X66.442 Y45.859 E18.58250
G1 X66.819 Y45.859 E18.59478
G1 X65.859 Y46.819 E18.63906
G1 X65.859 Y47.196 E18.65134
G1 X67.196 Y45.859 E18.71299
G1 X67.573 Y45.859 E18.72528
G1 X65.859 Y47.573 E18.80430
G1 X65.859 Y47.950 E18.81658
G1 X67.950 Y45.859 E18.91298
G1 X68.327 Y45.859 E18.92526
G1 X65.859 Y48.327 E19.03902
G1 X65.859 Y48.704 E19.05131
G1 X68.704 Y45.859 E19.18244
G1 X69.081 Y45.859 E19.19473
G1 X65.859 Y49.081 E19.34324
G1 X65.859 Y49.458 E19.35552
G1 X69.458 Y45.859 E19.52140
G1 X69.835 Y45.859 E19.53368
G1 X65.859 Y49.835 E19.71694
G1 X65.859 Y50.212 E19.72922
G1 X70.212 Y45.859 E19.92984
G1 X70.589 Y45.859 E19.94213
G1 X65.859 Y50.589 E20.16012
G1 X65.859 Y50.966 E20.17241
G1 X70.966 Y45.859 E20.40777
G1 X71.343 Y45.859 E20.42006
G1 X65.859 Y51.343 E20.67280
G1 X65.859 Y51.720 E20.68508
G1 X71.720 Y45.859 E20.95519
G1 X72.097 Y45.859 E20.96747
G1 X65.859 Y52.097 E21.25496
G1 X65.859 Y52.474 E21.26724
G1 X72.474 Y45.859 E21.57209
G1 X72.851 Y45.859 E21.58438
G1 X65.859 Y52.851 E21.90660
G1 X65.859 Y53.228 E21.91889
G1 X73.228 Y45.859 E22.25849
G1 X73.605 Y45.859 E22.27077
G1 X65.859 Y53.605 E22.62774
G1 X65.859 Y53.982 E22.64002
G1 X73.982 Y45.859 E23.01436
G1 X74.359 Y45.859 E23.02665
G1 X65.859 Y54.359 E23.41836
G1 X65.859 Y54.736 E23.43064
G1 X74.736 Y45.859 E23.83973
G1 X75.113 Y45.859 E23.85201
G1 X65.859 Y55.113 E24.27847
G1 X65.859 Y55.490 E24.29075
G1 X75.490 Y45.859 E24.73458
G1 X75.867 Y45.859 E24.74687
G1 X65.859 Y55.867 E25.20807
G1 X65.859 Y56.244 E25.22035
G1 X76.244 Y45.859 E25.69892
G1 X76.621 Y45.859 E25.71120
G1 X65.859 Y56.621 E26.20715
G1 X65.859 Y56.998 E26.21943
G1 X76.998 Y45.859 E26.73275
G1 X77.375 Y45.859 E26.74503
G1 X65.859 Y57.375 E27.27572
G1 X65.859 Y57.752 E27.28800
G1 X77.752 Y45.859 E27.83606
G1 X78.129 Y45.859 E27.84834
G1 X65.859 Y58.129 E28.41377
G1 X65.859 Y58.506 E28.42606
G1 X78.506 Y45.859 E29.00886
G1 X78.883 Y45.859 E29.02114
G1 X65.859 Y58.883 E29.62132
G1 X65.859 Y59.260 E29.63360
G1 X79.260 Y45.859 E30.25115
G1 X79.637 Y45.859 E30.26343
G1 X65.859 Y59.637 E30.89835
G1 X65.859 Y60.014 E30.91063
G1 X80.014 Y45.859 E31.56292
G1 X80.391 Y45.859 E31.57521
G1 X65.859 Y60.391 E32.24487
G1 X65.859 Y60.768 E32.25715
G1 X80.768 Y45.859 E32.94418
G1 X81.145 Y45.859 E32.95647
G1 X65.859 Y61.145 E33.66087
G1 X65.859 Y61.522 E33.67316
G1 X81.522 Y45.859 E34.39493
G1 X81.899 Y45.859 E34.40722
G1 X65.859 Y61.899 E35.14636
G1 X65.859 Y62.276 E35.15865
G1 X82.276 Y45.859 E35.91517
G1 X82.653 Y45.859 E35.92745
G1 X65.859 Y62.653 E36.70134
G1 X65.859 Y63.030 E36.71363
G1 X83.030 Y45.859 E37.50489
G1 X83.407 Y45.859 E37.51717
G1 X65.859 Y63.407 E38.32581
G1 X65.859 Y63.784 E38.33809
G1 X83.784 Y45.859 E39.16410
G1 X84.141 Y45.859 E39.17575
G1 X84.141 Y45.878 E39.17638
G1 X65.859 Y64.161 E40.01886
G1 X65.859 Y64.538 E40.03114
G1 X84.141 Y46.255 E40.87362
G1 X84.141 Y46.632 E40.88591
G1 X65.859 Y64.915 E41.72838
G1 X65.859 Y65.292 E41.74067
G1 X84.141 Y47.009 E42.58314
G1 X84.141 Y47.386 E42.59543
G1 X65.859 Y65.669 E43.43790
G1 X65.859 Y66.046 E43.45019
G1 X84.141 Y47.763 E44.29267
G1 X84.141 Y48.140 E44.30495
G1 X65.859 Y66.423 E45.14743
G1 X65.859 Y66.800 E45.15971
G1 X68.141 Y64.517 E45.26491
G1 X68.141 Y64.894 E45.27719
G1 X65.859 Y67.177 E45.38239
G1 X65.859 Y67.554 E45.39467
G1 X68.141 Y65.271 E45.49987
G1 X68.141 Y65.648 E45.51215
G1 X65.859 Y67.931 E45.61735
G1 X65.859 Y68.308 E45.62964
G1 X68.141 Y66.025 E45.73483
G1 X68.141 Y66.402 E45.74712
G1 X65.859 Y68.685 E45.85231
G1 X65.859 Y69.062 E45.86460
G1 X68.141 Y66.779 E45.96979
G1 X68.141 Y67.156 E45.98208
G1 X65.859 Y69.439 E46.08728
G1 X65.859 Y69.816 E46.09956
G1 X68.141 Y67.533 E46.20476
G1 X68.141 Y67.910 E46.21704
G1 X65.859 Y70.193 E46.32224
G1 X65.859 Y70.570 E46.33452
G1 X68.141 Y68.287 E46.43972
G1 X68.141 Y68.664 E46.45200
G1 X65.859 Y70.947 E46.55720
G1 X65.859 Y71.324 E46.56948
G1 X68.141 Y69.041 E46.67468
G1 X68.141 Y69.418 E46.68696
G1 X65.859 Y71.701 E46.79216
G1 X65.859 Y72.078 E46.80445
G1 X68.141 Y69.795 E46.90964
G1 X68.141 Y70.172 E46.92193
G1 X65.859 Y72.455 E47.02712
G1 X65.859 Y72.832 E47.03941
G1 X68.141 Y70.549 E47.14461
G1 X68.141 Y70.926 E47.15689
G1 X65.859 Y73.209 E47.26209
G1 X65.859 Y73.586 E47.27437
G1 X68.141 Y71.303 E47.37957
G1 X68.141 Y71.680 E47.39185
G1 X65.859 Y73.963 E47.49705
G1 X65.859 Y74.340 E47.50933
G1 X68.141 Y72.057 E47.61453
G1 X68.141 Y72.434 E47.62681
G1 X65.859 Y74.717 E47.73201
G1 X65.859 Y75.094 E47.74429
G1 X68.141 Y72.811 E47.84949
G1 X68.141 Y73.188 E47.86178
G1 X65.859 Y75.471 E47.96697
G1 X65.859 Y75.848 E47.97926
G1 X68.141 Y73.565 E48.08445
G1 X68.141 Y73.942 E48.09674
G1 X65.859 Y76.225 E48.20194
G1 X65.859 Y76.602 E48.21422
G1 X68.141 Y74.319 E48.31942
G1 X68.141 Y74.696 E48.33170
G1 X65.859 Y76.979 E48.43690
G1 X65.859 Y77.356 E48.44918
G1 X68.141 Y75.073 E48.55438
G1 X68.141 Y75.450 E48.56666
G1 X65.859 Y77.733 E48.67186
G1 X65.859 Y78.110 E48.68414
G1 X68.141 Y75.827 E48.78934
G1 X68.141 Y76.204 E48.80162
G1 X65.859 Y78.487 E48.90682
G1 X65.859 Y78.864 E48.91911
G1 X68.141 Y76.581 E49.02430
G1 X68.141 Y76.958 E49.03659
G1 X65.859 Y79.241 E49.14178
G1 X65.859 Y79.618 E49.15407
G1 X68.141 Y77.335 E49.25927
G1 X68.141 Y77.712 E49.27155
G1 X65.859 Y79.995 E49.37675
G1 X65.859 Y80.372 E49.38903
G1 X68.141 Y78.089 E49.49423
G1 X68.141 Y78.466 E49.50651
G1 X65.859 Y80.749 E49.61171
G1 X65.859 Y81.126 E49.62399
G1 X68.141 Y78.843 E49.72919
G1 X68.141 Y79.220 E49.74147
G1 X65.859 Y81.503 E49.84667
G1 X65.859 Y81.880 E49.85895
G1 X68.141 Y79.597 E49.96415
G1 X68.141 Y79.974 E49.97644
G1 X65.859 Y82.257 E50.08163
G1 X65.859 Y82.634 E50.09392
G1 X68.141 Y80.351 E50.19911
G1 X68.141 Y80.728 E50.21140
G1 X65.859 Y83.011 E50.31660
G1 X65.859 Y83.388 E50.32888
G1 X68.141 Y81.105 E50.43408
G1 X68.141 Y81.482 E50.44636
G1 X65.859 Y83.765 E50.55156
G1 X65.859 Y84.142 E50.56384
G1 X68.141 Y81.859 E50.66904
G1 X68.141 Y82.236 E50.68132
G1 X65.859 Y84.519 E50.78652
G1 X65.859 Y84.896 E50.79880
G1 X68.141 Y82.613 E50.90400
G1 X68.141 Y82.990 E50.91628
G1 X65.859 Y85.273 E51.02148
G1 X65.859 Y85.650 E51.03377
G1 X68.141 Y83.367 E51.13896
G1 X68.141 Y83.744 E51.15125
G1 X65.859 Y86.027 E51.25644
G1 X65.859 Y86.403 E51.26873
G1 X68.141 Y84.121 E51.37393
G1 X68.141 Y84.498 E51.38621
G1 X65.859 Y86.780 E51.49141
G1 X65.859 Y87.157 E51.50369
G1 X68.141 Y84.875 E51.60889
G1 X68.141 Y85.252 E51.62117
G1 X65.859 Y87.534 E51.72637
G1 X65.859 Y87.911 E51.73865
G1 X68.308 Y85.462 E51.85153
G1 X68.497 Y85.650 E51.86022
G1 X65.859 Y88.288 E51.98178
G1 X65.859 Y88.665 E51.99407
G1 X68.685 Y85.839 E52.12432
G1 X68.874 Y86.027 E52.13300
G1 X65.859 Y89.042 E52.27194
G1 X65.859 Y89.419 E52.28422
G1 X69.062 Y86.216 E52.43185
G1 X69.251 Y86.404 E52.44053
G1 X65.859 Y89.796 E52.59684
G1 X65.859 Y90.173 E52.60913
G1 X69.439 Y86.593 E52.77412
G1 X69.628 Y86.781 E52.78281
G1 X65.859 Y90.550 E52.95649
G1 X65.859 Y90.927 E52.96877
G1 X69.816 Y86.970 E53.15114
G1 X70.005 Y87.158 E53.15982
G1 X65.859 Y91.304 E53.35088
G1 X65.859 Y91.681 E53.36316
G1 X70.193 Y87.347 E53.56290
G1 X70.382 Y87.535 E53.57158
G1 X65.859 Y92.058 E53.78001
G1 X65.859 Y92.435 E53.79229
G1 X70.570 Y87.724 E54.00940
G1 X70.759 Y87.912 E54.01809
G1 X65.859 Y92.812 E54.24388
G1 X65.859 Y93.189 E54.25617
G1 X70.947 Y88.101 E54.49065
G1 X71.136 Y88.289 E54.49934
G1 X65.859 Y93.566 E54.74250
G1 X65.859 Y93.943 E54.75479
G1 X71.324 Y88.478 E55.00664
G1 X71.513 Y88.666 E55.01533
G1 X65.859 Y94.320 E55.27587
G1 X65.859 Y94.697 E55.28815
G1 X71.701 Y88.855 E55.55737
G1 X71.890 Y89.043 E55.56606
G1 X65.859 Y95.074 E55.84397
G1 X65.859 Y95.451 E55.85626
G1 X72.078 Y89.232 E56.14285
G1 X72.267 Y89.420 E56.15154
G1 X65.859 Y95.828 E56.44682
G1 X65.859 Y96.205 E56.45910
G1 X72.455 Y89.609 E56.76307
G1 X72.644 Y89.797 E56.77176
G1 X65.859 Y96.582 E57.08441
G1 X65.859 Y96.959 E57.09670
G1 X72.832 Y89.986 E57.41804
G1 X73.021 Y90.174 E57.42672
G1 X65.859 Y97.336 E57.75675
G1 X65.859 Y97.713 E57.76903
G1 X73.209 Y90.363 E58.10775
G1 X73.398 Y90.551 E58.11643
G1 X65.859 Y98.090 E58.46383
G1 X65.859 Y98.467 E58.47611
G1 X73.586 Y90.740 E58.83220
G1 X73.775 Y90.928 E58.84088
G1 X65.859 Y98.844 E59.20565
G1 X65.859 Y99.221 E59.21794
G1 X73.963 Y91.117 E59.59139
G1 X74.152 Y91.305 E59.60008
G1 X65.859 Y99.598 E59.98222
G1 X65.859 Y99.975 E59.99451
G1 X74.340 Y91.494 E60.38533
G1 X74.529 Y91.682 E60.39402
G1 X65.859 Y100.352 E60.79353
G1 X65.859 Y100.729 E60.80582
G1 X74.717 Y91.871 E61.21402
G1 X74.906 Y92.059 E61.22270
G1 X65.859 Y101.106 E61.63959
G1 X65.859 Y101.483 E61.65187
G1 X75.094 Y92.248 E62.07744
G1 X75.283 Y92.436 E62.08613
G1 X65.859 Y101.860 E62.52038
G1 X65.859 Y102.237 E62.53267
G1 X75.471 Y92.625 E62.97561
G1 X75.660 Y92.813 E62.98430
G1 X65.859 Y102.614 E63.43593
G1 X65.859 Y102.991 E63.44821
G1 X75.848 Y93.002 E63.90852
G1 X76.036 Y93.190 E63.91721
G1 X65.859 Y103.368 E64.38621
G1 X65.859 Y103.745 E64.39849
G1 X76.225 Y93.379 E64.87618
G1 X76.413 Y93.567 E64.88487
G1 X65.859 Y104.122 E65.37124
G1 X65.859 Y104.141 E65.37187
G1 X66.216 Y104.141 E65.38352
G1 X76.602 Y93.756 E65.86210
G1 X76.790 Y93.944 E65.87079
G1 X66.593 Y104.141 E66.34068
G1 X66.970 Y104.141 E66.35297
G1 X76.979 Y94.133 E66.81417
G1 X77.167 Y94.321 E66.82286
G1 X67.347 Y104.141 E67.27538
G1 X67.724 Y104.141 E67.28767
G1 X77.356 Y94.510 E67.73150
G1 X77.544 Y94.698 E67.74019
G1 X68.101 Y104.141 E68.17534
G1 X68.478 Y104.141 E68.18762
G1 X77.733 Y94.887 E68.61409
G1 X77.921 Y95.075 E68.62277
G1 X68.855 Y104.141 E69.04055
G1 X69.232 Y104.141 E69.05284
G1 X78.110 Y95.264 E69.46193
G1 X78.298 Y95.452 E69.47061
G1 X69.609 Y104.141 E69.87102
G1 X69.986 Y104.141 E69.88331
G1 X78.487 Y95.641 E70.27503
G1 X78.675 Y95.829 E70.28371
G1 X70.363 Y104.141 E70.66675
G1 X70.740 Y104.141 E70.67903
G1 X78.864 Y96.018 E71.05338
G1 X79.052 Y96.206 E71.06207
G1 X71.117 Y104.141 E71.42773
G1 X71.494 Y104.141 E71.44001
G1 X79.241 Y96.395 E71.79699
G1 X79.429 Y96.583 E71.80568
G1 X71.871 Y104.141 E72.15397
G1 X72.248 Y104.141 E72.16625
G1 X79.618 Y96.772 E72.50586
G1 X79.806 Y96.960 E72.51454
G1 X72.625 Y104.141 E72.84546
G1 X73.002 Y104.141 E72.85775
G1 X79.995 Y97.149 E73.17998
G1 X80.183 Y97.337 E73.18867
G1 X73.379 Y104.141 E73.50222
G1 X73.756 Y104.141 E73.51450
G1 X80.372 Y97.526 E73.81936
G1 X80.560 Y97.714 E73.82805
G1 X74.133 Y104.141 E74.12422
G1 X74.510 Y104.141 E74.13651
G1 X80.749 Y97.903 E74.42400
G1 X80.937 Y98.091 E74.43268
G1 X74.887 Y104.141 E74.71149
G1 X75.264 Y104.141 E74.72377
G1 X81.126 Y98.280 E74.99389
G1 X81.314 Y98.468 E75.00258
G1 X75.641 Y104.141 E75.26401
G1 X76.018 Y104.141 E75.27629
G1 X81.503 Y98.657 E75.52904
G1 X81.691 Y98.845 E75.53773
G1 X76.395 Y104.141 E75.78179
G1 X76.772 Y104.141 E75.79407
G1 X81.880 Y99.033 E76.02945
G1 X82.068 Y99.222 E76.03813
G1 X77.149 Y104.141 E76.26482
G1 X77.526 Y104.141 E76.27711
G1 X82.257 Y99.410 E76.49511
G1 X82.445 Y99.599 E76.50380
G1 X77.903 Y104.141 E76.71311
G1 X78.280 Y104.141 E76.72540
G1 X82.634 Y99.787 E76.92603
G1 X82.822 Y99.976 E76.93472
G1 X78.657 Y104.141 E77.12666
G1 X79.034 Y104.141 E77.13895
G1 X83.011 Y100.164 E77.32221
G1 X83.199 Y100.353 E77.33089
G1 X79.411 Y104.141 E77.50547
G1 X79.788 Y104.141 E77.51775
G1 X83.388 Y100.541 E77.68364
G1 X83.576 Y100.730 E77.69232
G1 X80.165 Y104.141 E77.84953
G1 X80.542 Y104.141 E77.86181
G1 X83.765 Y100.918 E78.01033
G1 X83.953 Y101.107 E78.01901
G1 X80.919 Y104.141 E78.15884
G1 X81.296 Y104.141 E78.17113
G1 X84.141 Y101.296 E78.30226
G1 X84.141 Y101.673 E78.31454
G1 X81.673 Y104.141 E78.42830
G1 X82.050 Y104.141 E78.44058
G1 X84.141 Y102.050 E78.53697
G1 X84.141 Y102.427 E78.54925
G1 X82.427 Y104.141 E78.62826
G1 X82.804 Y104.141 E78.64055
G1 X84.141 Y102.804 E78.70219
G1 X84.141 Y103.181 E78.71447
G1 X83.181 Y104.141 E78.75874
G1 X83.558 Y104.141 E78.77103
G1 X84.141 Y103.558 E78.79792
G1 X84.141 Y103.935 E78.81021
G1 X83.935 Y104.141 E78.81974
M106 S255
G1 Z0.500 F7800.000
G1 E76.81974 F2400.00000
G92 E0
G1 X66.194 Y46.194 F7800.000
G1 E2.00000 F2400.00000
G1 F2400.000
G1 X83.806 Y46.194 E2.74208
G1 X83.806 Y48.505 E2.83946
G1 X67.806 Y64.505 E3.79288
G1 X67.806 Y85.495 E4.67727
G1 X83.806 Y101.495 E5.63068
G1 X83.806 Y103.806 E5.72807
G1 X66.194 Y103.806 E6.47014
G1 X66.194 Y46.254 E8.89511
G1 X65.677 Y45.677 F7800.000
G1 F2400.000
G1 X84.323 Y45.677 E9.68076
G1 X84.323 Y48.720 E9.80896
G1 X68.323 Y64.720 E10.76237
G1 X68.323 Y85.280 E11.62872
G1 X84.323 Y101.280 E12.58213
G1 X84.323 Y104.323 E12.71033
G1 X65.677 Y104.323 E13.49598
G1 X65.677 Y45.737 E15.96452
G1 X65.220 Y45.220 F7800.000
G1 F2160.000
G1 X84.780 Y45.220 E16.59742
G1 X84.780 Y48.909 E16.71678
G1 X68.780 Y64.909 E17.44894
G1 X68.780 Y85.091 E18.10197
G1 X84.780 Y101.091 E18.83413
G1 X84.780 Y104.780 E18.95349
G1 X65.220 Y104.780 E19.58639
G1 X65.220 Y45.280 E21.51163
G1 X65.586 Y45.382 F7800.000
G1 E19.51163 F2400.00000
G92 E0
G1 X83.490 Y46.912 F7800.000
G1 E2.00000 F2400.00000
G1 F1800.000
G1 X83.088 Y46.510 E2.02398
G1 X82.356 Y46.510 E2.05482
G1 X83.490 Y47.644 E2.12241
G1 X83.490 Y48.376 E2.15325
G1 X81.624 Y46.510 E2.26445
G1 X80.893 Y46.510 E2.29529
G1 X83.182 Y48.800 E2.43177
G1 X82.817 Y49.165 E2.45358
G1 X80.161 Y46.510 E2.61187
G1 X79.430 Y46.510 E2.64270
G1 X82.451 Y49.531 E2.82280
G1 X82.085 Y49.897 E2.84460
G1 X78.698 Y46.510 E3.04650
G1 X77.967 Y46.510 E3.07734
G1 X81.719 Y50.263 E3.30104
G1 X81.354 Y50.629 E3.32284
G1 X77.235 Y46.510 E3.56835
G1 X76.504 Y46.510 E3.59919
G1 X80.988 Y50.994 E3.86650
G1 X80.622 Y51.360 E3.88830
G1 X75.772 Y46.510 E4.17742
G1 X75.041 Y46.510 E4.20826
G1 X80.256 Y51.726 E4.51918
G1 X79.891 Y52.092 E4.54098
G1 X74.309 Y46.510 E4.87371
G1 X73.577 Y46.510 E4.90454
G1 X79.525 Y52.457 E5.25907
G1 X79.159 Y52.823 E5.28088
G1 X72.846 Y46.510 E5.65721
G1 X72.114 Y46.510 E5.68805
G1 X78.793 Y53.189 E6.08619
G1 X78.427 Y53.555 E6.10799
G1 X71.383 Y46.510 E6.52793
G1 X70.651 Y46.510 E6.55877
G1 X78.062 Y53.921 E7.00052
G1 X77.696 Y54.286 E7.02232
G1 X69.920 Y46.510 E7.48588
G1 X69.188 Y46.510 E7.51671
G1 X77.330 Y54.652 E8.00207
G1 X76.964 Y55.018 E8.02387
G1 X68.457 Y46.510 E8.53103
G1 X67.725 Y46.510 E8.56187
G1 X76.599 Y55.384 E9.09083
G1 X76.233 Y55.749 E9.11264
G1 X66.994 Y46.510 E9.66341
G1 X66.510 Y46.510 E9.68378
G1 X66.510 Y46.758 E9.69424
G1 X75.867 Y56.115 E10.25203
G1 X75.501 Y56.481 E10.27383
G1 X66.510 Y47.490 E10.80981
G1 X66.510 Y48.221 E10.84064
G1 X75.135 Y56.847 E11.35482
G1 X74.770 Y57.212 E11.37662
