; generated by Slic3r 1.3.0 on 2020-03-10 at 21:28:21

; external perimeters extrusion width = 0.44mm (2.86mm^3/s)
; perimeters extrusion width = 0.56mm (4.14mm^3/s)
; infill extrusion width = 0.50mm (3.66mm^3/s)
; solid infill extrusion width = 0.56mm (3.10mm^3/s)
; top infill extrusion width = 0.56mm (3.10mm^3/s)

M107
;D3D:START:START
T0
M104 S215 T0

G21
G90
M107
T0
G28
G29
M109 T0 S215 T0
G0 F3000
M107
T0
G92 E0
G0 X0 Y149 Z0.1 F3600
G1 Y49 E6.5 F1200
G0 Z1
G92 E0
; Filament gcode

G21 ; set units to millimeters
G90 ; use absolute coordinates
M82 ; use absolute distances for extrusion
G92 E0
G1 Z0.300 F7800.000
G1 E-2.00000 F2400.00000
G92 E0
G1 X30.824 Y116.742 F7800.000
G1 E2.00000 F2400.00000
G1 F1800
G1 X30.824 Y126.978 E2.33911
G1 X25.004 Y126.978 E2.53192
G1 X25.004 Y114.789 E2.93575
G1 X28.249 Y114.789 E3.04325
G1 X35.052 Y114.313 E3.26919
G1 X41.806 Y113.364 E3.49512
G1 X48.477 Y111.946 E3.72105
G1 X54.977 Y110.082 E3.94511
G1 X61.440 Y107.734 E4.17291
G1 X67.671 Y104.960 E4.39885
G1 X73.692 Y101.758 E4.62479
G1 X79.476 Y98.144 E4.85072
G1 X84.993 Y94.136 E5.07665
G1 X90.217 Y89.752 E5.30259
G1 X95.123 Y85.015 E5.52852
G1 X99.686 Y79.947 E5.75446
G1 X103.885 Y74.573 E5.98039
G1 X107.698 Y68.919 E6.20632
G1 X111.108 Y63.013 E6.43226
G1 X114.098 Y56.883 E6.65819
G1 X116.652 Y50.560 E6.88413
G1 X118.760 Y44.074 E7.11006
G1 X120.409 Y37.457 E7.33599
G1 X120.843 Y35.000 E7.41865
G1 X116.943 Y31.311 E7.59648
G1 X117.958 Y25.558 E7.79003
G1 X124.527 Y26.716 E8.01100
G1 X123.013 Y35.302 E8.29982
G1 X122.953 Y35.291 E8.30184
G1 X122.493 Y37.900 E8.38961
G1 X120.807 Y44.661 E8.62047
G1 X118.654 Y51.289 E8.85133
G1 X116.043 Y57.750 E9.08219
G1 X112.959 Y64.063 E9.31497
G1 X109.504 Y70.048 E9.54390
G1 X105.608 Y75.825 E9.77476
G1 X101.317 Y81.316 E10.00562
G1 X96.655 Y86.494 E10.23648
G1 X91.598 Y91.372 E10.46926
G1 X86.304 Y95.814 E10.69819
G1 X80.666 Y99.910 E10.92905
G1 X74.757 Y103.603 E11.15991
G1 X68.604 Y106.874 E11.39077
G1 X62.184 Y109.728 E11.62355
G1 X55.690 Y112.092 E11.85248
G1 X48.992 Y114.013 E12.08334
G1 X42.176 Y115.461 E12.31420
G1 X35.275 Y116.431 E12.54506
G1 X30.884 Y116.738 E12.69088
G1 E10.69088 F2400.00000
G92 E0
G1 X25.374 Y114.951 F7800.000
G1 E2.00000 F2400.00000
G1 F1800
G1 X25.167 Y115.158 E2.00969
G1 X25.167 Y115.534 E2.02214
G1 X25.749 Y114.951 E2.04943
G1 X26.125 Y114.951 E2.06188
G1 X25.167 Y115.909 E2.10677
G1 X25.167 Y116.285 E2.11921
G1 X26.501 Y114.951 E2.18171
G1 X26.876 Y114.951 E2.19415
G1 X25.167 Y116.660 E2.27425
G1 X25.167 Y117.036 E2.28669
G1 X27.252 Y114.951 E2.38439
G1 X27.628 Y114.951 E2.39683
G1 X25.167 Y117.412 E2.51213
G1 X25.167 Y117.787 E2.52457
G1 X28.003 Y114.951 E2.65747
G1 X28.380 Y114.950 E2.66995
G1 X25.167 Y118.163 E2.82051
G1 X25.167 Y118.539 E2.83295
G1 X28.784 Y114.922 E3.00243
G1 X29.188 Y114.893 E3.01585
G1 X25.167 Y118.914 E3.20425
G1 X25.167 Y119.290 E3.21669
G1 X29.592 Y114.865 E3.42402
G1 X29.996 Y114.837 E3.43743
G1 X25.167 Y119.666 E3.66368
G1 X25.167 Y120.041 E3.67613
G1 X30.400 Y114.809 E3.92130
G1 X30.803 Y114.780 E3.93471
G1 X25.167 Y120.417 E4.19881
G1 X25.167 Y120.793 E4.21125
G1 X31.207 Y114.752 E4.49427
G1 X31.611 Y114.724 E4.50769
G1 X25.167 Y121.168 E4.80963
G1 X25.167 Y121.544 E4.82207
G1 X32.015 Y114.696 E5.14294
G1 X32.419 Y114.667 E5.15636
G1 X30.491 Y116.596 E5.24670
G1 X30.895 Y116.567 E5.26011
G1 X32.823 Y114.639 E5.35045
G1 X33.227 Y114.611 E5.36387
G1 X31.299 Y116.539 E5.45421
G1 X31.703 Y116.511 E5.46762
G1 X33.631 Y114.583 E5.55796
G1 X34.035 Y114.554 E5.57138
G1 X32.106 Y116.483 E5.66172
G1 X32.510 Y116.454 E5.67513
G1 X34.439 Y114.526 E5.76547
G1 X34.842 Y114.498 E5.77889
G1 X32.914 Y116.426 E5.86923
G1 X33.318 Y116.398 E5.88264
G1 X35.251 Y114.464 E5.97323
G1 X35.689 Y114.403 E5.98785
G1 X33.722 Y116.370 E6.07999
G1 X34.126 Y116.341 E6.09340
G1 X36.126 Y114.342 E6.18709
G1 X36.563 Y114.280 E6.20172
G1 X34.530 Y116.313 E6.29696
G1 X34.934 Y116.285 E6.31038
G1 X37.000 Y114.219 E6.40718
G1 X37.437 Y114.157 E6.42180
G1 X35.353 Y116.241 E6.51942
G1 X35.791 Y116.179 E6.53404
G1 X37.874 Y114.096 E6.63165
G1 X38.311 Y114.034 E6.64627
G1 X36.228 Y116.118 E6.74389
G1 X36.665 Y116.056 E6.75851
G1 X38.748 Y113.973 E6.85612
G1 X39.185 Y113.912 E6.87074
G1 X37.102 Y115.995 E6.96835
G1 X37.539 Y115.934 E6.98298
G1 X39.622 Y113.850 E7.08059
G1 X40.059 Y113.789 E7.09521
G1 X37.976 Y115.872 E7.19282
G1 X38.413 Y115.811 E7.20745
G1 X40.496 Y113.727 E7.30506
G1 X40.933 Y113.666 E7.31968
G1 X38.850 Y115.749 E7.41729
G1 X39.287 Y115.688 E7.43192
G1 X41.371 Y113.604 E7.52953
G1 X41.808 Y113.543 E7.54415
G1 X39.724 Y115.626 E7.64176
G1 X40.161 Y115.565 E7.65639
G1 X42.271 Y113.455 E7.75524
G1 X42.748 Y113.354 E7.77140
G1 X40.598 Y115.504 E7.87212
G1 X41.035 Y115.442 E7.88674
G1 X43.225 Y113.252 E7.98934
G1 X43.702 Y113.151 E8.00550
G1 X41.473 Y115.381 E8.10997
G1 X41.910 Y115.319 E8.12459
G1 X44.179 Y113.050 E8.23094
G1 X44.656 Y112.948 E8.24710
G1 X42.376 Y115.229 E8.35394
G1 X42.853 Y115.127 E8.37010
G1 X45.133 Y112.847 E8.47694
G1 X45.611 Y112.745 E8.49310
G1 X43.330 Y115.026 E8.59994
G1 X43.807 Y114.924 E8.61610
G1 X46.088 Y112.644 E8.72295
G1 X46.565 Y112.543 E8.73910
G1 X44.284 Y114.823 E8.84595
G1 X44.761 Y114.722 E8.86211
G1 X47.042 Y112.441 E8.96895
G1 X47.519 Y112.340 E8.98511
G1 X45.238 Y114.620 E9.09195
G1 X45.715 Y114.519 E9.10811
G1 X47.996 Y112.238 E9.21496
G1 X48.473 Y112.137 E9.23111
G1 X46.192 Y114.417 E9.33796
G1 X46.669 Y114.316 E9.35412
G1 X48.982 Y112.004 E9.46245
G1 X49.508 Y111.853 E9.48060
G1 X47.146 Y114.215 E9.59126
G1 X47.624 Y114.113 E9.60742
G1 X50.035 Y111.702 E9.72041
G1 X50.562 Y111.551 E9.73856
G1 X48.101 Y114.012 E9.85387
G1 X48.578 Y113.910 E9.87002
G1 X51.088 Y111.400 E9.98766
G1 X51.615 Y111.249 E10.00581
G1 X49.079 Y113.785 E10.12464
G1 X49.605 Y113.634 E10.14279
G1 X52.142 Y111.098 E10.26163
G1 X52.668 Y110.947 E10.27978
G1 X50.132 Y113.483 E10.39861
G1 X50.659 Y113.332 E10.41676
G1 X53.195 Y110.796 E10.53560
G1 X53.722 Y110.645 E10.55375
G1 X51.185 Y113.181 E10.67258
G1 X51.712 Y113.030 E10.69073
G1 X54.248 Y110.494 E10.80956
G1 X54.775 Y110.343 E10.82771
G1 X52.239 Y112.879 E10.94655
G1 X52.765 Y112.728 E10.96470
G1 X55.318 Y110.175 E11.08431
G1 X55.908 Y109.961 E11.10511
G1 X53.292 Y112.577 E11.22769
G1 X53.819 Y112.426 E11.24584
G1 X56.498 Y109.746 E11.37139
G1 X57.088 Y109.532 E11.39219
G1 X54.345 Y112.275 E11.52071
G1 X54.872 Y112.124 E11.53886
G1 X57.678 Y109.317 E11.67035
G1 X58.268 Y109.103 E11.69114
G1 X55.399 Y111.973 E11.82560
G1 X55.976 Y111.771 E11.84588
G1 X58.858 Y108.889 E11.98091
G1 X59.448 Y108.674 E12.00170
G1 X56.567 Y111.556 E12.13671
G1 X57.158 Y111.341 E12.15753
G1 X60.038 Y108.460 E12.29250
G1 X60.628 Y108.246 E12.31330
G1 X57.748 Y111.126 E12.44825
G1 X58.339 Y110.911 E12.46907
G1 X61.219 Y108.031 E12.60399
G1 X61.833 Y107.792 E12.62583
G1 X58.929 Y110.696 E12.76186
G1 X59.520 Y110.481 E12.78269
G1 X62.510 Y107.491 E12.92277
G1 X63.187 Y107.189 E12.94733
G1 X60.111 Y110.266 E13.09147
G1 X60.701 Y110.051 E13.11229
G1 X63.864 Y106.888 E13.26049
G1 X64.541 Y106.587 E13.28504
G1 X61.292 Y109.836 E13.43729
G1 X61.883 Y109.621 E13.45811
G1 X65.219 Y106.285 E13.61441
G1 X65.896 Y105.984 E13.63897
G1 X62.545 Y109.335 E13.79597
G1 X63.221 Y109.034 E13.82049
G1 X66.573 Y105.682 E13.97754
G1 X67.250 Y105.381 E14.00210
G1 X63.897 Y108.733 E14.15918
G1 X64.573 Y108.433 E14.18370
G1 X67.934 Y105.072 E14.34114
G1 X68.736 Y104.646 E14.37124
G1 X65.250 Y108.132 E14.53458
G1 X65.926 Y107.831 E14.55910
G1 X69.538 Y104.219 E14.72833
G1 X70.340 Y103.793 E14.75843
G1 X66.602 Y107.531 E14.93357
G1 X67.279 Y107.230 E14.95809
G1 X71.142 Y103.366 E15.13912
G1 X71.945 Y102.940 E15.16922
G1 X67.955 Y106.930 E15.35615
G1 X68.385 Y106.739 E15.37173
G1 X68.677 Y106.583 E15.38271
G1 X72.747 Y102.513 E15.57339
G1 X73.549 Y102.087 E15.60348
G1 X69.479 Y106.156 E15.79416
G1 X70.281 Y105.730 E15.82426
G1 X74.456 Y101.555 E16.01986
G1 X75.458 Y100.929 E16.05898
G1 X71.084 Y105.303 E16.26391
G1 X71.886 Y104.877 E16.29401
G1 X76.459 Y100.304 E16.50828
G1 X77.460 Y99.678 E16.54740
G1 X72.688 Y104.450 E16.77100
G1 X73.490 Y104.024 E16.80110
G1 X78.462 Y99.052 E17.03403
G1 X79.463 Y98.427 E17.07315
G1 X74.292 Y103.597 E17.31541
G1 X74.521 Y103.476 E17.32398
G1 X75.237 Y103.028 E17.35196
G1 X80.738 Y97.527 E17.60972
G1 X82.112 Y96.529 E17.66598
G1 X76.238 Y102.403 E17.94119
G1 X77.240 Y101.777 E17.98030
G1 X83.486 Y95.531 E18.27296
G1 X84.860 Y94.533 E18.32921
G1 X78.241 Y101.151 E18.63931
G1 X79.242 Y100.526 E18.67843
G1 X86.914 Y92.853 E19.03789
G1 X89.249 Y90.894 E19.13886
G1 X80.244 Y99.900 E19.56080
G1 E17.56080 F2400.00000
G92 E0
G1 X96.356 Y86.417 F7800.000
G1 E2.00000 F2400.00000
G1 F1800
G1 X96.568 Y86.205 E2.00993
G1 X99.964 Y82.433 E2.17807
G1 X90.091 Y92.306 E2.64067
G1 X87.757 Y94.265 E2.74163
G1 X102.064 Y79.958 E3.41197
G1 X103.406 Y78.240 E3.48418
G1 X85.675 Y95.971 E4.31492
G1 X84.301 Y96.969 E4.37118
G1 X104.748 Y76.523 E5.32915
G1 X105.496 Y75.565 E5.36941
G1 X105.840 Y75.054 E5.38982
G1 X82.928 Y97.967 E6.46335
G1 X81.554 Y98.965 E6.51960
G1 X106.619 Y73.900 E7.69397
G1 X107.397 Y72.746 E7.74009
G1 X98.553 Y81.590 E8.15445
G1 X99.786 Y80.221 E8.21549
G1 X100.641 Y79.127 E8.26148
G1 X108.176 Y71.592 E8.61450
G1 X108.954 Y70.438 E8.66062
G1 X101.983 Y77.409 E8.98725
G1 X103.325 Y75.692 E9.05946
G1 X109.613 Y69.403 E9.35409
G1 X110.126 Y68.515 E9.38809
G1 X104.385 Y74.256 E9.65709
G1 X105.164 Y73.102 E9.70321
G1 X110.640 Y67.626 E9.95977
G1 X111.153 Y66.737 E9.99378
G1 X105.942 Y71.948 E10.23791
G1 X106.720 Y70.794 E10.28403
G1 X111.666 Y65.848 E10.51574
G1 X112.179 Y64.959 E10.54975
G1 X107.499 Y69.639 E10.76903
G1 X107.820 Y69.163 E10.78807
G1 X108.122 Y68.641 E10.80803
G1 X112.692 Y64.070 E11.02218
G1 X112.828 Y63.835 E11.03119
G1 X113.092 Y63.295 E11.05109
G1 X108.635 Y67.752 E11.25992
G1 X109.148 Y66.864 E11.29393
G1 X113.450 Y62.561 E11.49552
G1 X113.809 Y61.827 E11.52259
G1 X109.661 Y65.975 E11.71695
G1 X110.174 Y65.086 E11.75095
G1 X114.168 Y61.092 E11.93806
G1 X114.526 Y60.358 E11.96514
G1 X110.687 Y64.197 E12.14501
G1 X111.200 Y63.308 E12.17901
G1 X114.885 Y59.624 E12.35165
G1 X115.244 Y58.889 E12.37872
G1 X111.570 Y62.563 E12.55085
G1 X111.928 Y61.830 E12.57788
G1 X115.602 Y58.155 E12.75006
G1 X115.944 Y57.437 E12.77640
G1 X112.285 Y61.097 E12.94785
G1 X112.643 Y60.363 E12.97488
G1 X116.199 Y56.807 E13.14150
G1 X116.454 Y56.177 E13.16402
G1 X113.001 Y59.630 E13.32582
G1 X113.358 Y58.897 E13.35285
G1 X116.708 Y55.546 E13.50982
G1 X116.963 Y54.916 E13.53235
G1 X113.716 Y58.163 E13.68450
G1 X114.073 Y57.430 E13.71153
G1 X117.218 Y54.286 E13.85885
G1 X117.472 Y53.655 E13.88137
G1 X114.375 Y56.753 E14.02649
G1 X114.630 Y56.122 E14.04901
G1 X117.727 Y53.025 E14.19413
G1 X117.982 Y52.395 E14.21665
G1 X114.885 Y55.492 E14.36177
G1 X115.139 Y54.862 E14.38429
G1 X118.237 Y51.764 E14.52941
G1 X118.491 Y51.134 E14.55194
G1 X115.394 Y54.232 E14.69706
G1 X115.649 Y53.601 E14.71958
G1 X118.677 Y50.573 E14.86145
G1 X118.857 Y50.017 E14.88084
G1 X115.903 Y52.971 E15.01926
G1 X116.158 Y52.341 E15.04178
G1 X119.038 Y49.460 E15.17673
G1 X119.219 Y48.904 E15.19612
G1 X116.412 Y51.710 E15.32761
G1 X116.667 Y51.080 E15.35014
G1 X119.400 Y48.347 E15.47817
G1 X119.581 Y47.791 E15.49755
G1 X116.886 Y50.485 E15.62380
G1 X117.067 Y49.929 E15.64319
G1 X119.761 Y47.234 E15.76943
G1 X119.942 Y46.678 E15.78882
G1 X117.248 Y49.372 E15.91506
G1 X117.429 Y48.816 E15.93445
G1 X120.123 Y46.121 E16.06069
G1 X120.304 Y45.565 E16.08008
G1 X117.609 Y48.260 E16.20632
G1 X117.790 Y47.703 E16.22571
G1 X120.485 Y45.009 E16.35195
G1 X120.662 Y44.455 E16.37120
G1 X117.971 Y47.147 E16.49729
G1 X118.152 Y46.590 E16.51667
G1 X120.787 Y43.955 E16.64014
G1 X120.912 Y43.455 E16.65723
G1 X118.333 Y46.034 E16.77807
G1 X118.513 Y45.477 E16.79745
G1 X121.036 Y42.954 E16.91566
G1 X121.161 Y42.454 E16.93275
G1 X118.694 Y44.921 E17.04834
G1 X118.875 Y44.364 E17.06772
G1 X121.286 Y41.953 E17.18068
G1 X121.411 Y41.453 E17.19777
G1 X119.011 Y43.852 E17.31020
G1 X119.136 Y43.352 E17.32728
G1 X121.536 Y40.952 E17.43971
G1 X121.660 Y40.452 E17.45680
G1 X119.261 Y42.852 E17.56923
G1 X119.385 Y42.351 E17.58631
G1 X121.785 Y39.952 E17.69874
G1 X121.910 Y39.451 E17.71583
G1 X119.510 Y41.851 E17.82826
G1 X119.635 Y41.350 E17.84534
G1 X122.035 Y38.951 E17.95777
G1 X122.159 Y38.450 E17.97486
G1 X119.760 Y40.850 E18.08729
G1 X119.885 Y40.350 E18.10437
G1 X122.284 Y37.950 E18.21680
G1 X122.383 Y37.475 E18.23286
G1 X120.009 Y39.849 E18.34408
G1 X120.134 Y39.349 E18.36117
G1 X122.463 Y37.019 E18.47030
G1 X122.544 Y36.563 E18.48565
G1 X120.259 Y38.848 E18.59271
G1 X120.384 Y38.348 E18.60979
G1 X122.624 Y36.107 E18.71478
G1 X122.705 Y35.651 E18.73012
G1 X120.508 Y37.848 E18.83302
G1 X120.609 Y37.371 E18.84916
G1 X122.785 Y35.195 E18.95110
G1 X122.841 Y34.880 E18.96171
G1 X122.901 Y34.890 E18.96373
G1 X122.941 Y34.664 E18.97135
G1 X120.690 Y36.915 E19.07680
G1 X120.770 Y36.459 E19.09215
G1 X123.021 Y34.208 E19.19760
G1 X123.101 Y33.752 E19.21295
G1 X120.851 Y36.003 E19.31841
G1 X120.931 Y35.547 E19.33375
G1 X123.182 Y33.296 E19.43921
G1 X123.262 Y32.840 E19.45455
G1 X121.011 Y35.091 E19.56001
G1 X121.026 Y35.009 E19.56275
G1 X120.867 Y34.859 E19.56998
G1 X123.343 Y32.384 E19.68595
G1 X123.423 Y31.928 E19.70130
G1 X120.674 Y34.676 E19.83008
G1 X120.481 Y34.494 E19.83889
G1 X123.504 Y31.472 E19.98048
G1 X123.584 Y31.015 E19.99583
G1 X120.288 Y34.311 E20.15024
G1 X120.095 Y34.128 E20.15904
G1 X123.664 Y30.559 E20.32626
G1 X123.745 Y30.103 E20.34160
G1 X119.902 Y33.946 E20.52164
G1 X119.709 Y33.763 E20.53044
G1 X123.825 Y29.647 E20.72329
G1 X123.906 Y29.191 E20.73863
G1 X119.516 Y33.581 E20.94429
G1 X119.323 Y33.398 E20.95309
G1 X123.986 Y28.735 E21.17157
G1 X124.066 Y28.279 E21.18691
G1 X119.130 Y33.215 E21.41819
G1 X118.937 Y33.033 E21.42699
G1 X124.147 Y27.823 E21.67109
G1 X124.227 Y27.367 E21.68643
G1 X118.744 Y32.850 E21.94334
G1 X118.551 Y32.668 E21.95214
G1 X124.308 Y26.911 E22.22186
G1 X124.322 Y26.828 E22.22464
G1 X124.061 Y26.782 E22.23344
G1 X118.358 Y32.485 E22.50063
G1 X118.165 Y32.302 E22.50943
G1 X123.741 Y26.726 E22.77071
G1 X123.422 Y26.670 E22.78145
G1 X117.972 Y32.120 E23.03681
G1 X117.779 Y31.937 E23.04561
G1 X123.103 Y26.613 E23.29505
G1 X122.783 Y26.557 E23.30579
G1 X117.586 Y31.754 E23.54931
G1 X117.393 Y31.572 E23.55811
G1 X122.464 Y26.501 E23.79572
G1 X122.145 Y26.444 E23.80646
G1 X117.200 Y31.389 E24.03814
G1 X117.127 Y31.320 E24.04148
G1 X117.176 Y31.037 E24.05101
G1 X121.825 Y26.388 E24.26882
G1 X121.506 Y26.332 E24.27956
G1 X117.257 Y30.581 E24.47865
G1 X117.337 Y30.125 E24.49399
G1 X121.187 Y26.275 E24.67435
G1 X120.867 Y26.219 E24.68509
G1 X117.418 Y29.669 E24.84672
G1 X117.498 Y29.213 E24.86206
G1 X120.548 Y26.163 E25.00496
G1 X120.229 Y26.106 E25.01570
G1 X117.579 Y28.757 E25.13987
G1 X117.659 Y28.300 E25.15521
G1 X119.909 Y26.050 E25.26065
G1 X119.590 Y25.994 E25.27139
G1 X117.739 Y27.844 E25.35810
G1 X117.820 Y27.388 E25.37344
G1 X119.271 Y25.937 E25.44142
G1 X118.951 Y25.881 E25.45216
G1 X117.900 Y26.932 E25.50141
G1 X117.981 Y26.476 E25.51675
G1 X118.632 Y25.825 E25.54727
G1 X118.313 Y25.769 E25.55801
G1 X118.061 Y26.020 E25.56980
G1 X118.070 Y25.969 E25.57153
G1 X118.106 Y25.975 E25.57274
G1 E23.57274 F2400.00000
G92 E0
G1 X25.167 Y121.544 F7800.000
G1 E2.00000 F2400.00000
G1 F1800
G1 X25.167 Y121.920 E2.01245
G1 X30.662 Y116.424 E2.26992
G1 X30.662 Y116.800 E2.28237
G1 X25.167 Y122.295 E2.53984
G1 X25.167 Y122.671 E2.55229
G1 X30.662 Y117.175 E2.80976
G1 X30.662 Y117.551 E2.82221
G1 X25.167 Y123.047 E3.07969
G1 X25.167 Y123.422 E3.09213
G1 X30.662 Y117.927 E3.34961
G1 X30.662 Y118.302 E3.36205
G1 X25.167 Y123.798 E3.61953
G1 X25.167 Y124.173 E3.63197
G1 X30.662 Y118.678 E3.88945
G1 X30.662 Y119.054 E3.90190
G1 X25.167 Y124.549 E4.15937
G1 X25.167 Y124.925 E4.17182
G1 X30.662 Y119.429 E4.42929
G1 X30.662 Y119.805 E4.44174
G1 X25.167 Y125.300 E4.69922
G1 X25.167 Y125.676 E4.71166
G1 X30.662 Y120.181 E4.96914
G1 X30.662 Y120.556 E4.98158
G1 X25.167 Y126.052 E5.23906
G1 X25.167 Y126.427 E5.25150
