; generated by Slic3r 1.3.1-dev (Build adea0d9) on 2020-03-03 at 01:59:15

; external perimeters extrusion width = 0.44mm (2.86mm^3/s)
; perimeters extrusion width = 0.56mm (4.14mm^3/s)
; infill extrusion width = 0.50mm (3.66mm^3/s)
; solid infill extrusion width = 0.56mm (3.10mm^3/s)
; top infill extrusion width = 0.56mm (3.10mm^3/s)

M107
G92 E0
;D3D:START:START
T0
M104 S215 T0

G21
G90
M107
T0
G28
G29
M109 T0 S215 T0
G0 F3000
M107
T0
G92 E0
G0 X0 Y149 Z0.1 F3600
G1 Y49 E6.5 F1200
G0 Z1
G92 E0
; Filament gcode

G21 ; set units to millimeters
G90 ; use absolute coordinates
M82 ; use absolute distances for extrusion
G92 E0
G1 Z0.300 F7800.000
G1 E-2.00000 F2400.00000
G92 E0
G1 X64.390 Y54.692 F7800.000
G1 E2.00000 F2400.00000
G1 F1800.000
G1 X64.721 Y55.098 E2.01703
G1 X65.597 Y54.299 E2.05551
G1 X66.287 Y53.812 E2.08293
G1 X67.907 Y53.171 E2.13952
G1 X70.699 Y52.454 E2.23310
G1 X73.559 Y52.093 E2.32668
G1 X76.441 Y52.093 E2.42026
G1 X79.301 Y52.454 E2.51385
G1 X80.044 Y52.645 E2.53876
G1 X80.023 Y53.143 E2.55496
G1 X81.103 Y53.098 E2.59004
G1 X82.126 Y53.184 E2.62336
G1 X84.773 Y54.232 E2.71580
G1 X87.299 Y55.620 E2.80938
G1 X89.631 Y57.315 E2.90296
G1 X91.732 Y59.288 E2.99655
G1 X93.161 Y61.015 E3.06932
G1 X92.814 Y61.422 E3.08666
G1 X93.754 Y62.145 E3.12514
G1 X94.346 Y62.734 E3.15227
G1 X95.114 Y63.943 E3.19875
G1 X96.341 Y66.551 E3.29234
G1 X97.231 Y69.292 E3.38592
G1 X97.772 Y72.123 E3.47950
G1 X97.953 Y75.000 E3.57309
G1 X97.887 Y76.043 E3.60700
G1 X97.389 Y76.113 E3.62335
G1 X97.629 Y77.207 E3.65972
G1 X97.716 Y78.166 E3.69100
G1 X97.231 Y80.708 E3.77501
G1 X96.341 Y83.449 E3.86859
G1 X95.114 Y86.057 E3.96218
G1 X93.569 Y88.491 E4.05576
G1 X91.932 Y90.470 E4.13916
G1 X91.459 Y90.198 E4.15687
G1 X90.916 Y91.236 E4.19492
G1 X90.433 Y91.932 E4.22242
G1 X89.631 Y92.685 E4.25816
G1 X87.299 Y94.380 E4.35174
G1 X84.773 Y95.768 E4.44532
G1 X82.093 Y96.829 E4.53890
G1 X79.301 Y97.546 E4.63249
G1 X77.982 Y97.713 E4.67566
G1 X77.821 Y97.230 E4.69219
G1 X76.756 Y97.668 E4.72958
G1 X75.877 Y97.907 E4.75915
G1 X73.559 Y97.907 E4.83442
G1 X70.699 Y97.546 E4.92800
G1 X67.920 Y96.834 E5.02115
G1 X65.227 Y95.768 E5.11518
G1 X62.677 Y94.366 E5.20965
G1 X62.865 Y93.840 E5.22780
G1 X61.774 Y93.494 E5.26494
G1 X60.973 Y93.124 E5.29361
G1 X60.369 Y92.685 E5.31782
G1 X58.268 Y90.712 E5.41140
G1 X56.431 Y88.491 E5.50498
G1 X54.886 Y86.057 E5.59857
G1 X53.659 Y83.449 E5.69215
G1 X53.158 Y81.905 E5.74486
G1 X53.610 Y81.657 E5.76161
G1 X52.981 Y80.666 E5.79972
G1 X52.610 Y79.878 E5.82798
G1 X52.228 Y77.877 E5.89413
G1 X52.047 Y75.000 E5.98772
G1 X52.228 Y72.123 E6.08130
G1 X52.768 Y69.292 E6.17488
G1 X53.778 Y66.185 E6.28096
G1 X54.343 Y66.276 E6.29954
G1 X54.491 Y65.186 E6.33526
G1 X54.733 Y64.269 E6.36606
G1 X54.887 Y63.942 E6.37777
G1 X56.431 Y61.509 E6.47135
G1 X58.268 Y59.288 E6.56494
G1 X60.369 Y57.315 E6.65852
G1 X62.701 Y55.620 E6.75210
G1 X64.337 Y54.721 E6.81272
G1 X64.324 Y55.031 F7800.000
G1 F1800.000
G1 X64.693 Y55.484 E6.83167
G1 X65.763 Y54.507 E6.87873
G1 X66.414 Y54.048 E6.90458
G1 X67.989 Y53.424 E6.95960
G1 X70.749 Y52.715 E7.05210
G1 X73.576 Y52.358 E7.14459
G1 X76.424 Y52.358 E7.23709
G1 X79.251 Y52.715 E7.32959
G1 X79.770 Y52.849 E7.34698
G1 X79.746 Y53.421 E7.36557
G1 X81.097 Y53.364 E7.40949
G1 X82.064 Y53.445 E7.44100
G1 X84.659 Y54.473 E7.53161
G1 X87.156 Y55.845 E7.62411
G1 X89.461 Y57.520 E7.71661
G1 X91.538 Y59.470 E7.80911
G1 X92.814 Y61.013 E7.87411
G1 X92.431 Y61.462 E7.89326
G1 X93.578 Y62.345 E7.94026
G1 X94.138 Y62.901 E7.96588
G1 X94.880 Y64.071 E8.01085
G1 X96.093 Y66.649 E8.10335
G1 X96.974 Y69.358 E8.19585
G1 X97.508 Y72.157 E8.28834
G1 X97.686 Y75.000 E8.38084
G1 X97.636 Y75.810 E8.40718
G1 X97.068 Y75.890 E8.42581
G1 X97.366 Y77.248 E8.47095
G1 X97.449 Y78.153 E8.50047
G1 X96.974 Y80.642 E8.58273
G1 X96.093 Y83.351 E8.67523
G1 X94.880 Y85.929 E8.76773
G1 X93.354 Y88.335 E8.86023
G1 X91.870 Y90.128 E8.93579
G1 X91.352 Y89.829 E8.95521
G1 X90.689 Y91.098 E9.00171
G1 X90.231 Y91.757 E9.02776
G1 X89.461 Y92.480 E9.06205
G1 X87.156 Y94.155 E9.15455
G1 X84.659 Y95.527 E9.24704
G1 X82.010 Y96.576 E9.33954
G1 X79.251 Y97.285 E9.43204
G1 X78.165 Y97.422 E9.46758
G1 X77.983 Y96.875 E9.48628
G1 X76.670 Y97.417 E9.53238
G1 X75.842 Y97.642 E9.56025
G1 X73.576 Y97.642 E9.63383
G1 X70.749 Y97.285 E9.72633
G1 X68.002 Y96.581 E9.81839
G1 X65.341 Y95.527 E9.91133
G1 X63.003 Y94.242 E9.99792
G1 X63.207 Y93.670 E10.01766
G1 X61.870 Y93.246 E10.06319
G1 X61.108 Y92.893 E10.09047
G1 X60.539 Y92.480 E10.11329
G1 X58.462 Y90.530 E10.20579
G1 X56.646 Y88.335 E10.29829
G1 X55.120 Y85.929 E10.39079
G1 X53.907 Y83.351 E10.48328
G1 X53.478 Y82.032 E10.52831
G1 X53.986 Y81.753 E10.54712
G1 X53.214 Y80.538 E10.59387
G1 X52.865 Y79.795 E10.62050
G1 X52.492 Y77.843 E10.68502
G1 X52.314 Y75.000 E10.77752
G1 X52.492 Y72.157 E10.87001
G1 X53.026 Y69.358 E10.96251
G1 X53.960 Y66.483 E11.06065
G1 X54.570 Y66.582 E11.08070
G1 X54.752 Y65.238 E11.12473
G1 X54.983 Y64.360 E11.15421
G1 X55.120 Y64.071 E11.16459
G1 X56.646 Y61.665 E11.25709
G1 X58.462 Y59.470 E11.34959
G1 X60.539 Y57.520 E11.44209
G1 X62.844 Y55.845 E11.53459
G1 X64.271 Y55.060 E11.58747
G1 E9.58747 F2400.00000
G92 E0
G1 X79.274 Y77.271 F7800.000
G1 E2.00000 F2400.00000
G1 F1800.000
G1 X80.002 Y77.784 E2.02893
G1 X81.043 Y78.735 E2.07471
G1 X81.957 Y79.809 E2.12049
G1 X82.729 Y80.989 E2.16627
G1 X83.347 Y82.256 E2.21206
G1 X83.802 Y83.591 E2.25784
G1 X84.085 Y84.973 E2.30362
G1 X84.193 Y86.378 E2.34940
G1 X84.125 Y87.787 E2.39518
G1 X83.880 Y89.175 E2.44096
G1 X83.463 Y90.523 E2.48674
G1 X82.880 Y91.807 E2.53252
G1 X82.141 Y93.008 E2.57831
G1 X81.258 Y94.107 E2.62409
G1 X80.243 Y95.086 E2.66987
G1 X79.114 Y95.931 E2.71565
G1 X77.888 Y96.627 E2.76143
G1 X76.585 Y97.165 E2.80721
G1 X75.806 Y97.376 E2.83339
G1 X73.592 Y97.376 E2.90528
G1 X70.799 Y97.023 E2.99669
G1 X68.084 Y96.328 E3.08767
G1 X65.454 Y95.286 E3.17952
G1 X63.329 Y94.119 E3.25823
G1 X63.452 Y93.774 E3.27011
G1 X64.660 Y93.996 E3.30998
G1 X66.108 Y94.077 E3.35706
G1 X67.554 Y93.975 E3.40414
G1 X68.977 Y93.694 E3.45123
G1 X70.353 Y93.236 E3.49831
G1 X71.661 Y92.609 E3.54539
G1 X72.880 Y91.824 E3.59247
G1 X73.991 Y90.892 E3.63956
G1 X74.976 Y89.828 E3.68664
G1 X75.820 Y88.648 E3.73372
G1 X76.510 Y87.373 E3.78081
G1 X77.034 Y86.021 E3.82789
G1 X77.385 Y84.614 E3.87497
G1 X77.557 Y83.174 E3.92206
G1 X77.547 Y81.724 E3.96914
G1 X77.355 Y80.286 E4.01622
G1 X77.107 Y79.348 E4.04773
G1 X77.591 Y79.082 E4.06564
G1 X78.082 Y78.725 E4.08535
G1 X78.524 Y78.310 E4.10506
G1 X78.911 Y77.842 E4.12478
G1 X79.242 Y77.321 E4.14478
G1 X79.505 Y76.945 F7800.000
G1 E2.14478 F2400.00000
G92 E0
G1 X76.811 Y79.473 F7800.000
G1 E2.00000 F2400.00000
G1 F1800.000
G1 X77.042 Y80.348 E2.02940
G1 X77.228 Y81.746 E2.07518
G1 X77.238 Y83.156 E2.12096
G1 X77.071 Y84.556 E2.16674
G1 X76.730 Y85.924 E2.21252
G1 X76.220 Y87.239 E2.25830
G1 X75.549 Y88.479 E2.30408
G1 X74.729 Y89.626 E2.34986
G1 X73.771 Y90.660 E2.39565
G1 X72.690 Y91.567 E2.44143
G1 X71.505 Y92.331 E2.48721
G1 X70.233 Y92.940 E2.53299
G1 X68.895 Y93.385 E2.57877
G1 X67.512 Y93.659 E2.62455
G1 X66.106 Y93.757 E2.67033
G1 X64.698 Y93.679 E2.71611
G1 X63.311 Y93.424 E2.76189
G1 X61.967 Y92.998 E2.80768
G1 X61.243 Y92.663 E2.83357
G1 X60.709 Y92.275 E2.85500
G1 X58.656 Y90.348 E2.94641
G1 X56.862 Y88.178 E3.03782
G1 X55.353 Y85.801 E3.12924
G1 X54.154 Y83.253 E3.22065
G1 X53.799 Y82.159 E3.25801
G1 X54.110 Y81.988 E3.26955
G1 X54.869 Y82.905 E3.30819
G1 X55.926 Y83.898 E3.35528
G1 X57.099 Y84.750 E3.40236
G1 X58.370 Y85.449 E3.44944
G1 X59.718 Y85.983 E3.49653
G1 X61.123 Y86.343 E3.54361
G1 X62.562 Y86.525 E3.59069
G1 X64.012 Y86.525 E3.63777
G1 X65.451 Y86.343 E3.68486
G1 X66.855 Y85.983 E3.73194
G1 X68.204 Y85.449 E3.77902
G1 X69.474 Y84.750 E3.82611
G1 X70.648 Y83.898 E3.87319
G1 X71.705 Y82.905 E3.92027
G1 X72.629 Y81.788 E3.96736
G1 X73.406 Y80.563 E4.01444
G1 X73.822 Y79.679 E4.04616
G1 X74.094 Y79.749 E4.05527
G1 X74.696 Y79.825 E4.07498
G1 X75.304 Y79.825 E4.09470
G1 X75.906 Y79.749 E4.11441
G1 X76.494 Y79.598 E4.13412
G1 X76.755 Y79.495 E4.14323
G1 X77.196 Y79.366 F7800.000
G1 E2.14323 F2400.00000
G92 E0
G1 X79.416 Y76.981 F7800.000
G1 E2.00000 F2400.00000
G1 F1800.000
G1 X79.683 Y76.201 E2.02677
G1 X79.797 Y75.606 E2.04644
G1 X79.835 Y75.000 E2.06616
G1 X79.797 Y74.394 E2.08587
G1 X79.720 Y73.994 E2.09911
G1 X80.621 Y73.918 E2.12847
G1 X82.030 Y73.977 E2.17425
G1 X83.421 Y74.212 E2.22003
G1 X84.771 Y74.620 E2.26581
G1 X86.059 Y75.193 E2.31159
G1 X87.265 Y75.924 E2.35738
G1 X88.370 Y76.799 E2.40316
G1 X89.356 Y77.807 E2.44894
G1 X90.209 Y78.930 E2.49472
G1 X90.914 Y80.151 E2.54050
G1 X91.461 Y81.451 E2.58628
G1 X91.840 Y82.809 E2.63206
G1 X92.046 Y84.204 E2.67784
G1 X92.075 Y85.614 E2.72363
G1 X91.928 Y87.016 E2.76941
G1 X91.606 Y88.389 E2.81519
G1 X91.114 Y89.711 E2.86097
G1 X90.461 Y90.961 E2.90675
G1 X90.029 Y91.583 E2.93135
G1 X89.291 Y92.275 E2.96419
G1 X87.013 Y93.930 E3.05560
G1 X84.546 Y95.286 E3.14701
G1 X81.928 Y96.323 E3.23843
G1 X79.201 Y97.023 E3.32984
G1 X78.348 Y97.131 E3.35776
G1 X78.237 Y96.796 E3.36922
G1 X79.289 Y96.198 E3.40852
G1 X80.450 Y95.329 E3.45561
G1 X81.494 Y94.322 E3.50269
G1 X82.402 Y93.192 E3.54977
G1 X83.162 Y91.957 E3.59686
G1 X83.761 Y90.636 E3.64394
G1 X84.190 Y89.251 E3.69102
G1 X84.442 Y87.822 E3.73811
G1 X84.513 Y86.374 E3.78519
G1 X84.401 Y84.928 E3.83227
G1 X84.110 Y83.507 E3.87936
G1 X83.643 Y82.135 E3.92644
G1 X83.007 Y80.831 E3.97352
G1 X82.213 Y79.618 E4.02061
G1 X81.273 Y78.513 E4.06769
G1 X80.202 Y77.536 E4.11477
G1 X79.465 Y77.016 E4.14403
G1 X79.056 Y76.808 F7800.000
G1 E2.14403 F2400.00000
G92 E0
G1 X76.874 Y75.742 F7800.000
G1 E2.00000 F2400.00000
G1 F1800.000
G1 X76.766 Y75.971 E2.00822
G1 X76.630 Y76.185 E2.01643
G1 X76.469 Y76.380 E2.02465
G1 X76.285 Y76.553 E2.03287
G1 X76.080 Y76.702 E2.04108
G1 X75.858 Y76.824 E2.04930
G1 X75.623 Y76.917 E2.05752
G1 X75.378 Y76.980 E2.06574
G1 X75.127 Y77.011 E2.07395
G1 X74.873 Y77.011 E2.08217
G1 X74.622 Y76.980 E2.09039
G1 X74.377 Y76.917 E2.09860
G1 X74.142 Y76.824 E2.10682
G1 X73.920 Y76.702 E2.11504
G1 X73.715 Y76.553 E2.12325
G1 X73.531 Y76.380 E2.13147
G1 X73.370 Y76.185 E2.13969
G1 X73.234 Y75.971 E2.14791
G1 X73.126 Y75.742 E2.15612
G1 X73.048 Y75.501 E2.16434
G1 X73.001 Y75.253 E2.17256
G1 X72.985 Y75.000 E2.18077
G1 X73.001 Y74.747 E2.18899
G1 X73.048 Y74.499 E2.19721
G1 X73.126 Y74.258 E2.20542
G1 X73.234 Y74.029 E2.21364
G1 X73.370 Y73.815 E2.22186
G1 X73.531 Y73.620 E2.23007
G1 X73.715 Y73.447 E2.23829
G1 X73.920 Y73.298 E2.24651
G1 X74.142 Y73.176 E2.25473
G1 X74.377 Y73.083 E2.26294
G1 X74.622 Y73.020 E2.27116
G1 X74.873 Y72.989 E2.27938
G1 X75.127 Y72.989 E2.28759
G1 X75.378 Y73.020 E2.29581
G1 X75.623 Y73.083 E2.30403
G1 X75.858 Y73.176 E2.31224
G1 X76.080 Y73.298 E2.32046
G1 X76.285 Y73.447 E2.32868
G1 X76.469 Y73.620 E2.33689
G1 X76.630 Y73.815 E2.34511
G1 X76.766 Y74.029 E2.35333
G1 X76.874 Y74.258 E2.36155
G1 X76.952 Y74.499 E2.36976
G1 X76.999 Y74.747 E2.37798
G1 X77.015 Y75.000 E2.38620
G1 X76.999 Y75.253 E2.39441
G1 X76.952 Y75.501 E2.40263
G1 X76.892 Y75.685 E2.40890
G1 X77.031 Y75.940 F7800.000
G1 E0.40890 F2400.00000
G92 E0
G1 X79.645 Y73.680 F7800.000
G1 E2.00000 F2400.00000
G1 F1800.000
G1 X79.495 Y73.220 E2.01570
G1 X79.237 Y72.671 E2.03541
G1 X78.911 Y72.158 E2.05512
G1 X78.524 Y71.690 E2.07483
G1 X77.982 Y71.182 E2.09897
G1 X78.611 Y70.558 E2.12772
G1 X79.728 Y69.697 E2.17350
G1 X80.944 Y68.984 E2.21928
G1 X82.240 Y68.428 E2.26506
G1 X83.596 Y68.040 E2.31084
G1 X84.989 Y67.824 E2.35662
G1 X86.399 Y67.784 E2.40240
G1 X87.802 Y67.922 E2.44819
G1 X89.177 Y68.234 E2.49397
G1 X90.502 Y68.717 E2.53975
G1 X91.756 Y69.361 E2.58553
G1 X92.920 Y70.158 E2.63131
G1 X93.974 Y71.094 E2.67709
G1 X94.903 Y72.155 E2.72287
G1 X95.691 Y73.324 E2.76865
G1 X96.327 Y74.583 E2.81443
G1 X96.800 Y75.911 E2.86021
G1 X97.103 Y77.288 E2.90600
G1 X97.181 Y78.140 E2.93376
G1 X96.716 Y80.576 E3.01427
G1 X95.846 Y83.253 E3.10568
G1 X94.647 Y85.801 E3.19709
G1 X93.138 Y88.178 E3.28851
G1 X91.809 Y89.786 E3.35624
G1 X91.494 Y89.604 E3.36804
G1 X91.912 Y88.482 E3.40692
G1 X92.243 Y87.070 E3.45401
G1 X92.394 Y85.627 E3.50109
G1 X92.364 Y84.178 E3.54817
G1 X92.152 Y82.743 E3.59526
G1 X91.762 Y81.346 E3.64234
G1 X91.200 Y80.009 E3.68942
G1 X90.475 Y78.753 E3.73651
G1 X89.598 Y77.598 E3.78359
G1 X88.584 Y76.562 E3.83067
G1 X87.447 Y75.661 E3.87776
G1 X86.207 Y74.910 E3.92484
G1 X84.882 Y74.320 E3.97192
G1 X83.494 Y73.901 E4.01901
G1 X82.064 Y73.659 E4.06609
G1 X80.615 Y73.599 E4.11317
G1 X79.704 Y73.675 E4.14283
G1 X79.254 Y73.764 F7800.000
G1 E2.14283 F2400.00000
G92 E0
G1 X77.723 Y70.990 F7800.000
G1 E2.00000 F2400.00000
G1 F1800.000
G1 X77.059 Y70.625 E2.02460
G1 X76.494 Y70.402 E2.04431
G1 X75.906 Y70.251 E2.06403
G1 X75.304 Y70.175 E2.08374
G1 X74.829 Y70.175 E2.09916
G1 X74.910 Y69.276 E2.12846
G1 X75.213 Y67.899 E2.17424
G1 X75.686 Y66.570 E2.22002
G1 X76.322 Y65.312 E2.26580
G1 X77.111 Y64.143 E2.31158
G1 X78.039 Y63.082 E2.35736
G1 X79.094 Y62.146 E2.40314
G1 X80.257 Y61.349 E2.44893
G1 X81.511 Y60.705 E2.49471
G1 X82.837 Y60.222 E2.54049
G1 X84.212 Y59.910 E2.58627
G1 X85.615 Y59.772 E2.63205
G1 X87.024 Y59.812 E2.67783
G1 X88.418 Y60.027 E2.72361
G1 X89.773 Y60.416 E2.76939
G1 X91.069 Y60.971 E2.81517
G1 X92.286 Y61.685 E2.86096
G1 X93.403 Y62.545 E2.90674
G1 X93.930 Y63.069 E2.93085
G1 X94.647 Y64.199 E2.97431
G1 X95.846 Y66.747 E3.06572
G1 X96.716 Y69.424 E3.15714
G1 X97.244 Y72.190 E3.24855
G1 X97.420 Y75.000 E3.33996
G1 X97.384 Y75.577 E3.35873
G1 X97.037 Y75.626 E3.37011
G1 X96.621 Y74.457 E3.41038
G1 X95.967 Y73.163 E3.45747
G1 X95.156 Y71.960 E3.50455
G1 X94.201 Y70.869 E3.55163
G1 X93.116 Y69.906 E3.59872
G1 X91.920 Y69.087 E3.64580
G1 X90.630 Y68.424 E3.69288
G1 X89.267 Y67.928 E3.73996
G1 X87.853 Y67.607 E3.78705
G1 X86.410 Y67.465 E3.83413
G1 X84.960 Y67.506 E3.88121
G1 X83.527 Y67.728 E3.92830
G1 X82.133 Y68.127 E3.97538
G1 X80.800 Y68.699 E4.02246
G1 X79.549 Y69.433 E4.06955
G1 X78.400 Y70.317 E4.11663
G1 X77.765 Y70.948 E4.14570
G1 X77.489 Y71.315 F7800.000
G1 E2.14570 F2400.00000
G92 E0
G1 X74.506 Y70.199 F7800.000
G1 E2.00000 F2400.00000
G1 F1800.000
G1 X74.094 Y70.251 E2.01349
G1 X73.506 Y70.402 E2.03321
G1 X72.941 Y70.625 E2.05292
G1 X72.409 Y70.918 E2.07263
G1 X71.754 Y71.394 E2.09895
G1 X71.252 Y70.673 E2.12748
G1 X70.599 Y69.423 E2.17326
G1 X70.107 Y68.101 E2.21904
G1 X69.785 Y66.729 E2.26482
G1 X69.638 Y65.326 E2.31060
G1 X69.667 Y63.917 E2.35638
G1 X69.873 Y62.522 E2.40217
G1 X70.253 Y61.163 E2.44795
G1 X70.799 Y59.863 E2.49373
G1 X71.504 Y58.642 E2.53951
G1 X72.357 Y57.519 E2.58529
G1 X73.343 Y56.512 E2.63107
G1 X74.448 Y55.636 E2.67685
G1 X75.654 Y54.905 E2.72263
G1 X76.943 Y54.332 E2.76842
G1 X78.293 Y53.924 E2.81420
G1 X79.683 Y53.689 E2.85998
G1 X81.092 Y53.630 E2.90576
G1 X82.003 Y53.707 E2.93545
G1 X84.546 Y54.714 E3.02425
G1 X87.013 Y56.070 E3.11566
G1 X89.291 Y57.725 E3.20708
G1 X91.344 Y59.652 E3.29849
G1 X92.467 Y61.010 E3.35571
G1 X92.233 Y61.285 E3.36742
G1 X91.213 Y60.686 E3.40581
G1 X89.881 Y60.115 E3.45289
G1 X88.486 Y59.715 E3.49998
G1 X87.053 Y59.494 E3.54706
G1 X85.604 Y59.453 E3.59414
G1 X84.160 Y59.595 E3.64123
G1 X82.746 Y59.916 E3.68831
G1 X81.384 Y60.412 E3.73540
G1 X80.094 Y61.075 E3.78248
G1 X78.897 Y61.894 E3.82956
G1 X77.813 Y62.857 E3.87664
G1 X76.858 Y63.948 E3.92373
G1 X76.047 Y65.150 E3.97081
G1 X75.393 Y66.445 E4.01789
G1 X74.906 Y67.811 E4.06498
G1 X74.595 Y69.227 E4.11206
G1 X74.512 Y70.139 E4.14179
G1 X74.518 Y70.599 F7800.000
G1 E2.14179 F2400.00000
G92 E0
G1 X71.528 Y71.628 F7800.000
G1 E2.00000 F2400.00000
G1 F1800.000
G1 X71.089 Y72.158 E2.02236
G1 X70.763 Y72.671 E2.04207
G1 X70.505 Y73.220 E2.06178
G1 X70.317 Y73.798 E2.08150
G1 X70.216 Y74.330 E2.09909
G1 X69.347 Y74.094 E2.12830
G1 X68.044 Y73.557 E2.17408
G1 X66.818 Y72.860 E2.21986
G1 X65.689 Y72.016 E2.26565
G1 X64.674 Y71.036 E2.31143
G1 X63.791 Y69.937 E2.35721
G1 X63.052 Y68.736 E2.40299
G1 X62.469 Y67.452 E2.44877
G1 X62.052 Y66.105 E2.49455
G1 X61.808 Y64.716 E2.54033
G1 X61.739 Y63.308 E2.58611
G1 X61.847 Y61.902 E2.63189
