; generated by Slic3r 1.3.1-dev (Build 54a31ee) on 2020-03-16 at 17:22:05

; external perimeters extrusion width = 0.44mm (2.86mm^3/s)
; perimeters extrusion width = 0.56mm (4.14mm^3/s)
; infill extrusion width = 0.50mm (3.66mm^3/s)
; solid infill extrusion width = 0.56mm (3.10mm^3/s)
; top infill extrusion width = 0.56mm (3.10mm^3/s)

M107
G92 E0
;D3D:START:START
T0
M104 S215 T0

G21
G90
M107
T0
G28
G29
M109 T0 S215 T0
G0 F3000
M107
T0
G92 E0
G0 X0 Y149 Z0.1 F3600
G1 Y49 E6.5 F1200
G0 Z1
G92 E0
; Filament gcode

G21 ; set units to millimeters
G90 ; use absolute coordinates
M82 ; use absolute distances for extrusion
G92 E0
G1 Z0.300 F7800.000
G1 E-2.00000 F2400.00000
G92 E0
G1 X64.390 Y54.692 F7800.000
G1 E2.00000 F2400.00000
G1 F1800.000
G1 X64.721 Y55.098 E2.01737
G1 X65.597 Y54.299 E2.05664
G1 X66.287 Y53.812 E2.08462
G1 X67.907 Y53.171 E2.14236
G1 X70.699 Y52.454 E2.23785
G1 X73.559 Y52.093 E2.33335
G1 X76.441 Y52.093 E2.42884
G1 X79.301 Y52.454 E2.52434
G1 X80.044 Y52.645 E2.54976
G1 X80.023 Y53.143 E2.56628
G1 X81.103 Y53.098 E2.60208
G1 X82.126 Y53.184 E2.63608
G1 X84.773 Y54.232 E2.73041
G1 X87.299 Y55.620 E2.82590
G1 X89.631 Y57.315 E2.92139
G1 X91.732 Y59.288 E3.01688
G1 X93.161 Y61.015 E3.09115
G1 X92.814 Y61.422 E3.10884
G1 X93.754 Y62.145 E3.14811
G1 X94.346 Y62.734 E3.17579
G1 X95.114 Y63.943 E3.22322
G1 X96.341 Y66.551 E3.31871
G1 X97.231 Y69.292 E3.41420
G1 X97.772 Y72.123 E3.50970
G1 X97.953 Y75.000 E3.60519
G1 X97.887 Y76.043 E3.63980
G1 X97.389 Y76.113 E3.65648
G1 X97.629 Y77.207 E3.69359
G1 X97.716 Y78.166 E3.72551
G1 X97.231 Y80.708 E3.81124
G1 X96.341 Y83.449 E3.90673
G1 X95.114 Y86.057 E4.00222
G1 X93.569 Y88.491 E4.09772
G1 X91.932 Y90.470 E4.18282
G1 X91.459 Y90.198 E4.20089
G1 X90.916 Y91.236 E4.23971
G1 X90.433 Y91.932 E4.26777
G1 X89.631 Y92.685 E4.30424
G1 X87.299 Y94.380 E4.39973
G1 X84.773 Y95.768 E4.49522
G1 X82.093 Y96.829 E4.59072
G1 X79.301 Y97.546 E4.68621
G1 X77.982 Y97.713 E4.73026
G1 X77.821 Y97.230 E4.74713
G1 X76.756 Y97.668 E4.78529
G1 X75.877 Y97.907 E4.81546
G1 X73.559 Y97.907 E4.89227
G1 X70.699 Y97.546 E4.98776
G1 X67.920 Y96.834 E5.08280
G1 X65.227 Y95.768 E5.17875
G1 X62.677 Y94.366 E5.27515
G1 X62.865 Y93.840 E5.29367
G1 X61.774 Y93.494 E5.33157
G1 X60.973 Y93.124 E5.36082
G1 X60.369 Y92.685 E5.38553
G1 X58.268 Y90.712 E5.48102
G1 X56.431 Y88.491 E5.57651
G1 X54.886 Y86.057 E5.67201
G1 X53.659 Y83.449 E5.76750
G1 X53.158 Y81.905 E5.82128
G1 X53.610 Y81.657 E5.83838
G1 X52.981 Y80.666 E5.87727
G1 X52.610 Y79.878 E5.90610
G1 X52.228 Y77.877 E5.97361
G1 X52.047 Y75.000 E6.06910
G1 X52.228 Y72.123 E6.16459
G1 X52.768 Y69.292 E6.26009
G1 X53.778 Y66.185 E6.36833
G1 X54.343 Y66.276 E6.38729
G1 X54.491 Y65.186 E6.42373
G1 X54.733 Y64.269 E6.45516
G1 X54.887 Y63.942 E6.46711
G1 X56.431 Y61.509 E6.56260
G1 X58.268 Y59.288 E6.65810
G1 X60.369 Y57.315 E6.75359
G1 X62.701 Y55.620 E6.84908
G1 X64.337 Y54.721 E6.91093
G1 X64.324 Y55.031 F7800.000
G1 F1800.000
G1 X64.693 Y55.484 E6.93028
G1 X65.763 Y54.507 E6.97830
G1 X66.414 Y54.048 E7.00468
G1 X67.989 Y53.424 E7.06082
G1 X70.749 Y52.715 E7.15520
G1 X73.576 Y52.358 E7.24959
G1 X76.424 Y52.358 E7.34397
G1 X79.251 Y52.715 E7.43836
G1 X79.770 Y52.849 E7.45610
G1 X79.746 Y53.421 E7.47507
G1 X81.097 Y53.364 E7.51989
G1 X82.064 Y53.445 E7.55204
G1 X84.659 Y54.473 E7.64450
G1 X87.156 Y55.845 E7.73889
G1 X89.461 Y57.520 E7.83328
G1 X91.538 Y59.470 E7.92766
G1 X92.814 Y61.013 E7.99399
G1 X92.431 Y61.462 E8.01354
G1 X93.578 Y62.345 E8.06149
G1 X94.138 Y62.901 E8.08763
G1 X94.880 Y64.071 E8.13352
G1 X96.093 Y66.649 E8.22791
G1 X96.974 Y69.358 E8.32229
G1 X97.508 Y72.157 E8.41668
G1 X97.686 Y75.000 E8.51106
G1 X97.636 Y75.810 E8.53794
G1 X97.068 Y75.890 E8.55694
G1 X97.366 Y77.248 E8.60301
G1 X97.449 Y78.153 E8.63313
G1 X96.974 Y80.642 E8.71707
G1 X96.093 Y83.351 E8.81146
G1 X94.880 Y85.929 E8.90584
G1 X93.354 Y88.335 E9.00023
G1 X91.870 Y90.128 E9.07734
G1 X91.352 Y89.829 E9.09715
G1 X90.689 Y91.098 E9.14460
G1 X90.231 Y91.757 E9.17118
G1 X89.461 Y92.480 E9.20617
G1 X87.156 Y94.155 E9.30056
G1 X84.659 Y95.527 E9.39494
G1 X82.010 Y96.576 E9.48933
G1 X79.251 Y97.285 E9.58371
G1 X78.165 Y97.422 E9.61998
G1 X77.983 Y96.875 E9.63906
G1 X76.670 Y97.417 E9.68610
G1 X75.842 Y97.642 E9.71454
G1 X73.576 Y97.642 E9.78963
G1 X70.749 Y97.285 E9.88401
G1 X68.002 Y96.581 E9.97795
G1 X65.341 Y95.527 E10.07279
G1 X63.003 Y94.242 E10.16115
G1 X63.207 Y93.670 E10.18128
G1 X61.870 Y93.246 E10.22775
G1 X61.108 Y92.893 E10.25558
G1 X60.539 Y92.480 E10.27887
G1 X58.462 Y90.530 E10.37325
G1 X56.646 Y88.335 E10.46764
G1 X55.120 Y85.929 E10.56203
G1 X53.907 Y83.351 E10.65641
G1 X53.478 Y82.032 E10.70236
G1 X53.986 Y81.753 E10.72155
G1 X53.214 Y80.538 E10.76925
G1 X52.865 Y79.795 E10.79643
G1 X52.492 Y77.843 E10.86226
G1 X52.314 Y75.000 E10.95665
G1 X52.492 Y72.157 E11.05103
G1 X53.026 Y69.358 E11.14542
G1 X53.960 Y66.483 E11.24556
G1 X54.570 Y66.582 E11.26602
G1 X54.752 Y65.238 E11.31095
G1 X54.983 Y64.360 E11.34103
G1 X55.120 Y64.071 E11.35163
G1 X56.646 Y61.665 E11.44601
G1 X58.462 Y59.470 E11.54040
G1 X60.539 Y57.520 E11.63478
G1 X62.844 Y55.845 E11.72917
G1 X64.271 Y55.060 E11.78313
G1 E9.78313 F2400.00000
G92 E0
G1 X79.274 Y77.271 F7800.000
G1 E2.00000 F2400.00000
G1 F1800.000
G1 X80.002 Y77.784 E2.02952
G1 X81.043 Y78.735 E2.07624
G1 X81.957 Y79.809 E2.12295
G1 X82.729 Y80.989 E2.16967
G1 X83.347 Y82.256 E2.21638
G1 X83.802 Y83.591 E2.26310
G1 X84.085 Y84.973 E2.30981
G1 X84.193 Y86.378 E2.35653
G1 X84.125 Y87.787 E2.40324
G1 X83.880 Y89.175 E2.44996
G1 X83.463 Y90.523 E2.49668
G1 X82.880 Y91.807 E2.54339
G1 X82.141 Y93.008 E2.59011
G1 X81.258 Y94.107 E2.63682
G1 X80.243 Y95.086 E2.68354
G1 X79.114 Y95.931 E2.73025
G1 X77.888 Y96.627 E2.77697
G1 X76.585 Y97.165 E2.82368
G1 X75.806 Y97.376 E2.85040
G1 X73.592 Y97.376 E2.92375
G1 X70.799 Y97.023 E3.01703
G1 X68.084 Y96.328 E3.10986
G1 X65.454 Y95.286 E3.20359
G1 X63.329 Y94.119 E3.28391
G1 X63.452 Y93.774 E3.29603
G1 X64.660 Y93.996 E3.33671
G1 X66.108 Y94.077 E3.38475
G1 X67.554 Y93.975 E3.43280
G1 X68.977 Y93.694 E3.48084
G1 X70.353 Y93.236 E3.52889
G1 X71.661 Y92.609 E3.57693
G1 X72.880 Y91.824 E3.62497
G1 X73.991 Y90.892 E3.67302
G1 X74.976 Y89.828 E3.72106
G1 X75.820 Y88.648 E3.76911
G1 X76.510 Y87.373 E3.81715
G1 X77.034 Y86.021 E3.86519
G1 X77.385 Y84.614 E3.91324
G1 X77.557 Y83.174 E3.96128
G1 X77.547 Y81.724 E4.00933
G1 X77.355 Y80.286 E4.05737
G1 X77.107 Y79.348 E4.08952
G1 X77.591 Y79.082 E4.10780
G1 X78.082 Y78.725 E4.12791
G1 X78.524 Y78.310 E4.14802
G1 X78.911 Y77.842 E4.16814
G1 X79.242 Y77.321 E4.18856
G1 E2.18856 F2400.00000
G92 E0
G1 X76.811 Y79.473 F7800.000
G1 E2.00000 F2400.00000
G1 F1800.000
G1 X77.042 Y80.348 E2.03000
G1 X77.228 Y81.746 E2.07671
G1 X77.238 Y83.156 E2.12343
G1 X77.071 Y84.556 E2.17014
G1 X76.730 Y85.924 E2.21686
G1 X76.220 Y87.239 E2.26357
G1 X75.549 Y88.479 E2.31029
G1 X74.729 Y89.626 E2.35700
G1 X73.771 Y90.660 E2.40372
G1 X72.690 Y91.567 E2.45043
G1 X71.505 Y92.331 E2.49715
G1 X70.233 Y92.940 E2.54387
G1 X68.895 Y93.385 E2.59058
G1 X67.512 Y93.659 E2.63730
G1 X66.106 Y93.757 E2.68401
G1 X64.698 Y93.679 E2.73073
G1 X63.311 Y93.424 E2.77744
G1 X61.967 Y92.998 E2.82416
G1 X61.243 Y92.663 E2.85058
G1 X60.709 Y92.275 E2.87245
G1 X58.656 Y90.348 E2.96573
G1 X56.862 Y88.178 E3.05900
G1 X55.353 Y85.801 E3.15228
G1 X54.154 Y83.253 E3.24556
G1 X53.799 Y82.159 E3.28368
G1 X54.110 Y81.988 E3.29546
G1 X54.869 Y82.905 E3.33489
G1 X55.926 Y83.898 E3.38294
G1 X57.099 Y84.750 E3.43098
G1 X58.370 Y85.449 E3.47902
G1 X59.718 Y85.983 E3.52707
G1 X61.123 Y86.343 E3.57511
G1 X62.562 Y86.525 E3.62316
G1 X64.012 Y86.525 E3.67120
G1 X65.451 Y86.343 E3.71924
G1 X66.855 Y85.983 E3.76729
G1 X68.204 Y85.449 E3.81533
G1 X69.474 Y84.750 E3.86338
G1 X70.648 Y83.898 E3.91142
G1 X71.705 Y82.905 E3.95946
G1 X72.629 Y81.788 E4.00751
G1 X73.406 Y80.563 E4.05555
G1 X73.822 Y79.679 E4.08792
G1 X74.094 Y79.749 E4.09722
G1 X74.696 Y79.825 E4.11733
G1 X75.304 Y79.825 E4.13744
G1 X75.906 Y79.749 E4.15756
G1 X76.494 Y79.598 E4.17767
G1 X76.755 Y79.495 E4.18696
G1 E2.18696 F2400.00000
G92 E0
G1 X79.416 Y76.981 F7800.000
G1 E2.00000 F2400.00000
G1 F1800.000
G1 X79.683 Y76.201 E2.02732
G1 X79.797 Y75.606 E2.04739
G1 X79.835 Y75.000 E2.06751
G1 X79.797 Y74.394 E2.08762
G1 X79.720 Y73.994 E2.10113
G1 X80.621 Y73.918 E2.13109
G1 X82.030 Y73.977 E2.17781
G1 X83.421 Y74.212 E2.22452
G1 X84.771 Y74.620 E2.27124
G1 X86.059 Y75.193 E2.31795
G1 X87.265 Y75.924 E2.36467
G1 X88.370 Y76.799 E2.41138
G1 X89.356 Y77.807 E2.45810
G1 X90.209 Y78.930 E2.50481
G1 X90.914 Y80.151 E2.55153
G1 X91.461 Y81.451 E2.59825
G1 X91.840 Y82.809 E2.64496
G1 X92.046 Y84.204 E2.69168
G1 X92.075 Y85.614 E2.73839
G1 X91.928 Y87.016 E2.78511
G1 X91.606 Y88.389 E2.83182
G1 X91.114 Y89.711 E2.87854
G1 X90.461 Y90.961 E2.92525
G1 X90.029 Y91.583 E2.95036
G1 X89.291 Y92.275 E2.98387
G1 X87.013 Y93.930 E3.07715
G1 X84.546 Y95.286 E3.17042
G1 X81.928 Y96.323 E3.26370
G1 X79.201 Y97.023 E3.35698
G1 X78.348 Y97.131 E3.38547
G1 X78.237 Y96.796 E3.39716
G1 X79.289 Y96.198 E3.43727
G1 X80.450 Y95.329 E3.48531
G1 X81.494 Y94.322 E3.53336
G1 X82.402 Y93.192 E3.58140
G1 X83.162 Y91.957 E3.62945
G1 X83.761 Y90.636 E3.67749
G1 X84.190 Y89.251 E3.72553
G1 X84.442 Y87.822 E3.77358
G1 X84.513 Y86.374 E3.82162
G1 X84.401 Y84.928 E3.86967
G1 X84.110 Y83.507 E3.91771
G1 X83.643 Y82.135 E3.96575
G1 X83.007 Y80.831 E4.01380
G1 X82.213 Y79.618 E4.06184
G1 X81.273 Y78.513 E4.10989
G1 X80.202 Y77.536 E4.15793
G1 X79.465 Y77.016 E4.18779
G1 E2.18779 F2400.00000
G92 E0
G1 X76.874 Y75.742 F7800.000
G1 E2.00000 F2400.00000
G1 F1800.000
G1 X76.766 Y75.971 E2.00838
G1 X76.630 Y76.185 E2.01677
G1 X76.469 Y76.380 E2.02515
G1 X76.285 Y76.553 E2.03354
G1 X76.080 Y76.702 E2.04192
G1 X75.858 Y76.824 E2.05031
G1 X75.623 Y76.917 E2.05869
G1 X75.378 Y76.980 E2.06708
G1 X75.127 Y77.011 E2.07546
G1 X74.873 Y77.011 E2.08385
G1 X74.622 Y76.980 E2.09223
G1 X74.377 Y76.917 E2.10062
G1 X74.142 Y76.824 E2.10900
G1 X73.920 Y76.702 E2.11738
G1 X73.715 Y76.553 E2.12577
G1 X73.531 Y76.380 E2.13415
G1 X73.370 Y76.185 E2.14254
G1 X73.234 Y75.971 E2.15092
G1 X73.126 Y75.742 E2.15931
G1 X73.048 Y75.501 E2.16769
G1 X73.001 Y75.253 E2.17608
G1 X72.985 Y75.000 E2.18446
G1 X73.001 Y74.747 E2.19285
G1 X73.048 Y74.499 E2.20123
G1 X73.126 Y74.258 E2.20962
G1 X73.234 Y74.029 E2.21800
G1 X73.370 Y73.815 E2.22639
G1 X73.531 Y73.620 E2.23477
G1 X73.715 Y73.447 E2.24315
G1 X73.920 Y73.298 E2.25154
G1 X74.142 Y73.176 E2.25992
G1 X74.377 Y73.083 E2.26831
G1 X74.622 Y73.020 E2.27669
G1 X74.873 Y72.989 E2.28508
G1 X75.127 Y72.989 E2.29346
G1 X75.378 Y73.020 E2.30185
G1 X75.623 Y73.083 E2.31023
G1 X75.858 Y73.176 E2.31862
G1 X76.080 Y73.298 E2.32700
G1 X76.285 Y73.447 E2.33539
G1 X76.469 Y73.620 E2.34377
G1 X76.630 Y73.815 E2.35215
G1 X76.766 Y74.029 E2.36054
G1 X76.874 Y74.258 E2.36892
G1 X76.952 Y74.499 E2.37731
G1 X76.999 Y74.747 E2.38569
G1 X77.015 Y75.000 E2.39408
G1 X76.999 Y75.253 E2.40246
G1 X76.952 Y75.501 E2.41085
G1 X76.892 Y75.685 E2.41724
G1 E0.41724 F2400.00000
G92 E0
G1 X79.645 Y73.680 F7800.000
G1 E2.00000 F2400.00000
G1 F1800.000
G1 X79.495 Y73.220 E2.01602
G1 X79.237 Y72.671 E2.03613
G1 X78.911 Y72.158 E2.05625
G1 X78.524 Y71.690 E2.07636
G1 X77.982 Y71.182 E2.10099
G1 X78.611 Y70.558 E2.13032
G1 X79.728 Y69.697 E2.17704
G1 X80.944 Y68.984 E2.22375
G1 X82.240 Y68.428 E2.27047
G1 X83.596 Y68.040 E2.31718
G1 X84.989 Y67.824 E2.36390
G1 X86.399 Y67.784 E2.41062
G1 X87.802 Y67.922 E2.45733
G1 X89.177 Y68.234 E2.50405
G1 X90.502 Y68.717 E2.55076
G1 X91.756 Y69.361 E2.59748
G1 X92.920 Y70.158 E2.64419
G1 X93.974 Y71.094 E2.69091
G1 X94.903 Y72.155 E2.73762
G1 X95.691 Y73.324 E2.78434
G1 X96.327 Y74.583 E2.83105
G1 X96.800 Y75.911 E2.87777
G1 X97.103 Y77.288 E2.92449
G1 X97.181 Y78.140 E2.95282
G1 X96.716 Y80.576 E3.03497
G1 X95.846 Y83.253 E3.12824
G1 X94.647 Y85.801 E3.22152
G1 X93.138 Y88.178 E3.31480
G1 X91.809 Y89.786 E3.38392
G1 X91.494 Y89.604 E3.39595
G1 X91.912 Y88.482 E3.43564
G1 X92.243 Y87.070 E3.48368
G1 X92.394 Y85.627 E3.53173
G1 X92.364 Y84.178 E3.57977
G1 X92.152 Y82.743 E3.62781
G1 X91.762 Y81.346 E3.67586
G1 X91.200 Y80.009 E3.72390
G1 X90.475 Y78.753 E3.77195
G1 X89.598 Y77.598 E3.81999
G1 X88.584 Y76.562 E3.86804
G1 X87.447 Y75.661 E3.91608
G1 X86.207 Y74.910 E3.96412
G1 X84.882 Y74.320 E4.01217
G1 X83.494 Y73.901 E4.06021
G1 X82.064 Y73.659 E4.10825
G1 X80.615 Y73.599 E4.15630
G1 X79.704 Y73.675 E4.18657
G1 E2.18657 F2400.00000
G92 E0
G1 X77.723 Y70.990 F7800.000
G1 E2.00000 F2400.00000
G1 F1800.000
G1 X77.059 Y70.625 E2.02510
G1 X76.494 Y70.402 E2.04522
G1 X75.906 Y70.251 E2.06533
G1 X75.304 Y70.175 E2.08545
G1 X74.829 Y70.175 E2.10118
G1 X74.910 Y69.276 E2.13108
G1 X75.213 Y67.899 E2.17780
G1 X75.686 Y66.570 E2.22451
G1 X76.322 Y65.312 E2.27123
G1 X77.111 Y64.143 E2.31794
G1 X78.039 Y63.082 E2.36466
G1 X79.094 Y62.146 E2.41137
G1 X80.257 Y61.349 E2.45809
G1 X81.511 Y60.705 E2.50480
G1 X82.837 Y60.222 E2.55152
G1 X84.212 Y59.910 E2.59823
G1 X85.615 Y59.772 E2.64495
G1 X87.024 Y59.812 E2.69167
G1 X88.418 Y60.027 E2.73838
G1 X89.773 Y60.416 E2.78509
G1 X91.069 Y60.971 E2.83181
G1 X92.286 Y61.685 E2.87853
G1 X93.403 Y62.545 E2.92524
G1 X93.930 Y63.069 E2.94985
G1 X94.647 Y64.199 E2.99419
G1 X95.846 Y66.747 E3.08747
G1 X96.716 Y69.424 E3.18075
G1 X97.244 Y72.190 E3.27403
G1 X97.420 Y75.000 E3.36731
G1 X97.384 Y75.577 E3.38646
G1 X97.037 Y75.626 E3.39807
G1 X96.621 Y74.457 E3.43917
G1 X95.967 Y73.163 E3.48721
G1 X95.156 Y71.960 E3.53525
G1 X94.201 Y70.869 E3.58330
G1 X93.116 Y69.906 E3.63134
G1 X91.920 Y69.087 E3.67939
G1 X90.630 Y68.424 E3.72743
G1 X89.267 Y67.928 E3.77547
G1 X87.853 Y67.607 E3.82352
G1 X86.410 Y67.465 E3.87156
G1 X84.960 Y67.506 E3.91961
G1 X83.527 Y67.728 E3.96765
G1 X82.133 Y68.127 E4.01569
G1 X80.800 Y68.699 E4.06374
G1 X79.549 Y69.433 E4.11178
G1 X78.400 Y70.317 E4.15983
G1 X77.765 Y70.948 E4.18949
G1 E2.18949 F2400.00000
G92 E0
G1 X74.506 Y70.199 F7800.000
G1 E2.00000 F2400.00000
G1 F1800.000
G1 X74.094 Y70.251 E2.01377
G1 X73.506 Y70.402 E2.03388
G1 X72.941 Y70.625 E2.05400
G1 X72.409 Y70.918 E2.07411
G1 X71.754 Y71.394 E2.10097
G1 X71.252 Y70.673 E2.13008
G1 X70.599 Y69.423 E2.17680
G1 X70.107 Y68.101 E2.22351
G1 X69.785 Y66.729 E2.27023
G1 X69.638 Y65.326 E2.31694
G1 X69.667 Y63.917 E2.36366
G1 X69.873 Y62.522 E2.41038
G1 X70.253 Y61.163 E2.45709
G1 X70.799 Y59.863 E2.50381
G1 X71.504 Y58.642 E2.55052
G1 X72.357 Y57.519 E2.59724
G1 X73.343 Y56.512 E2.64395
G1 X74.448 Y55.636 E2.69067
G1 X75.654 Y54.905 E2.73738
G1 X76.943 Y54.332 E2.78410
G1 X78.293 Y53.924 E2.83081
G1 X79.683 Y53.689 E2.87753
G1 X81.092 Y53.630 E2.92424
G1 X82.003 Y53.707 E2.95454
G1 X84.546 Y54.714 E3.04516
G1 X87.013 Y56.070 E3.13843
G1 X89.291 Y57.725 E3.23171
G1 X91.344 Y59.652 E3.32499
G1 X92.467 Y61.010 E3.38338
G1 X92.233 Y61.285 E3.39533
G1 X91.213 Y60.686 E3.43450
G1 X89.881 Y60.115 E3.48255
G1 X88.486 Y59.715 E3.53059
G1 X87.053 Y59.494 E3.57863
G1 X85.604 Y59.453 E3.62668
G1 X84.160 Y59.595 E3.67472
G1 X82.746 Y59.916 E3.72277
G1 X81.384 Y60.412 E3.77081
G1 X80.094 Y61.075 E3.81885
G1 X78.897 Y61.894 E3.86690
G1 X77.813 Y62.857 E3.91494
G1 X76.858 Y63.948 E3.96299
G1 X76.047 Y65.150 E4.01103
G1 X75.393 Y66.445 E4.05908
G1 X74.906 Y67.811 E4.10712
G1 X74.595 Y69.227 E4.15516
G1 X74.512 Y70.139 E4.18550
G1 E2.18550 F2400.00000
G92 E0
G1 X71.528 Y71.628 F7800.000
G1 E2.00000 F2400.00000
G1 F1800.000
G1 X71.089 Y72.158 E2.02281
G1 X70.763 Y72.671 E2.04293
G1 X70.505 Y73.220 E2.06304
G1 X70.317 Y73.798 E2.08316
G1 X70.216 Y74.330 E2.10112
G1 X69.347 Y74.094 E2.13092
G1 X68.044 Y73.557 E2.17764
G1 X66.818 Y72.860 E2.22435
G1 X65.689 Y72.016 E2.27107
G1 X64.674 Y71.036 E2.31778
G1 X63.791 Y69.937 E2.36450
G1 X63.052 Y68.736 E2.41121
G1 X62.469 Y67.452 E2.45793
G1 X62.052 Y66.105 E2.50464
G1 X61.808 Y64.716 E2.55136
G1 X61.739 Y63.308 E2.59808
G1 X61.847 Y61.902 E2.64479
G1 X62.130 Y60.521 E2.69150
G1 X62.585 Y59.186 E2.73822
G1 X63.203 Y57.919 E2.78494
G1 X63.975 Y56.739 E2.83165
G1 X64.889 Y55.665 E2.87837
G1 X65.930 Y54.714 E2.92508
G1 X66.541 Y54.283 E2.94986
