; generated by Slic3r 1.3.1-dev (Build (Unknown revision)) on 2020-03-04 at 15:10:36

; external perimeters extrusion width = 0.55mm (4.37mm^3/s)
; perimeters extrusion width = 0.70mm (11.44mm^3/s)
; infill extrusion width = 0.62mm (13.45mm^3/s)
; solid infill extrusion width = 0.70mm (3.81mm^3/s)
; top infill extrusion width = 0.70mm (2.86mm^3/s)

M107
G92 E0
M104 S200 ; set temperature
G28 ; home all axes
G1 Z5 F5000 ; lift nozzle

; Filament gcode

M109 S200 ; set temperature and wait for it to be reached
G21 ; set units to millimeters
G90 ; use absolute coordinates
M82 ; use absolute distances for extrusion
G92 E0
G1 Z0.350 F7800.000
G1 E-2.00000 F2400.00000
G92 E0
G1 X89.915 Y65.103 F7800.000
G1 E2.00000 F2400.00000
G1 F1800.000
G1 X91.668 Y63.624 E2.07096
G1 X93.820 Y62.831 E2.14192
G1 X95.000 Y62.725 E2.17858
G1 X105.000 Y62.725 E2.48799
G1 X107.259 Y63.122 E2.55895
G1 X109.247 Y64.265 E2.62991
G1 X110.726 Y66.018 E2.70088
G1 X111.519 Y68.170 E2.77184
G1 X111.625 Y69.350 E2.80849
G1 X111.625 Y130.650 E4.70519
G1 X111.228 Y132.909 E4.77615
G1 X110.085 Y134.897 E4.84712
G1 X108.332 Y136.376 E4.91808
G1 X106.180 Y137.169 E4.98904
G1 X105.000 Y137.275 E5.02569
G1 X95.000 Y137.275 E5.33511
G1 X92.741 Y136.878 E5.40607
G1 X90.753 Y135.735 E5.47703
G1 X89.274 Y133.982 E5.54799
G1 X88.481 Y131.830 E5.61895
G1 X88.375 Y130.650 E5.65561
G1 X88.375 Y69.350 E7.55231
G1 X88.772 Y67.091 E7.62327
G1 X89.878 Y65.168 E7.69191
G1 E5.69191 F2400.00000
G92 E0
G1 X102.496 Y110.641 F7800.000
G1 E2.00000 F2400.00000
G1 F1800.000
G1 X102.396 Y110.949 E2.01001
G1 X102.258 Y111.241 E2.02002
G1 X102.085 Y111.515 E2.03004
G1 X101.878 Y111.764 E2.04006
G1 X101.642 Y111.985 E2.05007
G1 X101.381 Y112.176 E2.06008
G1 X101.097 Y112.332 E2.07009
G1 X100.796 Y112.451 E2.08010
G1 X100.483 Y112.531 E2.09012
G1 X100.162 Y112.572 E2.10013
G1 X99.838 Y112.572 E2.11013
G1 X99.517 Y112.531 E2.12015
G1 X99.204 Y112.451 E2.13017
G1 X98.903 Y112.332 E2.14018
G1 X98.619 Y112.176 E2.15019
G1 X98.358 Y111.985 E2.16020
G1 X98.122 Y111.764 E2.17021
G1 X97.915 Y111.515 E2.18023
G1 X97.742 Y111.241 E2.19024
G1 X97.604 Y110.949 E2.20025
G1 X97.504 Y110.641 E2.21027
G1 X97.444 Y110.323 E2.22028
G1 X97.423 Y110.000 E2.23029
G1 X97.444 Y109.677 E2.24030
G1 X97.512 Y109.320 E2.25156
G1 X97.609 Y109.042 E2.26066
G1 X97.742 Y108.759 E2.27035
G1 X97.915 Y108.485 E2.28036
G1 X98.122 Y108.236 E2.29038
G1 X98.357 Y108.015 E2.30039
G1 X98.619 Y107.824 E2.31040
G1 X98.903 Y107.668 E2.32041
G1 X99.204 Y107.549 E2.33043
G1 X99.517 Y107.469 E2.34044
G1 X99.838 Y107.428 E2.35045
G1 X100.162 Y107.428 E2.36046
G1 X100.483 Y107.469 E2.37048
G1 X100.796 Y107.549 E2.38049
G1 X101.097 Y107.668 E2.39050
G1 X101.381 Y107.824 E2.40051
G1 X101.643 Y108.015 E2.41053
G1 X101.878 Y108.236 E2.42054
G1 X102.085 Y108.485 E2.43055
G1 X102.258 Y108.759 E2.44056
G1 X102.396 Y109.051 E2.45058
G1 X102.496 Y109.359 E2.46059
G1 X102.556 Y109.677 E2.47060
G1 X102.577 Y110.000 E2.48061
G1 X102.556 Y110.323 E2.49063
G1 X102.510 Y110.567 E2.49832
G1 X101.889 Y110.485 F7800.000
G1 F1800.000
G1 X101.814 Y110.718 E2.50590
G1 X101.709 Y110.940 E2.51348
G1 X101.578 Y111.147 E2.52106
G1 X101.422 Y111.335 E2.52864
G1 X101.243 Y111.503 E2.53622
G1 X101.045 Y111.647 E2.54380
G1 X100.831 Y111.765 E2.55137
G1 X100.603 Y111.855 E2.55895
G1 X100.365 Y111.916 E2.56654
G1 X100.122 Y111.947 E2.57412
G1 X99.878 Y111.947 E2.58169
G1 X99.635 Y111.916 E2.58927
G1 X99.397 Y111.855 E2.59686
G1 X99.169 Y111.765 E2.60443
G1 X98.955 Y111.647 E2.61201
G1 X98.757 Y111.503 E2.61959
G1 X98.578 Y111.335 E2.62717
G1 X98.422 Y111.147 E2.63475
G1 X98.291 Y110.940 E2.64233
G1 X98.186 Y110.718 E2.64991
G1 X98.111 Y110.485 E2.65749
G1 X98.065 Y110.244 E2.66507
G1 X98.049 Y110.000 E2.67265
G1 X98.065 Y109.756 E2.68023
G1 X98.117 Y109.482 E2.68884
G1 X98.291 Y109.060 E2.70296
G1 X98.422 Y108.853 E2.71054
G1 X98.578 Y108.665 E2.71812
G1 X98.757 Y108.497 E2.72570
G1 X98.955 Y108.353 E2.73328
G1 X99.169 Y108.235 E2.74086
G1 X99.397 Y108.145 E2.74844
G1 X99.634 Y108.084 E2.75602
G1 X99.878 Y108.053 E2.76360
G1 X100.122 Y108.053 E2.77118
G1 X100.366 Y108.084 E2.77876
G1 X100.603 Y108.145 E2.78634
G1 X100.831 Y108.235 E2.79392
G1 X101.045 Y108.353 E2.80150
G1 X101.243 Y108.497 E2.80908
G1 X101.422 Y108.665 E2.81665
G1 X101.578 Y108.853 E2.82423
G1 X101.709 Y109.060 E2.83181
G1 X101.814 Y109.282 E2.83939
G1 X101.889 Y109.515 E2.84697
G1 X101.935 Y109.756 E2.85455
G1 X101.951 Y110.000 E2.86213
G1 X101.935 Y110.244 E2.86971
G1 X101.903 Y110.411 E2.87497
G1 X101.889 Y110.485 F7800.000
G1 X103.084 Y110.853 F7800.000
G1 F1800.000
G1 X103.400 Y110.903 E2.88488
G1 X103.400 Y129.050 E3.44637
G1 X96.600 Y129.050 E3.65679
G1 X96.600 Y110.903 E4.21828
G1 X96.916 Y110.853 E4.22819
G1 X97.022 Y111.179 E4.23880
G1 X97.193 Y111.543 E4.25124
G1 X97.409 Y111.883 E4.26369
G1 X97.665 Y112.193 E4.27614
G1 X97.958 Y112.468 E4.28858
G1 X98.284 Y112.704 E4.30102
G1 X98.636 Y112.898 E4.31347
G1 X99.010 Y113.046 E4.32591
G1 X99.400 Y113.146 E4.33837
G1 X99.799 Y113.197 E4.35082
G1 X100.201 Y113.197 E4.36324
G1 X100.600 Y113.146 E4.37569
G1 X100.990 Y113.046 E4.38815
G1 X101.364 Y112.898 E4.40059
G1 X101.716 Y112.704 E4.41303
G1 X102.042 Y112.468 E4.42547
G1 X102.335 Y112.193 E4.43792
G1 X102.591 Y111.883 E4.45037
G1 X102.807 Y111.543 E4.46282
G1 X102.978 Y111.179 E4.47526
G1 X103.061 Y110.924 E4.48355
G1 X103.084 Y109.147 F7800.000
G1 F1800.000
G1 X102.978 Y108.821 E4.49415
G1 X102.807 Y108.457 E4.50660
G1 X102.591 Y108.117 E4.51904
G1 X102.335 Y107.807 E4.53149
G1 X102.042 Y107.532 E4.54394
G1 X101.716 Y107.296 E4.55638
G1 X101.364 Y107.102 E4.56883
G1 X100.990 Y106.954 E4.58127
G1 X100.600 Y106.854 E4.59372
G1 X100.201 Y106.803 E4.60616
G1 X99.799 Y106.803 E4.61861
G1 X99.400 Y106.854 E4.63105
G1 X99.010 Y106.954 E4.64350
G1 X98.636 Y107.102 E4.65594
G1 X98.284 Y107.296 E4.66839
G1 X97.958 Y107.532 E4.68084
G1 X97.665 Y107.807 E4.69328
G1 X97.409 Y108.117 E4.70573
G1 X97.193 Y108.457 E4.71817
G1 X97.029 Y108.805 E4.73008
G1 X96.912 Y109.141 E4.74110
G1 X96.600 Y109.088 E4.75090
G1 X96.600 Y100.903 E5.00416
G1 X96.916 Y100.853 E5.01407
G1 X97.022 Y101.179 E5.02468
G1 X97.193 Y101.543 E5.03712
G1 X97.409 Y101.883 E5.04957
G1 X97.665 Y102.193 E5.06201
G1 X97.958 Y102.468 E5.07446
G1 X98.284 Y102.704 E5.08690
G1 X98.636 Y102.898 E5.09935
G1 X99.010 Y103.046 E5.11179
G1 X99.400 Y103.146 E5.12424
G1 X99.799 Y103.197 E5.13669
G1 X100.201 Y103.197 E5.14913
G1 X100.600 Y103.146 E5.16158
G1 X100.990 Y103.046 E5.17402
G1 X101.364 Y102.898 E5.18647
G1 X101.716 Y102.704 E5.19891
G1 X102.042 Y102.468 E5.21136
G1 X102.335 Y102.193 E5.22380
G1 X102.591 Y101.883 E5.23625
G1 X102.896 Y101.402 E5.25385
G1 X103.087 Y100.847 E5.27203
G1 X103.400 Y100.899 E5.28185
G1 X103.400 Y109.097 E5.53550
G1 X103.158 Y109.135 E5.54309
G1 E3.54309 F2400.00000
G92 E0
G1 X100.796 Y102.451 F7800.000
G1 E2.00000 F2400.00000
G1 F1800.000
G1 X100.483 Y102.531 E2.01001
G1 X100.162 Y102.572 E2.02003
G1 X99.838 Y102.572 E2.03004
G1 X99.517 Y102.531 E2.04005
G1 X99.204 Y102.451 E2.05006
G1 X98.903 Y102.332 E2.06008
G1 X98.619 Y102.176 E2.07009
G1 X98.357 Y101.985 E2.08010
G1 X98.122 Y101.764 E2.09011
G1 X97.915 Y101.515 E2.10013
G1 X97.742 Y101.241 E2.11014
G1 X97.604 Y100.949 E2.12015
G1 X97.504 Y100.641 E2.13016
G1 X97.444 Y100.323 E2.14018
G1 X97.423 Y100.000 E2.15019
G1 X97.444 Y99.677 E2.16020
G1 X97.504 Y99.359 E2.17021
G1 X97.604 Y99.051 E2.18023
G1 X97.742 Y98.759 E2.19024
G1 X97.915 Y98.485 E2.20025
G1 X98.122 Y98.236 E2.21026
G1 X98.357 Y98.015 E2.22028
G1 X98.619 Y97.824 E2.23029
G1 X98.903 Y97.668 E2.24030
G1 X99.204 Y97.549 E2.25031
G1 X99.517 Y97.469 E2.26033
G1 X99.838 Y97.428 E2.27034
G1 X100.162 Y97.428 E2.28035
G1 X100.483 Y97.469 E2.29036
G1 X100.796 Y97.549 E2.30038
G1 X101.097 Y97.668 E2.31039
G1 X101.381 Y97.824 E2.32040
G1 X101.643 Y98.015 E2.33042
G1 X101.878 Y98.236 E2.34043
G1 X102.085 Y98.485 E2.35044
G1 X102.329 Y98.870 E2.36455
G1 X102.494 Y99.351 E2.38027
G1 X102.556 Y99.677 E2.39054
G1 X102.577 Y100.000 E2.40056
G1 X102.556 Y100.323 E2.41057
G1 X102.494 Y100.649 E2.42084
G1 X102.329 Y101.130 E2.43656
G1 X102.085 Y101.515 E2.45067
G1 X101.878 Y101.764 E2.46069
G1 X101.643 Y101.985 E2.47070
G1 X101.381 Y102.176 E2.48071
G1 X101.097 Y102.332 E2.49072
G1 X100.866 Y102.423 E2.49842
G1 X100.603 Y101.855 F7800.000
G1 F1800.000
G1 X100.366 Y101.916 E2.50600
G1 X100.122 Y101.947 E2.51358
G1 X99.878 Y101.947 E2.52116
G1 X99.634 Y101.916 E2.52874
G1 X99.397 Y101.855 E2.53632
G1 X99.169 Y101.765 E2.54389
G1 X98.955 Y101.647 E2.55147
G1 X98.757 Y101.503 E2.55905
G1 X98.578 Y101.335 E2.56663
G1 X98.422 Y101.147 E2.57421
G1 X98.291 Y100.940 E2.58179
G1 X98.186 Y100.718 E2.58937
G1 X98.111 Y100.485 E2.59695
G1 X98.065 Y100.244 E2.60453
G1 X98.049 Y100.000 E2.61211
G1 X98.065 Y99.756 E2.61969
G1 X98.111 Y99.515 E2.62727
G1 X98.186 Y99.282 E2.63485
G1 X98.291 Y99.060 E2.64243
G1 X98.422 Y98.853 E2.65001
G1 X98.578 Y98.665 E2.65759
G1 X98.757 Y98.497 E2.66517
G1 X98.955 Y98.353 E2.67275
G1 X99.169 Y98.235 E2.68033
G1 X99.397 Y98.145 E2.68791
G1 X99.634 Y98.084 E2.69549
G1 X99.878 Y98.053 E2.70307
G1 X100.122 Y98.053 E2.71065
G1 X100.366 Y98.084 E2.71823
G1 X100.603 Y98.145 E2.72581
G1 X100.831 Y98.235 E2.73339
G1 X101.045 Y98.353 E2.74097
G1 X101.243 Y98.497 E2.74855
G1 X101.422 Y98.665 E2.75613
G1 X101.578 Y98.853 E2.76371
G1 X101.762 Y99.143 E2.77432
G1 X101.889 Y99.512 E2.78639
G1 X101.935 Y99.756 E2.79406
G1 X101.951 Y100.000 E2.80164
G1 X101.935 Y100.244 E2.80922
G1 X101.889 Y100.488 E2.81689
G1 X101.762 Y100.857 E2.82896
G1 X101.578 Y101.147 E2.83958
G1 X101.422 Y101.335 E2.84716
G1 X101.243 Y101.503 E2.85474
G1 X101.045 Y101.647 E2.86232
G1 X100.831 Y101.765 E2.86990
G1 X100.673 Y101.828 E2.87516
G1 X100.603 Y101.855 F7800.000
G1 E0.87516 F2400.00000
G92 E0
G1 X103.087 Y99.153 F7800.000
G1 E2.00000 F2400.00000
G1 F1800.000
G1 X102.896 Y98.598 E2.01818
G1 X102.591 Y98.117 E2.03578
G1 X102.335 Y97.807 E2.04823
G1 X102.042 Y97.532 E2.06067
G1 X101.716 Y97.296 E2.07312
G1 X101.364 Y97.102 E2.08556
G1 X100.990 Y96.954 E2.09801
G1 X100.600 Y96.854 E2.11045
G1 X100.201 Y96.803 E2.12290
G1 X99.799 Y96.803 E2.13534
G1 X99.400 Y96.854 E2.14779
G1 X99.010 Y96.954 E2.16023
G1 X98.636 Y97.102 E2.17268
G1 X98.284 Y97.296 E2.18513
G1 X97.958 Y97.532 E2.19757
G1 X97.665 Y97.807 E2.21002
G1 X97.409 Y98.117 E2.22246
G1 X97.193 Y98.457 E2.23491
G1 X97.022 Y98.821 E2.24735
G1 X96.916 Y99.147 E2.25796
G1 X96.600 Y99.097 E2.26787
G1 X96.600 Y90.903 E2.52139
G1 X96.916 Y90.853 E2.53130
G1 X97.022 Y91.179 E2.54190
G1 X97.193 Y91.543 E2.55435
G1 X97.409 Y91.883 E2.56680
G1 X97.665 Y92.193 E2.57924
G1 X97.958 Y92.468 E2.59169
G1 X98.284 Y92.704 E2.60413
G1 X98.636 Y92.898 E2.61658
G1 X99.010 Y93.046 E2.62902
G1 X99.400 Y93.146 E2.64147
G1 X99.799 Y93.197 E2.65391
G1 X100.201 Y93.197 E2.66636
G1 X100.600 Y93.146 E2.67880
G1 X100.990 Y93.046 E2.69125
G1 X101.364 Y92.898 E2.70370
G1 X101.716 Y92.704 E2.71614
G1 X102.042 Y92.468 E2.72859
G1 X102.335 Y92.193 E2.74103
G1 X103.400 Y90.905 E2.79275
G1 X103.400 Y99.101 E3.04635
G1 X103.161 Y99.141 E3.05385
G1 E1.05385 F2400.00000
G92 E0
G1 X103.426 Y89.893 F7800.000
G1 E2.00000 F2400.00000
G1 F1800.000
G1 X101.878 Y91.764 E2.07514
G1 X101.643 Y91.985 E2.08515
G1 X101.381 Y92.176 E2.09516
G1 X101.097 Y92.332 E2.10517
G1 X100.796 Y92.451 E2.11519
G1 X100.483 Y92.531 E2.12520
G1 X100.162 Y92.572 E2.13521
G1 X99.838 Y92.572 E2.14522
G1 X99.517 Y92.531 E2.15524
G1 X99.204 Y92.451 E2.16525
G1 X98.903 Y92.332 E2.17526
G1 X98.619 Y92.176 E2.18527
G1 X98.357 Y91.985 E2.19529
G1 X98.122 Y91.764 E2.20530
G1 X97.915 Y91.515 E2.21531
G1 X97.742 Y91.241 E2.22533
G1 X97.604 Y90.949 E2.23534
G1 X97.504 Y90.641 E2.24535
G1 X97.444 Y90.323 E2.25536
G1 X97.423 Y90.000 E2.26538
G1 X97.444 Y89.677 E2.27539
G1 X97.504 Y89.359 E2.28540
G1 X97.604 Y89.051 E2.29541
G1 X97.742 Y88.759 E2.30542
G1 X97.915 Y88.485 E2.31544
G1 X98.122 Y88.236 E2.32545
G1 X98.358 Y88.014 E2.33547
G1 X98.619 Y87.824 E2.34548
G1 X98.903 Y87.668 E2.35549
G1 X99.204 Y87.549 E2.36550
G1 X99.517 Y87.469 E2.37552
G1 X99.838 Y87.428 E2.38553
G1 X100.162 Y87.428 E2.39553
G1 X100.483 Y87.469 E2.40555
G1 X100.796 Y87.549 E2.41557
G1 X101.097 Y87.668 E2.42558
G1 X101.381 Y87.824 E2.43559
G1 X101.642 Y88.014 E2.44560
G1 X101.878 Y88.236 E2.45561
G1 X102.085 Y88.485 E2.46563
G1 X102.258 Y88.759 E2.47564
G1 X102.396 Y89.051 E2.48565
G1 X102.496 Y89.359 E2.49566
G1 X102.556 Y89.677 E2.50568
G1 X102.570 Y89.893 E2.51237
G1 X103.351 Y89.893 E2.53654
G1 X102.098 Y90.518 F7800.000
G1 F1800.000
G1 X101.422 Y91.335 E2.56937
G1 X101.243 Y91.503 E2.57695
G1 X101.045 Y91.647 E2.58453
G1 X100.831 Y91.765 E2.59211
G1 X100.603 Y91.855 E2.59969
G1 X100.366 Y91.916 E2.60727
G1 X100.122 Y91.947 E2.61485
G1 X99.878 Y91.947 E2.62243
G1 X99.634 Y91.916 E2.63001
G1 X99.397 Y91.855 E2.63759
G1 X99.169 Y91.765 E2.64517
G1 X98.955 Y91.647 E2.65275
G1 X98.757 Y91.503 E2.66033
G1 X98.578 Y91.335 E2.66791
G1 X98.422 Y91.147 E2.67549
G1 X98.291 Y90.940 E2.68307
G1 X98.186 Y90.718 E2.69065
G1 X98.111 Y90.485 E2.69823
G1 X98.065 Y90.244 E2.70581
G1 X98.049 Y90.000 E2.71339
G1 X98.065 Y89.756 E2.72096
G1 X98.111 Y89.515 E2.72854
G1 X98.186 Y89.282 E2.73613
G1 X98.291 Y89.060 E2.74370
G1 X98.422 Y88.853 E2.75128
G1 X98.578 Y88.665 E2.75887
G1 X98.757 Y88.497 E2.76644
G1 X98.955 Y88.353 E2.77402
G1 X99.169 Y88.235 E2.78160
G1 X99.397 Y88.145 E2.78918
G1 X99.635 Y88.084 E2.79676
G1 X99.878 Y88.053 E2.80434
G1 X100.122 Y88.053 E2.81192
G1 X100.365 Y88.084 E2.81950
G1 X100.603 Y88.145 E2.82708
G1 X100.831 Y88.235 E2.83466
G1 X101.045 Y88.353 E2.84224
G1 X101.243 Y88.497 E2.84982
G1 X101.422 Y88.665 E2.85740
G1 X101.578 Y88.853 E2.86498
G1 X101.709 Y89.060 E2.87256
G1 X101.814 Y89.282 E2.88014
G1 X101.889 Y89.515 E2.88772
G1 X101.935 Y89.756 E2.89530
G1 X101.951 Y90.000 E2.90288
G1 X101.935 Y90.244 E2.91046
G1 X101.883 Y90.518 E2.91907
G1 X102.023 Y90.518 E2.92340
G1 X102.445 Y90.878 F7800.000
G1 X103.084 Y89.147 F7800.000
G1 F1800.000
G1 X102.978 Y88.821 E2.93401
G1 X102.807 Y88.457 E2.94645
G1 X102.591 Y88.117 E2.95890
G1 X102.335 Y87.807 E2.97135
G1 X102.042 Y87.532 E2.98380
G1 X101.716 Y87.296 E2.99624
G1 X101.364 Y87.102 E3.00868
G1 X100.990 Y86.954 E3.02112
G1 X100.600 Y86.854 E3.03358
G1 X100.201 Y86.803 E3.04603
G1 X99.799 Y86.803 E3.05845
G1 X99.400 Y86.854 E3.07090
G1 X99.010 Y86.954 E3.08336
G1 X98.636 Y87.102 E3.09581
G1 X98.284 Y87.296 E3.10825
G1 X97.958 Y87.532 E3.12069
G1 X97.665 Y87.807 E3.13313
G1 X97.409 Y88.117 E3.14558
G1 X97.193 Y88.457 E3.15803
G1 X97.022 Y88.821 E3.17047
G1 X96.916 Y89.147 E3.18108
G1 X96.600 Y89.097 E3.19099
G1 X96.600 Y70.950 E3.75248
G1 X103.400 Y70.950 E3.96290
G1 X103.400 Y89.097 E4.52439
G1 X103.158 Y89.135 E4.53198
G1 E2.53198 F2400.00000
G92 E0
G1 X104.025 Y70.325 F7800.000
G1 E2.00000 F2400.00000
G1 F1800.000
G1 X104.025 Y129.675 E3.83637
G1 X95.975 Y129.675 E4.08546
G1 X95.975 Y70.325 E5.92183
G1 X103.950 Y70.325 E6.16860
G1 X104.650 Y69.700 F7800.000
G1 F1800.000
G1 X104.650 Y130.300 E8.04364
G1 X95.350 Y130.300 E8.33139
G1 X95.350 Y69.700 E10.20644
G1 X104.575 Y69.700 E10.49187
G1 X104.625 Y70.199 F7800.000
G1 E8.49187 F2400.00000
G92 E0
G1 X97.468 Y71.332 F7800.000
G1 E2.00000 F2400.00000
G1 F1800.000
G1 X96.982 Y71.818 E2.02131
G1 X96.982 Y72.703 E2.04876
G1 X98.353 Y71.332 E2.10889
G1 X99.239 Y71.332 E2.13633
G1 X96.982 Y73.589 E2.23527
G1 X96.982 Y74.474 E2.26272
G1 X100.124 Y71.332 E2.40047
G1 X101.009 Y71.332 E2.42792
G1 X96.982 Y75.359 E2.60448
G1 X96.982 Y76.245 E2.63193
G1 X101.895 Y71.332 E2.84731
G1 X102.780 Y71.332 E2.87475
G1 X96.982 Y77.130 E3.12895
G1 X96.982 Y78.015 E3.15639
G1 X103.018 Y71.979 E3.42103
G1 X103.018 Y72.864 E3.44848
G1 X96.982 Y78.901 E3.71312
G1 X96.982 Y79.786 E3.74057
G1 X103.018 Y73.749 E4.00521
G1 X103.018 Y74.635 E4.03265
G1 X96.982 Y80.671 E4.29730
G1 X96.982 Y81.557 E4.32474
G1 X103.018 Y75.520 E4.58939
G1 X103.018 Y76.405 E4.61683
G1 X96.982 Y82.442 E4.88147
G1 X96.982 Y83.328 E4.90892
G1 X103.018 Y77.291 E5.17356
G1 X103.018 Y78.176 E5.20101
