; generated by Slic3r 1.3.0 on 2020-03-10 at 21:34:32

; external perimeters extrusion width = 0.44mm (2.86mm^3/s)
; perimeters extrusion width = 0.56mm (4.14mm^3/s)
; infill extrusion width = 0.50mm (3.66mm^3/s)
; solid infill extrusion width = 0.56mm (3.10mm^3/s)
; top infill extrusion width = 0.56mm (3.10mm^3/s)

M107
;D3D:START:START
T0
M104 S215 T0

G21
G90
M107
T0
G28
G29
M109 T0 S215 T0
G0 F3000
M107
T0
G92 E0
G0 X0 Y149 Z0.1 F3600
G1 Y49 E6.5 F1200
G0 Z1
G92 E0
; Filament gcode

G21 ; set units to millimeters
G90 ; use absolute coordinates
M82 ; use absolute distances for extrusion
G92 E0
G1 Z0.300 F7800.000
G1 E-2.00000 F2400.00000
G92 E0
G1 X79.274 Y77.271 F7800.000
G1 E2.00000 F2400.00000
G1 F1800
G1 X80.002 Y77.784 E2.02952
G1 X81.043 Y78.735 E2.07624
G1 X81.957 Y79.809 E2.12295
G1 X82.729 Y80.989 E2.16967
G1 X83.347 Y82.256 E2.21638
G1 X83.802 Y83.591 E2.26310
G1 X84.085 Y84.973 E2.30981
G1 X84.193 Y86.378 E2.35653
G1 X84.125 Y87.787 E2.40324
G1 X83.880 Y89.175 E2.44996
G1 X83.463 Y90.523 E2.49668
G1 X82.880 Y91.807 E2.54339
G1 X82.141 Y93.008 E2.59011
G1 X81.258 Y94.107 E2.63682
G1 X80.243 Y95.086 E2.68354
G1 X79.114 Y95.931 E2.73025
G1 X77.888 Y96.627 E2.77697
G1 X76.585 Y97.165 E2.82368
G1 X75.806 Y97.376 E2.85040
G1 X73.592 Y97.376 E2.92375
G1 X70.799 Y97.023 E3.01703
G1 X68.084 Y96.328 E3.10986
G1 X65.454 Y95.286 E3.20359
G1 X63.329 Y94.119 E3.28391
G1 X63.452 Y93.774 E3.29603
G1 X64.660 Y93.996 E3.33671
G1 X66.108 Y94.077 E3.38475
G1 X67.554 Y93.975 E3.43280
G1 X68.977 Y93.694 E3.48084
G1 X70.353 Y93.236 E3.52889
G1 X71.661 Y92.609 E3.57693
G1 X72.880 Y91.824 E3.62497
G1 X73.991 Y90.892 E3.67302
G1 X74.976 Y89.828 E3.72106
G1 X75.820 Y88.648 E3.76911
G1 X76.510 Y87.373 E3.81715
G1 X77.034 Y86.021 E3.86519
G1 X77.385 Y84.614 E3.91324
G1 X77.557 Y83.174 E3.96128
G1 X77.547 Y81.724 E4.00933
G1 X77.355 Y80.286 E4.05737
G1 X77.107 Y79.348 E4.08952
G1 X77.591 Y79.082 E4.10780
G1 X78.082 Y78.725 E4.12791
G1 X78.524 Y78.310 E4.14802
G1 X78.911 Y77.842 E4.16814
G1 X79.242 Y77.321 E4.18856
G1 E2.18856 F2400.00000
G92 E0
G1 X76.811 Y79.473 F7800.000
G1 E2.00000 F2400.00000
G1 F1800
G1 X77.042 Y80.348 E2.03000
G1 X77.228 Y81.746 E2.07671
G1 X77.238 Y83.156 E2.12343
G1 X77.071 Y84.556 E2.17014
G1 X76.730 Y85.924 E2.21686
G1 X76.220 Y87.239 E2.26357
G1 X75.549 Y88.479 E2.31029
G1 X74.729 Y89.626 E2.35700
G1 X73.771 Y90.660 E2.40372
G1 X72.690 Y91.567 E2.45043
G1 X71.505 Y92.331 E2.49715
G1 X70.233 Y92.940 E2.54387
G1 X68.895 Y93.385 E2.59058
G1 X67.512 Y93.659 E2.63730
G1 X66.106 Y93.757 E2.68401
G1 X64.698 Y93.679 E2.73073
G1 X63.311 Y93.424 E2.77744
G1 X61.967 Y92.998 E2.82416
G1 X61.243 Y92.663 E2.85058
G1 X60.709 Y92.275 E2.87245
G1 X58.656 Y90.348 E2.96573
G1 X56.862 Y88.178 E3.05900
G1 X55.353 Y85.801 E3.15228
G1 X54.154 Y83.253 E3.24556
G1 X53.799 Y82.159 E3.28368
G1 X54.110 Y81.988 E3.29546
G1 X54.869 Y82.905 E3.33489
G1 X55.926 Y83.898 E3.38293
G1 X57.099 Y84.750 E3.43098
G1 X58.370 Y85.449 E3.47902
G1 X59.718 Y85.983 E3.52707
G1 X61.123 Y86.343 E3.57511
G1 X62.562 Y86.525 E3.62316
G1 X64.012 Y86.525 E3.67120
G1 X65.451 Y86.343 E3.71924
G1 X66.855 Y85.983 E3.76729
G1 X68.204 Y85.449 E3.81533
G1 X69.474 Y84.750 E3.86338
G1 X70.648 Y83.898 E3.91142
G1 X71.705 Y82.905 E3.95946
G1 X72.629 Y81.788 E4.00751
G1 X73.406 Y80.563 E4.05555
G1 X73.822 Y79.679 E4.08792
G1 X74.094 Y79.749 E4.09721
G1 X74.696 Y79.825 E4.11733
G1 X75.304 Y79.825 E4.13744
G1 X75.906 Y79.749 E4.15756
G1 X76.494 Y79.598 E4.17767
G1 X76.755 Y79.495 E4.18696
G1 E2.18696 F2400.00000
G92 E0
G1 X79.416 Y76.981 F7800.000
G1 E2.00000 F2400.00000
G1 F1800
G1 X79.683 Y76.201 E2.02732
G1 X79.797 Y75.606 E2.04739
G1 X79.835 Y75.000 E2.06751
G1 X79.797 Y74.394 E2.08762
G1 X79.720 Y73.994 E2.10113
G1 X80.606 Y73.919 E2.13058
G1 X82.030 Y73.977 E2.17780
G1 X83.421 Y74.212 E2.22452
G1 X84.771 Y74.620 E2.27123
G1 X86.059 Y75.193 E2.31795
G1 X87.239 Y75.908 E2.36367
G1 X88.370 Y76.799 E2.41137
G1 X89.356 Y77.807 E2.45809
G1 X90.209 Y78.930 E2.50480
G1 X90.914 Y80.151 E2.55152
G1 X91.449 Y81.424 E2.59724
G1 X91.840 Y82.809 E2.64494
G1 X92.046 Y84.204 E2.69166
G1 X92.075 Y85.614 E2.73837
G1 X91.928 Y87.016 E2.78509
G1 X91.606 Y88.389 E2.83180
G1 X91.114 Y89.711 E2.87852
G1 X90.461 Y90.961 E2.92523
G1 X90.029 Y91.583 E2.95034
G1 X89.291 Y92.275 E2.98385
G1 X87.013 Y93.930 E3.07713
G1 X84.546 Y95.286 E3.17040
G1 X81.928 Y96.323 E3.26368
G1 X79.201 Y97.023 E3.35696
G1 X78.348 Y97.131 E3.38545
G1 X78.237 Y96.796 E3.39715
G1 X79.289 Y96.198 E3.43725
G1 X80.450 Y95.329 E3.48530
G1 X81.494 Y94.322 E3.53334
G1 X82.402 Y93.192 E3.58138
G1 X83.162 Y91.957 E3.62943
G1 X83.761 Y90.636 E3.67747
G1 X84.190 Y89.251 E3.72551
G1 X84.442 Y87.822 E3.77356
G1 X84.513 Y86.374 E3.82160
G1 X84.401 Y84.928 E3.86965
G1 X84.110 Y83.507 E3.91769
G1 X83.643 Y82.135 E3.96574
G1 X83.007 Y80.831 E4.01378
G1 X82.213 Y79.618 E4.06182
G1 X81.273 Y78.513 E4.10987
G1 X80.202 Y77.536 E4.15791
G1 X79.465 Y77.016 E4.18777
G1 E2.18777 F2400.00000
G92 E0
G1 X76.874 Y75.742 F7800.000
G1 E2.00000 F2400.00000
G1 F1800
G1 X76.763 Y75.975 E2.00855
G1 X76.630 Y76.185 E2.01676
G1 X76.469 Y76.380 E2.02515
G1 X76.285 Y76.553 E2.03353
G1 X76.080 Y76.702 E2.04191
G1 X75.858 Y76.824 E2.05030
G1 X75.623 Y76.917 E2.05868
G1 X75.378 Y76.980 E2.06707
G1 X75.127 Y77.011 E2.07545
G1 X74.873 Y77.011 E2.08384
G1 X74.622 Y76.980 E2.09222
G1 X74.377 Y76.917 E2.10061
G1 X74.142 Y76.823 E2.10900
G1 X73.916 Y76.699 E2.11755
G1 X73.715 Y76.553 E2.12576
G1 X73.531 Y76.380 E2.13414
G1 X73.370 Y76.185 E2.14253
G1 X73.234 Y75.971 E2.15091
G1 X73.126 Y75.742 E2.15930
G1 X73.048 Y75.501 E2.16768
G1 X73.001 Y75.253 E2.17607
G1 X72.985 Y75.000 E2.18445
G1 X73.001 Y74.747 E2.19284
G1 X73.048 Y74.499 E2.20122
G1 X73.126 Y74.258 E2.20961
G1 X73.234 Y74.029 E2.21799
G1 X73.370 Y73.815 E2.22638
G1 X73.531 Y73.620 E2.23476
G1 X73.715 Y73.447 E2.24314
G1 X73.920 Y73.298 E2.25153
G1 X74.142 Y73.176 E2.25991
G1 X74.377 Y73.083 E2.26830
G1 X74.617 Y73.022 E2.27651
G1 X74.873 Y72.989 E2.28506
G1 X75.127 Y72.989 E2.29345
G1 X75.378 Y73.020 E2.30184
G1 X75.623 Y73.083 E2.31022
G1 X75.858 Y73.176 E2.31861
G1 X76.080 Y73.298 E2.32699
G1 X76.285 Y73.447 E2.33537
G1 X76.469 Y73.620 E2.34376
G1 X76.630 Y73.815 E2.35214
G1 X76.766 Y74.029 E2.36053
G1 X76.874 Y74.258 E2.36891
G1 X76.952 Y74.499 E2.37730
G1 X76.999 Y74.747 E2.38568
G1 X77.015 Y75.000 E2.39407
G1 X76.999 Y75.253 E2.40245
G1 X76.952 Y75.501 E2.41084
G1 X76.892 Y75.685 E2.41724
G1 E0.41724 F2400.00000
G92 E0
G1 X79.645 Y73.680 F7800.000
G1 E2.00000 F2400.00000
G1 F1800
G1 X79.495 Y73.220 E2.01602
G1 X79.237 Y72.671 E2.03613
G1 X78.911 Y72.158 E2.05625
G1 X78.524 Y71.690 E2.07636
G1 X77.982 Y71.182 E2.10099
G1 X78.611 Y70.558 E2.13032
G1 X79.728 Y69.697 E2.17704
G1 X80.944 Y68.984 E2.22375
G1 X82.240 Y68.428 E2.27047
G1 X83.596 Y68.040 E2.31718
G1 X84.989 Y67.824 E2.36390
G1 X86.369 Y67.785 E2.40962
G1 X87.802 Y67.922 E2.45732
G1 X89.177 Y68.235 E2.50404
G1 X90.502 Y68.717 E2.55075
G1 X91.756 Y69.361 E2.59747
G1 X92.920 Y70.158 E2.64418
G1 X93.974 Y71.094 E2.69090
G1 X94.903 Y72.155 E2.73762
G1 X95.691 Y73.324 E2.78433
G1 X96.327 Y74.583 E2.83105
G1 X96.800 Y75.911 E2.87776
G1 X97.103 Y77.288 E2.92448
G1 X97.181 Y78.140 E2.95281
G1 X96.716 Y80.576 E3.03496
G1 X95.846 Y83.253 E3.12824
G1 X94.647 Y85.801 E3.22151
G1 X93.138 Y88.178 E3.31479
G1 X91.809 Y89.786 E3.38391
G1 X91.494 Y89.604 E3.39595
G1 X91.912 Y88.482 E3.43563
G1 X92.243 Y87.070 E3.48367
G1 X92.394 Y85.627 E3.53172
G1 X92.364 Y84.178 E3.57976
G1 X92.152 Y82.743 E3.62781
G1 X91.762 Y81.346 E3.67585
G1 X91.200 Y80.009 E3.72389
G1 X90.475 Y78.753 E3.77194
G1 X89.598 Y77.598 E3.81998
G1 X88.584 Y76.562 E3.86803
G1 X87.447 Y75.661 E3.91607
G1 X86.207 Y74.910 E3.96412
G1 X84.882 Y74.320 E4.01216
G1 X83.494 Y73.901 E4.06020
G1 X82.064 Y73.659 E4.10825
G1 X80.615 Y73.599 E4.15629
G1 X79.704 Y73.675 E4.18656
G1 E2.18656 F2400.00000
G92 E0
G1 X77.723 Y70.990 F7800.000
G1 E2.00000 F2400.00000
G1 F1800
G1 X77.059 Y70.625 E2.02510
G1 X76.494 Y70.402 E2.04522
G1 X75.906 Y70.251 E2.06533
G1 X75.304 Y70.175 E2.08545
G1 X74.829 Y70.175 E2.10118
G1 X74.910 Y69.276 E2.13108
G1 X75.213 Y67.899 E2.17780
G1 X75.686 Y66.570 E2.22451
G1 X76.322 Y65.312 E2.27123
G1 X77.111 Y64.143 E2.31794
G1 X78.039 Y63.082 E2.36466
G1 X79.094 Y62.146 E2.41137
G1 X80.257 Y61.349 E2.45809
G1 X81.511 Y60.705 E2.50480
G1 X82.837 Y60.222 E2.55152
G1 X84.212 Y59.910 E2.59823
G1 X85.585 Y59.775 E2.64396
G1 X87.024 Y59.812 E2.69165
G1 X88.418 Y60.027 E2.73837
G1 X89.773 Y60.416 E2.78509
G1 X91.069 Y60.971 E2.83180
G1 X92.286 Y61.685 E2.87852
G1 X93.403 Y62.545 E2.92524
G1 X93.930 Y63.069 E2.94984
G1 X94.647 Y64.199 E2.99419
G1 X95.846 Y66.747 E3.08747
G1 X96.716 Y69.424 E3.18074
G1 X97.244 Y72.190 E3.27402
G1 X97.420 Y75.000 E3.36730
G1 X97.384 Y75.577 E3.38645
G1 X97.037 Y75.626 E3.39806
G1 X96.621 Y74.457 E3.43916
G1 X95.967 Y73.163 E3.48720
G1 X95.156 Y71.960 E3.53525
G1 X94.201 Y70.869 E3.58329
G1 X93.116 Y69.906 E3.63133
G1 X91.920 Y69.087 E3.67938
G1 X90.630 Y68.424 E3.72742
G1 X89.267 Y67.928 E3.77547
G1 X87.853 Y67.607 E3.82351
G1 X86.410 Y67.465 E3.87155
G1 X84.960 Y67.506 E3.91960
G1 X83.527 Y67.728 E3.96764
G1 X82.133 Y68.127 E4.01569
G1 X80.800 Y68.699 E4.06373
G1 X79.549 Y69.433 E4.11177
G1 X78.400 Y70.317 E4.15982
G1 X77.765 Y70.948 E4.18948
G1 E2.18948 F2400.00000
G92 E0
G1 X74.506 Y70.199 F7800.000
G1 E2.00000 F2400.00000
G1 F1800
G1 X74.094 Y70.251 E2.01377
G1 X73.506 Y70.402 E2.03388
G1 X72.941 Y70.625 E2.05400
G1 X72.409 Y70.918 E2.07411
G1 X71.754 Y71.394 E2.10097
G1 X71.252 Y70.673 E2.13008
G1 X70.599 Y69.423 E2.17680
G1 X70.107 Y68.101 E2.22351
G1 X69.785 Y66.729 E2.27023
G1 X69.638 Y65.326 E2.31694
G1 X69.667 Y63.917 E2.36366
G1 X69.873 Y62.522 E2.41038
G1 X70.253 Y61.163 E2.45709
G1 X70.799 Y59.863 E2.50381
G1 X71.504 Y58.642 E2.55052
G1 X72.357 Y57.519 E2.59724
G1 X73.343 Y56.512 E2.64395
G1 X74.448 Y55.636 E2.69067
G1 X75.654 Y54.905 E2.73738
G1 X76.943 Y54.332 E2.78410
G1 X78.293 Y53.924 E2.83081
G1 X79.683 Y53.689 E2.87753
G1 X81.062 Y53.631 E2.92325
G1 X82.003 Y53.706 E2.95452
G1 X84.546 Y54.714 E3.04515
G1 X87.013 Y56.070 E3.13843
G1 X89.291 Y57.725 E3.23170
G1 X91.344 Y59.652 E3.32498
G1 X92.467 Y61.010 E3.38337
G1 X92.233 Y61.285 E3.39532
G1 X91.213 Y60.686 E3.43449
G1 X89.881 Y60.115 E3.48254
G1 X88.486 Y59.715 E3.53058
G1 X87.053 Y59.494 E3.57863
G1 X85.604 Y59.453 E3.62667
G1 X84.160 Y59.595 E3.67472
G1 X82.746 Y59.916 E3.72276
G1 X81.384 Y60.412 E3.77080
G1 X80.094 Y61.075 E3.81885
G1 X78.897 Y61.894 E3.86689
G1 X77.813 Y62.857 E3.91494
G1 X76.858 Y63.948 E3.96298
G1 X76.047 Y65.150 E4.01102
G1 X75.393 Y66.445 E4.05907
G1 X74.906 Y67.811 E4.10711
G1 X74.595 Y69.227 E4.15516
G1 X74.512 Y70.139 E4.18549
G1 E2.18549 F2400.00000
G92 E0
G1 X71.528 Y71.628 F7800.000
G1 E2.00000 F2400.00000
G1 F1800
G1 X71.089 Y72.158 E2.02281
G1 X70.763 Y72.671 E2.04293
G1 X70.505 Y73.220 E2.06304
G1 X70.317 Y73.798 E2.08316
G1 X70.216 Y74.330 E2.10112
G1 X69.347 Y74.094 E2.13092
G1 X68.044 Y73.557 E2.17764
G1 X66.818 Y72.860 E2.22436
G1 X65.667 Y71.995 E2.27205
G1 X64.674 Y71.036 E2.31777
G1 X63.791 Y69.937 E2.36450
G1 X63.039 Y68.709 E2.41219
G1 X62.469 Y67.452 E2.45791
G1 X62.052 Y66.105 E2.50463
G1 X61.808 Y64.716 E2.55134
G1 X61.739 Y63.308 E2.59806
G1 X61.847 Y61.902 E2.64477
G1 X62.130 Y60.521 E2.69149
G1 X62.585 Y59.186 E2.73820
G1 X63.203 Y57.919 E2.78492
G1 X63.975 Y56.739 E2.83164
G1 X64.889 Y55.665 E2.87835
G1 X65.930 Y54.714 E2.92507
G1 X66.541 Y54.283 E2.94984
G1 X68.072 Y53.677 E3.00438
G1 X70.799 Y52.977 E3.09765
G1 X73.592 Y52.624 E3.19093
G1 X76.408 Y52.624 E3.28421
G1 X79.201 Y52.977 E3.37749
G1 X79.495 Y53.052 E3.38755
G1 X79.481 Y53.400 E3.39908
G1 X78.220 Y53.613 E3.44146
G1 X76.831 Y54.033 E3.48950
G1 X75.507 Y54.622 E3.53755
G1 X74.266 Y55.374 E3.58559
G1 X73.130 Y56.274 E3.63363
G1 X72.115 Y57.311 E3.68168
G1 X71.238 Y58.466 E3.72972
G1 X70.513 Y59.722 E3.77777
G1 X69.951 Y61.058 E3.82581
G1 X69.561 Y62.455 E3.87386
G1 X69.349 Y63.890 E3.92190
G1 X69.319 Y65.340 E3.96994
G1 X69.470 Y66.782 E4.01799
G1 X69.802 Y68.194 E4.06603
G1 X70.307 Y69.553 E4.11408
G1 X70.979 Y70.838 E4.16212
G1 X71.493 Y71.578 E4.19198
G1 E2.19198 F2400.00000
G92 E0
G1 X70.187 Y74.653 F7800.000
G1 E2.00000 F2400.00000
G1 F1800
G1 X70.165 Y75.000 E2.01153
G1 X70.203 Y75.606 E2.03164
G1 X70.317 Y76.202 E2.05176
G1 X70.504 Y76.778 E2.07183
G1 X70.892 Y77.568 E2.10096
G1 X70.088 Y77.940 E2.13031
G1 X68.744 Y78.366 E2.17703
G1 X67.357 Y78.620 E2.22374
G1 X65.949 Y78.699 E2.27046
G1 X64.542 Y78.601 E2.31718
G1 X63.159 Y78.327 E2.36389
G1 X61.821 Y77.882 E2.41061
G1 X60.549 Y77.273 E2.45732
G1 X59.364 Y76.509 E2.50404
G1 X58.284 Y75.602 E2.55075
G1 X57.326 Y74.568 E2.59747
G1 X56.505 Y73.421 E2.64418
G1 X55.834 Y72.181 E2.69090
G1 X55.327 Y70.875 E2.73731
G1 X54.983 Y69.498 E2.78433
G1 X54.816 Y68.098 E2.83105
G1 X54.826 Y66.668 E2.87842
G1 X55.013 Y65.290 E2.92449
G1 X55.234 Y64.451 E2.95322
G1 X55.353 Y64.199 E2.96246
G1 X56.862 Y61.822 E3.05574
G1 X58.656 Y59.652 E3.14902
G1 X60.709 Y57.725 E3.24230
G1 X62.987 Y56.070 E3.33558
G1 X64.258 Y55.371 E3.38365
G1 X64.484 Y55.648 E3.39551
G1 X63.719 Y56.547 E3.43462
G1 X62.925 Y57.761 E3.48266
G1 X62.290 Y59.064 E3.53071
G1 X61.822 Y60.437 E3.57875
G1 X61.531 Y61.858 E3.62679
G1 X61.419 Y63.304 E3.67484
G1 X61.490 Y64.752 E3.72288
G1 X61.742 Y66.180 E3.77093
G1 X62.171 Y67.566 E3.81897
G1 X62.770 Y68.886 E3.86701
G1 X63.530 Y70.121 E3.91506
G1 X64.438 Y71.252 E3.96310
G1 X65.482 Y72.259 E4.01115
G1 X66.643 Y73.128 E4.05919
G1 X67.904 Y73.844 E4.10723
G1 X69.245 Y74.397 E4.15528
G1 X70.129 Y74.637 E4.18565
G1 E2.18565 F2400.00000
G92 E0
G1 X71.080 Y77.832 F7800.000
G1 E2.00000 F2400.00000
G1 F1800
G1 X71.476 Y78.310 E2.02054
G1 X71.918 Y78.725 E2.04065
G1 X72.409 Y79.082 E2.06077
G1 X72.941 Y79.375 E2.08088
G1 X73.508 Y79.599 E2.10106
G1 X73.126 Y80.409 E2.13074
G1 X72.371 Y81.600 E2.17746
G1 X71.472 Y82.686 E2.22417
G1 X70.444 Y83.652 E2.27089
G1 X69.303 Y84.481 E2.31760
G1 X68.068 Y85.160 E2.36433
G1 X66.728 Y85.686 E2.41202
G1 X65.391 Y86.030 E2.45774
G1 X63.992 Y86.206 E2.50446
G1 X62.582 Y86.206 E2.55117
G1 X61.183 Y86.030 E2.59789
G1 X59.817 Y85.679 E2.64461
G1 X58.506 Y85.160 E2.69132
G1 X57.270 Y84.481 E2.73803
G1 X56.130 Y83.652 E2.78475
G1 X55.102 Y82.686 E2.83147
G1 X54.203 Y81.600 E2.87818
G1 X53.447 Y80.409 E2.92490
G1 X53.120 Y79.713 E2.95039
G1 X52.756 Y77.810 E3.01458
G1 X52.580 Y75.000 E3.10785
G1 X52.756 Y72.190 E3.20113
G1 X53.284 Y69.424 E3.29441
G1 X54.143 Y66.782 E3.38646
G1 X54.506 Y66.841 E3.39866
G1 X54.497 Y68.116 E3.44090
G1 X54.669 Y69.556 E3.48894
G1 X55.020 Y70.963 E3.53699
G1 X55.544 Y72.315 E3.58503
G1 X56.234 Y73.590 E3.63308
G1 X57.078 Y74.769 E3.68112
G1 X58.064 Y75.834 E3.72916
G1 X59.175 Y76.766 E3.77721
G1 X60.393 Y77.551 E3.82525
G1 X61.701 Y78.178 E3.87330
G1 X63.077 Y78.636 E3.92134
G1 X64.500 Y78.917 E3.96939
G1 X65.947 Y79.018 E4.01743
G1 X67.395 Y78.938 E4.06547
G1 X68.821 Y78.676 E4.11352
G1 X70.203 Y78.237 E4.16156
G1 X71.026 Y77.857 E4.19159
G1 E2.19159 F2400.00000
G92 E0
G1 X54.298 Y90.041 F7800.000
G1 E2.00000 F2400.00000
G1 F1800
G1 X52.576 Y87.328 E2.10646
G1 X51.207 Y84.420 E2.21293
G1 X50.214 Y81.364 E2.31939
G1 X49.612 Y78.207 E2.42586
G1 X49.410 Y75.000 E2.53232
G1 X49.612 Y71.793 E2.63879
G1 X50.214 Y68.636 E2.74525
G1 X51.207 Y65.580 E2.85172
G1 X52.576 Y62.672 E2.95818
G1 X54.298 Y59.959 E3.06464
G1 X56.346 Y57.483 E3.17111
G1 X58.688 Y55.283 E3.27757
G1 X61.288 Y53.394 E3.38404
G1 X64.104 Y51.846 E3.49050
G1 X67.092 Y50.663 E3.59697
G1 X70.205 Y49.864 E3.70343
G1 X73.393 Y49.461 E3.80989
G1 X76.607 Y49.461 E3.91636
G1 X79.795 Y49.864 E4.02282
G1 X82.908 Y50.663 E4.12929
G1 X85.896 Y51.846 E4.23575
G1 X88.712 Y53.394 E4.34221
G1 X91.312 Y55.283 E4.44868
G1 X93.654 Y57.483 E4.55515
G1 X95.702 Y59.959 E4.66161
G1 X97.424 Y62.672 E4.76807
G1 X98.793 Y65.580 E4.87454
G1 X99.786 Y68.636 E4.98100
G1 X100.388 Y71.793 E5.08747
G1 X100.590 Y75.000 E5.19393
G1 X100.388 Y78.207 E5.30040
G1 X99.786 Y81.364 E5.40686
G1 X98.793 Y84.420 E5.51332
