; generated by Slic3r 1.3.0 on 2020-03-10 at 21:28:18

; external perimeters extrusion width = 0.44mm (2.86mm^3/s)
; perimeters extrusion width = 0.56mm (4.14mm^3/s)
; infill extrusion width = 0.50mm (3.66mm^3/s)
; solid infill extrusion width = 0.56mm (3.10mm^3/s)
; top infill extrusion width = 0.56mm (3.10mm^3/s)

M107
;D3D:START:START
T0
M104 S215 T0

G21
G90
M107
T0
G28
G29
M109 T0 S215 T0
G0 F3000
M107
T0
G92 E0
G0 X0 Y149 Z0.1 F3600
G1 Y49 E6.5 F1200
G0 Z1
G92 E0
; Filament gcode

G21 ; set units to millimeters
G90 ; use absolute coordinates
M82 ; use absolute distances for extrusion
G92 E0
G1 Z0.300 F7800.000
G1 E-2.00000 F2400.00000
G92 E0
G1 X-21.748 Y48.444 F7800.000
G1 E2.00000 F2400.00000
G1 F1800
G1 X-21.554 Y48.551 E2.00734
G1 X-21.375 Y48.681 E2.01469
G1 X-21.213 Y48.833 E2.02203
G1 X-21.072 Y49.003 E2.02938
G1 X-20.953 Y49.191 E2.03672
G1 X-20.859 Y49.391 E2.04407
G1 X-20.790 Y49.602 E2.05141
G1 X-20.749 Y49.820 E2.05876
G1 X-20.735 Y50.041 E2.06610
G1 X-20.749 Y50.262 E2.07345
G1 X-20.790 Y50.480 E2.08079
G1 X-20.859 Y50.691 E2.08814
G1 X-20.953 Y50.892 E2.09548
G1 X-21.072 Y51.079 E2.10283
G1 X-21.213 Y51.249 E2.11017
G1 X-21.375 Y51.401 E2.11751
G1 X-21.554 Y51.532 E2.12486
G1 X-21.748 Y51.638 E2.13220
G1 X-21.955 Y51.720 E2.13955
G1 X-22.169 Y51.775 E2.14689
G1 X-22.390 Y51.803 E2.15425
G1 X-22.627 Y51.802 E2.16210
G1 X-23.041 Y51.722 E2.17608
G1 X-23.252 Y51.638 E2.18359
G1 X-23.446 Y51.532 E2.19093
G1 X-23.625 Y51.401 E2.19828
G1 X-23.787 Y51.249 E2.20562
G1 X-23.928 Y51.079 E2.21297
G1 X-24.047 Y50.892 E2.22031
G1 X-24.141 Y50.691 E2.22766
G1 X-24.210 Y50.480 E2.23502
G1 X-24.253 Y50.247 E2.24287
G1 X-24.252 Y49.825 E2.25684
G1 X-24.210 Y49.602 E2.26435
G1 X-24.141 Y49.391 E2.27170
G1 X-24.047 Y49.191 E2.27904
G1 X-23.928 Y49.003 E2.28639
G1 X-23.787 Y48.833 E2.29373
G1 X-23.625 Y48.681 E2.30108
G1 X-23.446 Y48.551 E2.30842
G1 X-23.252 Y48.444 E2.31577
G1 X-23.045 Y48.362 E2.32311
G1 X-22.831 Y48.307 E2.33045
G1 X-22.611 Y48.279 E2.33780
G1 X-22.389 Y48.279 E2.34514
G1 X-22.169 Y48.307 E2.35249
G1 X-21.804 Y48.422 E2.36516
G1 E0.36516 F2400.00000
G92 E0
G1 X-14.252 Y49.825 F7800.000
G1 E2.00000 F2400.00000
G1 F1800
G1 X-14.210 Y49.602 E2.00751
G1 X-14.141 Y49.391 E2.01486
G1 X-14.047 Y49.191 E2.02220
G1 X-13.928 Y49.003 E2.02955
G1 X-13.787 Y48.833 E2.03689
G1 X-13.625 Y48.681 E2.04423
G1 X-13.446 Y48.551 E2.05158
G1 X-13.252 Y48.444 E2.05892
G1 X-13.045 Y48.362 E2.06627
G1 X-12.831 Y48.307 E2.07361
G1 X-12.611 Y48.279 E2.08096
G1 X-12.389 Y48.279 E2.08830
G1 X-12.169 Y48.307 E2.09565
G1 X-11.955 Y48.362 E2.10299
G1 X-11.748 Y48.444 E2.11033
G1 X-11.554 Y48.551 E2.11768
G1 X-11.375 Y48.681 E2.12502
G1 X-11.213 Y48.833 E2.13237
G1 X-11.072 Y49.003 E2.13971
G1 X-10.950 Y49.195 E2.14723
G1 X-10.794 Y49.587 E2.16120
G1 X-10.749 Y49.819 E2.16905
G1 X-10.735 Y50.041 E2.17641
G1 X-10.749 Y50.262 E2.18376
G1 X-10.790 Y50.480 E2.19110
G1 X-10.859 Y50.691 E2.19844
G1 X-10.953 Y50.892 E2.20579
G1 X-11.072 Y51.079 E2.21313
G1 X-11.213 Y51.249 E2.22048
G1 X-11.375 Y51.401 E2.22782
G1 X-11.554 Y51.532 E2.23517
G1 X-11.748 Y51.638 E2.24251
G1 X-11.955 Y51.720 E2.24986
G1 X-12.169 Y51.775 E2.25720
G1 X-12.389 Y51.803 E2.26454
G1 X-12.611 Y51.803 E2.27189
G1 X-12.831 Y51.775 E2.27923
G1 X-13.045 Y51.720 E2.28658
G1 X-13.252 Y51.638 E2.29392
G1 X-13.446 Y51.532 E2.30127
G1 X-13.625 Y51.401 E2.30861
G1 X-13.787 Y51.249 E2.31596
G1 X-13.928 Y51.079 E2.32330
G1 X-14.047 Y50.892 E2.33065
G1 X-14.141 Y50.691 E2.33799
G1 X-14.210 Y50.480 E2.34535
G1 X-14.253 Y50.247 E2.35320
G1 X-14.252 Y49.885 E2.36519
G1 E0.36519 F2400.00000
G92 E0
G1 X-4.252 Y49.825 F7800.000
G1 E2.00000 F2400.00000
G1 F1800
G1 X-4.210 Y49.602 E2.00751
G1 X-4.141 Y49.391 E2.01486
G1 X-4.047 Y49.191 E2.02220
G1 X-3.928 Y49.003 E2.02955
G1 X-3.787 Y48.833 E2.03689
G1 X-3.625 Y48.681 E2.04423
G1 X-3.446 Y48.551 E2.05158
G1 X-3.252 Y48.444 E2.05892
G1 X-3.045 Y48.362 E2.06627
G1 X-2.831 Y48.307 E2.07361
G1 X-2.611 Y48.279 E2.08096
G1 X-2.389 Y48.279 E2.08830
G1 X-2.169 Y48.307 E2.09565
G1 X-1.955 Y48.362 E2.10299
G1 X-1.748 Y48.444 E2.11033
G1 X-1.554 Y48.551 E2.11768
G1 X-1.375 Y48.681 E2.12503
G1 X-1.213 Y48.833 E2.13237
G1 X-1.072 Y49.003 E2.13971
G1 X-0.953 Y49.191 E2.14706
G1 X-0.859 Y49.391 E2.15440
G1 X-0.790 Y49.602 E2.16175
G1 X-0.749 Y49.820 E2.16909
G1 X-0.735 Y50.041 E2.17644
G1 X-0.749 Y50.262 E2.18378
G1 X-0.790 Y50.480 E2.19113
G1 X-0.859 Y50.691 E2.19847
G1 X-0.953 Y50.892 E2.20581
G1 X-1.072 Y51.079 E2.21316
G1 X-1.213 Y51.249 E2.22050
G1 X-1.375 Y51.401 E2.22785
G1 X-1.554 Y51.532 E2.23519
G1 X-1.748 Y51.638 E2.24254
G1 X-1.955 Y51.720 E2.24988
G1 X-2.169 Y51.775 E2.25722
G1 X-2.390 Y51.803 E2.26458
G1 X-2.627 Y51.802 E2.27244
G1 X-3.041 Y51.722 E2.28641
G1 X-3.252 Y51.638 E2.29392
G1 X-3.446 Y51.532 E2.30127
G1 X-3.625 Y51.401 E2.30861
G1 X-3.787 Y51.249 E2.31596
G1 X-3.928 Y51.079 E2.32330
G1 X-4.047 Y50.892 E2.33065
G1 X-4.141 Y50.691 E2.33799
G1 X-4.210 Y50.480 E2.34535
G1 X-4.253 Y50.247 E2.35320
G1 X-4.252 Y49.885 E2.36519
G1 E0.36519 F2400.00000
G92 E0
G1 X5.748 Y49.825 F7800.000
G1 E2.00000 F2400.00000
G1 F1800
G1 X5.790 Y49.602 E2.00751
G1 X5.859 Y49.391 E2.01486
G1 X5.953 Y49.191 E2.02220
G1 X6.072 Y49.003 E2.02955
G1 X6.213 Y48.833 E2.03689
G1 X6.375 Y48.681 E2.04423
G1 X6.554 Y48.551 E2.05158
G1 X6.748 Y48.444 E2.05892
G1 X6.955 Y48.362 E2.06627
G1 X7.169 Y48.307 E2.07361
G1 X7.389 Y48.279 E2.08096
G1 X7.611 Y48.279 E2.08830
G1 X7.831 Y48.307 E2.09565
G1 X8.045 Y48.362 E2.10299
G1 X8.252 Y48.444 E2.11033
G1 X8.446 Y48.551 E2.11768
G1 X8.625 Y48.681 E2.12503
G1 X8.787 Y48.833 E2.13237
G1 X8.928 Y49.003 E2.13971
G1 X9.050 Y49.195 E2.14723
G1 X9.206 Y49.587 E2.16120
G1 X9.251 Y49.819 E2.16905
G1 X9.265 Y50.041 E2.17641
G1 X9.251 Y50.262 E2.18376
G1 X9.210 Y50.480 E2.19110
G1 X9.141 Y50.691 E2.19844
G1 X9.047 Y50.892 E2.20579
G1 X8.928 Y51.079 E2.21313
G1 X8.787 Y51.249 E2.22048
G1 X8.625 Y51.401 E2.22782
G1 X8.446 Y51.532 E2.23517
G1 X8.252 Y51.638 E2.24251
G1 X8.045 Y51.720 E2.24986
G1 X7.831 Y51.775 E2.25720
G1 X7.610 Y51.803 E2.26456
G1 X7.373 Y51.802 E2.27241
G1 X6.959 Y51.722 E2.28638
G1 X6.748 Y51.638 E2.29390
G1 X6.554 Y51.532 E2.30124
G1 X6.375 Y51.401 E2.30859
G1 X6.213 Y51.249 E2.31593
G1 X6.072 Y51.079 E2.32328
G1 X5.953 Y50.892 E2.33062
G1 X5.859 Y50.691 E2.33796
G1 X5.790 Y50.480 E2.34532
G1 X5.747 Y50.247 E2.35318
G1 X5.748 Y49.885 E2.36516
G1 E0.36516 F2400.00000
G92 E0
G1 X15.748 Y49.825 F7800.000
G1 E2.00000 F2400.00000
G1 F1800
G1 X15.790 Y49.602 E2.00751
G1 X15.859 Y49.391 E2.01486
G1 X15.953 Y49.191 E2.02220
G1 X16.072 Y49.003 E2.02955
G1 X16.213 Y48.833 E2.03689
G1 X16.375 Y48.681 E2.04423
G1 X16.554 Y48.551 E2.05158
G1 X16.748 Y48.444 E2.05892
G1 X16.955 Y48.362 E2.06627
G1 X17.169 Y48.307 E2.07361
G1 X17.389 Y48.279 E2.08096
G1 X17.611 Y48.279 E2.08830
G1 X17.831 Y48.307 E2.09565
G1 X18.045 Y48.362 E2.10299
G1 X18.252 Y48.444 E2.11033
G1 X18.446 Y48.551 E2.11768
G1 X18.625 Y48.681 E2.12503
G1 X18.787 Y48.833 E2.13237
G1 X18.928 Y49.003 E2.13971
G1 X19.050 Y49.195 E2.14723
G1 X19.206 Y49.587 E2.16120
G1 X19.251 Y49.819 E2.16905
G1 X19.265 Y50.041 E2.17641
G1 X19.251 Y50.262 E2.18376
G1 X19.210 Y50.480 E2.19110
G1 X19.141 Y50.691 E2.19844
G1 X19.047 Y50.892 E2.20579
G1 X18.928 Y51.079 E2.21313
G1 X18.787 Y51.249 E2.22048
G1 X18.625 Y51.401 E2.22782
G1 X18.446 Y51.532 E2.23517
G1 X18.252 Y51.638 E2.24251
G1 X18.045 Y51.720 E2.24986
G1 X17.831 Y51.775 E2.25720
G1 X17.610 Y51.803 E2.26456
G1 X17.373 Y51.802 E2.27241
G1 X16.959 Y51.722 E2.28638
G1 X16.748 Y51.638 E2.29390
G1 X16.554 Y51.532 E2.30124
G1 X16.375 Y51.401 E2.30859
G1 X16.213 Y51.249 E2.31593
G1 X16.072 Y51.079 E2.32328
G1 X15.953 Y50.892 E2.33062
G1 X15.859 Y50.691 E2.33796
G1 X15.790 Y50.480 E2.34532
G1 X15.747 Y50.247 E2.35318
G1 X15.748 Y49.885 E2.36516
G1 E0.36516 F2400.00000
G92 E0
G1 X25.735 Y50.041 F7800.000
G1 E2.00000 F2400.00000
G1 F1800
G1 X25.749 Y49.820 E2.00734
G1 X25.790 Y49.602 E2.01469
G1 X25.859 Y49.391 E2.02203
G1 X25.953 Y49.191 E2.02938
G1 X26.072 Y49.003 E2.03672
G1 X26.213 Y48.833 E2.04407
G1 X26.375 Y48.681 E2.05141
G1 X26.554 Y48.551 E2.05876
G1 X26.748 Y48.444 E2.06610
G1 X26.955 Y48.362 E2.07345
G1 X27.169 Y48.307 E2.08079
G1 X27.389 Y48.279 E2.08813
G1 X27.610 Y48.279 E2.09546
G1 X27.831 Y48.307 E2.10283
G1 X28.045 Y48.362 E2.11016
G1 X28.256 Y48.446 E2.11767
G1 X28.626 Y48.680 E2.13218
G1 X28.925 Y48.999 E2.14666
G1 X29.047 Y49.190 E2.15418
G1 X29.142 Y49.391 E2.16153
G1 X29.212 Y49.607 E2.16906
G1 X29.266 Y50.041 E2.18355
G1 X29.212 Y50.475 E2.19804
G1 X29.142 Y50.691 E2.20556
G1 X29.045 Y50.896 E2.21309
G1 X28.790 Y51.246 E2.22740
G1 X28.622 Y51.405 E2.23508
G1 X28.252 Y51.639 E2.24959
G1 X27.836 Y51.774 E2.26407
G1 X27.610 Y51.803 E2.27161
G1 X27.389 Y51.803 E2.27894
G1 X27.169 Y51.775 E2.28628
G1 X26.955 Y51.720 E2.29363
G1 X26.748 Y51.638 E2.30097
G1 X26.554 Y51.532 E2.30832
G1 X26.375 Y51.401 E2.31566
G1 X26.213 Y51.249 E2.32301
G1 X26.072 Y51.079 E2.33035
G1 X25.953 Y50.892 E2.33769
G1 X25.859 Y50.691 E2.34504
G1 X25.790 Y50.480 E2.35238
G1 X25.738 Y50.101 E2.36506
G1 E0.36506 F2400.00000
G92 E0
G1 X35.734 Y50.041 F7800.000
G1 E2.00000 F2400.00000
G1 F1800
G1 X35.788 Y49.607 E2.01449
G1 X35.858 Y49.391 E2.02201
G1 X35.955 Y49.186 E2.02954
G1 X36.210 Y48.836 E2.04386
G1 X36.378 Y48.677 E2.05153
G1 X36.748 Y48.443 E2.06604
G1 X37.164 Y48.308 E2.08052
G1 X37.390 Y48.279 E2.08806
G1 X37.610 Y48.279 E2.09537
G1 X37.831 Y48.307 E2.10274
G1 X38.045 Y48.362 E2.11007
G1 X38.256 Y48.446 E2.11759
G1 X38.626 Y48.680 E2.13210
G1 X38.925 Y48.999 E2.14657
G1 X39.047 Y49.190 E2.15409
G1 X39.142 Y49.391 E2.16145
G1 X39.212 Y49.607 E2.16897
G1 X39.266 Y50.041 E2.18346
G1 X39.212 Y50.475 E2.19795
G1 X39.142 Y50.691 E2.20547
G1 X39.045 Y50.896 E2.21300
G1 X38.790 Y51.246 E2.22732
G1 X38.622 Y51.405 E2.23499
G1 X38.252 Y51.639 E2.24950
G1 X37.836 Y51.774 E2.26398
G1 X37.610 Y51.803 E2.27152
G1 X37.390 Y51.803 E2.27883
G1 X37.169 Y51.775 E2.28620
G1 X36.955 Y51.720 E2.29353
G1 X36.744 Y51.636 E2.30105
G1 X36.374 Y51.402 E2.31556
G1 X36.075 Y51.083 E2.33003
G1 X35.953 Y50.892 E2.33755
G1 X35.858 Y50.691 E2.34491
G1 X35.788 Y50.475 E2.35243
G1 X35.741 Y50.101 E2.36493
G1 E0.36493 F2400.00000
G92 E0
G1 X45.734 Y50.041 F7800.000
G1 E2.00000 F2400.00000
G1 F1800
G1 X45.788 Y49.607 E2.01449
G1 X45.858 Y49.391 E2.02201
G1 X45.955 Y49.186 E2.02954
G1 X46.210 Y48.836 E2.04386
G1 X46.378 Y48.677 E2.05153
G1 X46.748 Y48.443 E2.06604
G1 X47.164 Y48.308 E2.08052
G1 X47.390 Y48.279 E2.08806
G1 X47.610 Y48.279 E2.09537
G1 X47.831 Y48.307 E2.10274
G1 X48.045 Y48.362 E2.11007
G1 X48.256 Y48.446 E2.11759
G1 X48.626 Y48.680 E2.13210
G1 X48.925 Y48.999 E2.14657
G1 X49.047 Y49.190 E2.15409
G1 X49.142 Y49.391 E2.16145
G1 X49.212 Y49.607 E2.16897
G1 X49.266 Y50.041 E2.18346
G1 X49.212 Y50.475 E2.19795
G1 X49.142 Y50.691 E2.20547
G1 X49.045 Y50.896 E2.21300
G1 X48.790 Y51.246 E2.22732
G1 X48.622 Y51.405 E2.23500
G1 X48.252 Y51.639 E2.24950
G1 X47.836 Y51.774 E2.26398
G1 X47.610 Y51.803 E2.27152
G1 X47.390 Y51.803 E2.27883
G1 X47.169 Y51.775 E2.28620
G1 X46.955 Y51.720 E2.29353
G1 X46.744 Y51.636 E2.30105
G1 X46.374 Y51.402 E2.31556
G1 X46.075 Y51.083 E2.33003
G1 X45.953 Y50.892 E2.33755
G1 X45.858 Y50.691 E2.34491
G1 X45.788 Y50.475 E2.35243
G1 X45.741 Y50.101 E2.36493
G1 E0.36493 F2400.00000
G92 E0
G1 X55.734 Y50.041 F7800.000
G1 E2.00000 F2400.00000
G1 F1800
G1 X55.788 Y49.607 E2.01449
G1 X55.858 Y49.391 E2.02201
G1 X55.955 Y49.186 E2.02954
G1 X56.210 Y48.836 E2.04386
G1 X56.378 Y48.677 E2.05153
G1 X56.748 Y48.443 E2.06604
G1 X57.164 Y48.308 E2.08052
G1 X57.390 Y48.279 E2.08806
G1 X57.610 Y48.279 E2.09537
G1 X57.831 Y48.307 E2.10274
G1 X58.045 Y48.362 E2.11007
G1 X58.256 Y48.446 E2.11759
G1 X58.626 Y48.680 E2.13210
G1 X58.925 Y48.999 E2.14657
G1 X59.047 Y49.190 E2.15409
G1 X59.142 Y49.391 E2.16145
G1 X59.212 Y49.607 E2.16897
G1 X59.266 Y50.041 E2.18346
G1 X59.212 Y50.475 E2.19795
G1 X59.142 Y50.692 E2.20549
G1 X59.039 Y50.905 E2.21335
G1 X58.790 Y51.246 E2.22732
G1 X58.622 Y51.405 E2.23499
G1 X58.252 Y51.639 E2.24950
G1 X57.836 Y51.774 E2.26398
G1 X57.610 Y51.803 E2.27152
G1 X57.390 Y51.803 E2.27883
G1 X57.169 Y51.775 E2.28620
G1 X56.955 Y51.720 E2.29353
G1 X56.744 Y51.636 E2.30104
G1 X56.374 Y51.402 E2.31555
G1 X56.075 Y51.083 E2.33003
G1 X55.953 Y50.892 E2.33755
G1 X55.858 Y50.691 E2.34490
G1 X55.788 Y50.475 E2.35243
G1 X55.741 Y50.101 E2.36493
G1 E0.36493 F2400.00000
G92 E0
G1 X65.734 Y50.041 F7800.000
G1 E2.00000 F2400.00000
G1 F1800
G1 X65.788 Y49.607 E2.01449
G1 X65.858 Y49.391 E2.02201
G1 X65.955 Y49.186 E2.02954
G1 X66.210 Y48.836 E2.04386
G1 X66.378 Y48.677 E2.05153
G1 X66.748 Y48.443 E2.06604
G1 X67.164 Y48.308 E2.08052
G1 X67.390 Y48.279 E2.08806
G1 X67.610 Y48.279 E2.09537
G1 X67.831 Y48.307 E2.10274
G1 X68.045 Y48.362 E2.11007
G1 X68.256 Y48.446 E2.11759
G1 X68.626 Y48.680 E2.13210
G1 X68.925 Y48.999 E2.14657
G1 X69.047 Y49.190 E2.15409
G1 X69.142 Y49.391 E2.16145
G1 X69.212 Y49.607 E2.16897
G1 X69.266 Y50.041 E2.18346
G1 X69.212 Y50.475 E2.19795
G1 X69.142 Y50.692 E2.20549
G1 X69.039 Y50.905 E2.21335
G1 X68.790 Y51.246 E2.22732
G1 X68.622 Y51.405 E2.23499
G1 X68.252 Y51.639 E2.24950
G1 X67.836 Y51.774 E2.26398
G1 X67.610 Y51.803 E2.27152
G1 X67.390 Y51.803 E2.27883
G1 X67.169 Y51.775 E2.28620
G1 X66.955 Y51.720 E2.29353
G1 X66.744 Y51.636 E2.30104
G1 X66.374 Y51.402 E2.31555
G1 X66.075 Y51.083 E2.33003
G1 X65.953 Y50.892 E2.33755
G1 X65.858 Y50.691 E2.34490
G1 X65.788 Y50.475 E2.35243
G1 X65.741 Y50.101 E2.36493
G1 E0.36493 F2400.00000
G92 E0
G1 X75.734 Y50.041 F7800.000
G1 E2.00000 F2400.00000
G1 F1800
G1 X75.788 Y49.607 E2.01449
G1 X75.858 Y49.391 E2.02201
G1 X75.955 Y49.186 E2.02954
G1 X76.210 Y48.836 E2.04386
G1 X76.378 Y48.677 E2.05153
G1 X76.748 Y48.443 E2.06604
G1 X77.164 Y48.308 E2.08052
G1 X77.390 Y48.279 E2.08806
G1 X77.610 Y48.279 E2.09537
G1 X77.831 Y48.307 E2.10274
G1 X78.045 Y48.362 E2.11007
G1 X78.256 Y48.446 E2.11759
G1 X78.626 Y48.680 E2.13210
G1 X78.925 Y48.999 E2.14657
G1 X79.047 Y49.190 E2.15409
G1 X79.142 Y49.391 E2.16145
G1 X79.212 Y49.607 E2.16897
G1 X79.266 Y50.041 E2.18346
G1 X79.212 Y50.475 E2.19795
G1 X79.142 Y50.692 E2.20549
G1 X79.039 Y50.905 E2.21335
G1 X78.790 Y51.246 E2.22732
G1 X78.622 Y51.405 E2.23499
G1 X78.252 Y51.639 E2.24950
G1 X77.836 Y51.774 E2.26398
G1 X77.610 Y51.803 E2.27152
G1 X77.390 Y51.803 E2.27883
G1 X77.169 Y51.775 E2.28620
G1 X76.955 Y51.720 E2.29353
G1 X76.744 Y51.636 E2.30104
G1 X76.374 Y51.402 E2.31555
G1 X76.075 Y51.083 E2.33003
G1 X75.953 Y50.892 E2.33755
G1 X75.858 Y50.691 E2.34490
G1 X75.788 Y50.475 E2.35243
G1 X75.741 Y50.101 E2.36493
G1 E0.36493 F2400.00000
G92 E0
G1 X85.734 Y50.041 F7800.000
G1 E2.00000 F2400.00000
G1 F1800
G1 X85.788 Y49.607 E2.01449
G1 X85.858 Y49.391 E2.02201
G1 X85.955 Y49.186 E2.02954
G1 X86.210 Y48.836 E2.04386
G1 X86.378 Y48.677 E2.05153
G1 X86.748 Y48.443 E2.06604
G1 X87.164 Y48.308 E2.08052
G1 X87.390 Y48.279 E2.08806
G1 X87.610 Y48.279 E2.09537
G1 X87.831 Y48.307 E2.10274
G1 X88.045 Y48.362 E2.11007
G1 X88.256 Y48.446 E2.11759
G1 X88.626 Y48.680 E2.13210
G1 X88.925 Y48.999 E2.14657
G1 X89.047 Y49.190 E2.15409
G1 X89.142 Y49.391 E2.16145
G1 X89.212 Y49.607 E2.16897
G1 X89.266 Y50.041 E2.18346
G1 X89.212 Y50.475 E2.19795
G1 X89.142 Y50.692 E2.20549
G1 X89.039 Y50.905 E2.21335
G1 X88.790 Y51.246 E2.22732
G1 X88.622 Y51.405 E2.23499
G1 X88.252 Y51.639 E2.24950
G1 X87.836 Y51.774 E2.26398
G1 X87.610 Y51.803 E2.27152
G1 X87.390 Y51.803 E2.27883
G1 X87.169 Y51.775 E2.28620
G1 X86.955 Y51.720 E2.29353
G1 X86.744 Y51.636 E2.30104
G1 X86.374 Y51.402 E2.31555
G1 X86.075 Y51.083 E2.33003
G1 X85.953 Y50.892 E2.33755
G1 X85.858 Y50.691 E2.34490
G1 X85.788 Y50.475 E2.35243
G1 X85.741 Y50.101 E2.36493
G1 E0.36493 F2400.00000
G92 E0
G1 X95.734 Y50.041 F7800.000
G1 E2.00000 F2400.00000
G1 F1800
G1 X95.788 Y49.607 E2.01449
G1 X95.858 Y49.391 E2.02201
G1 X95.955 Y49.186 E2.02954
G1 X96.210 Y48.836 E2.04386
G1 X96.378 Y48.677 E2.05153
G1 X96.748 Y48.443 E2.06604
G1 X97.164 Y48.308 E2.08052
G1 X97.390 Y48.279 E2.08806
G1 X97.610 Y48.279 E2.09537
