; generated by Slic3r 1.3.0 on 2020-03-10 at 21:34:29

; external perimeters extrusion width = 0.44mm (2.86mm^3/s)
; perimeters extrusion width = 0.56mm (4.14mm^3/s)
; infill extrusion width = 0.50mm (3.66mm^3/s)
; solid infill extrusion width = 0.56mm (3.10mm^3/s)
; top infill extrusion width = 0.56mm (3.10mm^3/s)

M107
;D3D:START:START
T0
M104 S215 T0

G21
G90
M107
T0
G28
G29
M109 T0 S215 T0
G0 F3000
M107
T0
G92 E0
G0 X0 Y149 Z0.1 F3600
G1 Y49 E6.5 F1200
G0 Z1
G92 E0
; Filament gcode

G21 ; set units to millimeters
G90 ; use absolute coordinates
M82 ; use absolute distances for extrusion
G92 E0
G1 Z0.300 F7800.000
G1 E-2.00000 F2400.00000
G92 E0
G1 X53.555 Y73.640 F7800.000
G1 E2.00000 F2400.00000
G1 F1800
G1 X53.734 Y73.509 E2.00735
G1 X53.928 Y73.403 E2.01469
G1 X54.135 Y73.321 E2.02204
G1 X54.349 Y73.266 E2.02938
G1 X54.569 Y73.238 E2.03672
G1 X54.791 Y73.238 E2.04407
G1 X55.011 Y73.266 E2.05141
G1 X55.225 Y73.321 E2.05876
G1 X55.432 Y73.403 E2.06610
G1 X55.626 Y73.509 E2.07344
G1 X55.805 Y73.640 E2.08079
G1 X55.967 Y73.792 E2.08814
G1 X56.108 Y73.962 E2.09548
G1 X56.227 Y74.150 E2.10282
G1 X56.321 Y74.350 E2.11017
G1 X56.390 Y74.561 E2.11751
G1 X56.431 Y74.779 E2.12486
G1 X56.445 Y75.000 E2.13220
G1 X56.431 Y75.221 E2.13955
G1 X56.390 Y75.439 E2.14689
G1 X56.321 Y75.650 E2.15424
G1 X56.227 Y75.850 E2.16158
G1 X56.108 Y76.038 E2.16892
G1 X55.967 Y76.208 E2.17627
G1 X55.805 Y76.360 E2.18361
G1 X55.626 Y76.491 E2.19096
G1 X55.431 Y76.597 E2.19832
G1 X55.213 Y76.683 E2.20608
G1 X54.796 Y76.762 E2.22015
G1 X54.556 Y76.761 E2.22809
G1 X54.139 Y76.681 E2.24215
G1 X53.928 Y76.597 E2.24966
G1 X53.734 Y76.491 E2.25701
G1 X53.555 Y76.360 E2.26436
G1 X53.393 Y76.208 E2.27170
G1 X53.252 Y76.038 E2.27904
G1 X53.133 Y75.850 E2.28639
G1 X53.039 Y75.650 E2.29373
G1 X52.970 Y75.439 E2.30109
G1 X52.927 Y75.208 E2.30886
G1 X52.928 Y74.784 E2.32292
G1 X52.970 Y74.561 E2.33043
G1 X53.039 Y74.350 E2.33777
G1 X53.133 Y74.150 E2.34512
G1 X53.252 Y73.962 E2.35247
G1 X53.511 Y73.681 E2.36514
G1 E0.36514 F2400.00000
G92 E0
G1 X63.089 Y74.779 F7800.000
G1 E2.00000 F2400.00000
G1 F1800
G1 X63.130 Y74.561 E2.00735
G1 X63.199 Y74.350 E2.01469
G1 X63.293 Y74.150 E2.02203
G1 X63.412 Y73.962 E2.02938
G1 X63.553 Y73.792 E2.03672
G1 X63.715 Y73.640 E2.04407
G1 X63.894 Y73.509 E2.05141
G1 X64.088 Y73.403 E2.05876
G1 X64.295 Y73.321 E2.06610
G1 X64.509 Y73.266 E2.07344
G1 X64.729 Y73.238 E2.08079
G1 X64.951 Y73.238 E2.08813
G1 X65.171 Y73.266 E2.09548
G1 X65.386 Y73.321 E2.10282
G1 X65.592 Y73.403 E2.11017
G1 X65.786 Y73.509 E2.11751
G1 X65.969 Y73.643 E2.12503
G1 X66.260 Y73.952 E2.13908
G1 X66.387 Y74.149 E2.14685
G1 X66.481 Y74.350 E2.15421
G1 X66.550 Y74.561 E2.16155
G1 X66.591 Y74.779 E2.16890
G1 X66.605 Y75.000 E2.17624
G1 X66.591 Y75.221 E2.18359
G1 X66.550 Y75.439 E2.19094
G1 X66.476 Y75.662 E2.19871
G1 X66.271 Y76.034 E2.21277
G1 X66.127 Y76.208 E2.22029
G1 X65.965 Y76.360 E2.22763
G1 X65.786 Y76.491 E2.23498
G1 X65.591 Y76.597 E2.24233
G1 X65.373 Y76.683 E2.25010
G1 X64.956 Y76.762 E2.26417
G1 X64.716 Y76.761 E2.27211
G1 X64.299 Y76.681 E2.28617
G1 X64.088 Y76.597 E2.29368
G1 X63.894 Y76.491 E2.30103
G1 X63.715 Y76.360 E2.30837
G1 X63.553 Y76.208 E2.31572
G1 X63.412 Y76.038 E2.32306
G1 X63.293 Y75.850 E2.33041
G1 X63.199 Y75.650 E2.33775
G1 X63.130 Y75.439 E2.34509
G1 X63.089 Y75.221 E2.35244
G1 X63.085 Y74.839 E2.36512
G1 E0.36512 F2400.00000
G92 E0
G1 X73.235 Y75.000 F7800.000
G1 E2.00000 F2400.00000
G1 F1800
G1 X73.249 Y74.779 E2.00734
G1 X73.290 Y74.561 E2.01469
G1 X73.359 Y74.350 E2.02203
G1 X73.453 Y74.150 E2.02938
G1 X73.572 Y73.962 E2.03672
G1 X73.713 Y73.792 E2.04407
G1 X73.875 Y73.640 E2.05141
G1 X74.054 Y73.509 E2.05876
G1 X74.253 Y73.400 E2.06627
G1 X74.656 Y73.269 E2.08033
G1 X74.894 Y73.237 E2.08827
G1 X75.318 Y73.264 E2.10234
G1 X75.545 Y73.321 E2.11011
G1 X75.752 Y73.403 E2.11746
G1 X75.946 Y73.509 E2.12481
G1 X76.129 Y73.643 E2.13232
G1 X76.420 Y73.952 E2.14638
G1 X76.547 Y74.149 E2.15415
G1 X76.641 Y74.350 E2.16151
G1 X76.710 Y74.561 E2.16885
G1 X76.751 Y74.779 E2.17620
G1 X76.765 Y75.000 E2.18354
G1 X76.751 Y75.221 E2.19088
G1 X76.710 Y75.439 E2.19823
G1 X76.641 Y75.650 E2.20557
G1 X76.547 Y75.850 E2.21292
G1 X76.428 Y76.038 E2.22026
G1 X76.287 Y76.209 E2.22762
G1 X76.115 Y76.368 E2.23539
G1 X75.756 Y76.595 E2.24945
G1 X75.546 Y76.679 E2.25696
G1 X75.331 Y76.734 E2.26431
G1 X75.111 Y76.762 E2.27165
G1 X74.889 Y76.762 E2.27899
G1 X74.669 Y76.734 E2.28634
G1 X74.454 Y76.679 E2.29368
G1 X74.248 Y76.597 E2.30103
G1 X74.054 Y76.490 E2.30839
G1 X73.865 Y76.352 E2.31615
G1 X73.575 Y76.042 E2.33021
G1 X73.453 Y75.850 E2.33773
G1 X73.359 Y75.650 E2.34507
G1 X73.290 Y75.439 E2.35242
G1 X73.238 Y75.060 E2.36509
G1 E0.36509 F2400.00000
G92 E0
G1 X83.395 Y75.000 F7800.000
G1 E2.00000 F2400.00000
G1 F1800
G1 X83.409 Y74.779 E2.00734
G1 X83.451 Y74.556 E2.01486
G1 X83.607 Y74.161 E2.02892
G1 X83.732 Y73.963 E2.03669
G1 X83.873 Y73.792 E2.04404
G1 X84.035 Y73.640 E2.05139
G1 X84.214 Y73.509 E2.05873
G1 X84.408 Y73.403 E2.06608
G1 X84.614 Y73.321 E2.07342
G1 X84.829 Y73.266 E2.08077
G1 X85.049 Y73.238 E2.08811
G1 X85.271 Y73.238 E2.09546
G1 X85.491 Y73.266 E2.10280
G1 X85.705 Y73.321 E2.11014
G1 X85.912 Y73.403 E2.11749
G1 X86.106 Y73.509 E2.12483
G1 X86.285 Y73.640 E2.13218
G1 X86.447 Y73.792 E2.13952
G1 X86.588 Y73.962 E2.14686
G1 X86.710 Y74.154 E2.15438
G1 X86.866 Y74.548 E2.16844
G1 X86.911 Y74.778 E2.17621
G1 X86.925 Y75.000 E2.18356
G1 X86.911 Y75.221 E2.19091
G1 X86.870 Y75.439 E2.19825
G1 X86.801 Y75.650 E2.20560
G1 X86.707 Y75.850 E2.21294
G1 X86.588 Y76.038 E2.22029
G1 X86.447 Y76.208 E2.22763
G1 X86.285 Y76.360 E2.23497
G1 X86.106 Y76.491 E2.24232
G1 X85.912 Y76.597 E2.24967
G1 X85.705 Y76.679 E2.25701
G1 X85.491 Y76.734 E2.26435
G1 X85.271 Y76.762 E2.27171
G1 X85.036 Y76.761 E2.27948
G1 X84.619 Y76.681 E2.29355
G1 X84.396 Y76.592 E2.30149
G1 X84.038 Y76.364 E2.31555
G1 X83.873 Y76.208 E2.32306
G1 X83.732 Y76.038 E2.33041
G1 X83.613 Y75.850 E2.33775
G1 X83.519 Y75.650 E2.34509
G1 X83.450 Y75.439 E2.35244
G1 X83.398 Y75.060 E2.36512
G1 E0.36512 F2400.00000
G92 E0
G1 X93.555 Y75.000 F7800.000
G1 E2.00000 F2400.00000
G1 F1800
G1 X93.569 Y74.779 E2.00734
G1 X93.610 Y74.561 E2.01469
G1 X93.679 Y74.350 E2.02203
G1 X93.773 Y74.150 E2.02938
G1 X93.892 Y73.962 E2.03672
G1 X94.033 Y73.792 E2.04407
G1 X94.195 Y73.640 E2.05141
G1 X94.374 Y73.509 E2.05876
G1 X94.568 Y73.403 E2.06610
G1 X94.775 Y73.321 E2.07345
G1 X94.989 Y73.266 E2.08079
G1 X95.209 Y73.238 E2.08813
G1 X95.431 Y73.238 E2.09548
G1 X95.651 Y73.266 E2.10282
G1 X95.865 Y73.321 E2.11017
G1 X96.072 Y73.403 E2.11751
G1 X96.266 Y73.509 E2.12486
G1 X96.445 Y73.640 E2.13220
G1 X96.607 Y73.792 E2.13954
G1 X96.748 Y73.962 E2.14689
G1 X96.867 Y74.150 E2.15423
G1 X96.961 Y74.350 E2.16158
G1 X97.030 Y74.561 E2.16892
G1 X97.071 Y74.779 E2.17627
G1 X97.085 Y75.000 E2.18361
G1 X97.071 Y75.221 E2.19096
G1 X97.030 Y75.439 E2.19830
G1 X96.961 Y75.650 E2.20565
G1 X96.867 Y75.850 E2.21299
G1 X96.748 Y76.038 E2.22034
G1 X96.607 Y76.208 E2.22768
G1 X96.445 Y76.360 E2.23502
G1 X96.266 Y76.491 E2.24237
G1 X96.072 Y76.597 E2.24971
G1 X95.865 Y76.679 E2.25706
G1 X95.651 Y76.734 E2.26440
G1 X95.431 Y76.762 E2.27176
G1 X95.196 Y76.761 E2.27953
G1 X94.779 Y76.681 E2.29359
G1 X94.568 Y76.597 E2.30110
G1 X94.374 Y76.491 E2.30844
G1 X94.195 Y76.360 E2.31579
G1 X94.033 Y76.208 E2.32314
G1 X93.892 Y76.038 E2.33048
G1 X93.773 Y75.850 E2.33782
G1 X93.679 Y75.650 E2.34517
G1 X93.610 Y75.439 E2.35251
G1 X93.558 Y75.060 E2.36519
G1 E0.36519 F2400.00000
G92 E0
G1 X98.335 Y72.165 F7800.000
G1 E2.00000 F2400.00000
G1 F1800
G1 X98.335 Y77.835 E2.18784
G1 X51.665 Y77.835 E3.73400
G1 X51.665 Y72.165 E3.92184
G1 X98.275 Y72.165 E5.46601
G1 E3.46601 F2400.00000
G92 E0
G1 X97.966 Y77.673 F7800.000
G1 E2.00000 F2400.00000
G1 F1800
G1 X98.173 Y77.466 E2.00972
G1 X98.173 Y77.089 E2.02226
G1 X97.589 Y77.673 E2.04971
G1 X97.212 Y77.673 E2.06225
G1 X98.173 Y76.712 E2.10743
G1 X98.173 Y76.335 E2.11997
G1 X96.835 Y77.673 E2.18289
G1 X96.458 Y77.673 E2.19542
G1 X98.173 Y75.958 E2.27607
G1 X98.173 Y75.581 E2.28861
G1 X96.081 Y77.673 E2.38698
G1 X95.704 Y77.673 E2.39952
G1 X98.173 Y75.204 E2.51563
G1 X98.173 Y74.827 E2.52816
G1 X97.067 Y75.932 E2.58014
G1 X97.184 Y75.609 E2.59158
G1 X97.225 Y75.398 E2.59871
G1 X98.173 Y74.450 E2.64330
G1 X98.173 Y74.073 E2.65584
G1 X97.242 Y75.003 E2.69961
G1 X97.198 Y74.670 E2.71079
G1 X98.173 Y73.696 E2.75662
G1 X98.173 Y73.319 E2.76916
G1 X97.113 Y74.378 E2.81900
G1 X96.994 Y74.120 E2.82845
G1 X98.173 Y72.942 E2.88388
G1 X98.173 Y72.564 E2.89641
G1 X96.846 Y73.892 E2.95882
G1 X96.672 Y73.688 E2.96772
G1 X98.033 Y72.327 E3.03173
G1 X97.656 Y72.327 E3.04426
G1 X96.473 Y73.510 E3.09988
G1 X96.249 Y73.357 E3.10891
G1 X97.279 Y72.327 E3.15734
G1 X96.902 Y72.327 E3.16987
G1 X95.997 Y73.232 E3.21241
G1 X95.714 Y73.138 E3.22233
G1 X96.525 Y72.327 E3.26044
G1 X96.148 Y72.327 E3.27298
G1 X95.393 Y73.082 E3.30847
G1 X95.012 Y73.086 E3.32113
G1 X95.771 Y72.327 E3.35679
G1 X95.394 Y72.327 E3.36932
G1 X94.524 Y73.197 E3.41023
G1 X94.352 Y73.265 E3.41638
G1 X94.128 Y73.388 E3.42486
G1 X93.922 Y73.538 E3.43334
G1 X93.736 Y73.713 E3.44183
G1 X93.573 Y73.909 E3.45031
G1 X93.437 Y74.125 E3.45879
G1 X93.310 Y74.411 E3.46920
G1 X90.048 Y77.673 E3.62259
G1 X89.671 Y77.673 E3.63513
G1 X95.017 Y72.327 E3.88650
G1 X94.639 Y72.327 E3.89904
G1 X89.294 Y77.673 E4.15042
G1 X88.917 Y77.673 E4.16295
G1 X94.262 Y72.327 E4.41433
G1 X93.885 Y72.327 E4.42687
G1 X88.540 Y77.673 E4.67824
G1 X88.163 Y77.673 E4.69078
G1 X93.508 Y72.327 E4.94215
G1 X93.131 Y72.327 E4.95469
G1 X87.786 Y77.673 E5.20606
G1 X87.409 Y77.673 E5.21860
G1 X92.754 Y72.327 E5.46998
G1 X92.377 Y72.327 E5.48251
G1 X87.032 Y77.673 E5.73389
G1 X86.655 Y77.673 E5.74642
G1 X92.000 Y72.327 E5.99780
G1 X91.623 Y72.327 E6.01034
G1 X86.278 Y77.673 E6.26171
G1 X85.901 Y77.673 E6.27425
G1 X91.246 Y72.327 E6.52562
G1 X90.869 Y72.327 E6.53816
G1 X85.524 Y77.673 E6.78953
G1 X85.147 Y77.673 E6.80207
G1 X86.056 Y76.763 E6.84483
G1 X85.891 Y76.829 E6.85073
G1 X85.537 Y76.906 E6.86279
G1 X84.770 Y77.673 E6.89886
G1 X84.393 Y77.673 E6.91140
G1 X85.142 Y76.923 E6.94665
G1 X84.821 Y76.867 E6.95748
G1 X84.016 Y77.673 E6.99537
G1 X83.639 Y77.673 E7.00791
G1 X84.526 Y76.785 E7.04965
G1 X84.378 Y76.726 E7.05496
G1 X84.275 Y76.660 E7.05904
G1 X83.261 Y77.673 E7.10668
G1 X82.884 Y77.673 E7.11922
G1 X84.044 Y76.513 E7.17375
G1 X83.839 Y76.341 E7.18265
G1 X82.507 Y77.673 E7.24529
G1 X82.130 Y77.673 E7.25783
G1 X83.662 Y76.141 E7.32984
G1 X83.509 Y75.917 E7.33887
G1 X81.753 Y77.673 E7.42144
G1 X81.376 Y77.673 E7.43398
G1 X83.384 Y75.665 E7.52840
G1 X83.292 Y75.380 E7.53835
G1 X80.999 Y77.673 E7.64615
G1 X80.622 Y77.673 E7.65869
G1 X83.242 Y75.053 E7.78187
G1 X83.246 Y74.672 E7.79455
G1 X80.245 Y77.673 E7.93567
G1 X79.868 Y77.673 E7.94821
G1 X83.387 Y74.154 E8.11367
G1 E6.11367 F2400.00000
G92 E0
G1 X86.925 Y75.894 F7800.000
G1 E2.00000 F2400.00000
G1 F1800
G1 X90.492 Y72.327 E2.16774
G1 X90.115 Y72.327 E2.18027
G1 X87.069 Y75.373 E2.32351
G1 X87.081 Y74.985 E2.33643
G1 X89.738 Y72.327 E2.46139
G1 X89.361 Y72.327 E2.47393
G1 X87.034 Y74.654 E2.58335
G1 X86.938 Y74.373 E2.59323
G1 X88.984 Y72.327 E2.68943
G1 X88.607 Y72.327 E2.70197
G1 X86.826 Y74.108 E2.78570
G1 X86.676 Y73.881 E2.79475
G1 X88.230 Y72.327 E2.86780
G1 X87.853 Y72.327 E2.88034
G1 X86.501 Y73.679 E2.94389
G1 X86.301 Y73.502 E2.95277
G1 X87.476 Y72.327 E3.00800
G1 X87.099 Y72.327 E3.02053
G1 X86.076 Y73.350 E3.06863
G1 X85.823 Y73.226 E3.07800
G1 X86.722 Y72.327 E3.12027
G1 X86.345 Y72.327 E3.13281
G1 X85.538 Y73.134 E3.17073
G1 X85.215 Y73.080 E3.18162
G1 X85.968 Y72.327 E3.21701
G1 X85.591 Y72.327 E3.22955
G1 X84.829 Y73.088 E3.26534
G1 X84.676 Y73.108 E3.27048
G1 X84.331 Y73.210 E3.28246
G1 X85.214 Y72.327 E3.32398
G1 X84.837 Y72.327 E3.33652
G1 X79.491 Y77.673 E3.58789
G1 X79.114 Y77.673 E3.60043
G1 X84.459 Y72.327 E3.85180
G1 X84.082 Y72.327 E3.86434
G1 X78.737 Y77.673 E4.11572
G1 X78.360 Y77.673 E4.12825
G1 X83.705 Y72.327 E4.37963
G1 X83.328 Y72.327 E4.39216
G1 X77.983 Y77.673 E4.64354
G1 X77.606 Y77.673 E4.65608
G1 X82.951 Y72.327 E4.90745
G1 X82.574 Y72.327 E4.91999
G1 X77.229 Y77.673 E5.17136
G1 X76.852 Y77.673 E5.18390
G1 X82.197 Y72.327 E5.43527
G1 X81.820 Y72.327 E5.44781
G1 X76.475 Y77.673 E5.69919
G1 X76.098 Y77.673 E5.71172
G1 X81.443 Y72.327 E5.96310
G1 X81.066 Y72.327 E5.97564
G1 X75.721 Y77.673 E6.22701
G1 X75.344 Y77.673 E6.23955
G1 X80.689 Y72.327 E6.49092
G1 X80.312 Y72.327 E6.50346
G1 X76.783 Y75.856 E6.66942
G1 X76.864 Y75.608 E6.67809
G1 X76.913 Y75.350 E6.68684
G1 X79.935 Y72.327 E6.82897
G1 X79.558 Y72.327 E6.84151
G1 X76.919 Y74.966 E6.96559
G1 X76.872 Y74.637 E6.97665
G1 X79.181 Y72.327 E7.08525
G1 X78.804 Y72.327 E7.09779
G1 X76.782 Y74.349 E7.19285
G1 X76.658 Y74.096 E7.20222
G1 X78.427 Y72.327 E7.28538
G1 X78.050 Y72.327 E7.29792
G1 X76.507 Y73.870 E7.37046
G1 X76.324 Y73.676 E7.37933
G1 X77.673 Y72.327 E7.44273
G1 X77.296 Y72.327 E7.45527
G1 X76.130 Y73.493 E7.51010
G1 X75.903 Y73.343 E7.51915
G1 X76.919 Y72.327 E7.56691
G1 X76.542 Y72.327 E7.57945
G1 X75.649 Y73.220 E7.62145
G1 X75.362 Y73.130 E7.63144
G1 X76.165 Y72.327 E7.66920
G1 X75.788 Y72.327 E7.68174
G1 X75.026 Y73.089 E7.71757
G1 X74.781 Y73.074 E7.72570
G1 X74.646 Y73.092 E7.73024
G1 X75.411 Y72.327 E7.76620
G1 X75.034 Y72.327 E7.77874
G1 X74.130 Y73.230 E7.82120
G1 X74.043 Y73.259 E7.82425
G1 X73.808 Y73.388 E7.83317
G1 X73.602 Y73.538 E7.84166
G1 X73.416 Y73.713 E7.85014
G1 X73.253 Y73.909 E7.85862
G1 X73.117 Y74.125 E7.86711
G1 X73.010 Y74.351 E7.87541
G1 X69.688 Y77.673 E8.03164
G1 X69.311 Y77.673 E8.04417
G1 X74.656 Y72.327 E8.29555
G1 X74.279 Y72.327 E8.30809
G1 X68.934 Y77.673 E8.55946
G1 X68.557 Y77.673 E8.57200
G1 X73.902 Y72.327 E8.82337
G1 X73.525 Y72.327 E8.83591
G1 X68.180 Y77.673 E9.08728
G1 X67.803 Y77.673 E9.09982
G1 X73.148 Y72.327 E9.35120
G1 X72.771 Y72.327 E9.36373
G1 X67.426 Y77.673 E9.61511
G1 X67.049 Y77.673 E9.62765
G1 X72.394 Y72.327 E9.87902
G1 X72.017 Y72.327 E9.89156
G1 X66.672 Y77.673 E10.14293
G1 X66.295 Y77.673 E10.15547
G1 X71.640 Y72.327 E10.40684
G1 X71.263 Y72.327 E10.41938
G1 X65.918 Y77.673 E10.67076
G1 X65.541 Y77.673 E10.68329
G1 X70.886 Y72.327 E10.93467
G1 X70.509 Y72.327 E10.94721
G1 X65.164 Y77.673 E11.19858
G1 X64.787 Y77.673 E11.21112
G1 X65.671 Y76.789 E11.25269
G1 X65.550 Y76.836 E11.25700
G1 X65.175 Y76.907 E11.26967
G1 X64.410 Y77.673 E11.30569
G1 X64.033 Y77.673 E11.31822
G1 X64.784 Y76.921 E11.35356
G1 X64.468 Y76.860 E11.36427
G1 X63.656 Y77.673 E11.40247
G1 X63.278 Y77.673 E11.41501
G1 X64.177 Y76.774 E11.45727
G1 X63.924 Y76.650 E11.46664
G1 X62.901 Y77.673 E11.51474
G1 X62.524 Y77.673 E11.52728
G1 X63.699 Y76.498 E11.58250
G1 X63.499 Y76.321 E11.59138
G1 X62.147 Y77.673 E11.65493
G1 X61.770 Y77.673 E11.66746
G1 X63.324 Y76.119 E11.74051
G1 X63.174 Y75.892 E11.74956
G1 X61.393 Y77.673 E11.83329
G1 X61.016 Y77.673 E11.84583
G1 X63.052 Y75.637 E11.94156
G1 X62.965 Y75.347 E11.95163
G1 X60.639 Y77.673 E12.06102
G1 X60.262 Y77.673 E12.07355
G1 X62.919 Y75.016 E12.19851
G1 X62.931 Y74.627 E12.21143
G1 X59.885 Y77.673 E12.35465
G1 X59.508 Y77.673 E12.36719
G1 X63.075 Y74.106 E12.53491
G1 E10.53491 F2400.00000
G92 E0
G1 X66.632 Y75.827 F7800.000
G1 E2.00000 F2400.00000
G1 F1800
G1 X70.132 Y72.327 E2.16458
G1 X69.755 Y72.327 E2.17711
G1 X66.754 Y75.328 E2.31824
G1 X66.758 Y74.947 E2.33092
G1 X69.378 Y72.327 E2.45411
G1 X69.001 Y72.327 E2.46665
G1 X66.708 Y74.620 E2.57446
G1 X66.616 Y74.335 E2.58441
G1 X68.624 Y72.327 E2.67883
G1 X68.247 Y72.327 E2.69137
G1 X66.491 Y74.083 E2.77396
G1 X66.338 Y73.859 E2.78298
G1 X67.870 Y72.327 E2.85503
G1 X67.493 Y72.327 E2.86757
G1 X66.155 Y73.665 E2.93049
G1 X65.958 Y73.485 E2.93936
G1 X67.116 Y72.327 E2.99379
G1 X66.739 Y72.327 E3.00633
G1 X65.730 Y73.336 E3.05376
G1 X65.474 Y73.215 E3.06317
G1 X66.362 Y72.327 E3.10491
G1 X65.985 Y72.327 E3.11744
G1 X65.186 Y73.126 E3.15498
G1 X64.859 Y73.076 E3.16599
G1 X65.608 Y72.327 E3.20120
G1 X65.231 Y72.327 E3.21373
G1 X64.464 Y73.094 E3.24980
G1 X64.109 Y73.171 E3.26187
