; generated by Slic3r 1.3.1-dev (Build (Unknown revision)) on 2020-03-04 at 15:39:41

; external perimeters extrusion width = 0.44mm (2.86mm^3/s)
; perimeters extrusion width = 0.56mm (4.14mm^3/s)
; infill extrusion width = 0.50mm (3.66mm^3/s)
; solid infill extrusion width = 0.56mm (3.10mm^3/s)
; top infill extrusion width = 0.56mm (3.10mm^3/s)

M107
G92 E0
;D3D:START:START
T0
M104 S215 T0

G21
G90
M107
T0
G28
G29
M109 T0 S215 T0
G0 F3000
M107
T0
G92 E0
G0 X0 Y149 Z0.1 F3600
G1 Y49 E6.5 F1200
G0 Z1
G92 E0
; Filament gcode

G21 ; set units to millimeters
G90 ; use absolute coordinates
M82 ; use absolute distances for extrusion
G92 E0
G1 Z0.300 F7800.000
G1 E-2.00000 F2400.00000
G92 E0
G1 X93.677 Y73.806 F7800.000
G1 E2.00000 F2400.00000
G1 F1800.000
G1 X93.839 Y73.609 E2.00845
G1 X94.025 Y73.435 E2.01691
G1 X94.232 Y73.285 E2.02536
G1 X94.455 Y73.162 E2.03381
G1 X94.692 Y73.068 E2.04226
G1 X94.939 Y73.005 E2.05071
G1 X95.192 Y72.973 E2.05916
G1 X95.448 Y72.973 E2.06762
G1 X95.701 Y73.005 E2.07607
G1 X95.948 Y73.068 E2.08452
G1 X96.185 Y73.162 E2.09297
G1 X96.408 Y73.285 E2.10142
G1 X96.615 Y73.435 E2.10987
G1 X96.801 Y73.609 E2.11833
G1 X96.963 Y73.806 E2.12677
G1 X97.100 Y74.021 E2.13523
G1 X97.209 Y74.252 E2.14368
G1 X97.288 Y74.495 E2.15213
G1 X97.335 Y74.745 E2.16058
G1 X97.351 Y75.000 E2.16904
G1 X97.335 Y75.255 E2.17749
G1 X97.288 Y75.505 E2.18594
G1 X97.209 Y75.748 E2.19439
G1 X97.100 Y75.979 E2.20284
G1 X96.963 Y76.194 E2.21130
G1 X96.801 Y76.391 E2.21975
G1 X96.615 Y76.565 E2.22820
G1 X96.408 Y76.715 E2.23665
G1 X96.185 Y76.838 E2.24510
G1 X95.948 Y76.932 E2.25355
G1 X95.701 Y76.995 E2.26201
G1 X95.448 Y77.027 E2.27046
G1 X95.192 Y77.027 E2.27891
G1 X94.939 Y76.995 E2.28736
G1 X94.692 Y76.932 E2.29581
G1 X94.455 Y76.838 E2.30426
G1 X94.232 Y76.715 E2.31271
G1 X94.025 Y76.565 E2.32117
G1 X93.839 Y76.391 E2.32962
G1 X93.677 Y76.194 E2.33807
G1 X93.540 Y75.979 E2.34652
G1 X93.431 Y75.748 E2.35498
G1 X93.352 Y75.505 E2.36342
G1 X93.305 Y75.255 E2.37188
G1 X93.289 Y75.000 E2.38033
G1 X93.305 Y74.745 E2.38878
G1 X93.352 Y74.495 E2.39724
G1 X93.431 Y74.252 E2.40568
G1 X93.540 Y74.021 E2.41414
G1 X93.644 Y73.857 E2.42060
G1 X93.892 Y73.962 F7800.000
G1 F1800.000
G1 X94.033 Y73.792 E2.42794
G1 X94.195 Y73.640 E2.43529
G1 X94.374 Y73.509 E2.44264
G1 X94.568 Y73.403 E2.44998
G1 X94.775 Y73.321 E2.45732
G1 X94.989 Y73.266 E2.46467
G1 X95.209 Y73.238 E2.47201
G1 X95.431 Y73.238 E2.47936
G1 X95.651 Y73.266 E2.48670
G1 X95.865 Y73.321 E2.49405
G1 X96.072 Y73.403 E2.50139
G1 X96.266 Y73.509 E2.50873
G1 X96.445 Y73.640 E2.51608
G1 X96.607 Y73.792 E2.52342
G1 X96.748 Y73.962 E2.53077
G1 X96.867 Y74.150 E2.53811
G1 X96.961 Y74.350 E2.54546
G1 X97.030 Y74.561 E2.55280
G1 X97.071 Y74.779 E2.56015
G1 X97.085 Y75.000 E2.56749
G1 X97.071 Y75.221 E2.57484
G1 X97.030 Y75.439 E2.58218
G1 X96.961 Y75.650 E2.58952
G1 X96.867 Y75.850 E2.59687
G1 X96.748 Y76.038 E2.60421
G1 X96.607 Y76.208 E2.61156
G1 X96.445 Y76.360 E2.61890
G1 X96.266 Y76.491 E2.62625
G1 X96.072 Y76.597 E2.63359
G1 X95.865 Y76.679 E2.64094
G1 X95.651 Y76.734 E2.64828
G1 X95.431 Y76.762 E2.65562
G1 X95.209 Y76.762 E2.66297
G1 X94.989 Y76.734 E2.67031
G1 X94.775 Y76.679 E2.67766
G1 X94.568 Y76.597 E2.68500
G1 X94.374 Y76.491 E2.69235
G1 X94.195 Y76.360 E2.69969
G1 X94.033 Y76.208 E2.70704
G1 X93.892 Y76.038 E2.71438
G1 X93.773 Y75.850 E2.72173
G1 X93.679 Y75.650 E2.72907
G1 X93.610 Y75.439 E2.73641
G1 X93.569 Y75.221 E2.74376
G1 X93.555 Y75.000 E2.75110
G1 X93.569 Y74.779 E2.75845
G1 X93.610 Y74.561 E2.76579
G1 X93.679 Y74.350 E2.77314
G1 X93.860 Y74.013 E2.78581
G1 X94.582 Y72.826 F7800.000
G1 F1800.000
G1 X94.342 Y72.921 E2.79439
G1 X94.089 Y73.060 E2.80395
G1 X93.855 Y73.230 E2.81351
G1 X93.645 Y73.427 E2.82307
G1 X93.461 Y73.650 E2.83263
G1 X93.307 Y73.893 E2.84219
G1 X93.184 Y74.154 E2.85175
G1 X93.095 Y74.429 E2.86130
G1 X93.040 Y74.712 E2.87086
G1 X93.022 Y75.000 E2.88042
G1 X93.040 Y75.288 E2.88998
G1 X93.095 Y75.571 E2.89955
G1 X93.184 Y75.846 E2.90910
G1 X93.307 Y76.107 E2.91866
G1 X93.461 Y76.350 E2.92822
G1 X93.645 Y76.573 E2.93777
G1 X93.855 Y76.770 E2.94734
G1 X94.089 Y76.940 E2.95690
G1 X94.342 Y77.079 E2.96646
G1 X94.582 Y77.174 E2.97503
G1 X94.558 Y77.304 E2.97940
G1 X85.922 Y77.304 E3.26549
G1 X85.898 Y77.174 E3.26986
G1 X86.138 Y77.079 E3.27844
G1 X86.391 Y76.940 E3.28800
G1 X86.625 Y76.770 E3.29756
G1 X86.835 Y76.573 E3.30712
G1 X87.019 Y76.351 E3.31667
G1 X87.173 Y76.107 E3.32624
G1 X87.296 Y75.846 E3.33580
G1 X87.385 Y75.571 E3.34535
G1 X87.440 Y75.288 E3.35491
G1 X87.458 Y75.000 E3.36447
G1 X87.440 Y74.712 E3.37403
G1 X87.385 Y74.429 E3.38359
G1 X87.296 Y74.154 E3.39315
G1 X87.173 Y73.893 E3.40271
G1 X87.019 Y73.649 E3.41227
G1 X86.835 Y73.427 E3.42183
G1 X86.625 Y73.230 E3.43138
G1 X86.391 Y73.060 E3.44095
G1 X86.138 Y72.921 E3.45051
G1 X85.898 Y72.826 E3.45908
G1 X85.922 Y72.696 E3.46345
G1 X94.558 Y72.696 E3.74954
G1 X94.571 Y72.767 E3.75192
G1 X96.082 Y72.696 F7800.000
G1 F1800.000
G1 X97.804 Y72.696 E3.80896
G1 X97.804 Y77.304 E3.96160
G1 X96.082 Y77.304 E4.01864
G1 X96.058 Y77.174 E4.02300
G1 X96.298 Y77.079 E4.03158
G1 X96.551 Y76.940 E4.04114
G1 X96.785 Y76.770 E4.05070
G1 X96.995 Y76.573 E4.06026
G1 X97.179 Y76.351 E4.06981
G1 X97.333 Y76.107 E4.07938
G1 X97.456 Y75.846 E4.08894
G1 X97.545 Y75.571 E4.09849
G1 X97.600 Y75.288 E4.10805
G1 X97.618 Y75.000 E4.11761
G1 X97.600 Y74.712 E4.12717
G1 X97.545 Y74.429 E4.13674
G1 X97.456 Y74.154 E4.14629
G1 X97.333 Y73.893 E4.15585
G1 X97.179 Y73.649 E4.16541
G1 X96.995 Y73.427 E4.17497
G1 X96.785 Y73.230 E4.18452
G1 X96.551 Y73.060 E4.19409
G1 X96.298 Y72.921 E4.20365
G1 X96.058 Y72.826 E4.21222
G1 X96.071 Y72.755 E4.21460
G1 E2.21460 F2400.00000
G92 E0
G1 X87.128 Y74.495 F7800.000
G1 E2.00000 F2400.00000
G1 F1800.000
G1 X87.175 Y74.745 E2.00845
G1 X87.191 Y75.000 E2.01691
G1 X87.175 Y75.255 E2.02536
G1 X87.128 Y75.505 E2.03381
G1 X87.049 Y75.748 E2.04226
G1 X86.940 Y75.979 E2.05071
G1 X86.803 Y76.194 E2.05917
G1 X86.641 Y76.391 E2.06762
G1 X86.455 Y76.565 E2.07607
G1 X86.248 Y76.715 E2.08452
G1 X86.025 Y76.838 E2.09297
G1 X85.788 Y76.932 E2.10142
G1 X85.541 Y76.995 E2.10988
G1 X85.288 Y77.027 E2.11833
G1 X85.032 Y77.027 E2.12678
G1 X84.779 Y76.995 E2.13523
G1 X84.532 Y76.932 E2.14368
G1 X84.295 Y76.838 E2.15213
G1 X84.071 Y76.715 E2.16059
G1 X83.865 Y76.565 E2.16904
G1 X83.679 Y76.391 E2.17749
G1 X83.517 Y76.194 E2.18594
G1 X83.380 Y75.979 E2.19439
G1 X83.271 Y75.748 E2.20285
G1 X83.192 Y75.505 E2.21130
G1 X83.145 Y75.255 E2.21975
G1 X83.129 Y75.000 E2.22820
G1 X83.145 Y74.745 E2.23665
G1 X83.192 Y74.495 E2.24510
G1 X83.271 Y74.252 E2.25356
G1 X83.380 Y74.021 E2.26201
G1 X83.517 Y73.806 E2.27046
G1 X83.679 Y73.609 E2.27891
G1 X83.865 Y73.435 E2.28736
G1 X84.071 Y73.285 E2.29582
G1 X84.295 Y73.162 E2.30427
G1 X84.532 Y73.068 E2.31272
G1 X84.779 Y73.005 E2.32117
G1 X85.032 Y72.973 E2.32962
G1 X85.288 Y72.973 E2.33808
G1 X85.541 Y73.005 E2.34653
G1 X85.788 Y73.068 E2.35498
G1 X86.025 Y73.162 E2.36343
G1 X86.248 Y73.285 E2.37188
G1 X86.455 Y73.435 E2.38033
G1 X86.641 Y73.609 E2.38878
G1 X86.803 Y73.806 E2.39723
G1 X86.940 Y74.021 E2.40569
G1 X87.049 Y74.252 E2.41414
G1 X87.109 Y74.438 E2.42060
G1 X86.870 Y74.561 F7800.000
G1 F1800.000
G1 X86.911 Y74.779 E2.42795
G1 X86.925 Y75.000 E2.43529
G1 X86.911 Y75.221 E2.44264
G1 X86.870 Y75.439 E2.44998
G1 X86.801 Y75.650 E2.45733
G1 X86.707 Y75.850 E2.46467
G1 X86.588 Y76.038 E2.47202
G1 X86.447 Y76.208 E2.47936
G1 X86.285 Y76.360 E2.48670
G1 X86.106 Y76.491 E2.49405
G1 X85.912 Y76.597 E2.50139
G1 X85.705 Y76.679 E2.50874
G1 X85.491 Y76.734 E2.51608
G1 X85.271 Y76.762 E2.52342
G1 X85.049 Y76.762 E2.53077
G1 X84.829 Y76.734 E2.53811
G1 X84.614 Y76.679 E2.54546
G1 X84.408 Y76.597 E2.55280
G1 X84.214 Y76.491 E2.56015
G1 X84.035 Y76.360 E2.56749
G1 X83.873 Y76.208 E2.57484
G1 X83.732 Y76.038 E2.58218
G1 X83.613 Y75.850 E2.58953
G1 X83.519 Y75.650 E2.59687
G1 X83.450 Y75.439 E2.60422
G1 X83.409 Y75.221 E2.61156
G1 X83.395 Y75.000 E2.61890
G1 X83.409 Y74.779 E2.62625
G1 X83.450 Y74.561 E2.63359
G1 X83.519 Y74.350 E2.64094
G1 X83.613 Y74.150 E2.64828
G1 X83.732 Y73.962 E2.65563
G1 X83.873 Y73.792 E2.66297
G1 X84.035 Y73.640 E2.67032
G1 X84.214 Y73.509 E2.67766
G1 X84.408 Y73.403 E2.68500
G1 X84.614 Y73.321 E2.69235
G1 X84.829 Y73.266 E2.69969
G1 X85.049 Y73.238 E2.70704
G1 X85.271 Y73.238 E2.71438
G1 X85.491 Y73.266 E2.72173
G1 X85.705 Y73.321 E2.72907
G1 X85.912 Y73.403 E2.73642
G1 X86.106 Y73.509 E2.74376
G1 X86.285 Y73.640 E2.75111
G1 X86.447 Y73.792 E2.75845
G1 X86.588 Y73.962 E2.76579
G1 X86.707 Y74.150 E2.77314
G1 X86.851 Y74.504 E2.78581
G1 E0.78581 F2400.00000
G92 E0
G1 X84.422 Y72.826 F7800.000
G1 E2.00000 F2400.00000
G1 F1800.000
G1 X84.182 Y72.921 E2.00858
G1 X83.929 Y73.060 E2.01814
G1 X83.695 Y73.230 E2.02770
G1 X83.485 Y73.427 E2.03725
G1 X83.301 Y73.649 E2.04681
G1 X83.147 Y73.893 E2.05637
G1 X83.024 Y74.154 E2.06593
G1 X82.935 Y74.429 E2.07549
G1 X82.881 Y74.712 E2.08505
G1 X82.862 Y75.000 E2.09461
G1 X82.881 Y75.288 E2.10417
G1 X82.935 Y75.571 E2.11373
G1 X83.024 Y75.846 E2.12329
G1 X83.147 Y76.107 E2.13285
G1 X83.301 Y76.351 E2.14240
G1 X83.485 Y76.573 E2.15196
G1 X83.695 Y76.770 E2.16152
G1 X83.929 Y76.940 E2.17108
G1 X84.182 Y77.079 E2.18064
G1 X84.422 Y77.174 E2.18922
G1 X84.398 Y77.304 E2.19359
G1 X75.762 Y77.304 E2.47968
G1 X75.738 Y77.174 E2.48404
G1 X75.978 Y77.079 E2.49262
G1 X76.231 Y76.940 E2.50218
G1 X76.465 Y76.770 E2.51174
G1 X76.675 Y76.573 E2.52130
G1 X76.859 Y76.351 E2.53086
G1 X77.013 Y76.107 E2.54042
G1 X77.136 Y75.846 E2.54998
G1 X77.225 Y75.571 E2.55954
G1 X77.279 Y75.288 E2.56910
G1 X77.298 Y75.000 E2.57865
G1 X77.279 Y74.712 E2.58821
G1 X77.225 Y74.429 E2.59777
G1 X77.136 Y74.154 E2.60733
G1 X77.013 Y73.893 E2.61689
G1 X76.859 Y73.649 E2.62645
G1 X76.675 Y73.427 E2.63601
G1 X76.465 Y73.230 E2.64557
G1 X76.231 Y73.060 E2.65513
G1 X75.978 Y72.921 E2.66469
G1 X75.738 Y72.826 E2.67326
G1 X75.762 Y72.696 E2.67763
G1 X84.398 Y72.696 E2.96372
G1 X84.411 Y72.767 E2.96610
G1 E0.96610 F2400.00000
G92 E0
G1 X76.968 Y74.495 F7800.000
G1 E2.00000 F2400.00000
G1 F1800.000
G1 X77.015 Y74.745 E2.00845
G1 X77.031 Y75.000 E2.01690
G1 X77.015 Y75.255 E2.02536
G1 X76.968 Y75.505 E2.03381
G1 X76.889 Y75.748 E2.04226
G1 X76.780 Y75.979 E2.05071
G1 X76.643 Y76.194 E2.05916
G1 X76.481 Y76.391 E2.06761
G1 X76.295 Y76.565 E2.07607
G1 X76.089 Y76.715 E2.08452
G1 X75.865 Y76.838 E2.09297
G1 X75.628 Y76.932 E2.10142
G1 X75.381 Y76.995 E2.10987
G1 X75.128 Y77.027 E2.11833
G1 X74.872 Y77.027 E2.12678
G1 X74.619 Y76.995 E2.13523
G1 X74.372 Y76.932 E2.14368
G1 X74.135 Y76.838 E2.15213
G1 X73.911 Y76.715 E2.16058
G1 X73.705 Y76.565 E2.16904
G1 X73.519 Y76.391 E2.17749
G1 X73.357 Y76.194 E2.18594
G1 X73.220 Y75.979 E2.19439
G1 X73.111 Y75.748 E2.20284
G1 X73.032 Y75.505 E2.21130
G1 X72.985 Y75.255 E2.21975
G1 X72.969 Y75.000 E2.22820
G1 X72.985 Y74.745 E2.23665
G1 X73.032 Y74.495 E2.24510
G1 X73.111 Y74.252 E2.25355
G1 X73.220 Y74.021 E2.26201
G1 X73.357 Y73.806 E2.27046
G1 X73.519 Y73.609 E2.27891
G1 X73.705 Y73.435 E2.28736
G1 X73.911 Y73.285 E2.29581
G1 X74.135 Y73.162 E2.30426
G1 X74.372 Y73.068 E2.31272
G1 X74.619 Y73.005 E2.32117
G1 X74.872 Y72.973 E2.32962
G1 X75.128 Y72.973 E2.33807
G1 X75.381 Y73.005 E2.34652
G1 X75.628 Y73.068 E2.35498
G1 X75.865 Y73.162 E2.36343
G1 X76.089 Y73.285 E2.37188
G1 X76.295 Y73.435 E2.38033
G1 X76.481 Y73.609 E2.38878
G1 X76.643 Y73.806 E2.39723
G1 X76.780 Y74.021 E2.40569
G1 X76.889 Y74.252 E2.41414
G1 X76.949 Y74.438 E2.42060
G1 X76.710 Y74.561 F7800.000
G1 F1800.000
G1 X76.751 Y74.779 E2.42795
G1 X76.765 Y75.000 E2.43529
G1 X76.751 Y75.221 E2.44264
G1 X76.710 Y75.439 E2.44998
G1 X76.641 Y75.650 E2.45733
G1 X76.547 Y75.850 E2.46467
G1 X76.428 Y76.038 E2.47201
G1 X76.287 Y76.208 E2.47936
G1 X76.125 Y76.360 E2.48670
G1 X75.946 Y76.491 E2.49405
G1 X75.752 Y76.597 E2.50139
G1 X75.546 Y76.679 E2.50874
G1 X75.331 Y76.734 E2.51608
G1 X75.111 Y76.762 E2.52343
G1 X74.889 Y76.762 E2.53077
G1 X74.669 Y76.734 E2.53811
G1 X74.454 Y76.679 E2.54546
G1 X74.248 Y76.597 E2.55280
G1 X74.054 Y76.491 E2.56015
G1 X73.875 Y76.360 E2.56749
G1 X73.713 Y76.208 E2.57484
G1 X73.572 Y76.038 E2.58218
G1 X73.453 Y75.850 E2.58953
G1 X73.359 Y75.650 E2.59687
G1 X73.290 Y75.439 E2.60422
G1 X73.249 Y75.221 E2.61156
G1 X73.235 Y75.000 E2.61890
G1 X73.249 Y74.779 E2.62625
G1 X73.290 Y74.561 E2.63359
G1 X73.359 Y74.350 E2.64094
G1 X73.453 Y74.150 E2.64828
G1 X73.572 Y73.962 E2.65563
G1 X73.713 Y73.792 E2.66297
G1 X73.875 Y73.640 E2.67032
G1 X74.054 Y73.509 E2.67766
G1 X74.248 Y73.403 E2.68501
G1 X74.454 Y73.321 E2.69235
G1 X74.669 Y73.266 E2.69969
G1 X74.889 Y73.238 E2.70704
G1 X75.111 Y73.238 E2.71438
G1 X75.331 Y73.266 E2.72173
G1 X75.546 Y73.321 E2.72907
G1 X75.752 Y73.403 E2.73642
G1 X75.946 Y73.509 E2.74376
G1 X76.125 Y73.640 E2.75111
G1 X76.287 Y73.792 E2.75845
G1 X76.428 Y73.962 E2.76580
G1 X76.547 Y74.150 E2.77314
G1 X76.691 Y74.504 E2.78582
G1 E0.78582 F2400.00000
G92 E0
G1 X74.262 Y72.826 F7800.000
G1 E2.00000 F2400.00000
G1 F1800.000
G1 X74.022 Y72.921 E2.00858
G1 X73.769 Y73.060 E2.01814
G1 X73.535 Y73.230 E2.02770
G1 X73.325 Y73.427 E2.03725
G1 X73.141 Y73.649 E2.04681
G1 X72.987 Y73.893 E2.05637
G1 X72.864 Y74.154 E2.06593
G1 X72.775 Y74.429 E2.07549
G1 X72.721 Y74.712 E2.08505
G1 X72.702 Y75.000 E2.09461
G1 X72.721 Y75.288 E2.10417
G1 X72.775 Y75.571 E2.11373
G1 X72.864 Y75.846 E2.12329
G1 X72.987 Y76.107 E2.13285
G1 X73.141 Y76.351 E2.14240
G1 X73.325 Y76.573 E2.15196
G1 X73.535 Y76.770 E2.16152
G1 X73.769 Y76.940 E2.17108
G1 X74.022 Y77.079 E2.18064
G1 X74.262 Y77.174 E2.18922
G1 X74.238 Y77.304 E2.19359
G1 X65.602 Y77.304 E2.47968
G1 X65.578 Y77.174 E2.48405
G1 X65.818 Y77.079 E2.49262
G1 X66.071 Y76.940 E2.50218
G1 X66.305 Y76.770 E2.51174
G1 X66.515 Y76.573 E2.52130
G1 X66.699 Y76.351 E2.53086
G1 X66.853 Y76.107 E2.54042
G1 X66.976 Y75.846 E2.54998
G1 X67.065 Y75.571 E2.55954
G1 X67.119 Y75.288 E2.56910
G1 X67.138 Y75.000 E2.57865
G1 X67.119 Y74.712 E2.58821
G1 X67.065 Y74.429 E2.59777
G1 X66.976 Y74.154 E2.60733
G1 X66.853 Y73.893 E2.61689
G1 X66.699 Y73.649 E2.62645
G1 X66.515 Y73.427 E2.63601
G1 X66.305 Y73.230 E2.64557
G1 X66.071 Y73.060 E2.65513
G1 X65.818 Y72.921 E2.66469
G1 X65.578 Y72.826 E2.67326
G1 X65.602 Y72.696 E2.67763
G1 X74.238 Y72.696 E2.96372
G1 X74.251 Y72.767 E2.96610
G1 E0.96610 F2400.00000
G92 E0
G1 X66.808 Y74.495 F7800.000
G1 E2.00000 F2400.00000
G1 F1800.000
G1 X66.855 Y74.745 E2.00845
G1 X66.871 Y75.000 E2.01690
G1 X66.855 Y75.255 E2.02536
G1 X66.808 Y75.505 E2.03381
G1 X66.729 Y75.748 E2.04226
G1 X66.620 Y75.979 E2.05071
G1 X66.483 Y76.194 E2.05916
G1 X66.321 Y76.391 E2.06761
G1 X66.135 Y76.565 E2.07607
G1 X65.929 Y76.715 E2.08452
G1 X65.705 Y76.838 E2.09297
G1 X65.468 Y76.932 E2.10142
G1 X65.221 Y76.995 E2.10987
G1 X64.968 Y77.027 E2.11832
G1 X64.712 Y77.027 E2.12678
G1 X64.459 Y76.995 E2.13523
G1 X64.212 Y76.932 E2.14368
G1 X63.975 Y76.838 E2.15213
G1 X63.752 Y76.715 E2.16058
G1 X63.545 Y76.565 E2.16904
G1 X63.359 Y76.391 E2.17749
G1 X63.197 Y76.194 E2.18594
G1 X63.060 Y75.979 E2.19439
G1 X62.951 Y75.748 E2.20284
G1 X62.872 Y75.505 E2.21129
G1 X62.825 Y75.255 E2.21975
G1 X62.809 Y75.000 E2.22820
G1 X62.825 Y74.745 E2.23665
G1 X62.872 Y74.495 E2.24510
G1 X62.951 Y74.252 E2.25355
G1 X63.060 Y74.021 E2.26200
G1 X63.197 Y73.806 E2.27046
G1 X63.359 Y73.609 E2.27891
G1 X63.545 Y73.435 E2.28736
G1 X63.752 Y73.285 E2.29581
G1 X63.975 Y73.162 E2.30427
G1 X64.212 Y73.068 E2.31272
G1 X64.459 Y73.005 E2.32117
G1 X64.712 Y72.973 E2.32962
G1 X64.968 Y72.973 E2.33807
G1 X65.221 Y73.005 E2.34652
G1 X65.468 Y73.068 E2.35497
G1 X65.705 Y73.162 E2.36343
G1 X65.929 Y73.285 E2.37188
G1 X66.135 Y73.435 E2.38033
G1 X66.321 Y73.609 E2.38878
G1 X66.483 Y73.806 E2.39723
G1 X66.620 Y74.021 E2.40569
G1 X66.729 Y74.252 E2.41414
G1 X66.789 Y74.438 E2.42060
G1 X66.550 Y74.561 F7800.000
G1 F1800.000
G1 X66.591 Y74.779 E2.42795
G1 X66.605 Y75.000 E2.43529
G1 X66.591 Y75.221 E2.44263
G1 X66.550 Y75.439 E2.44998
G1 X66.481 Y75.650 E2.45732
G1 X66.387 Y75.850 E2.46467
G1 X66.268 Y76.038 E2.47201
