; generated by Slic3r 1.3.1-dev (Build 54a31ee) on 2020-03-16 at 17:18:06

; external perimeters extrusion width = 0.44mm (2.86mm^3/s)
; perimeters extrusion width = 0.56mm (4.14mm^3/s)
; infill extrusion width = 0.50mm (3.66mm^3/s)
; solid infill extrusion width = 0.56mm (3.10mm^3/s)
; top infill extrusion width = 0.56mm (3.10mm^3/s)

M107
G92 E0
;D3D:START:START
T0
M104 S215 T0

G21
G90
M107
T0
G28
G29
M109 T0 S215 T0
G0 F3000
M107
T0
G92 E0
G0 X0 Y149 Z0.1 F3600
G1 Y49 E6.5 F1200
G0 Z1
G92 E0
; Filament gcode

G21 ; set units to millimeters
G90 ; use absolute coordinates
M82 ; use absolute distances for extrusion
G92 E0
G1 Z0.300 F7800.000
G1 E-2.00000 F2400.00000
G92 E0
G1 X30.293 Y116.247 F7800.000
G1 E2.00000 F2400.00000
G1 F1800.000
G1 X30.293 Y126.447 E2.33792
G1 X25.536 Y126.447 E2.49553
G1 X25.536 Y115.320 E2.86416
G1 X28.268 Y115.320 E2.95468
G1 X35.108 Y114.842 E3.18184
G1 X41.898 Y113.887 E3.40900
G1 X48.605 Y112.462 E3.63617
G1 X55.196 Y110.572 E3.86333
G1 X61.640 Y108.227 E4.09050
G1 X67.904 Y105.438 E4.31766
G1 X73.958 Y102.219 E4.54482
G1 X79.773 Y98.585 E4.77199
G1 X85.320 Y94.555 E4.99915
G1 X90.573 Y90.147 E5.22631
G1 X95.505 Y85.384 E5.45347
G1 X100.093 Y80.288 E5.68064
G1 X104.315 Y74.885 E5.90780
G1 X108.149 Y69.201 E6.13496
G1 X111.577 Y63.263 E6.36213
G1 X114.583 Y57.100 E6.58929
G1 X117.152 Y50.742 E6.81645
G1 X119.271 Y44.221 E7.04362
G1 X120.929 Y37.568 E7.27078
G1 X121.416 Y34.811 E7.36352
G1 X117.516 Y31.122 E7.54135
G1 X118.389 Y26.173 E7.70783
G1 X123.911 Y27.147 E7.89361
G1 X122.582 Y34.686 E8.14722
G1 X122.522 Y34.675 E8.14924
G1 X121.973 Y37.790 E8.25400
G1 X120.296 Y44.515 E8.48363
G1 X118.154 Y51.107 E8.71326
G1 X115.558 Y57.533 E8.94289
G1 X112.519 Y63.763 E9.17252
G1 X109.053 Y69.766 E9.40215
G1 X105.178 Y75.512 E9.63178
G1 X100.910 Y80.974 E9.86141
G1 X96.272 Y86.125 E10.09104
G1 X91.286 Y90.940 E10.32067
G1 X85.977 Y95.395 E10.55030
G1 X80.369 Y99.469 E10.77993
G1 X74.491 Y103.142 E11.00956
G1 X68.371 Y106.396 E11.23919
G1 X62.039 Y109.216 E11.46882
G1 X55.526 Y111.586 E11.69845
G1 X48.863 Y113.497 E11.92808
G1 X42.083 Y114.938 E12.15771
G1 X35.219 Y115.902 E12.38734
G1 X30.353 Y116.243 E12.54895
G1 X30.559 Y116.495 F7800.000
G1 F1800.000
G1 X30.559 Y126.713 E12.88747
G1 X25.270 Y126.713 E13.06268
G1 X25.270 Y115.054 E13.44891
G1 X28.259 Y115.054 E13.54792
G1 X35.080 Y114.577 E13.77447
G1 X41.852 Y113.626 E14.00101
G1 X48.541 Y112.204 E14.22757
G1 X55.114 Y110.319 E14.45411
G1 X61.540 Y107.980 E14.68066
G1 X67.787 Y105.199 E14.90721
G1 X73.825 Y101.988 E15.13376
G1 X79.624 Y98.365 E15.36031
G1 X85.156 Y94.345 E15.58685
G1 X90.395 Y89.950 E15.81340
G1 X95.314 Y85.199 E16.03995
G1 X99.890 Y80.118 E16.26650
G1 X104.100 Y74.729 E16.49305
G1 X107.924 Y69.060 E16.71960
G1 X111.343 Y63.138 E16.94615
G1 X114.340 Y56.992 E17.17269
G1 X116.902 Y50.651 E17.39924
G1 X119.015 Y44.148 E17.62579
G1 X120.669 Y37.512 E17.85234
G1 X121.129 Y34.906 E17.94004
G1 X117.230 Y31.217 E18.11787
G1 X118.173 Y25.866 E18.29788
G1 X124.219 Y26.932 E18.50126
G1 X122.797 Y34.994 E18.77248
G1 X122.737 Y34.983 E18.77449
G1 X122.233 Y37.845 E18.87076
G1 X120.552 Y44.588 E19.10100
G1 X118.404 Y51.198 E19.33125
G1 X115.800 Y57.642 E19.56150
G1 X112.754 Y63.888 E19.79174
G1 X109.279 Y69.907 E20.02198
G1 X105.393 Y75.668 E20.25223
G1 X101.114 Y81.145 E20.48247
G1 X96.464 Y86.310 E20.71271
G1 X91.464 Y91.137 E20.94296
G1 X86.140 Y95.605 E21.17321
G1 X80.518 Y99.690 E21.40345
G1 X74.624 Y103.372 E21.63369
G1 X68.488 Y106.635 E21.86394
G1 X62.139 Y109.462 E22.09418
G1 X55.608 Y111.839 E22.32443
G1 X48.927 Y113.755 E22.55467
G1 X42.129 Y115.200 E22.78492
G1 X35.247 Y116.167 E23.01516
G1 X30.619 Y116.490 E23.16888
G1 X30.824 Y116.742 F7800.000
G1 F1800.000
G1 X30.824 Y126.978 E23.50798
G1 X25.004 Y126.978 E23.70080
G1 X25.004 Y114.789 E24.10463
G1 X28.249 Y114.789 E24.21213
G1 X35.052 Y114.313 E24.43806
G1 X41.806 Y113.364 E24.66399
G1 X48.477 Y111.946 E24.88993
G1 X55.032 Y110.066 E25.11586
G1 X61.440 Y107.734 E25.34180
G1 X67.671 Y104.960 E25.56773
G1 X73.692 Y101.758 E25.79367
G1 X79.476 Y98.144 E26.01960
G1 X84.993 Y94.136 E26.24553
G1 X90.217 Y89.752 E26.47147
G1 X95.123 Y85.015 E26.69740
G1 X99.686 Y79.947 E26.92334
G1 X103.885 Y74.573 E27.14927
G1 X107.698 Y68.919 E27.37520
G1 X111.108 Y63.013 E27.60114
G1 X114.098 Y56.883 E27.82707
G1 X116.652 Y50.560 E28.05301
G1 X118.760 Y44.074 E28.27894
G1 X120.409 Y37.457 E28.50487
G1 X120.843 Y35.000 E28.58753
G1 X116.943 Y31.311 E28.76536
G1 X117.958 Y25.558 E28.95891
G1 X124.527 Y26.716 E29.17988
G1 X123.013 Y35.302 E29.46870
G1 X122.953 Y35.291 E29.47072
G1 X122.493 Y37.900 E29.55849
G1 X120.807 Y44.661 E29.78935
G1 X118.654 Y51.289 E30.02021
G1 X116.043 Y57.750 E30.25107
G1 X112.989 Y64.013 E30.48193
G1 X109.504 Y70.048 E30.71279
G1 X105.608 Y75.825 E30.94364
G1 X101.317 Y81.316 E31.17451
G1 X96.655 Y86.494 E31.40536
G1 X91.642 Y91.335 E31.63622
G1 X86.304 Y95.814 E31.86708
G1 X80.666 Y99.910 E32.09794
G1 X74.757 Y103.603 E32.32880
G1 X68.604 Y106.874 E32.55966
G1 X62.238 Y109.708 E32.79052
G1 X55.690 Y112.092 E33.02138
G1 X48.992 Y114.013 E33.25223
G1 X42.176 Y115.461 E33.48309
G1 X35.275 Y116.431 E33.71395
G1 X30.884 Y116.738 E33.85977
G1 X30.131 Y116.147 F7800.000
G1 F1800.000
G1 X25.698 Y120.580 E34.06780
G1 X25.698 Y120.957 E34.08028
G1 X30.131 Y116.524 E34.28830
G1 X30.131 Y116.900 E34.30079
G1 X25.698 Y121.333 E34.50881
G1 X25.698 Y121.709 E34.52130
G1 X30.131 Y117.276 E34.72932
G1 X30.131 Y117.652 E34.74181
G1 X25.698 Y122.085 E34.94983
G1 X25.698 Y122.462 E34.96232
G1 X30.131 Y118.029 E35.17034
G1 X30.131 Y118.405 E35.18283
G1 X25.698 Y122.838 E35.39085
G1 X25.698 Y123.214 E35.40333
G1 X30.131 Y118.781 E35.61136
G1 X30.131 Y119.157 E35.62384
G1 X25.698 Y123.590 E35.83187
G1 X25.698 Y123.966 E35.84435
G1 X30.131 Y119.534 E36.05238
G1 X30.131 Y119.910 E36.06486
G1 X25.698 Y124.343 E36.27289
G1 X25.698 Y124.719 E36.28537
G1 X30.131 Y120.286 E36.49340
G1 X30.131 Y120.662 E36.50588
G1 X25.698 Y125.095 E36.71390
G1 X25.698 Y125.471 E36.72639
G1 X30.131 Y121.039 E36.93441
G1 X30.131 Y121.415 E36.94690
G1 X25.698 Y125.848 E37.15492
G1 X25.698 Y126.224 E37.16741
G1 X30.131 Y121.791 E37.37543
G1 X30.131 Y122.167 E37.38792
G1 X26.014 Y126.285 E37.58113
G1 X26.390 Y126.285 E37.59362
G1 X30.131 Y122.543 E37.76918
G1 X30.131 Y122.920 E37.78166
G1 X26.766 Y126.285 E37.93957
G1 X27.142 Y126.285 E37.95205
G1 X30.131 Y123.296 E38.09230
G1 X30.131 Y123.672 E38.10478
G1 X27.519 Y126.285 E38.22737
G1 X27.895 Y126.285 E38.23986
G1 X30.131 Y124.048 E38.34479
G1 X30.131 Y124.425 E38.35728
G1 X28.271 Y126.285 E38.44456
G1 X28.647 Y126.285 E38.45704
G1 X30.131 Y124.801 E38.52667
G1 X30.131 Y125.177 E38.53915
G1 X29.024 Y126.285 E38.59112
G1 X29.400 Y126.285 E38.60361
G1 X30.131 Y125.553 E38.63792
G1 X30.131 Y125.930 E38.65040
G1 X29.776 Y126.285 E38.66706
G1 E36.66706 F2400.00000
G92 E0
G1 X25.698 Y115.689 F7800.000
G1 E2.00000 F2400.00000
G1 F1800.000
G1 X25.905 Y115.482 E2.00970
G1 X26.281 Y115.482 E2.02218
G1 X25.698 Y116.065 E2.04954
G1 X25.698 Y116.442 E2.06203
G1 X26.657 Y115.482 E2.10705
G1 X27.034 Y115.482 E2.11953
G1 X25.698 Y116.818 E2.18221
G1 X25.698 Y117.194 E2.19469
G1 X27.410 Y115.482 E2.27503
G1 X27.786 Y115.482 E2.28751
G1 X25.698 Y117.570 E2.38550
G1 X25.698 Y117.947 E2.39798
G1 X28.162 Y115.482 E2.51363
G1 X28.550 Y115.470 E2.52651
G1 X25.698 Y118.323 E2.66037
G1 X25.698 Y118.699 E2.67285
G1 X28.955 Y115.442 E2.82569
G1 X29.360 Y115.414 E2.83915
G1 X25.698 Y119.075 E3.01098
G1 X25.698 Y119.452 E3.02346
G1 X29.764 Y115.386 E3.21427
G1 X30.169 Y115.357 E3.22772
G1 X25.698 Y119.828 E3.43752
G1 X25.698 Y120.204 E3.45000
G1 X30.573 Y115.329 E3.67878
G1 X30.978 Y115.301 E3.69223
G1 X30.195 Y116.084 E3.72898
G1 X30.599 Y116.055 E3.74243
G1 X31.382 Y115.272 E3.77918
G1 X31.787 Y115.244 E3.79264
G1 X31.004 Y116.027 E3.82938
G1 X31.408 Y115.999 E3.84284
G1 X32.191 Y115.216 E3.87958
G1 X32.596 Y115.187 E3.89304
G1 X31.813 Y115.971 E3.92979
G1 X32.217 Y115.942 E3.94324
G1 X33.000 Y115.159 E3.97999
G1 X33.405 Y115.131 E3.99344
G1 X32.622 Y115.914 E4.03019
G1 X33.026 Y115.886 E4.04365
G1 X33.809 Y115.103 E4.08039
G1 X34.214 Y115.074 E4.09385
G1 X33.431 Y115.857 E4.13059
G1 X33.835 Y115.829 E4.14405
G1 X34.618 Y115.046 E4.18080
G1 X35.023 Y115.018 E4.19425
G1 X34.240 Y115.801 E4.23100
G1 X34.644 Y115.773 E4.24446
G1 X35.443 Y114.974 E4.28193
G1 X35.881 Y114.912 E4.29660
G1 X35.049 Y115.744 E4.33563
G1 X35.088 Y115.741 E4.33694
G1 X35.484 Y115.686 E4.35018
G1 X36.319 Y114.851 E4.38936
G1 X36.756 Y114.789 E4.40403
G1 X35.921 Y115.624 E4.44322
G1 X36.359 Y115.563 E4.45789
G1 X37.194 Y114.728 E4.49707
G1 X37.632 Y114.666 E4.51174
G1 X36.797 Y115.501 E4.55092
G1 X37.235 Y115.440 E4.56559
G1 X38.070 Y114.605 E4.60478
G1 X38.507 Y114.543 E4.61945
G1 X37.672 Y115.378 E4.65863
G1 X38.110 Y115.317 E4.67330
G1 X38.945 Y114.482 E4.71248
G1 X39.383 Y114.420 E4.72715
G1 X38.548 Y115.255 E4.76634
G1 X38.986 Y115.194 E4.78100
G1 X39.821 Y114.359 E4.82019
G1 X40.258 Y114.297 E4.83486
G1 X39.423 Y115.132 E4.87404
G1 X39.861 Y115.071 E4.88871
G1 X40.696 Y114.236 E4.92789
G1 X41.134 Y114.174 E4.94256
G1 X40.299 Y115.009 E4.98175
G1 X40.737 Y114.948 E4.99642
G1 X41.572 Y114.113 E5.03560
G1 X42.010 Y114.051 E5.05027
G1 X41.175 Y114.886 E5.08945
G1 X41.612 Y114.825 E5.10412
G1 X42.484 Y113.953 E5.14502
G1 X42.962 Y113.851 E5.16123
G1 X42.061 Y114.752 E5.20351
G1 X42.538 Y114.651 E5.21972
G1 X43.439 Y113.750 E5.26200
G1 X43.917 Y113.648 E5.27821
G1 X43.016 Y114.549 E5.32049
G1 X43.494 Y114.448 E5.33670
G1 X44.395 Y113.547 E5.37898
G1 X44.873 Y113.445 E5.39518
G1 X43.972 Y114.346 E5.43747
G1 X44.450 Y114.245 E5.45367
G1 X45.351 Y113.344 E5.49595
G1 X45.828 Y113.242 E5.51216
G1 X44.927 Y114.143 E5.55444
G1 X45.405 Y114.042 E5.57065
G1 X46.306 Y113.141 E5.61293
G1 X46.784 Y113.039 E5.62914
G1 X45.883 Y113.940 E5.67142
G1 X46.361 Y113.838 E5.68763
G1 X47.262 Y112.937 E5.72991
G1 X47.740 Y112.836 E5.74612
G1 X46.839 Y113.737 E5.78840
G1 X47.317 Y113.635 E5.80461
G1 X48.218 Y112.734 E5.84690
G1 X48.695 Y112.633 E5.86310
G1 X47.794 Y113.534 E5.90539
G1 X48.272 Y113.432 E5.92160
G1 X49.215 Y112.490 E5.96583
G1 X49.742 Y112.338 E5.98404
G1 X48.756 Y113.325 E6.03034
G1 X49.283 Y113.174 E6.04855
G1 X50.270 Y112.187 E6.09485
G1 X50.797 Y112.036 E6.11306
G1 X49.811 Y113.022 E6.15936
G1 X50.338 Y112.871 E6.17757
G1 X51.325 Y111.885 E6.22388
G1 X51.852 Y111.733 E6.24208
G1 X50.866 Y112.720 E6.28839
G1 X51.393 Y112.569 E6.30659
G1 X52.380 Y111.582 E6.35290
G1 X52.907 Y111.431 E6.37110
G1 X51.921 Y112.417 E6.41740
G1 X52.448 Y112.266 E6.43561
G1 X53.435 Y111.280 E6.48191
G1 X53.962 Y111.128 E6.50012
G1 X52.976 Y112.115 E6.54642
G1 X53.503 Y111.964 E6.56463
G1 X54.490 Y110.977 E6.61093
G1 X55.017 Y110.826 E6.62914
G1 X54.031 Y111.812 E6.67544
G1 X54.558 Y111.661 E6.69365
G1 X55.564 Y110.655 E6.74088
G1 X56.156 Y110.439 E6.76176
G1 X55.086 Y111.510 E6.81200
G1 X55.340 Y111.437 E6.82080
G1 X55.646 Y111.326 E6.83159
G1 X56.748 Y110.224 E6.88328
G1 X57.339 Y110.009 E6.90417
G1 X56.238 Y111.110 E6.95585
G1 X56.829 Y110.895 E6.97674
G1 X57.931 Y109.793 E7.02843
G1 X58.522 Y109.578 E7.04932
G1 X57.421 Y110.680 E7.10101
G1 X58.012 Y110.464 E7.12190
G1 X59.114 Y109.363 E7.17358
G1 X59.705 Y109.148 E7.19447
G1 X58.604 Y110.249 E7.24616
G1 X59.195 Y110.034 E7.26705
G1 X60.297 Y108.932 E7.31874
G1 X60.889 Y108.717 E7.33963
G1 X59.787 Y109.818 E7.39132
G1 X60.379 Y109.603 E7.41221
G1 X61.480 Y108.502 E7.46390
G1 X62.105 Y108.253 E7.48623
G1 X60.970 Y109.388 E7.53950
G1 X61.562 Y109.172 E7.56038
G1 X62.783 Y107.951 E7.61772
G1 X63.462 Y107.649 E7.64235
G1 X62.200 Y108.911 E7.70157
G1 X62.878 Y108.609 E7.72620
G1 X64.140 Y107.347 E7.78542
G1 X64.818 Y107.045 E7.81006
G1 X63.556 Y108.307 E7.86928
G1 X64.234 Y108.005 E7.89391
G1 X65.496 Y106.743 E7.95313
G1 X66.174 Y106.441 E7.97776
G1 X64.912 Y107.703 E8.03698
G1 X65.591 Y107.401 E8.06161
G1 X66.853 Y106.139 E8.12083
G1 X67.531 Y105.837 E8.14547
G1 X66.269 Y107.099 E8.20468
G1 X66.947 Y106.797 E8.22932
G1 X68.225 Y105.519 E8.28927
G1 X69.028 Y105.092 E8.31947
G1 X67.625 Y106.495 E8.38530
G1 X68.332 Y106.165 E8.41117
G1 X69.832 Y104.665 E8.48156
G1 X70.635 Y104.238 E8.51176
G1 X69.135 Y105.738 E8.58215
G1 X69.938 Y105.311 E8.61235
G1 X71.438 Y103.811 E8.68274
G1 X72.242 Y103.383 E8.71294
G1 X70.742 Y104.883 E8.78333
G1 X71.545 Y104.456 E8.81352
G1 X73.045 Y102.956 E8.88392
G1 X73.849 Y102.529 E8.91411
G1 X72.349 Y104.029 E8.98451
G1 X73.152 Y103.602 E9.01470
G1 X74.766 Y101.988 E9.09044
G1 X75.769 Y101.361 E9.12968
G1 X73.956 Y103.175 E9.21478
G1 X74.255 Y103.015 E9.22603
G1 X74.884 Y102.622 E9.25065
G1 X76.772 Y100.735 E9.33923
G1 X77.775 Y100.108 E9.37848
G1 X75.887 Y101.996 E9.46707
G1 X76.890 Y101.369 E9.50631
G1 X78.778 Y99.481 E9.59490
G1 X79.781 Y98.854 E9.63414
G1 X77.893 Y100.742 E9.72273
G1 X78.896 Y100.116 E9.76198
G1 X81.066 Y97.945 E9.86381
G1 X82.442 Y96.946 E9.92025
G1 X79.899 Y99.489 E10.03958
G1 X80.117 Y99.352 E10.04813
G1 X81.194 Y98.570 E10.09227
G1 X83.818 Y95.946 E10.21542
G1 X85.194 Y94.947 E10.27185
G1 X82.569 Y97.571 E10.39500
G1 X83.945 Y96.571 E10.45143
G1 X87.257 Y93.259 E10.60683
G1 X89.596 Y91.297 E10.70813
G1 X85.321 Y95.571 E10.90871
G1 E8.90871 F2400.00000
G92 E0
G1 X95.974 Y86.048 F7800.000
G1 E2.00000 F2400.00000
G1 F1800.000
G1 X96.186 Y85.836 E2.00995
G1 X99.587 Y82.058 E2.17863
G1 X89.726 Y91.919 E2.64139
G1 X87.388 Y93.881 E2.74267
G1 X101.671 Y79.598 E3.41292
G1 X103.015 Y77.878 E3.48536
G1 X98.958 Y81.935 E3.67575
G1 X100.193 Y80.563 E3.73702
G1 X101.049 Y79.467 E3.78314
G1 X104.359 Y76.158 E3.93846
G1 X105.066 Y75.253 E3.97656
G1 X105.435 Y74.705 E3.99849
G1 X102.393 Y77.747 E4.14125
G1 X103.737 Y76.027 E4.21369
G1 X106.215 Y73.549 E4.32997
G1 X106.995 Y72.393 E4.37624
G1 X104.806 Y74.582 E4.47894
G1 X105.586 Y73.426 E4.52520
G1 X107.774 Y71.237 E4.62791
G1 X108.554 Y70.081 E4.67417
G1 X106.365 Y72.270 E4.77688
G1 X107.145 Y71.114 E4.82314
G1 X109.197 Y69.062 E4.91941
G1 X109.711 Y68.172 E4.95352
G1 X107.925 Y69.958 E5.03732
G1 X108.271 Y69.445 E5.05786
G1 X108.557 Y68.950 E5.07683
G1 X110.225 Y67.282 E5.15510
G1 X110.739 Y66.392 E5.18921
G1 X109.071 Y68.060 E5.26748
G1 X109.585 Y67.169 E5.30159
G1 X111.253 Y65.501 E5.37986
G1 X111.767 Y64.611 E5.41397
G1 X110.099 Y66.279 E5.49224
G1 X110.613 Y65.389 E5.52635
G1 X112.281 Y63.721 E5.60462
G1 X112.671 Y62.954 E5.63318
G1 X111.127 Y64.499 E5.70566
G1 X111.641 Y63.608 E5.73977
G1 X113.029 Y62.220 E5.80495
G1 X113.388 Y61.485 E5.83206
G1 X112.019 Y62.853 E5.89627
G1 X112.378 Y62.119 E5.92339
G1 X113.746 Y60.751 E5.98759
G1 X114.104 Y60.016 E6.01471
G1 X112.736 Y61.384 E6.07891
G1 X113.094 Y60.650 E6.10603
G1 X114.462 Y59.282 E6.17024
G1 X114.820 Y58.547 E6.19735
G1 X113.452 Y59.916 E6.26156
G1 X113.811 Y59.181 E6.28867
G1 X115.179 Y57.813 E6.35287
G1 X115.418 Y57.322 E6.37100
G1 X115.503 Y57.113 E6.37849
G1 X114.169 Y58.447 E6.44109
G1 X114.527 Y57.712 E6.46820
G1 X115.758 Y56.481 E6.52596
G1 X116.013 Y55.850 E6.54856
G1 X114.838 Y57.025 E6.60367
G1 X115.093 Y56.393 E6.62626
G1 X116.268 Y55.219 E6.68138
G1 X116.523 Y54.587 E6.70397
G1 X115.348 Y55.762 E6.75909
G1 X115.604 Y55.131 E6.78168
G1 X116.778 Y53.956 E6.83680
G1 X117.033 Y53.325 E6.85940
G1 X115.859 Y54.499 E6.91451
G1 X116.114 Y53.868 E6.93711
G1 X117.288 Y52.693 E6.99222
G1 X117.543 Y52.062 E7.01482
G1 X116.369 Y53.237 E7.06994
G1 X116.624 Y52.605 E7.09253
G1 X117.798 Y51.431 E7.14765
G1 X118.008 Y50.913 E7.16619
G1 X118.040 Y50.813 E7.16968
G1 X116.879 Y51.974 E7.22418
G1 X117.134 Y51.343 E7.24677
G1 X118.221 Y50.255 E7.29780
G1 X118.402 Y49.698 E7.31724
G1 X117.363 Y50.738 E7.36603
G1 X117.544 Y50.180 E7.38548
G1 X118.583 Y49.141 E7.43427
G1 X118.765 Y48.583 E7.45371
G1 X117.725 Y49.623 E7.50250
G1 X117.906 Y49.066 E7.52195
G1 X118.946 Y48.026 E7.57074
G1 X119.127 Y47.469 E7.59018
G1 X118.087 Y48.508 E7.63897
G1 X118.268 Y47.951 E7.65842
G1 X119.308 Y46.911 E7.70720
G1 X119.489 Y46.354 E7.72665
G1 X118.449 Y47.394 E7.77544
G1 X118.630 Y46.836 E7.79488
G1 X119.670 Y45.797 E7.84367
G1 X119.851 Y45.239 E7.86311
