; generated by Slic3r 1.3.0 on 2020-03-10 at 21:29:04

; external perimeters extrusion width = 0.44mm (2.86mm^3/s)
; perimeters extrusion width = 0.56mm (4.14mm^3/s)
; infill extrusion width = 0.50mm (3.66mm^3/s)
; solid infill extrusion width = 0.56mm (3.10mm^3/s)
; top infill extrusion width = 0.56mm (3.10mm^3/s)

M107
;D3D:START:START
T0
M104 S215 T0

G21
G90
M107
T0
G28
G29
M109 T0 S215 T0
G0 F3000
M107
T0
G92 E0
G0 X0 Y149 Z0.1 F3600
G1 Y49 E6.5 F1200
G0 Z1
G92 E0
; Filament gcode

G21 ; set units to millimeters
G90 ; use absolute coordinates
M82 ; use absolute distances for extrusion
G92 E0
G1 Z0.300 F7800.000
G1 E-2.00000 F2400.00000
G92 E0
G1 X62.665 Y101.015 F7800.000
G1 E2.00000 F2400.00000
G1 F1800
G1 X66.335 Y101.015 E2.12159
G1 X66.335 Y101.165 E2.12655
G1 X87.335 Y101.165 E2.82227
G1 X87.335 Y104.835 E2.94386
G1 X62.665 Y104.835 E3.76117
G1 X62.665 Y101.075 E3.88573
G1 X62.828 Y101.384 F7800.000
G1 F1800
G1 X63.034 Y101.177 E3.89541
G1 X63.410 Y101.177 E3.90786
G1 X62.827 Y101.760 E3.93516
G1 X62.827 Y102.136 E3.94761
G1 X63.786 Y101.177 E3.99252
G1 X64.161 Y101.177 E4.00497
G1 X62.827 Y102.511 E4.06748
G1 X62.827 Y102.887 E4.07993
G1 X64.537 Y101.177 E4.16005
G1 X64.913 Y101.177 E4.17250
G1 X62.827 Y103.263 E4.27022
G1 X62.827 Y103.638 E4.28267
G1 X65.288 Y101.177 E4.39800
G1 X65.664 Y101.177 E4.41045
G1 X62.827 Y104.014 E4.54339
G1 X62.827 Y104.390 E4.55584
G1 X66.040 Y101.177 E4.70639
G1 X66.173 Y101.177 E4.71079
G1 X66.173 Y101.327 E4.71576
G1 X66.266 Y101.327 E4.71884
G1 X62.920 Y104.673 E4.87561
G1 X63.296 Y104.673 E4.88806
G1 X66.641 Y101.327 E5.04483
G1 X67.017 Y101.327 E5.05728
G1 X63.672 Y104.673 E5.21405
G1 X64.047 Y104.673 E5.22650
G1 X67.393 Y101.327 E5.38327
G1 X67.768 Y101.327 E5.39572
G1 X64.423 Y104.673 E5.55249
G1 X64.799 Y104.673 E5.56494
G1 X68.144 Y101.327 E5.72171
G1 X68.520 Y101.327 E5.73416
G1 X65.174 Y104.673 E5.89093
G1 X65.550 Y104.673 E5.90338
G1 X68.896 Y101.327 E6.06015
G1 X69.271 Y101.327 E6.07260
G1 X65.926 Y104.673 E6.22937
G1 X66.302 Y104.673 E6.24182
G1 X69.647 Y101.327 E6.39859
G1 X70.023 Y101.327 E6.41104
G1 X66.677 Y104.673 E6.56781
G1 X67.053 Y104.673 E6.58026
G1 X70.398 Y101.327 E6.73703
G1 X70.774 Y101.327 E6.74948
G1 X67.429 Y104.673 E6.90625
G1 X67.804 Y104.673 E6.91870
G1 X71.150 Y101.327 E7.07547
G1 X71.526 Y101.327 E7.08792
G1 X68.180 Y104.673 E7.24469
G1 X68.556 Y104.673 E7.25714
G1 X71.901 Y101.327 E7.41391
G1 X72.277 Y101.327 E7.42636
G1 X68.932 Y104.673 E7.58313
G1 X69.307 Y104.673 E7.59558
G1 X72.653 Y101.327 E7.75235
G1 X73.028 Y101.327 E7.76480
G1 X69.683 Y104.673 E7.92157
G1 X70.059 Y104.673 E7.93402
G1 X73.404 Y101.327 E8.09079
G1 X73.780 Y101.327 E8.10324
G1 X70.434 Y104.673 E8.26001
G1 X70.810 Y104.673 E8.27246
G1 X74.156 Y101.327 E8.42923
G1 X74.531 Y101.327 E8.44168
G1 X71.186 Y104.673 E8.59845
G1 X71.562 Y104.673 E8.61090
G1 X74.907 Y101.327 E8.76767
G1 X75.283 Y101.327 E8.78012
G1 X71.937 Y104.673 E8.93689
G1 X72.313 Y104.673 E8.94934
G1 X75.658 Y101.327 E9.10611
G1 X76.034 Y101.327 E9.11856
G1 X72.689 Y104.673 E9.27533
G1 X73.064 Y104.673 E9.28778
G1 X76.410 Y101.327 E9.44455
G1 X76.786 Y101.327 E9.45700
G1 X73.440 Y104.673 E9.61377
G1 X73.816 Y104.673 E9.62622
G1 X77.161 Y101.327 E9.78299
G1 X77.537 Y101.327 E9.79544
G1 X74.192 Y104.673 E9.95221
G1 X74.567 Y104.673 E9.96466
G1 X77.913 Y101.327 E10.12143
G1 X78.288 Y101.327 E10.13388
G1 X74.943 Y104.673 E10.29065
G1 X75.319 Y104.673 E10.30310
G1 X78.664 Y101.327 E10.45987
G1 X79.040 Y101.327 E10.47231
G1 X75.694 Y104.673 E10.62908
G1 X76.070 Y104.673 E10.64153
G1 X79.416 Y101.327 E10.79830
G1 X79.791 Y101.327 E10.81075
G1 X76.446 Y104.673 E10.96752
G1 X76.822 Y104.673 E10.97997
G1 X80.167 Y101.327 E11.13674
G1 X80.543 Y101.327 E11.14919
G1 X77.197 Y104.673 E11.30596
G1 X77.573 Y104.673 E11.31841
G1 X80.918 Y101.327 E11.47518
G1 X81.294 Y101.327 E11.48763
G1 X77.949 Y104.673 E11.64440
G1 X78.325 Y104.673 E11.65685
G1 X81.670 Y101.327 E11.81362
G1 X82.046 Y101.327 E11.82607
G1 X78.700 Y104.673 E11.98284
G1 X79.076 Y104.673 E11.99529
G1 X82.421 Y101.327 E12.15206
G1 X82.797 Y101.327 E12.16451
G1 X79.452 Y104.673 E12.32128
G1 X79.827 Y104.673 E12.33373
G1 X83.173 Y101.327 E12.49050
G1 X83.548 Y101.327 E12.50295
G1 X80.203 Y104.673 E12.65972
G1 X80.579 Y104.673 E12.67217
G1 X83.924 Y101.327 E12.82894
G1 X84.300 Y101.327 E12.84139
G1 X80.955 Y104.673 E12.99816
G1 X81.330 Y104.673 E13.01061
G1 X84.676 Y101.327 E13.16738
G1 X85.051 Y101.327 E13.17983
G1 X81.706 Y104.673 E13.33660
G1 X82.082 Y104.673 E13.34905
G1 X85.427 Y101.327 E13.50582
G1 X85.803 Y101.327 E13.51827
G1 X82.457 Y104.673 E13.67504
G1 X82.833 Y104.673 E13.68749
G1 X86.178 Y101.327 E13.84426
G1 X86.554 Y101.327 E13.85671
G1 X83.209 Y104.673 E14.01348
G1 X83.585 Y104.673 E14.02593
G1 X86.930 Y101.327 E14.18270
G1 X87.173 Y101.327 E14.19075
G1 X87.173 Y101.460 E14.19515
G1 X83.960 Y104.673 E14.34569
G1 X84.336 Y104.673 E14.35814
G1 X87.173 Y101.836 E14.49108
G1 X87.173 Y102.212 E14.50353
G1 X84.712 Y104.673 E14.61885
G1 X85.087 Y104.673 E14.63130
G1 X87.173 Y102.587 E14.72902
G1 X87.173 Y102.963 E14.74147
G1 X85.463 Y104.673 E14.82159
G1 X85.839 Y104.673 E14.83404
G1 X87.173 Y103.339 E14.89655
G1 X87.173 Y103.715 E14.90900
G1 X86.215 Y104.673 E14.95390
G1 X86.590 Y104.673 E14.96635
G1 X87.173 Y104.090 E14.99364
G1 X87.173 Y104.466 E15.00609
G1 X86.966 Y104.673 E15.01578
G1 E13.01578 F2400.00000
G92 E0
G1 X62.665 Y48.985 F7800.000
G1 E2.00000 F2400.00000
G1 F1800
G1 X62.665 Y45.165 E2.12655
G1 X87.335 Y45.165 E2.94386
G1 X87.335 Y48.835 E3.06545
G1 X66.335 Y48.835 E3.76117
G1 X66.335 Y48.985 E3.76613
G1 X62.725 Y48.985 E3.88573
G1 E1.88573 F2400.00000
G92 E0
G1 X63.034 Y45.327 F7800.000
G1 E2.00000 F2400.00000
G1 F1800
G1 X62.827 Y45.534 E2.00977
G1 X62.827 Y45.913 E2.02243
G1 X63.413 Y45.327 E2.05010
G1 X63.792 Y45.327 E2.06276
G1 X62.827 Y46.292 E2.10834
G1 X62.827 Y46.671 E2.12100
G1 X64.171 Y45.327 E2.18447
G1 X64.550 Y45.327 E2.19713
G1 X62.827 Y47.050 E2.27851
G1 X62.827 Y47.428 E2.29117
G1 X64.928 Y45.327 E2.39045
G1 X65.307 Y45.327 E2.40311
G1 X62.827 Y47.807 E2.52029
G1 X62.827 Y48.186 E2.53295
G1 X65.686 Y45.327 E2.66803
G1 X66.065 Y45.327 E2.68069
G1 X62.827 Y48.565 E2.83367
G1 X62.827 Y48.823 E2.84229
G1 X62.948 Y48.823 E2.84633
G1 X66.444 Y45.327 E3.01150
G1 X66.823 Y45.327 E3.02415
G1 X63.327 Y48.823 E3.18932
G1 X63.706 Y48.823 E3.20198
G1 X67.201 Y45.327 E3.36715
G1 X67.580 Y45.327 E3.37980
G1 X64.085 Y48.823 E3.54497
G1 X64.464 Y48.823 E3.55763
G1 X67.959 Y45.327 E3.72279
G1 X68.338 Y45.327 E3.73545
G1 X64.843 Y48.823 E3.90062
G1 X65.221 Y48.823 E3.91328
G1 X68.717 Y45.327 E4.07844
G1 X69.096 Y45.327 E4.09110
G1 X65.600 Y48.823 E4.25627
G1 X65.966 Y48.823 E4.26849
G1 X65.966 Y48.673 E4.27350
G1 X66.129 Y48.673 E4.27895
G1 X69.475 Y45.327 E4.43703
G1 X69.853 Y45.327 E4.44969
G1 X66.508 Y48.673 E4.60777
G1 X66.887 Y48.673 E4.62042
G1 X70.232 Y45.327 E4.77850
G1 X70.611 Y45.327 E4.79116
G1 X67.266 Y48.673 E4.94924
G1 X67.645 Y48.673 E4.96190
G1 X70.990 Y45.327 E5.11998
G1 X71.369 Y45.327 E5.13263
G1 X68.023 Y48.673 E5.29071
G1 X68.402 Y48.673 E5.30337
G1 X71.748 Y45.327 E5.46145
G1 X72.127 Y45.327 E5.47411
G1 X68.781 Y48.673 E5.63219
G1 X69.160 Y48.673 E5.64484
G1 X72.505 Y45.327 E5.80292
G1 X72.884 Y45.327 E5.81558
G1 X69.539 Y48.673 E5.97366
G1 X69.918 Y48.673 E5.98632
G1 X73.263 Y45.327 E6.14440
G1 X73.642 Y45.327 E6.15705
G1 X70.297 Y48.673 E6.31513
G1 X70.675 Y48.673 E6.32779
G1 X74.021 Y45.327 E6.48587
G1 X74.400 Y45.327 E6.49853
G1 X71.054 Y48.673 E6.65661
G1 X71.433 Y48.673 E6.66927
G1 X74.778 Y45.327 E6.82734
G1 X75.157 Y45.327 E6.84000
G1 X71.812 Y48.673 E6.99808
G1 X72.191 Y48.673 E7.01074
G1 X75.536 Y45.327 E7.16882
G1 X75.915 Y45.327 E7.18148
G1 X72.570 Y48.673 E7.33955
G1 X72.948 Y48.673 E7.35221
G1 X76.294 Y45.327 E7.51029
G1 X76.673 Y45.327 E7.52295
G1 X73.327 Y48.673 E7.68103
G1 X73.706 Y48.673 E7.69369
G1 X77.052 Y45.327 E7.85176
G1 X77.430 Y45.327 E7.86442
G1 X74.085 Y48.673 E8.02250
G1 X74.464 Y48.673 E8.03516
G1 X77.809 Y45.327 E8.19324
G1 X78.188 Y45.327 E8.20590
G1 X74.843 Y48.673 E8.36397
G1 X75.222 Y48.673 E8.37663
G1 X78.567 Y45.327 E8.53471
G1 X78.946 Y45.327 E8.54737
G1 X75.600 Y48.673 E8.70545
G1 X75.979 Y48.673 E8.71811
G1 X79.325 Y45.327 E8.87618
G1 X79.704 Y45.327 E8.88884
G1 X76.358 Y48.673 E9.04692
G1 X76.737 Y48.673 E9.05958
G1 X80.082 Y45.327 E9.21766
G1 X80.461 Y45.327 E9.23032
G1 X77.116 Y48.673 E9.38840
G1 X77.495 Y48.673 E9.40105
G1 X80.840 Y45.327 E9.55913
G1 X81.219 Y45.327 E9.57179
G1 X77.874 Y48.673 E9.72987
G1 X78.252 Y48.673 E9.74253
G1 X81.598 Y45.327 E9.90061
G1 X81.977 Y45.327 E9.91326
G1 X78.631 Y48.673 E10.07134
G1 X79.010 Y48.673 E10.08400
G1 X82.355 Y45.327 E10.24208
G1 X82.734 Y45.327 E10.25474
G1 X79.389 Y48.673 E10.41282
G1 X79.768 Y48.673 E10.42547
G1 X83.113 Y45.327 E10.58355
G1 X83.492 Y45.327 E10.59621
G1 X80.147 Y48.673 E10.75429
G1 X80.525 Y48.673 E10.76695
G1 X83.871 Y45.327 E10.92503
G1 X84.250 Y45.327 E10.93768
G1 X80.904 Y48.673 E11.09576
G1 X81.283 Y48.673 E11.10842
G1 X84.629 Y45.327 E11.26650
G1 X85.007 Y45.327 E11.27916
G1 X81.662 Y48.673 E11.43724
G1 X82.041 Y48.673 E11.44989
G1 X85.386 Y45.327 E11.60797
G1 X85.765 Y45.327 E11.62063
G1 X82.420 Y48.673 E11.77871
G1 X82.799 Y48.673 E11.79137
G1 X86.144 Y45.327 E11.94945
G1 X86.523 Y45.327 E11.96210
G1 X83.177 Y48.673 E12.12018
G1 X83.556 Y48.673 E12.13284
G1 X86.902 Y45.327 E12.29092
G1 X87.173 Y45.327 E12.29997
G1 X87.173 Y45.435 E12.30358
G1 X83.935 Y48.673 E12.45656
G1 X84.314 Y48.673 E12.46922
G1 X87.173 Y45.814 E12.60430
G1 X87.173 Y46.193 E12.61696
G1 X84.693 Y48.673 E12.73414
G1 X85.072 Y48.673 E12.74679
G1 X87.173 Y46.572 E12.84607
G1 X87.173 Y46.951 E12.85873
G1 X85.451 Y48.673 E12.94011
G1 X85.829 Y48.673 E12.95276
G1 X87.173 Y47.329 E13.01624
G1 X87.173 Y47.708 E13.02890
G1 X86.208 Y48.673 E13.07447
G1 X86.587 Y48.673 E13.08713
G1 X87.173 Y48.087 E13.11480
G1 X87.173 Y48.466 E13.12746
G1 X86.966 Y48.673 E13.13722
M106 S255
G1 Z0.500 F7800.000
G1 E11.13722 F2400.00000
G92 E0
G1 X66.280 Y101.220 F7800.000
G1 E2.00000 F2400.00000
G1 F2160
G1 X87.280 Y101.220 E2.69336
G1 X87.280 Y104.780 E2.81091
G1 X62.720 Y104.780 E3.62181
G1 X62.720 Y100.820 E3.75256
G1 X66.280 Y100.820 E3.87010
G1 X66.280 Y101.160 E3.88133
G1 X65.655 Y101.506 F7800.000
G1 F1800
G1 X68.643 Y104.494 E4.06711
G1 X69.390 Y104.494 E4.09999
G1 X66.402 Y101.506 E4.28578
G1 X67.150 Y101.506 E4.31865
G1 X70.138 Y104.494 E4.50444
G1 X70.886 Y104.494 E4.53731
G1 X67.898 Y101.506 E4.72310
G1 X68.646 Y101.506 E4.75598
G1 X71.634 Y104.494 E4.94176
G1 X72.381 Y104.494 E4.97464
G1 X69.393 Y101.506 E5.16042
G1 X70.141 Y101.506 E5.19330
G1 X73.129 Y104.494 E5.37909
G1 X73.877 Y104.494 E5.41196
G1 X70.889 Y101.506 E5.59775
G1 X71.637 Y101.506 E5.63062
G1 X74.625 Y104.494 E5.81641
G1 X75.372 Y104.494 E5.84929
G1 X72.384 Y101.506 E6.03507
G1 X73.132 Y101.506 E6.06795
G1 X76.120 Y104.494 E6.25374
G1 X76.868 Y104.494 E6.28661
G1 X73.880 Y101.506 E6.47240
G1 X74.628 Y101.506 E6.50527
G1 X77.616 Y104.494 E6.69106
G1 X78.363 Y104.494 E6.72394
G1 X75.375 Y101.506 E6.90972
G1 X76.123 Y101.506 E6.94260
G1 X79.111 Y104.494 E7.12839
G1 X79.859 Y104.494 E7.16126
G1 X76.871 Y101.506 E7.34705
G1 X77.619 Y101.506 E7.37992
G1 X80.607 Y104.494 E7.56571
G1 X81.354 Y104.494 E7.59859
G1 X78.366 Y101.506 E7.78437
G1 X79.114 Y101.506 E7.81725
G1 X82.102 Y104.494 E8.00303
G1 X82.850 Y104.494 E8.03591
G1 X79.862 Y101.506 E8.22170
G1 X80.610 Y101.506 E8.25457
G1 X83.598 Y104.494 E8.44036
G1 X84.345 Y104.494 E8.47323
G1 X81.357 Y101.506 E8.65902
G1 X82.105 Y101.506 E8.69190
G1 X85.093 Y104.494 E8.87768
G1 X85.841 Y104.494 E8.91056
G1 X82.853 Y101.506 E9.09635
G1 X83.601 Y101.506 E9.12922
G1 X86.589 Y104.494 E9.31501
G1 X86.994 Y104.494 E9.33283
G1 X86.994 Y104.152 E9.34788
G1 X84.348 Y101.506 E9.51238
G1 X85.096 Y101.506 E9.54525
G1 X86.994 Y103.404 E9.66325
G1 X86.994 Y102.656 E9.69613
G1 X85.844 Y101.506 E9.76764
G1 X86.592 Y101.506 E9.80051
G1 X86.994 Y101.908 E9.82553
G1 E7.82553 F2400.00000
G92 E0
G1 X65.994 Y101.845 F7800.000
G1 E2.00000 F2400.00000
G1 F1800
G1 X65.255 Y101.106 E2.04598
G1 X64.507 Y101.106 E2.07885
G1 X67.895 Y104.494 E2.28951
G1 X67.147 Y104.494 E2.32239
G1 X63.759 Y101.106 E2.53304
G1 X63.011 Y101.106 E2.56592
G1 X66.399 Y104.494 E2.77658
G1 X65.652 Y104.494 E2.80945
G1 X63.006 Y101.848 E2.97395
G1 X63.006 Y102.596 E3.00682
G1 X64.904 Y104.494 E3.12483
G1 X64.156 Y104.494 E3.15770
G1 X63.006 Y103.344 E3.22921
G1 X63.006 Y104.092 E3.26209
G1 X63.408 Y104.494 E3.28709
G1 E1.28709 F2400.00000
G92 E0
G1 X66.280 Y48.780 F7800.000
G1 E2.00000 F2400.00000
G1 F2160
G1 X66.280 Y49.180 E2.01321
G1 X62.720 Y49.180 E2.13075
G1 X62.720 Y45.220 E2.26150
G1 X87.280 Y45.220 E3.07240
G1 X87.280 Y48.780 E3.18994
G1 X66.340 Y48.780 E3.88133
G1 E1.88133 F2400.00000
G92 E0
G1 X63.006 Y48.492 F7800.000
G1 E2.00000 F2400.00000
G1 F1800
G1 X63.408 Y48.894 E2.02469
G1 X64.146 Y48.894 E2.05672
G1 X63.006 Y47.754 E2.12672
G1 X63.006 Y47.015 E2.15875
G1 X64.885 Y48.894 E2.27404
G1 X65.623 Y48.894 E2.30607
G1 X63.006 Y46.277 E2.46666
G1 X63.006 Y45.539 E2.49869
G1 X65.994 Y48.527 E2.68208
G1 X65.994 Y48.494 E2.68353
G1 X66.699 Y48.494 E2.71411
G1 X63.711 Y45.506 E2.89750
G1 X64.449 Y45.506 E2.92953
G1 X67.437 Y48.494 E3.11292
G1 X68.175 Y48.494 E3.14495
G1 X65.187 Y45.506 E3.32834
G1 X65.925 Y45.506 E3.36037
G1 X68.913 Y48.494 E3.54376
G1 X69.651 Y48.494 E3.57579
G1 X66.663 Y45.506 E3.75917
G1 X67.401 Y45.506 E3.79121
G1 X70.389 Y48.494 E3.97459
G1 X71.127 Y48.494 E4.00662
G1 X68.139 Y45.506 E4.19001
G1 X68.877 Y45.506 E4.22204
G1 X71.865 Y48.494 E4.40543
G1 X72.604 Y48.494 E4.43746
G1 X69.615 Y45.506 E4.62085
G1 X70.354 Y45.506 E4.65288
G1 X73.342 Y48.494 E4.83627
G1 X74.080 Y48.494 E4.86830
G1 X71.092 Y45.506 E5.05169
G1 X71.830 Y45.506 E5.08372
G1 X74.818 Y48.494 E5.26711
G1 X75.556 Y48.494 E5.29914
G1 X72.568 Y45.506 E5.48252
G1 X73.306 Y45.506 E5.51456
G1 X76.294 Y48.494 E5.69794
G1 X77.032 Y48.494 E5.72997
G1 X74.044 Y45.506 E5.91336
G1 X74.782 Y45.506 E5.94539
G1 X77.770 Y48.494 E6.12878
G1 X78.508 Y48.494 E6.16081
G1 X75.520 Y45.506 E6.34420
G1 X76.258 Y45.506 E6.37623
G1 X79.246 Y48.494 E6.55962
G1 X79.985 Y48.494 E6.59165
G1 X76.996 Y45.506 E6.77504
G1 X77.735 Y45.506 E6.80707
G1 X80.723 Y48.494 E6.99045
G1 X81.461 Y48.494 E7.02249
G1 X78.473 Y45.506 E7.20587
G1 X79.211 Y45.506 E7.23790
G1 X82.199 Y48.494 E7.42129
G1 X82.937 Y48.494 E7.45332
G1 X79.949 Y45.506 E7.63671
G1 X80.687 Y45.506 E7.66874
G1 X83.675 Y48.494 E7.85213
G1 X84.413 Y48.494 E7.88416
G1 X81.425 Y45.506 E8.06755
G1 X82.163 Y45.506 E8.09958
G1 X85.151 Y48.494 E8.28297
G1 X85.889 Y48.494 E8.31500
G1 X82.901 Y45.506 E8.49838
G1 X83.639 Y45.506 E8.53042
G1 X86.627 Y48.494 E8.71380
G1 X86.994 Y48.494 E8.72971
G1 X86.994 Y48.123 E8.74583
G1 X84.377 Y45.506 E8.90642
G1 X85.116 Y45.506 E8.93846
G1 X86.994 Y47.384 E9.05375
G1 X86.994 Y46.646 E9.08578
G1 X85.854 Y45.506 E9.15577
G1 X86.592 Y45.506 E9.18780
G1 X86.994 Y45.908 E9.21249
G1 Z0.700 F7800.000
G1 E7.21249 F2400.00000
G92 E0
G1 X66.280 Y101.220 F7800.000
G1 E2.00000 F2400.00000
G1 F2160
G1 X87.280 Y101.220 E2.69336
G1 X87.280 Y104.780 E2.81091
G1 X62.720 Y104.780 E3.62181
G1 X62.720 Y100.620 E3.75916
G1 X66.280 Y100.620 E3.87670
G1 X66.280 Y101.160 E3.89453
G1 E1.89453 F2400.00000
G92 E0
G1 X63.408 Y100.906 F7800.000
G1 E2.00000 F2400.00000
G1 F1800
G1 X63.006 Y101.308 E2.02488
G1 X63.006 Y102.052 E2.05740
G1 X64.152 Y100.906 E2.12826
G1 X64.896 Y100.906 E2.16077
G1 X63.006 Y102.796 E2.27762
G1 X63.006 Y103.539 E2.31014
G1 X65.639 Y100.906 E2.47297
G1 X65.994 Y100.906 E2.48848
G1 X65.994 Y101.295 E2.50548
G1 X63.006 Y104.283 E2.69025
G1 X63.006 Y104.494 E2.69948
G1 X63.539 Y104.494 E2.72277
G1 X66.527 Y101.506 E2.90753
G1 X67.270 Y101.506 E2.94005
G1 X64.282 Y104.494 E3.12482
G1 X65.026 Y104.494 E3.15733
G1 X68.014 Y101.506 E3.34210
G1 X68.758 Y101.506 E3.37461
G1 X65.769 Y104.494 E3.55938
G1 X66.513 Y104.494 E3.59190
G1 X69.501 Y101.506 E3.77666
G1 X70.245 Y101.506 E3.80918
G1 X67.257 Y104.494 E3.99395
