; generated by Slic3r 1.3.1-dev (Build (Unknown revision)) on 2020-03-03 at 22:46:19

; external perimeters extrusion width = 0.55mm (4.37mm^3/s)
; perimeters extrusion width = 0.70mm (11.44mm^3/s)
; infill extrusion width = 0.62mm (13.45mm^3/s)
; solid infill extrusion width = 0.70mm (3.81mm^3/s)
; top infill extrusion width = 0.70mm (2.86mm^3/s)

M107
G92 E0
M104 S200 ; set temperature
G28 ; home all axes
G1 Z5 F5000 ; lift nozzle

; Filament gcode

M109 S200 ; set temperature and wait for it to be reached
G21 ; set units to millimeters
G90 ; use absolute coordinates
M82 ; use absolute distances for extrusion
G92 E0
G1 Z0.350 F7800.000
G1 E-2.00000 F2400.00000
G92 E0
G1 X73.168 Y91.274 F7800.000
G1 E2.00000 F2400.00000
G1 F1800.000
G1 X75.320 Y90.481 E2.07096
G1 X76.500 Y90.375 E2.10761
G1 X123.500 Y90.375 E3.56186
G1 X125.759 Y90.772 E3.63282
G1 X127.747 Y91.915 E3.70378
G1 X129.226 Y93.668 E3.77474
G1 X130.019 Y95.820 E3.84570
G1 X130.125 Y97.000 E3.88236
G1 X130.125 Y103.000 E4.06800
G1 X129.728 Y105.259 E4.13897
G1 X128.585 Y107.247 E4.20993
G1 X126.832 Y108.726 E4.28089
G1 X124.680 Y109.519 E4.35185
G1 X123.500 Y109.625 E4.38850
G1 X76.500 Y109.625 E5.84275
G1 X74.241 Y109.228 E5.91371
G1 X72.253 Y108.085 E5.98467
G1 X70.774 Y106.332 E6.05563
G1 X69.981 Y104.180 E6.12659
G1 X69.875 Y103.000 E6.16325
G1 X69.875 Y97.000 E6.34889
G1 X70.272 Y94.741 E6.41986
G1 X71.415 Y92.753 E6.49082
G1 X73.111 Y91.322 E6.55946
G1 E4.55946 F2400.00000
G92 E0
G1 X120.923 Y101.855 F7800.000
G1 E2.00000 F2400.00000
G1 F1800.000
G1 X120.686 Y101.916 E2.00758
G1 X120.443 Y101.947 E2.01516
G1 X120.197 Y101.947 E2.02274
G1 X119.954 Y101.916 E2.03032
G1 X119.717 Y101.855 E2.03790
G1 X119.489 Y101.765 E2.04548
G1 X119.275 Y101.647 E2.05306
G1 X119.077 Y101.503 E2.06064
G1 X118.898 Y101.335 E2.06822
G1 X118.742 Y101.147 E2.07580
G1 X118.611 Y100.940 E2.08338
G1 X118.506 Y100.718 E2.09096
G1 X118.431 Y100.485 E2.09853
G1 X118.385 Y100.245 E2.10611
G1 X118.369 Y100.000 E2.11369
G1 X118.385 Y99.755 E2.12128
G1 X118.431 Y99.515 E2.12886
G1 X118.506 Y99.282 E2.13643
G1 X118.611 Y99.060 E2.14401
G1 X118.742 Y98.853 E2.15159
G1 X118.898 Y98.665 E2.15917
G1 X119.077 Y98.497 E2.16675
G1 X119.275 Y98.353 E2.17433
G1 X119.489 Y98.235 E2.18191
G1 X119.717 Y98.145 E2.18949
G1 X119.954 Y98.084 E2.19707
G1 X120.197 Y98.053 E2.20465
G1 X120.443 Y98.053 E2.21223
G1 X120.686 Y98.084 E2.21981
G1 X120.923 Y98.145 E2.22739
G1 X121.151 Y98.235 E2.23497
G1 X121.365 Y98.353 E2.24255
G1 X121.563 Y98.497 E2.25013
G1 X121.742 Y98.665 E2.25771
G1 X121.898 Y98.853 E2.26529
G1 X122.029 Y99.060 E2.27287
G1 X122.134 Y99.282 E2.28045
G1 X122.209 Y99.515 E2.28802
G1 X122.255 Y99.755 E2.29561
G1 X122.271 Y100.000 E2.30319
G1 X122.255 Y100.245 E2.31077
G1 X122.209 Y100.485 E2.31835
G1 X122.134 Y100.718 E2.32592
G1 X122.029 Y100.940 E2.33350
G1 X121.898 Y101.147 E2.34109
G1 X121.742 Y101.335 E2.34866
G1 X121.563 Y101.503 E2.35624
G1 X121.365 Y101.647 E2.36382
G1 X121.151 Y101.765 E2.37140
G1 X120.993 Y101.828 E2.37666
G1 X120.923 Y101.855 F7800.000
G1 E0.37666 F2400.00000
G92 E0
G1 X117.414 Y101.400 F7800.000
G1 E2.00000 F2400.00000
G1 F1800.000
G1 X113.066 Y101.400 E2.13453
G1 X113.262 Y100.797 E2.15416
G1 X113.338 Y100.402 E2.16661
G1 X113.363 Y100.000 E2.17906
G1 X113.338 Y99.598 E2.19151
G1 X113.262 Y99.203 E2.20396
G1 X113.066 Y98.600 E2.22359
G1 X117.414 Y98.600 E2.35811
G1 X117.218 Y99.203 E2.37775
G1 X117.142 Y99.598 E2.39020
G1 X117.117 Y100.000 E2.40265
G1 X117.142 Y100.402 E2.41510
G1 X117.218 Y100.797 E2.42754
G1 X117.391 Y101.329 E2.44486
G1 X118.657 Y102.025 F7800.000
G1 F1800.000
G1 X111.822 Y102.025 E2.65635
G1 X112.245 Y101.515 E2.67684
G1 X112.418 Y101.241 E2.68686
G1 X112.556 Y100.948 E2.69688
G1 X112.656 Y100.641 E2.70688
G1 X112.717 Y100.323 E2.71690
G1 X112.737 Y100.000 E2.72691
G1 X112.717 Y99.677 E2.73693
G1 X112.656 Y99.359 E2.74694
G1 X112.556 Y99.051 E2.75695
G1 X112.418 Y98.759 E2.76696
G1 X112.245 Y98.485 E2.77698
G1 X111.822 Y97.975 E2.79748
G1 X118.657 Y97.975 E3.00897
G1 X118.235 Y98.485 E3.02946
G1 X118.062 Y98.759 E3.03948
G1 X117.924 Y99.051 E3.04949
G1 X117.824 Y99.359 E3.05950
G1 X117.763 Y99.677 E3.06951
G1 X117.743 Y100.000 E3.07953
G1 X117.763 Y100.323 E3.08954
G1 X117.824 Y100.641 E3.09955
G1 X117.924 Y100.948 E3.10956
G1 X118.062 Y101.241 E3.11957
G1 X118.235 Y101.515 E3.12959
G1 X118.610 Y101.967 E3.14776
G1 E1.14776 F2400.00000
G92 E0
G1 X112.049 Y100.485 F7800.000
G1 E2.00000 F2400.00000
G1 F1800.000
G1 X111.974 Y100.718 E2.00758
G1 X111.869 Y100.940 E2.01516
G1 X111.738 Y101.147 E2.02274
G1 X111.582 Y101.335 E2.03032
G1 X111.403 Y101.503 E2.03790
G1 X111.205 Y101.647 E2.04548
G1 X110.991 Y101.765 E2.05306
G1 X110.763 Y101.855 E2.06064
G1 X110.526 Y101.916 E2.06821
G1 X110.283 Y101.947 E2.07579
G1 X110.037 Y101.947 E2.08338
G1 X109.794 Y101.916 E2.09095
G1 X109.557 Y101.855 E2.09853
G1 X109.329 Y101.765 E2.10611
G1 X109.115 Y101.647 E2.11369
G1 X108.917 Y101.503 E2.12127
G1 X108.738 Y101.335 E2.12885
G1 X108.582 Y101.147 E2.13643
G1 X108.451 Y100.940 E2.14401
G1 X108.346 Y100.718 E2.15159
G1 X108.271 Y100.485 E2.15917
G1 X108.225 Y100.244 E2.16675
G1 X108.209 Y100.000 E2.17433
G1 X108.225 Y99.756 E2.18191
G1 X108.271 Y99.515 E2.18949
G1 X108.346 Y99.282 E2.19707
G1 X108.451 Y99.060 E2.20465
G1 X108.582 Y98.853 E2.21223
G1 X108.738 Y98.665 E2.21981
G1 X108.917 Y98.497 E2.22739
G1 X109.115 Y98.353 E2.23497
G1 X109.329 Y98.235 E2.24255
G1 X109.557 Y98.145 E2.25013
G1 X109.794 Y98.084 E2.25771
G1 X110.037 Y98.053 E2.26529
G1 X110.283 Y98.053 E2.27287
G1 X110.526 Y98.084 E2.28045
G1 X110.763 Y98.145 E2.28803
G1 X110.991 Y98.235 E2.29560
G1 X111.205 Y98.353 E2.30318
G1 X111.403 Y98.497 E2.31077
G1 X111.582 Y98.665 E2.31834
G1 X111.738 Y98.853 E2.32592
G1 X111.869 Y99.060 E2.33350
G1 X111.974 Y99.282 E2.34108
G1 X112.049 Y99.515 E2.34866
G1 X112.095 Y99.755 E2.35624
G1 X112.111 Y100.000 E2.36382
G1 X112.095 Y100.245 E2.37140
G1 X112.063 Y100.411 E2.37666
G1 X112.049 Y100.485 F7800.000
G1 E0.37666 F2400.00000
G92 E0
G1 X107.254 Y101.400 F7800.000
G1 E2.00000 F2400.00000
G1 F1800.000
G1 X102.906 Y101.400 E2.13452
G1 X103.102 Y100.797 E2.15416
G1 X103.178 Y100.401 E2.16661
G1 X103.203 Y100.000 E2.17905
G1 X103.178 Y99.599 E2.19150
G1 X103.102 Y99.203 E2.20394
G1 X102.906 Y98.600 E2.22358
G1 X107.254 Y98.600 E2.35811
G1 X107.058 Y99.203 E2.37775
G1 X106.982 Y99.599 E2.39019
G1 X106.957 Y100.000 E2.40264
G1 X106.982 Y100.401 E2.41508
G1 X107.058 Y100.797 E2.42753
G1 X107.231 Y101.329 E2.44485
G1 X108.498 Y102.025 F7800.000
G1 F1800.000
G1 X101.662 Y102.025 E2.65634
G1 X102.085 Y101.515 E2.67684
G1 X102.258 Y101.241 E2.68686
G1 X102.396 Y100.949 E2.69687
G1 X102.496 Y100.641 E2.70688
G1 X102.556 Y100.323 E2.71689
G1 X102.577 Y100.000 E2.72691
G1 X102.556 Y99.677 E2.73692
G1 X102.496 Y99.359 E2.74693
G1 X102.396 Y99.051 E2.75694
G1 X102.258 Y98.759 E2.76696
G1 X102.085 Y98.485 E2.77697
G1 X101.662 Y97.975 E2.79747
G1 X108.498 Y97.975 E3.00896
G1 X108.075 Y98.485 E3.02946
G1 X107.902 Y98.759 E3.03948
G1 X107.764 Y99.051 E3.04949
G1 X107.664 Y99.359 E3.05950
G1 X107.604 Y99.677 E3.06951
G1 X107.583 Y100.000 E3.07953
G1 X107.604 Y100.323 E3.08954
G1 X107.664 Y100.641 E3.09955
G1 X107.764 Y100.949 E3.10956
G1 X107.902 Y101.241 E3.11958
G1 X108.075 Y101.515 E3.12959
G1 X108.450 Y101.967 E3.14777
G1 E1.14777 F2400.00000
G92 E0
G1 X101.889 Y100.485 F7800.000
G1 E2.00000 F2400.00000
G1 F1800.000
G1 X101.814 Y100.718 E2.00758
G1 X101.709 Y100.940 E2.01516
G1 X101.578 Y101.147 E2.02274
G1 X101.422 Y101.335 E2.03032
G1 X101.243 Y101.503 E2.03790
G1 X101.045 Y101.647 E2.04548
G1 X100.831 Y101.765 E2.05306
G1 X100.603 Y101.855 E2.06064
G1 X100.366 Y101.916 E2.06822
G1 X100.122 Y101.947 E2.07580
G1 X99.878 Y101.947 E2.08338
G1 X99.634 Y101.916 E2.09096
G1 X99.397 Y101.855 E2.09854
G1 X99.169 Y101.765 E2.10612
G1 X98.955 Y101.647 E2.11370
G1 X98.757 Y101.503 E2.12127
G1 X98.578 Y101.335 E2.12885
G1 X98.422 Y101.147 E2.13643
G1 X98.291 Y100.940 E2.14401
G1 X98.186 Y100.718 E2.15159
G1 X98.111 Y100.485 E2.15917
G1 X98.065 Y100.244 E2.16675
G1 X98.049 Y100.000 E2.17433
G1 X98.065 Y99.756 E2.18191
G1 X98.111 Y99.515 E2.18949
G1 X98.186 Y99.282 E2.19707
G1 X98.291 Y99.060 E2.20465
G1 X98.422 Y98.853 E2.21223
G1 X98.578 Y98.665 E2.21981
G1 X98.757 Y98.497 E2.22739
G1 X98.955 Y98.353 E2.23497
G1 X99.169 Y98.235 E2.24255
G1 X99.397 Y98.145 E2.25013
G1 X99.634 Y98.084 E2.25771
G1 X99.878 Y98.053 E2.26529
G1 X100.122 Y98.053 E2.27287
G1 X100.366 Y98.084 E2.28045
G1 X100.603 Y98.145 E2.28803
G1 X100.831 Y98.235 E2.29561
G1 X101.045 Y98.353 E2.30319
G1 X101.243 Y98.497 E2.31077
G1 X101.422 Y98.665 E2.31835
G1 X101.578 Y98.853 E2.32593
G1 X101.709 Y99.060 E2.33351
G1 X101.814 Y99.282 E2.34109
G1 X101.889 Y99.515 E2.34867
G1 X101.935 Y99.756 E2.35624
G1 X101.951 Y100.000 E2.36382
G1 X101.935 Y100.244 E2.37140
G1 X101.903 Y100.411 E2.37666
G1 X101.889 Y100.485 F7800.000
G1 E0.37666 F2400.00000
G92 E0
G1 X97.094 Y101.400 F7800.000
G1 E2.00000 F2400.00000
G1 F1800.000
G1 X92.746 Y101.400 E2.13452
G1 X92.942 Y100.797 E2.15416
G1 X93.018 Y100.401 E2.16661
G1 X93.043 Y100.000 E2.17905
G1 X93.018 Y99.599 E2.19150
G1 X92.942 Y99.203 E2.20394
G1 X92.746 Y98.600 E2.22358
G1 X97.094 Y98.600 E2.35811
G1 X96.898 Y99.203 E2.37775
G1 X96.822 Y99.599 E2.39019
G1 X96.797 Y100.000 E2.40264
G1 X96.822 Y100.401 E2.41508
G1 X96.898 Y100.797 E2.42753
G1 X97.071 Y101.329 E2.44485
G1 X98.338 Y102.025 F7800.000
G1 F1800.000
G1 X91.502 Y102.025 E2.65634
G1 X91.925 Y101.515 E2.67684
G1 X92.098 Y101.241 E2.68686
G1 X92.236 Y100.949 E2.69687
G1 X92.336 Y100.641 E2.70688
G1 X92.396 Y100.323 E2.71689
G1 X92.417 Y100.000 E2.72691
G1 X92.396 Y99.677 E2.73692
G1 X92.336 Y99.359 E2.74693
G1 X92.236 Y99.051 E2.75694
G1 X92.098 Y98.759 E2.76696
G1 X91.925 Y98.485 E2.77697
G1 X91.502 Y97.975 E2.79747
G1 X98.338 Y97.975 E3.00896
G1 X97.915 Y98.485 E3.02946
G1 X97.742 Y98.759 E3.03947
G1 X97.604 Y99.051 E3.04949
G1 X97.504 Y99.359 E3.05950
G1 X97.444 Y99.677 E3.06951
G1 X97.423 Y100.000 E3.07952
G1 X97.444 Y100.323 E3.08954
G1 X97.504 Y100.641 E3.09955
G1 X97.604 Y100.949 E3.10956
G1 X97.742 Y101.241 E3.11957
G1 X97.915 Y101.515 E3.12959
G1 X98.290 Y101.967 E3.14777
G1 E1.14777 F2400.00000
G92 E0
G1 X91.729 Y100.485 F7800.000
G1 E2.00000 F2400.00000
G1 F1800.000
G1 X91.654 Y100.718 E2.00758
G1 X91.549 Y100.940 E2.01516
G1 X91.418 Y101.147 E2.02274
G1 X91.262 Y101.335 E2.03032
G1 X91.083 Y101.503 E2.03790
G1 X90.885 Y101.647 E2.04548
G1 X90.671 Y101.765 E2.05306
G1 X90.443 Y101.855 E2.06064
G1 X90.206 Y101.916 E2.06822
G1 X89.963 Y101.947 E2.07580
G1 X89.717 Y101.947 E2.08338
G1 X89.474 Y101.916 E2.09096
G1 X89.237 Y101.855 E2.09854
G1 X89.009 Y101.765 E2.10611
G1 X88.795 Y101.647 E2.11369
G1 X88.597 Y101.503 E2.12128
G1 X88.418 Y101.335 E2.12885
G1 X88.262 Y101.147 E2.13643
G1 X88.131 Y100.940 E2.14401
G1 X88.026 Y100.718 E2.15159
G1 X87.951 Y100.485 E2.15917
G1 X87.905 Y100.245 E2.16675
G1 X87.889 Y100.000 E2.17433
G1 X87.905 Y99.755 E2.18191
G1 X87.951 Y99.515 E2.18949
G1 X88.026 Y99.282 E2.19707
G1 X88.131 Y99.060 E2.20465
G1 X88.262 Y98.853 E2.21223
G1 X88.418 Y98.665 E2.21981
G1 X88.597 Y98.497 E2.22739
G1 X88.795 Y98.353 E2.23497
G1 X89.009 Y98.235 E2.24255
G1 X89.237 Y98.145 E2.25013
G1 X89.474 Y98.084 E2.25771
G1 X89.717 Y98.053 E2.26529
G1 X89.963 Y98.053 E2.27287
G1 X90.206 Y98.084 E2.28045
G1 X90.443 Y98.145 E2.28803
G1 X90.671 Y98.235 E2.29561
G1 X90.885 Y98.353 E2.30319
G1 X91.083 Y98.497 E2.31077
G1 X91.262 Y98.665 E2.31835
G1 X91.418 Y98.853 E2.32593
G1 X91.549 Y99.060 E2.33351
G1 X91.654 Y99.282 E2.34108
G1 X91.729 Y99.515 E2.34866
G1 X91.775 Y99.756 E2.35624
G1 X91.791 Y100.000 E2.36382
G1 X91.775 Y100.244 E2.37140
G1 X91.743 Y100.411 E2.37666
G1 X91.729 Y100.485 F7800.000
G1 E0.37666 F2400.00000
G92 E0
G1 X86.934 Y101.400 F7800.000
G1 E2.00000 F2400.00000
G1 F1800.000
G1 X82.586 Y101.400 E2.13453
G1 X82.782 Y100.797 E2.15416
G1 X82.858 Y100.402 E2.16661
G1 X82.883 Y100.000 E2.17906
G1 X82.858 Y99.598 E2.19151
G1 X82.782 Y99.203 E2.20396
G1 X82.586 Y98.600 E2.22359
G1 X86.934 Y98.600 E2.35812
G1 X86.738 Y99.203 E2.37775
G1 X86.662 Y99.598 E2.39020
G1 X86.637 Y100.000 E2.40265
G1 X86.662 Y100.402 E2.41510
G1 X86.738 Y100.797 E2.42754
G1 X86.911 Y101.329 E2.44486
G1 X88.178 Y102.025 F7800.000
G1 F1800.000
G1 X81.343 Y102.025 E2.65635
G1 X81.765 Y101.515 E2.67684
G1 X81.938 Y101.241 E2.68686
G1 X82.076 Y100.948 E2.69687
G1 X82.176 Y100.641 E2.70688
G1 X82.237 Y100.323 E2.71689
G1 X82.257 Y100.000 E2.72691
G1 X82.237 Y99.677 E2.73692
G1 X82.176 Y99.359 E2.74694
G1 X82.076 Y99.051 E2.75694
G1 X81.938 Y98.759 E2.76695
G1 X81.765 Y98.485 E2.77697
G1 X81.343 Y97.975 E2.79746
G1 X88.178 Y97.975 E3.00895
G1 X87.755 Y98.485 E3.02945
G1 X87.582 Y98.759 E3.03947
G1 X87.444 Y99.051 E3.04948
G1 X87.344 Y99.359 E3.05949
G1 X87.283 Y99.677 E3.06950
G1 X87.263 Y100.000 E3.07952
G1 X87.283 Y100.323 E3.08953
G1 X87.344 Y100.641 E3.09955
G1 X87.444 Y100.948 E3.10955
G1 X87.582 Y101.241 E3.11957
G1 X87.755 Y101.515 E3.12959
G1 X88.130 Y101.967 E3.14776
G1 E1.14776 F2400.00000
G92 E0
G1 X81.569 Y100.485 F7800.000
G1 E2.00000 F2400.00000
G1 F1800.000
G1 X81.494 Y100.718 E2.00758
G1 X81.389 Y100.940 E2.01516
G1 X81.258 Y101.147 E2.02274
G1 X81.102 Y101.335 E2.03031
G1 X80.923 Y101.503 E2.03790
G1 X80.725 Y101.647 E2.04548
G1 X80.511 Y101.765 E2.05306
G1 X80.283 Y101.855 E2.06064
G1 X80.046 Y101.916 E2.06822
G1 X79.803 Y101.947 E2.07579
G1 X79.557 Y101.947 E2.08338
G1 X79.314 Y101.916 E2.09095
G1 X79.077 Y101.855 E2.09853
G1 X78.849 Y101.765 E2.10611
G1 X78.635 Y101.647 E2.11369
G1 X78.437 Y101.503 E2.12127
G1 X78.258 Y101.335 E2.12885
G1 X78.102 Y101.147 E2.13643
G1 X77.971 Y100.940 E2.14401
G1 X77.866 Y100.718 E2.15159
G1 X77.791 Y100.485 E2.15917
G1 X77.745 Y100.245 E2.16675
G1 X77.729 Y100.000 E2.17433
G1 X77.745 Y99.755 E2.18191
G1 X77.791 Y99.515 E2.18949
G1 X77.866 Y99.282 E2.19707
G1 X77.971 Y99.060 E2.20465
G1 X78.102 Y98.853 E2.21223
G1 X78.258 Y98.665 E2.21981
G1 X78.437 Y98.497 E2.22739
G1 X78.635 Y98.353 E2.23497
G1 X78.849 Y98.235 E2.24255
G1 X79.077 Y98.145 E2.25013
G1 X79.314 Y98.084 E2.25771
G1 X79.557 Y98.053 E2.26528
G1 X79.803 Y98.053 E2.27287
G1 X80.046 Y98.084 E2.28045
G1 X80.283 Y98.145 E2.28802
G1 X80.511 Y98.235 E2.29560
G1 X80.725 Y98.353 E2.30318
G1 X80.923 Y98.497 E2.31076
G1 X81.102 Y98.665 E2.31835
G1 X81.258 Y98.853 E2.32592
G1 X81.389 Y99.060 E2.33350
G1 X81.494 Y99.282 E2.34108
G1 X81.569 Y99.515 E2.34866
G1 X81.615 Y99.755 E2.35624
G1 X81.631 Y100.000 E2.36382
G1 X81.615 Y100.245 E2.37140
G1 X81.583 Y100.411 E2.37666
G1 X81.569 Y100.485 F7800.000
G1 E0.37666 F2400.00000
G92 E0
G1 X76.850 Y102.650 F7800.000
G1 E2.00000 F2400.00000
G1 F1800.000
G1 X76.850 Y97.350 E2.16399
G1 X123.150 Y97.350 E3.59657
G1 X123.150 Y102.650 E3.76056
G1 X76.925 Y102.650 E5.19082
G1 X77.083 Y102.208 F7800.000
G1 X77.732 Y102.338 F7800.000
G1 F1800.000
G1 X77.162 Y100.120 E5.24794
G1 X77.162 Y99.881 F7800.000
G1 F1800.000
G1 X77.733 Y97.662 E5.30507
G1 X77.797 Y97.662 F7800.000
G1 F1800.000
G1 X77.162 Y99.614 E5.37620
G1 X77.162 Y100.386 F7800.000
G1 F1800.000
G1 X77.797 Y102.338 E5.44732
G1 X77.162 Y101.763 F7800.000
G1 F1800.000
G1 X79.139 Y102.338 E5.48768
G1 X79.828 Y102.298 F7800.000
G1 F1800.000
G1 X80.119 Y102.280 E5.48827
G1 F1800.000
G1 X80.415 Y102.242 E5.48998
G1 F1800.000
G1 X80.822 Y102.164 E5.49395
G1 X80.845 Y102.021 F7800.000
G1 F1800.000
G1 X80.447 Y102.338 E5.49666
G1 X80.845 Y102.021 F7800.000
G1 F1800.000
G1 X81.026 Y101.860 E5.49705
G1 X82.087 Y101.713 F7800.000
G1 F1800.000
G1 X82.185 Y101.503 E5.49752
G1 E3.49752 F2400.00000
G92 E0
G1 X83.666 Y98.982 F7800.000
G1 E2.00000 F2400.00000
G1 F1800.000
G1 X83.179 Y99.468 E2.02543
G1 X83.236 Y99.763 E2.03654
G1 X83.266 Y100.243 E2.05433
G1 X83.253 Y100.451 E2.06203
G1 X84.722 Y98.982 E2.13887
G1 X85.778 Y98.982 E2.17794
G1 X83.742 Y101.018 E2.28448
G1 X84.798 Y101.018 E2.32355
G1 X86.267 Y99.549 E2.40039
G1 X86.254 Y99.757 E2.40808
G1 X86.284 Y100.237 E2.42587
G1 X86.341 Y100.532 E2.43699
G1 X85.854 Y101.018 E2.46242
