<<<<<<< HEAD
; generated by Slic3r 1.3.1-dev (Build 54a31ee) on 2020-03-16 at 17:21:29
=======
; generated by Slic3r 1.3.0 on 2020-03-10 at 21:34:27
>>>>>>> 0893c9c203ed557a00dbf82e1c1cb52662de293e

; external perimeters extrusion width = 0.44mm (2.86mm^3/s)
; perimeters extrusion width = 0.56mm (4.14mm^3/s)
; infill extrusion width = 0.50mm (3.66mm^3/s)
; solid infill extrusion width = 0.56mm (3.10mm^3/s)
; top infill extrusion width = 0.56mm (3.10mm^3/s)

M107
;D3D:START:START
T0
M104 S215 T0

G21
G90
M107
T0
G28
G29
M109 T0 S215 T0
G0 F3000
M107
T0
G92 E0
G0 X0 Y149 Z0.1 F3600
G1 Y49 E6.5 F1200
G0 Z1
G92 E0
; Filament gcode

G21 ; set units to millimeters
G90 ; use absolute coordinates
M82 ; use absolute distances for extrusion
G92 E0
G1 Z0.300 F7800.000
G1 E-2.00000 F2400.00000
G92 E0
<<<<<<< HEAD
G1 X63.196 Y45.696 F7800.000
G1 E2.00000 F2400.00000
G1 F1800.000
G1 X86.804 Y45.696 E2.78211
G1 X86.804 Y104.304 E4.72375
G1 X63.196 Y104.304 E5.50585
G1 X63.196 Y45.756 E7.44550
G1 X62.931 Y45.431 F7800.000
G1 F1800.000
G1 X87.069 Y45.431 E8.24521
G1 X87.069 Y104.569 E10.20445
G1 X62.931 Y104.569 E11.00415
G1 X62.931 Y45.491 E12.96140
G1 X62.665 Y45.165 F7800.000
G1 F1800.000
G1 X87.335 Y45.165 E13.77871
G1 X87.335 Y104.835 E15.75555
G1 X62.665 Y104.835 E16.57285
G1 X62.665 Y45.225 E18.54770
G1 X63.566 Y45.859 F7800.000
G1 F1800.000
G1 X63.359 Y46.066 E18.55740
G1 X63.359 Y46.441 E18.56985
G1 X63.941 Y45.859 E18.59716
G1 X64.317 Y45.859 E18.60961
G1 X63.359 Y46.817 E18.65452
G1 X63.359 Y47.193 E18.66697
G1 X64.693 Y45.859 E18.72949
G1 X65.068 Y45.859 E18.74194
G1 X63.359 Y47.568 E18.82206
G1 X63.359 Y47.944 E18.83451
G1 X65.444 Y45.859 E18.93223
G1 X65.820 Y45.859 E18.94468
G1 X63.359 Y48.320 E19.06002
G1 X63.359 Y48.695 E19.07247
G1 X66.195 Y45.859 E19.20540
G1 X66.571 Y45.859 E19.21785
G1 X63.359 Y49.071 E19.36840
G1 X63.359 Y49.447 E19.38085
G1 X66.947 Y45.859 E19.54900
G1 X67.323 Y45.859 E19.56144
G1 X63.359 Y49.823 E19.74720
G1 X63.359 Y50.198 E19.75965
G1 X67.698 Y45.859 E19.96301
G1 X68.074 Y45.859 E19.97546
G1 X63.359 Y50.574 E20.19642
G1 X63.359 Y50.950 E20.20887
G1 X68.450 Y45.859 E20.44744
G1 X68.825 Y45.859 E20.45989
G1 X63.359 Y51.325 E20.71607
G1 X63.359 Y51.701 E20.72852
G1 X69.201 Y45.859 E21.00230
G1 X69.577 Y45.859 E21.01475
G1 X63.359 Y52.077 E21.30614
G1 X63.359 Y52.453 E21.31859
G1 X69.953 Y45.859 E21.62758
G1 X70.328 Y45.859 E21.64003
G1 X63.359 Y52.828 E21.96663
G1 X63.359 Y53.204 E21.97908
G1 X70.704 Y45.859 E22.32328
G1 X71.080 Y45.859 E22.33573
G1 X63.359 Y53.580 E22.69754
G1 X63.359 Y53.955 E22.70999
G1 X71.455 Y45.859 E23.08940
G1 X71.831 Y45.859 E23.10185
G1 X63.359 Y54.331 E23.49887
G1 X63.359 Y54.707 E23.51132
G1 X72.207 Y45.859 E23.92595
G1 X72.582 Y45.859 E23.93840
G1 X63.359 Y55.082 E24.37063
G1 X63.359 Y55.458 E24.38308
G1 X72.958 Y45.859 E24.83292
G1 X73.334 Y45.859 E24.84536
G1 X63.359 Y55.834 E25.31281
G1 X63.359 Y56.210 E25.32526
G1 X73.710 Y45.859 E25.81030
G1 X74.085 Y45.859 E25.82275
G1 X63.359 Y56.585 E26.32541
G1 X63.359 Y56.961 E26.33786
G1 X74.461 Y45.859 E26.85811
G1 X74.837 Y45.859 E26.87056
G1 X63.359 Y57.337 E27.40843
G1 X63.359 Y57.712 E27.42088
G1 X75.212 Y45.859 E27.97635
G1 X75.588 Y45.859 E27.98880
G1 X63.359 Y58.088 E28.56187
G1 X63.359 Y58.464 E28.57432
G1 X75.964 Y45.859 E29.16500
G1 X76.339 Y45.859 E29.17745
G1 X63.359 Y58.839 E29.78574
G1 X63.359 Y59.215 E29.79818
G1 X76.715 Y45.859 E30.42408
G1 X77.091 Y45.859 E30.43653
G1 X63.359 Y59.591 E31.08002
G1 X63.359 Y59.967 E31.09247
G1 X77.467 Y45.859 E31.75357
G1 X77.842 Y45.859 E31.76602
G1 X63.359 Y60.342 E32.44473
G1 X63.359 Y60.718 E32.45718
G1 X78.218 Y45.859 E33.15349
G1 X78.594 Y45.859 E33.16594
G1 X63.359 Y61.094 E33.87986
G1 X63.359 Y61.469 E33.89231
G1 X78.969 Y45.859 E34.62383
G1 X79.345 Y45.859 E34.63628
G1 X63.359 Y61.845 E35.38541
G1 X63.359 Y62.221 E35.39786
G1 X79.721 Y45.859 E36.16460
G1 X80.097 Y45.859 E36.17705
G1 X63.359 Y62.597 E36.96139
G1 X63.359 Y62.972 E36.97384
G1 X80.472 Y45.859 E37.77578
G1 X80.848 Y45.859 E37.78823
G1 X63.359 Y63.348 E38.60778
G1 X63.359 Y63.724 E38.62023
G1 X81.224 Y45.859 E39.45739
G1 X81.599 Y45.859 E39.46984
G1 X63.359 Y64.099 E40.32460
G1 X63.359 Y64.475 E40.33705
G1 X81.975 Y45.859 E41.20942
G1 X82.351 Y45.859 E41.22187
G1 X63.359 Y64.851 E42.11184
G1 X63.359 Y65.226 E42.12429
G1 X82.726 Y45.859 E43.03187
G1 X83.102 Y45.859 E43.04432
G1 X63.359 Y65.602 E43.96950
G1 X63.359 Y65.978 E43.98195
G1 X83.478 Y45.859 E44.92474
G1 X83.854 Y45.859 E44.93719
G1 X63.359 Y66.354 E45.89759
G1 X63.359 Y66.729 E45.91003
G1 X84.229 Y45.859 E46.88804
G1 X84.605 Y45.859 E46.90048
G1 X63.359 Y67.105 E47.89609
G1 X63.359 Y67.481 E47.90854
G1 X84.981 Y45.859 E48.92175
G1 X85.356 Y45.859 E48.93420
G1 X63.359 Y67.856 E49.96502
G1 X63.359 Y68.232 E49.97747
G1 X85.732 Y45.859 E51.02589
G1 X86.108 Y45.859 E51.03834
G1 X63.359 Y68.608 E52.10437
G1 X63.359 Y68.983 E52.11682
G1 X86.484 Y45.859 E53.20045
G1 X86.641 Y45.859 E53.20568
G1 X86.641 Y46.076 E53.21290
G1 X63.359 Y69.359 E54.30393
G1 X63.359 Y69.735 E54.31638
G1 X86.641 Y46.452 E55.40742
G1 X86.641 Y46.828 E55.41987
G1 X63.359 Y70.111 E56.51090
G1 X63.359 Y70.486 E56.52335
G1 X86.641 Y47.203 E57.61439
G1 X86.641 Y47.579 E57.62684
G1 X63.359 Y70.862 E58.71787
G1 X63.359 Y71.238 E58.73032
G1 X86.641 Y47.955 E59.82136
G1 X86.641 Y48.331 E59.83381
G1 X63.359 Y71.613 E60.92484
G1 X63.359 Y71.989 E60.93729
G1 X86.641 Y48.706 E62.02833
G1 X86.641 Y49.082 E62.04077
G1 X63.359 Y72.365 E63.13181
G1 X63.359 Y72.741 E63.14426
G1 X86.641 Y49.458 E64.23529
G1 X86.641 Y49.833 E64.24774
G1 X63.359 Y73.116 E65.33878
G1 X63.359 Y73.492 E65.35123
G1 X86.641 Y50.209 E66.44226
G1 X86.641 Y50.585 E66.45471
G1 X63.359 Y73.868 E67.54575
G1 X63.359 Y74.243 E67.55820
G1 X86.641 Y50.960 E68.64923
G1 X86.641 Y51.336 E68.66168
G1 X63.359 Y74.619 E69.75272
G1 X63.359 Y74.995 E69.76517
G1 X86.641 Y51.712 E70.85620
G1 X86.641 Y52.088 E70.86865
G1 X63.359 Y75.370 E71.95969
G1 X63.359 Y75.746 E71.97214
G1 X86.641 Y52.463 E73.06317
G1 X86.641 Y52.839 E73.07562
G1 X63.359 Y76.122 E74.16666
G1 X63.359 Y76.498 E74.17910
G1 X86.641 Y53.215 E75.27014
G1 X86.641 Y53.590 E75.28259
G1 X63.359 Y76.873 E76.37362
G1 X63.359 Y77.249 E76.38607
G1 X86.641 Y53.966 E77.47711
G1 X86.641 Y54.342 E77.48956
G1 X63.359 Y77.625 E78.58059
G1 X63.359 Y78.000 E78.59304
G1 X86.641 Y54.717 E79.68408
G1 X86.641 Y55.093 E79.69653
G1 X63.359 Y78.376 E80.78756
G1 X63.359 Y78.752 E80.80001
G1 X86.641 Y55.469 E81.89105
G1 X86.641 Y55.845 E81.90350
G1 X63.359 Y79.128 E82.99453
G1 X63.359 Y79.503 E83.00698
G1 X86.641 Y56.220 E84.09802
G1 X86.641 Y56.596 E84.11047
G1 X63.359 Y79.879 E85.20150
G1 X63.359 Y80.255 E85.21395
G1 X86.641 Y56.972 E86.30498
G1 X86.641 Y57.347 E86.31743
G1 X63.359 Y80.630 E87.40847
G1 X63.359 Y81.006 E87.42092
G1 X86.641 Y57.723 E88.51195
G1 X86.641 Y58.099 E88.52440
G1 X63.359 Y81.382 E89.61544
G1 X63.359 Y81.757 E89.62789
G1 X86.641 Y58.475 E90.71892
G1 X86.641 Y58.850 E90.73137
G1 X63.359 Y82.133 E91.82241
G1 X63.359 Y82.509 E91.83486
G1 X86.641 Y59.226 E92.92589
G1 X86.641 Y59.602 E92.93834
G1 X63.359 Y82.885 E94.02938
G1 X63.359 Y83.260 E94.04183
G1 X86.641 Y59.977 E95.13286
G1 X86.641 Y60.353 E95.14531
G1 X63.359 Y83.636 E96.23635
G1 X63.359 Y84.012 E96.24879
G1 X86.641 Y60.729 E97.33983
G1 X86.641 Y61.104 E97.35228
G1 X63.359 Y84.387 E98.44331
G1 X63.359 Y84.763 E98.45576
G1 X86.641 Y61.480 E99.54680
G1 X86.641 Y61.856 E99.55925
G1 X63.359 Y85.139 E100.65028
G1 X63.359 Y85.514 E100.66273
G1 X86.641 Y62.232 E101.75377
G1 X86.641 Y62.607 E101.76622
G1 X63.359 Y85.890 E102.85725
G1 X63.359 Y86.266 E102.86970
G1 X86.641 Y62.983 E103.96074
G1 X86.641 Y63.359 E103.97319
G1 X63.359 Y86.642 E105.06422
G1 X63.359 Y87.017 E105.07667
G1 X86.641 Y63.734 E106.16771
G1 X86.641 Y64.110 E106.18016
G1 X63.359 Y87.393 E107.27119
G1 X63.359 Y87.769 E107.28364
G1 X86.641 Y64.486 E108.37468
G1 X86.641 Y64.861 E108.38712
G1 X63.359 Y88.144 E109.47816
G1 X63.359 Y88.520 E109.49061
G1 X86.641 Y65.237 E110.58164
G1 X86.641 Y65.613 E110.59409
G1 X63.359 Y88.896 E111.68513
G1 X63.359 Y89.272 E111.69758
G1 X86.641 Y65.989 E112.78861
G1 X86.641 Y66.364 E112.80106
G1 X63.359 Y89.647 E113.89210
G1 X63.359 Y90.023 E113.90455
G1 X86.641 Y66.740 E114.99558
G1 X86.641 Y67.116 E115.00803
G1 X63.359 Y90.399 E116.09907
G1 X63.359 Y90.774 E116.11152
G1 X86.641 Y67.491 E117.20255
G1 X86.641 Y67.867 E117.21500
G1 X63.359 Y91.150 E118.30604
G1 X63.359 Y91.526 E118.31848
G1 X86.641 Y68.243 E119.40952
G1 X86.641 Y68.619 E119.42197
G1 X63.359 Y91.901 E120.51300
G1 X63.359 Y92.277 E120.52545
G1 X86.641 Y68.994 E121.61649
G1 X86.641 Y69.370 E121.62894
G1 X63.359 Y92.653 E122.71997
G1 X63.359 Y93.029 E122.73242
G1 X86.641 Y69.746 E123.82346
G1 X86.641 Y70.121 E123.83591
G1 X63.359 Y93.404 E124.92694
G1 X63.359 Y93.780 E124.93939
G1 X86.641 Y70.497 E126.03043
G1 X86.641 Y70.873 E126.04288
G1 X63.359 Y94.156 E127.13391
G1 X63.359 Y94.531 E127.14636
G1 X86.641 Y71.248 E128.23740
G1 X86.641 Y71.624 E128.24985
G1 X63.359 Y94.907 E129.34088
G1 X63.359 Y95.283 E129.35333
G1 X86.641 Y72.000 E130.44437
G1 X86.641 Y72.376 E130.45681
G1 X63.359 Y95.658 E131.54785
G1 X63.359 Y96.034 E131.56030
G1 X86.641 Y72.751 E132.65133
G1 X86.641 Y73.127 E132.66378
G1 X63.359 Y96.410 E133.75482
G1 X63.359 Y96.786 E133.76727
G1 X86.641 Y73.503 E134.85830
G1 X86.641 Y73.878 E134.87075
G1 X63.359 Y97.161 E135.96179
G1 X63.359 Y97.537 E135.97424
G1 X86.641 Y74.254 E137.06527
G1 X86.641 Y74.630 E137.07772
G1 X63.359 Y97.913 E138.16876
G1 X63.359 Y98.288 E138.18121
G1 X86.641 Y75.006 E139.27224
G1 X86.641 Y75.381 E139.28469
G1 X63.359 Y98.664 E140.37573
G1 X63.359 Y99.040 E140.38818
G1 X86.641 Y75.757 E141.47921
G1 X86.641 Y76.133 E141.49166
G1 X63.359 Y99.416 E142.58270
G1 X63.359 Y99.791 E142.59514
G1 X86.641 Y76.508 E143.68618
G1 X86.641 Y76.884 E143.69863
G1 X63.359 Y100.167 E144.78966
G1 X63.359 Y100.543 E144.80211
G1 X86.641 Y77.260 E145.89315
G1 X86.641 Y77.635 E145.90560
G1 X63.359 Y100.918 E146.99663
G1 X63.359 Y101.294 E147.00908
G1 X86.641 Y78.011 E148.10012
G1 X86.641 Y78.387 E148.11257
G1 X63.359 Y101.670 E149.20360
G1 X63.359 Y102.045 E149.21605
G1 X86.641 Y78.763 E150.30709
G1 X86.641 Y79.138 E150.31954
G1 X63.359 Y102.421 E151.41057
G1 X63.359 Y102.797 E151.42302
G1 X86.641 Y79.514 E152.51406
G1 X86.641 Y79.890 E152.52651
G1 X63.359 Y103.173 E153.61754
G1 X63.359 Y103.548 E153.62999
G1 X86.641 Y80.265 E154.72103
G1 X86.641 Y80.641 E154.73347
G1 X63.359 Y103.924 E155.82451
G1 X63.359 Y104.141 E155.83172
G1 X63.517 Y104.141 E155.83696
G1 X86.641 Y81.017 E156.92058
G1 X86.641 Y81.392 E156.93303
G1 X63.892 Y104.141 E157.99904
G1 X64.268 Y104.141 E158.01149
G1 X86.641 Y81.768 E159.05990
G1 X86.641 Y82.144 E159.07235
G1 X64.644 Y104.141 E160.10316
G1 X65.020 Y104.141 E160.11561
G1 X86.641 Y82.520 E161.12881
G1 X86.641 Y82.895 E161.14125
G1 X65.395 Y104.141 E162.13685
G1 X65.771 Y104.141 E162.14930
G1 X86.641 Y83.271 E163.12729
G1 X86.641 Y83.647 E163.13973
G1 X66.147 Y104.141 E164.10012
G1 X66.522 Y104.141 E164.11257
G1 X86.641 Y84.022 E165.05534
G1 X86.641 Y84.398 E165.06779
G1 X66.898 Y104.141 E165.99297
G1 X67.274 Y104.141 E166.00541
G1 X86.641 Y84.774 E166.91298
G1 X86.641 Y85.150 E166.92543
G1 X67.650 Y104.141 E167.81539
G1 X68.025 Y104.141 E167.82784
G1 X86.641 Y85.525 E168.70020
G1 X86.641 Y85.901 E168.71264
G1 X68.401 Y104.141 E169.56739
G1 X68.777 Y104.141 E169.57984
G1 X86.641 Y86.277 E170.41699
G1 X86.641 Y86.652 E170.42944
G1 X69.152 Y104.141 E171.24898
G1 X69.528 Y104.141 E171.26143
G1 X86.641 Y87.028 E172.06336
G1 X86.641 Y87.404 E172.07581
G1 X69.904 Y104.141 E172.86014
G1 X70.279 Y104.141 E172.87259
G1 X86.641 Y87.779 E173.63931
G1 X86.641 Y88.155 E173.65176
G1 X70.655 Y104.141 E174.40087
G1 X71.031 Y104.141 E174.41332
G1 X86.641 Y88.531 E175.14484
G1 X86.641 Y88.907 E175.15728
G1 X71.407 Y104.141 E175.87119
G1 X71.782 Y104.141 E175.88364
G1 X86.641 Y89.282 E176.57994
G1 X86.641 Y89.658 E176.59239
G1 X72.158 Y104.141 E177.27109
G1 X72.534 Y104.141 E177.28353
G1 X86.641 Y90.034 E177.94462
G1 X86.641 Y90.409 E177.95707
G1 X72.909 Y104.141 E178.60056
G1 X73.285 Y104.141 E178.61301
G1 X86.641 Y90.785 E179.23889
G1 X86.641 Y91.161 E179.25133
G1 X73.661 Y104.141 E179.85961
G1 X74.036 Y104.141 E179.87206
G1 X86.641 Y91.536 E180.46273
G1 X86.641 Y91.912 E180.47517
G1 X74.412 Y104.141 E181.04824
G1 X74.788 Y104.141 E181.06069
G1 X86.641 Y92.288 E181.61614
G1 X86.641 Y92.664 E181.62859
G1 X75.164 Y104.141 E182.16644
G1 X75.539 Y104.141 E182.17889
G1 X86.641 Y93.039 E182.69914
G1 X86.641 Y93.415 E182.71159
G1 X75.915 Y104.141 E183.21423
G1 X76.291 Y104.141 E183.22668
G1 X86.641 Y93.791 E183.71171
G1 X86.641 Y94.166 E183.72416
G1 X76.666 Y104.141 E184.19159
G1 X77.042 Y104.141 E184.20404
G1 X86.641 Y94.542 E184.65387
G1 X86.641 Y94.918 E184.66632
G1 X77.418 Y104.141 E185.09853
G1 X77.794 Y104.141 E185.11098
G1 X86.641 Y95.294 E185.52560
G1 X86.641 Y95.669 E185.53805
G1 X78.169 Y104.141 E185.93505
G1 X78.545 Y104.141 E185.94750
G1 X86.641 Y96.045 E186.32691
G1 X86.641 Y96.421 E186.33936
G1 X78.921 Y104.141 E186.70115
G1 X79.296 Y104.141 E186.71360
G1 X86.641 Y96.796 E187.05779
G1 X86.641 Y97.172 E187.07024
G1 X79.672 Y104.141 E187.39683
G1 X80.048 Y104.141 E187.40928
G1 X86.641 Y97.548 E187.71826
G1 X86.641 Y97.923 E187.73071
G1 X80.423 Y104.141 E188.02208
G1 X80.799 Y104.141 E188.03453
G1 X86.641 Y98.299 E188.30830
G1 X86.641 Y98.675 E188.32075
G1 X81.175 Y104.141 E188.57691
G1 X81.551 Y104.141 E188.58936
G1 X86.641 Y99.051 E188.82792
G1 X86.641 Y99.426 E188.84037
G1 X81.926 Y104.141 E189.06133
G1 X82.302 Y104.141 E189.07377
G1 X86.641 Y99.802 E189.27712
G1 X86.641 Y100.178 E189.28957
G1 X82.678 Y104.141 E189.47531
G1 X83.053 Y104.141 E189.48776
G1 X86.641 Y100.553 E189.65590
G1 X86.641 Y100.929 E189.66835
G1 X83.429 Y104.141 E189.81888
G1 X83.805 Y104.141 E189.83133
G1 X86.641 Y101.305 E189.96426
G1 X86.641 Y101.680 E189.97670
G1 X84.180 Y104.141 E190.09203
G1 X84.556 Y104.141 E190.10447
G1 X86.641 Y102.056 E190.20219
G1 X86.641 Y102.432 E190.21464
G1 X84.932 Y104.141 E190.29475
G1 X85.308 Y104.141 E190.30720
G1 X86.641 Y102.808 E190.36970
G1 X86.641 Y103.183 E190.38215
G1 X85.683 Y104.141 E190.42705
G1 X86.059 Y104.141 E190.43950
G1 X86.641 Y103.559 E190.46679
G1 X86.641 Y103.935 E190.47924
G1 X86.435 Y104.141 E190.48893
M106 S255
G1 Z0.500 F7800.000
G1 E188.48893 F2400.00000
G92 E0
G1 X63.177 Y45.677 F7800.000
G1 E2.00000 F2400.00000
G1 F2400.000
G1 X86.823 Y45.677 E3.01666
G1 X86.823 Y104.323 E5.53816
G1 X63.177 Y104.323 E6.55482
G1 X63.177 Y45.737 E9.07374
G1 X62.720 Y45.220 F7800.000
G1 F2160.000
G1 X87.280 Y45.220 E9.88464
G1 X87.280 Y104.780 E11.85116
G1 X62.720 Y104.780 E12.66206
G1 X62.720 Y45.280 E14.62659
G1 E12.62659 F2400.00000
G92 E0
G1 X86.507 Y46.395 F7800.000
G1 E2.00000 F2400.00000
G1 F1800.000
G1 X86.105 Y45.993 E2.02462
G1 X85.369 Y45.993 E2.05647
G1 X86.507 Y47.131 E2.12613
G1 X86.507 Y47.867 E2.15798
G1 X84.633 Y45.993 E2.27269
G1 X83.897 Y45.993 E2.30454
G1 X86.507 Y48.603 E2.46428
G1 X86.507 Y49.339 E2.49613
G1 X83.161 Y45.993 E2.70092
G1 X82.425 Y45.993 E2.73277
G1 X86.507 Y50.075 E2.98260
G1 X86.507 Y50.811 E3.01444
G1 X81.689 Y45.993 E3.30931
G1 X80.953 Y45.993 E3.34116
G1 X86.507 Y51.547 E3.68107
G1 X86.507 Y52.283 E3.71292
G1 X80.217 Y45.993 E4.09787
G1 X79.481 Y45.993 E4.12972
G1 X86.507 Y53.019 E4.55972
G1 X86.507 Y53.755 E4.59157
G1 X78.745 Y45.993 E5.06660
G1 X78.009 Y45.993 E5.09845
G1 X86.507 Y54.491 E5.61852
G1 X86.507 Y55.227 E5.65037
G1 X77.273 Y45.993 E6.21549
G1 X76.537 Y45.993 E6.24734
G1 X86.507 Y55.963 E6.85750
G1 X86.507 Y56.699 E6.88935
G1 X75.801 Y45.993 E7.54454
G1 X75.065 Y45.993 E7.57639
G1 X86.507 Y57.435 E8.27663
G1 X86.507 Y58.171 E8.30848
G1 X74.329 Y45.993 E9.05377
G1 X73.593 Y45.993 E9.08561
G1 X86.507 Y58.907 E9.87594
G1 X86.507 Y59.643 E9.90779
G1 X72.857 Y45.993 E10.74315
G1 X72.121 Y45.993 E10.77500
G1 X86.507 Y60.379 E11.65540
G1 X86.507 Y61.115 E11.68725
G1 X71.385 Y45.993 E12.61270
G1 X70.649 Y45.993 E12.64455
G1 X86.507 Y61.851 E13.61504
