; generated by Slic3r 1.3.0 on 2020-03-10 at 21:29:11

; external perimeters extrusion width = 0.44mm (2.86mm^3/s)
; perimeters extrusion width = 0.56mm (4.14mm^3/s)
; infill extrusion width = 0.50mm (3.66mm^3/s)
; solid infill extrusion width = 0.56mm (3.10mm^3/s)
; top infill extrusion width = 0.56mm (3.10mm^3/s)

M107
;D3D:START:START
T0
M104 S215 T0

G21
G90
M107
T0
G28
G29
M109 T0 S215 T0
G0 F3000
M107
T0
G92 E0
G0 X0 Y149 Z0.1 F3600
G1 Y49 E6.5 F1200
G0 Z1
G92 E0
; Filament gcode

G21 ; set units to millimeters
G90 ; use absolute coordinates
M82 ; use absolute distances for extrusion
G92 E0
G1 Z0.300 F7800.000
G1 E-2.00000 F2400.00000
G92 E0
G1 X63.002 Y67.809 F7800.000
G1 E2.00000 F2400.00000
G1 F1800
G1 X63.002 Y91.215 E2.77541
G1 X59.332 Y91.215 E2.89700
G1 X59.332 Y66.385 E3.71960
G1 X59.347 Y66.150 E3.72740
G1 X59.390 Y65.923 E3.73503
G1 X59.461 Y65.704 E3.74267
G1 X59.558 Y65.498 E3.75022
G1 X59.683 Y65.301 E3.75794
G1 X59.830 Y65.124 E3.76556
G1 X59.998 Y64.966 E3.77320
G1 X60.184 Y64.831 E3.78083
G1 X60.386 Y64.720 E3.78846
G1 X60.600 Y64.635 E3.79608
G1 X68.671 Y62.616 E4.07172
G1 X68.664 Y62.574 E4.07311
G1 X90.004 Y58.811 E4.79102
G1 X90.642 Y62.426 E4.91261
G1 X69.801 Y66.100 E5.61370
G1 X63.060 Y67.795 E5.84397
G1 X62.633 Y67.990 F7800.000
G1 F1800
G1 X62.633 Y67.706 E5.85344
G1 X63.013 Y67.610 E5.86649
G1 X67.524 Y63.099 E6.07922
G1 X68.028 Y62.973 E6.09655
G1 X63.518 Y67.483 E6.30925
G1 X64.023 Y67.356 E6.32661
G1 X68.533 Y62.847 E6.53927
G1 X69.037 Y62.720 E6.55661
G1 X64.528 Y67.229 E6.76923
G1 X65.033 Y67.102 E6.78659
G1 X69.529 Y62.606 E6.99860
G1 X69.988 Y62.525 E7.01414
G1 X65.538 Y66.975 E7.22399
G1 X66.043 Y66.849 E7.24135
G1 X70.447 Y62.445 E7.44902
G1 X70.906 Y62.364 E7.46456
G1 X66.548 Y66.722 E7.67007
G1 X67.053 Y66.595 E7.68743
G1 X71.365 Y62.283 E7.89077
G1 X71.824 Y62.202 E7.90631
G1 X67.558 Y66.468 E8.10747
G1 X68.063 Y66.341 E8.12484
G1 X72.283 Y62.121 E8.32383
G1 X72.742 Y62.040 E8.33937
G1 X68.568 Y66.214 E8.53620
G1 X69.073 Y66.087 E8.55356
G1 X73.201 Y61.959 E8.74822
G1 X73.660 Y61.878 E8.76376
G1 X69.578 Y65.960 E8.95625
G1 X70.043 Y65.873 E8.97202
G1 X74.119 Y61.797 E9.16423
G1 X74.578 Y61.716 E9.17977
G1 X70.502 Y65.792 E9.37199
G1 X70.961 Y65.711 E9.38753
G1 X75.037 Y61.635 E9.57974
G1 X75.496 Y61.554 E9.59528
G1 X71.420 Y65.630 E9.78749
G1 X71.879 Y65.549 E9.80304
G1 X75.955 Y61.473 E9.99525
G1 X76.414 Y61.392 E10.01079
G1 X72.338 Y65.468 E10.20300
G1 X72.797 Y65.388 E10.21854
G1 X76.873 Y61.311 E10.41076
G1 X77.332 Y61.231 E10.42630
G1 X73.256 Y65.307 E10.61851
G1 X73.715 Y65.226 E10.63405
G1 X77.791 Y61.150 E10.82626
G1 X78.250 Y61.069 E10.84181
G1 X74.174 Y65.145 E11.03402
G1 X74.633 Y65.064 E11.04956
G1 X78.709 Y60.988 E11.24177
G1 X79.168 Y60.907 E11.25731
G1 X75.092 Y64.983 E11.44953
G1 X75.551 Y64.902 E11.46507
G1 X79.627 Y60.826 E11.65728
G1 X80.086 Y60.745 E11.67282
G1 X76.010 Y64.821 E11.86503
G1 X76.469 Y64.740 E11.88057
G1 X80.545 Y60.664 E12.07279
G1 X81.004 Y60.583 E12.08833
G1 X76.928 Y64.659 E12.28054
G1 X77.387 Y64.578 E12.29608
G1 X81.463 Y60.502 E12.48829
G1 X81.922 Y60.421 E12.50384
G1 X77.846 Y64.497 E12.69605
G1 X78.305 Y64.416 E12.71159
G1 X82.381 Y60.340 E12.90380
G1 X82.840 Y60.259 E12.91934
G1 X78.764 Y64.335 E13.11156
G1 X79.223 Y64.254 E13.12710
G1 X83.299 Y60.178 E13.31931
G1 X83.758 Y60.097 E13.33485
G1 X79.682 Y64.174 E13.52706
G1 X80.141 Y64.093 E13.54261
G1 X84.217 Y60.016 E13.73482
G1 X84.676 Y59.936 E13.75036
G1 X80.600 Y64.012 E13.94257
G1 X81.059 Y63.931 E13.95811
G1 X85.135 Y59.855 E14.15033
G1 X85.594 Y59.774 E14.16587
G1 X81.518 Y63.850 E14.35808
G1 X81.977 Y63.769 E14.37362
G1 X86.053 Y59.693 E14.56583
G1 X86.512 Y59.612 E14.58138
G1 X82.436 Y63.688 E14.77359
G1 X82.895 Y63.607 E14.78913
G1 X86.971 Y59.531 E14.98134
G1 X87.430 Y59.450 E14.99688
G1 X83.354 Y63.526 E15.18910
G1 X83.813 Y63.445 E15.20464
G1 X87.889 Y59.369 E15.39685
G1 X88.348 Y59.288 E15.41239
G1 X84.272 Y63.364 E15.60460
G1 X84.731 Y63.283 E15.62015
G1 X88.807 Y59.207 E15.81236
G1 X89.266 Y59.126 E15.82790
G1 X85.190 Y63.202 E16.02011
G1 X85.649 Y63.121 E16.03565
G1 X89.725 Y59.045 E16.22787
G1 X89.892 Y59.016 E16.23352
G1 X89.928 Y59.220 E16.24044
G1 X86.108 Y63.040 E16.42059
G1 X86.567 Y62.959 E16.43613
G1 X89.985 Y59.542 E16.59730
G1 X90.042 Y59.863 E16.60818
G1 X87.026 Y62.879 E16.75038
G1 X87.485 Y62.798 E16.76592
G1 X90.098 Y60.184 E16.88915
G1 X90.155 Y60.506 E16.90003
G1 X87.944 Y62.717 E17.00428
G1 X88.403 Y62.636 E17.01982
G1 X90.212 Y60.827 E17.10510
G1 X90.268 Y61.149 E17.11599
G1 X88.862 Y62.555 E17.18229
G1 X89.321 Y62.474 E17.19784
G1 X90.325 Y61.470 E17.24517
G1 X90.382 Y61.791 E17.25605
G1 X89.780 Y62.393 E17.28442
G1 E15.28442 F2400.00000
G92 E0
G1 X59.923 Y65.407 F7800.000
G1 E2.00000 F2400.00000
G1 F1800
G1 X60.271 Y65.068 E2.01619
G1 X60.430 Y64.952 E2.02276
G1 X60.784 Y64.785 E2.03583
G1 X60.969 Y64.739 E2.04217
G1 X59.528 Y66.180 E2.11012
G1 X59.494 Y66.592 E2.12389
G1 X61.473 Y64.613 E2.21720
G1 X61.977 Y64.487 E2.23453
G1 X59.494 Y66.970 E2.35161
G1 X59.494 Y67.348 E2.36422
G1 X62.482 Y64.361 E2.50509
G1 X62.986 Y64.234 E2.52242
G1 X59.494 Y67.726 E2.68706
G1 X59.494 Y68.104 E2.69967
G1 X63.490 Y64.108 E2.88809
G1 X63.994 Y63.982 E2.90542
G1 X59.494 Y68.482 E3.11762
G1 X59.494 Y68.860 E3.13022
G1 X64.499 Y63.856 E3.36620
G1 X65.003 Y63.730 E3.38353
G1 X59.494 Y69.238 E3.64328
G1 X59.494 Y69.616 E3.65589
G1 X65.507 Y63.604 E3.93942
G1 X66.011 Y63.477 E3.95675
G1 X59.494 Y69.994 E4.26406
G1 X59.494 Y70.372 E4.27667
G1 X66.516 Y63.351 E4.60776
G1 X67.020 Y63.225 E4.62509
G1 X59.494 Y70.750 E4.97995
G1 X59.494 Y71.128 E4.99256
G1 X62.840 Y67.783 E5.15031
G1 X62.840 Y68.161 E5.16292
G1 X59.494 Y71.507 E5.32068
G1 X59.494 Y71.885 E5.33328
G1 X62.840 Y68.539 E5.49104
G1 X62.840 Y68.917 E5.50364
G1 X59.494 Y72.263 E5.66140
G1 X59.494 Y72.641 E5.67401
G1 X62.840 Y69.295 E5.83176
G1 X62.840 Y69.673 E5.84437
G1 X59.494 Y73.019 E6.00212
G1 X59.494 Y73.397 E6.01473
G1 X62.840 Y70.052 E6.17248
G1 X62.840 Y70.430 E6.18509
G1 X59.494 Y73.775 E6.34285
G1 X59.494 Y74.153 E6.35545
G1 X62.840 Y70.808 E6.51321
G1 X62.840 Y71.186 E6.52581
G1 X59.494 Y74.531 E6.68357
G1 X59.494 Y74.909 E6.69618
G1 X62.840 Y71.564 E6.85393
G1 X62.840 Y71.942 E6.86654
G1 X59.494 Y75.287 E7.02429
G1 X59.494 Y75.665 E7.03690
G1 X62.840 Y72.320 E7.19465
G1 X62.840 Y72.698 E7.20726
G1 X59.494 Y76.043 E7.36502
G1 X59.494 Y76.422 E7.37762
G1 X62.840 Y73.076 E7.53538
G1 X62.840 Y73.454 E7.54798
G1 X59.494 Y76.800 E7.70574
G1 X59.494 Y77.178 E7.71835
G1 X62.840 Y73.832 E7.87610
G1 X62.840 Y74.210 E7.88871
G1 X59.494 Y77.556 E8.04646
G1 X59.494 Y77.934 E8.05907
G1 X62.840 Y74.588 E8.21682
G1 X62.840 Y74.967 E8.22943
G1 X59.494 Y78.312 E8.38719
G1 X59.494 Y78.690 E8.39979
G1 X62.840 Y75.345 E8.55755
G1 X62.840 Y75.723 E8.57015
G1 X59.494 Y79.068 E8.72791
G1 X59.494 Y79.446 E8.74052
G1 X62.840 Y76.101 E8.89827
G1 X62.840 Y76.479 E8.91088
G1 X59.494 Y79.824 E9.06863
G1 X59.494 Y80.202 E9.08124
G1 X62.840 Y76.857 E9.23899
G1 X62.840 Y77.235 E9.25160
G1 X59.494 Y80.580 E9.40936
G1 X59.494 Y80.958 E9.42196
G1 X62.840 Y77.613 E9.57972
G1 X62.840 Y77.991 E9.59232
G1 X59.494 Y81.337 E9.75008
G1 X59.494 Y81.715 E9.76269
G1 X62.840 Y78.369 E9.92044
G1 X62.840 Y78.747 E9.93305
G1 X59.494 Y82.093 E10.09080
G1 X59.494 Y82.471 E10.10341
G1 X62.840 Y79.125 E10.26116
G1 X62.840 Y79.503 E10.27377
G1 X59.494 Y82.849 E10.43153
G1 X59.494 Y83.227 E10.44413
G1 X62.840 Y79.882 E10.60189
G1 X62.840 Y80.260 E10.61449
G1 X59.494 Y83.605 E10.77225
G1 X59.494 Y83.983 E10.78486
G1 X62.840 Y80.638 E10.94261
G1 X62.840 Y81.016 E10.95522
G1 X59.494 Y84.361 E11.11297
G1 X59.494 Y84.739 E11.12558
G1 X62.840 Y81.394 E11.28333
G1 X62.840 Y81.772 E11.29594
G1 X59.494 Y85.117 E11.45370
G1 X59.494 Y85.495 E11.46630
G1 X62.840 Y82.150 E11.62406
G1 X62.840 Y82.528 E11.63666
G1 X59.494 Y85.873 E11.79442
G1 X59.494 Y86.252 E11.80702
G1 X62.840 Y82.906 E11.96478
G1 X62.840 Y83.284 E11.97739
G1 X59.494 Y86.630 E12.13514
G1 X59.494 Y87.008 E12.14775
G1 X62.840 Y83.662 E12.30550
G1 X62.840 Y84.040 E12.31811
G1 X59.494 Y87.386 E12.47586
G1 X59.494 Y87.764 E12.48847
G1 X62.840 Y84.418 E12.64623
G1 X62.840 Y84.796 E12.65883
G1 X59.494 Y88.142 E12.81659
G1 X59.494 Y88.520 E12.82919
G1 X62.840 Y85.175 E12.98695
G1 X62.840 Y85.553 E12.99956
G1 X59.494 Y88.898 E13.15731
G1 X59.494 Y89.276 E13.16992
G1 X62.840 Y85.931 E13.32767
G1 X62.840 Y86.309 E13.34028
G1 X59.494 Y89.654 E13.49803
G1 X59.494 Y90.032 E13.51064
G1 X62.840 Y86.687 E13.66840
G1 X62.840 Y87.065 E13.68100
G1 X59.494 Y90.410 E13.83876
G1 X59.494 Y90.788 E13.85136
G1 X62.840 Y87.443 E14.00912
G1 X62.840 Y87.821 E14.02173
G1 X59.608 Y91.052 E14.17410
G1 X59.987 Y91.052 E14.18671
G1 X62.840 Y88.199 E14.32126
G1 X62.840 Y88.577 E14.33386
G1 X60.365 Y91.052 E14.45058
G1 X60.743 Y91.052 E14.46319
G1 X62.840 Y88.955 E14.56208
G1 X62.840 Y89.333 E14.57469
G1 X61.121 Y91.052 E14.65575
G1 X61.499 Y91.052 E14.66836
G1 X62.840 Y89.711 E14.73159
G1 X62.840 Y90.090 E14.74420
G1 X61.877 Y91.052 E14.78960
G1 X62.255 Y91.052 E14.80221
G1 X62.840 Y90.468 E14.82979
G1 X62.840 Y90.846 E14.84240
G1 X62.633 Y91.052 E14.85214
M106 S255
G1 Z0.500 F7800.000
G1 E12.85214 F2400.00000
G92 E0
G1 X62.947 Y67.766 F7800.000
G1 E2.00000 F2400.00000
G1 F2160
G1 X62.947 Y91.160 E2.77238
G1 X59.387 Y91.160 E2.88992
G1 X59.387 Y66.387 E3.70787
G1 X59.402 Y66.157 E3.71547
G1 X59.443 Y65.937 E3.72285
G1 X59.513 Y65.725 E3.73023
G1 X59.605 Y65.528 E3.73740
G1 X59.728 Y65.333 E3.74500
G1 X59.870 Y65.162 E3.75236
G1 X60.033 Y65.009 E3.75974
G1 X60.214 Y64.877 E3.76712
G1 X60.404 Y64.773 E3.77429
G1 X60.617 Y64.687 E3.78187
G1 X68.734 Y62.656 E4.05813
G1 X68.727 Y62.619 E4.05939
G1 X89.960 Y58.875 E4.77124
G1 X90.578 Y62.381 E4.88879
G1 X69.790 Y66.047 E5.58575
G1 X63.005 Y67.752 E5.81672
G1 E3.81672 F2400.00000
G92 E0
G1 X60.075 Y90.874 F7800.000
G1 E2.00000 F2400.00000
G1 F1800
G1 X59.673 Y90.471 E2.02455
G1 X59.673 Y89.737 E2.05623
G1 X60.809 Y90.874 E2.12559
G1 X61.543 Y90.874 E2.15726
G1 X59.673 Y89.003 E2.27142
G1 X59.673 Y88.269 E2.30310
G1 X62.278 Y90.874 E2.46206
G1 X62.661 Y90.874 E2.47862
G1 X62.661 Y90.523 E2.49374
G1 X59.673 Y87.535 E2.67612
G1 X59.673 Y86.801 E2.70780
G1 X62.661 Y89.789 E2.89017
G1 X62.661 Y89.055 E2.92185
G1 X59.673 Y86.067 E3.10422
G1 X59.673 Y85.333 E3.13590
G1 X62.661 Y88.321 E3.31828
G1 X62.661 Y87.587 E3.34995
G1 X59.673 Y84.599 E3.53233
G1 X59.673 Y83.865 E3.56401
G1 X62.661 Y86.853 E3.74638
G1 X62.661 Y86.119 E3.77806
G1 X59.673 Y83.131 E3.96043
G1 X59.673 Y82.397 E3.99211
G1 X62.661 Y85.385 E4.17449
G1 X62.661 Y84.651 E4.20616
G1 X59.673 Y81.663 E4.38854
G1 X59.673 Y80.929 E4.42022
G1 X62.661 Y83.917 E4.60259
G1 X62.661 Y83.183 E4.63427
G1 X59.673 Y80.195 E4.81664
G1 X59.673 Y79.461 E4.84832
G1 X62.661 Y82.449 E5.03070
G1 X62.661 Y81.715 E5.06238
G1 X59.673 Y78.727 E5.24475
G1 X59.673 Y77.993 E5.27643
G1 X62.661 Y80.981 E5.45880
G1 X62.661 Y80.247 E5.49048
G1 X59.673 Y77.259 E5.67286
G1 X59.673 Y76.525 E5.70453
G1 X62.661 Y79.513 E5.88691
G1 X62.661 Y78.779 E5.91859
G1 X59.673 Y75.791 E6.10096
G1 X59.673 Y75.057 E6.13264
G1 X62.661 Y78.045 E6.31501
G1 X62.661 Y77.311 E6.34669
G1 X59.673 Y74.323 E6.52907
G1 X59.673 Y73.589 E6.56074
G1 X62.661 Y76.577 E6.74312
G1 X62.661 Y75.843 E6.77480
G1 X59.673 Y72.855 E6.95717
G1 X59.673 Y72.121 E6.98885
G1 X62.661 Y75.109 E7.17122
G1 X62.661 Y74.375 E7.20290
G1 X59.673 Y71.387 E7.38528
G1 X59.673 Y70.653 E7.41695
G1 X62.661 Y73.641 E7.59933
G1 X62.661 Y72.907 E7.63101
G1 X59.673 Y69.919 E7.81338
G1 X59.673 Y69.185 E7.84506
G1 X62.661 Y72.173 E8.02743
G1 X62.661 Y71.439 E8.05911
G1 X59.673 Y68.451 E8.24149
G1 X59.673 Y67.717 E8.27317
G1 X62.661 Y70.705 E8.45554
G1 X62.661 Y69.971 E8.48722
G1 X59.673 Y66.983 E8.66959
G1 X59.673 Y66.249 E8.70127
G1 X62.661 Y69.237 E8.88365
G1 X62.661 Y68.503 E8.91532
G1 X59.796 Y65.638 E9.09019
G1 X59.922 Y65.419 E9.10110
G1 X60.025 Y65.295 E9.10805
G1 X60.108 Y65.216 E9.11301
G1 X62.661 Y67.769 E9.26882
G1 X62.661 Y67.588 E9.27663
G1 X63.103 Y67.477 E9.29630
G1 X60.575 Y64.949 E9.45060
G1 X61.162 Y64.802 E9.47672
G1 X63.690 Y67.329 E9.63098
G1 X64.276 Y67.182 E9.65709
G1 X61.749 Y64.655 E9.81132
G1 X62.336 Y64.508 E9.83744
G1 X64.863 Y67.034 E9.99164
G1 X65.449 Y66.887 E10.01774
G1 X62.923 Y64.361 E10.17191
G1 X63.511 Y64.214 E10.19803
G1 X66.036 Y66.739 E10.35217
G1 X66.623 Y66.592 E10.37827
G1 X64.098 Y64.067 E10.53237
G1 X64.685 Y63.920 E10.55849
G1 X67.209 Y66.445 E10.71256
G1 X67.796 Y66.297 E10.73867
G1 X65.272 Y63.773 E10.89270
G1 X65.859 Y63.626 E10.91882
G1 X68.382 Y66.150 E11.07283
G1 X68.969 Y66.002 E11.09893
G1 X66.446 Y63.480 E11.25290
G1 X67.033 Y63.333 E11.27902
G1 X69.555 Y65.855 E11.43296
G1 X70.158 Y65.724 E11.45958
G1 X67.620 Y63.186 E11.61448
G1 X68.207 Y63.039 E11.64060
G1 X70.782 Y65.614 E11.79774
G1 X71.406 Y65.504 E11.82508
G1 X68.795 Y62.892 E11.98448
G1 X69.090 Y62.813 E11.99769
G1 X69.396 Y62.759 E12.01107
G1 X72.030 Y65.393 E12.17186
G1 X72.654 Y65.283 E12.19920
G1 X70.020 Y62.649 E12.35999
G1 X70.644 Y62.539 E12.38733
G1 X73.278 Y65.173 E12.54812
G1 X73.902 Y65.063 E12.57547
G1 X71.268 Y62.429 E12.73625
G1 X71.892 Y62.319 E12.76360
G1 X74.526 Y64.953 E12.92438
G1 X75.150 Y64.843 E12.95173
G1 X72.516 Y62.209 E13.11251
G1 X73.140 Y62.099 E13.13986
G1 X75.774 Y64.733 E13.30065
G1 X76.398 Y64.623 E13.32799
G1 X73.764 Y61.989 E13.48878
G1 X74.388 Y61.879 E13.51612
G1 X77.022 Y64.513 E13.67691
G1 X77.646 Y64.403 E13.70425
G1 X75.012 Y61.769 E13.86504
G1 X75.636 Y61.659 E13.89239
G1 X78.270 Y64.293 E14.05317
G1 X78.894 Y64.183 E14.08052
G1 X76.260 Y61.549 E14.24130
G1 X76.884 Y61.439 E14.26865
G1 X79.518 Y64.073 E14.42944
G1 X80.142 Y63.963 E14.45678
G1 X77.508 Y61.329 E14.61757
G1 X78.132 Y61.219 E14.64491
G1 X80.766 Y63.853 E14.80570
G1 X81.390 Y63.743 E14.83304
G1 X78.756 Y61.109 E14.99383
G1 X79.380 Y60.999 E15.02118
G1 X82.014 Y63.633 E15.18196
G1 X82.638 Y63.523 E15.20931
G1 X80.004 Y60.889 E15.37009
G1 X80.628 Y60.779 E15.39744
G1 X83.262 Y63.413 E15.55823
G1 X83.886 Y63.303 E15.58557
G1 X81.252 Y60.669 E15.74636
G1 X81.876 Y60.559 E15.77370
G1 X84.510 Y63.193 E15.93449
G1 X85.134 Y63.083 E15.96183
G1 X82.500 Y60.449 E16.12262
G1 X83.124 Y60.339 E16.14997
G1 X85.758 Y62.973 E16.31075
G1 X86.382 Y62.863 E16.33810
G1 X83.748 Y60.229 E16.49888
G1 X84.372 Y60.118 E16.52623
G1 X87.006 Y62.753 E16.68702
G1 X87.630 Y62.643 E16.71436
G1 X84.996 Y60.008 E16.87515
G1 X85.620 Y59.898 E16.90249
G1 X88.254 Y62.533 E17.06328
G1 X88.878 Y62.423 E17.09062
G1 X86.244 Y59.788 E17.25141
G1 X86.868 Y59.678 E17.27876
G1 X89.502 Y62.313 E17.43954
G1 X90.126 Y62.203 E17.46689
G1 X87.492 Y59.568 E17.62767
G1 X88.116 Y59.458 E17.65502
G1 X90.080 Y61.423 E17.77493
G1 X89.923 Y60.532 E17.81398
G1 X88.740 Y59.348 E17.88621
G1 X89.364 Y59.238 E17.91356
G1 X89.766 Y59.641 E17.93812
G1 Z0.700 F7800.000
G1 E15.93812 F2400.00000
G92 E0
G1 X62.947 Y67.766 F7800.000
G1 E2.00000 F2400.00000
G1 F2160
G1 X62.947 Y91.160 E2.77238
G1 X59.387 Y91.160 E2.88992
G1 X59.387 Y66.387 E3.70787
G1 X59.402 Y66.157 E3.71547
G1 X59.443 Y65.937 E3.72285
G1 X59.512 Y65.725 E3.73023
G1 X59.604 Y65.531 E3.73729
G1 X59.728 Y65.333 E3.74500
G1 X59.870 Y65.162 E3.75236
G1 X60.033 Y65.009 E3.75974
G1 X60.214 Y64.877 E3.76712
G1 X60.401 Y64.774 E3.77419
G1 X60.617 Y64.687 E3.78187
G1 X68.734 Y62.656 E4.05813
G1 X68.727 Y62.619 E4.05939
G1 X89.960 Y58.875 E4.77124
G1 X90.578 Y62.381 E4.88878
G1 X69.790 Y66.047 E5.58575
G1 X63.005 Y67.752 E5.81672
G1 X62.259 Y67.908 F7800.000
G1 F1800
G1 X62.259 Y67.588 E5.83065
G1 X62.686 Y67.480 E5.84983
G1 X66.633 Y63.533 E6.09297
G1 X67.621 Y63.286 E6.13733
G1 X63.676 Y67.232 E6.38038
G1 X64.665 Y66.983 E6.42482
G1 X68.609 Y63.039 E6.66777
G1 X69.493 Y62.813 E6.70750
G1 X69.594 Y62.795 E6.71198
G1 X65.655 Y66.734 E6.95463
G1 X66.644 Y66.485 E6.99908
G1 X70.493 Y62.637 E7.23618
G1 X71.393 Y62.478 E7.27596
G1 X67.634 Y66.237 E7.50751
G1 X68.623 Y65.988 E7.55196
G1 X72.292 Y62.319 E7.77795
G1 X73.192 Y62.161 E7.81773
G1 X69.602 Y65.751 E8.03889
G1 X70.501 Y65.592 E8.07867
