; generated by Slic3r 1.3.1-dev (Build 54a31ee) on 2020-03-16 at 17:22:11

; external perimeters extrusion width = 0.44mm (2.86mm^3/s)
; perimeters extrusion width = 0.56mm (4.14mm^3/s)
; infill extrusion width = 0.50mm (3.66mm^3/s)
; solid infill extrusion width = 0.56mm (3.10mm^3/s)
; top infill extrusion width = 0.56mm (3.10mm^3/s)

M107
G92 E0
;D3D:START:START
T0
M104 S215 T0

G21
G90
M107
T0
G28
G29
M109 T0 S215 T0
G0 F3000
M107
T0
G92 E0
G0 X0 Y149 Z0.1 F3600
G1 Y49 E6.5 F1200
G0 Z1
G92 E0
; Filament gcode

G21 ; set units to millimeters
G90 ; use absolute coordinates
M82 ; use absolute distances for extrusion
G92 E0
G1 Z0.300 F7800.000
G1 E-2.00000 F2400.00000
G92 E0
G1 X62.471 Y67.395 F7800.000
G1 E2.00000 F2400.00000
G1 F1800.000
G1 X62.471 Y90.684 E2.77153
G1 X59.863 Y90.684 E2.85792
G1 X59.863 Y66.402 E3.66237
G1 X59.875 Y66.217 E3.66851
G1 X59.956 Y65.900 E3.67933
G1 X60.113 Y65.614 E3.69014
G1 X60.218 Y65.488 E3.69556
G1 X60.469 Y65.280 E3.70638
G1 X60.763 Y65.142 E3.71712
G1 X69.279 Y63.005 E4.00801
G1 X89.574 Y59.427 E4.69073
G1 X90.026 Y61.995 E4.77711
G1 X69.690 Y65.581 E5.46124
G1 X62.529 Y67.380 E5.70586
G1 X62.736 Y67.602 F7800.000
G1 F1800.000
G1 X62.736 Y90.949 E6.47933
G1 X59.598 Y90.949 E6.58332
G1 X59.598 Y66.393 E7.39684
G1 X59.611 Y66.183 E7.40382
G1 X59.709 Y65.802 E7.41684
G1 X59.793 Y65.624 E7.42337
G1 X60.024 Y65.306 E7.43639
G1 X60.327 Y65.055 E7.44942
G1 X60.681 Y64.888 E7.46240
G1 X68.975 Y62.813 E7.74566
G1 X68.971 Y62.790 E7.74644
G1 X89.789 Y59.119 E8.44676
G1 X90.334 Y62.210 E8.55075
G1 X69.746 Y65.840 E9.24335
G1 X62.795 Y67.588 E9.48080
G1 X63.002 Y67.809 F7800.000
G1 F1800.000
G1 X63.002 Y91.215 E10.25621
G1 X59.332 Y91.215 E10.37779
G1 X59.332 Y66.385 E11.20039
G1 X59.347 Y66.150 E11.20820
G1 X59.390 Y65.923 E11.21583
G1 X59.461 Y65.704 E11.22346
G1 X59.559 Y65.496 E11.23110
G1 X59.683 Y65.301 E11.23873
G1 X59.830 Y65.124 E11.24636
G1 X59.998 Y64.966 E11.25400
G1 X60.184 Y64.831 E11.26163
G1 X60.386 Y64.720 E11.26926
G1 X60.600 Y64.635 E11.27688
G1 X68.671 Y62.616 E11.55252
G1 X68.664 Y62.574 E11.55390
G1 X90.004 Y58.811 E12.27182
G1 X90.642 Y62.426 E12.39341
G1 X69.801 Y66.100 E13.09450
G1 X63.060 Y67.795 E13.32477
G1 E11.32477 F2400.00000
G92 E0
G1 X60.511 Y65.573 F7800.000
G1 E2.00000 F2400.00000
G1 F1800.000
G1 X60.231 Y65.867 E2.01360
G1 X60.102 Y66.102 E2.02255
G1 X60.031 Y66.432 E2.03383
G1 X61.245 Y65.217 E2.09126
G1 X61.751 Y65.090 E2.10871
G1 X60.026 Y66.816 E2.19031
G1 X60.026 Y67.195 E2.20299
G1 X62.257 Y64.963 E2.30853
G1 X62.764 Y64.836 E2.32598
G1 X60.026 Y67.574 E2.45545
G1 X60.026 Y67.953 E2.46813
G1 X63.270 Y64.709 E2.62154
G1 X63.776 Y64.582 E2.63898
G1 X60.026 Y68.333 E2.81632
G1 X60.026 Y68.712 E2.82900
G1 X64.282 Y64.455 E3.03027
G1 X64.788 Y64.328 E3.04772
G1 X60.026 Y69.091 E3.27293
G1 X60.026 Y69.470 E3.28560
G1 X62.309 Y67.187 E3.39356
G1 X62.309 Y67.566 E3.40624
G1 X60.026 Y69.849 E3.51419
G1 X60.026 Y70.228 E3.52687
G1 X62.309 Y67.945 E3.63483
G1 X62.309 Y68.324 E3.64750
G1 X60.026 Y70.607 E3.75546
G1 X60.026 Y70.987 E3.76814
G1 X62.309 Y68.704 E3.87609
G1 X62.309 Y69.083 E3.88877
G1 X60.026 Y71.366 E3.99673
G1 X60.026 Y71.745 E4.00940
G1 X62.309 Y69.462 E4.11736
G1 X62.309 Y69.841 E4.13004
G1 X60.026 Y72.124 E4.23799
G1 X60.026 Y72.503 E4.25067
G1 X62.309 Y70.220 E4.35863
G1 X62.309 Y70.599 E4.37130
G1 X60.026 Y72.882 E4.47926
G1 X60.026 Y73.261 E4.49194
G1 X62.309 Y70.978 E4.59989
G1 X62.309 Y71.358 E4.61257
G1 X60.026 Y73.641 E4.72053
G1 X60.026 Y74.020 E4.73320
G1 X62.309 Y71.737 E4.84116
G1 X62.309 Y72.116 E4.85384
G1 X60.026 Y74.399 E4.96179
G1 X60.026 Y74.778 E4.97447
G1 X62.309 Y72.495 E5.08242
G1 X62.309 Y72.874 E5.09510
G1 X60.026 Y75.157 E5.20306
G1 X60.026 Y75.536 E5.21574
G1 X62.309 Y73.253 E5.32369
G1 X62.309 Y73.632 E5.33637
G1 X60.026 Y75.915 E5.44432
G1 X60.026 Y76.294 E5.45700
G1 X62.309 Y74.012 E5.56496
G1 X62.309 Y74.391 E5.57763
G1 X60.026 Y76.674 E5.68559
G1 X60.026 Y77.053 E5.69827
G1 X62.309 Y74.770 E5.80622
G1 X62.309 Y75.149 E5.81890
G1 X60.026 Y77.432 E5.92686
G1 X60.026 Y77.811 E5.93953
G1 X62.309 Y75.528 E6.04749
G1 X62.309 Y75.907 E6.06017
G1 X60.026 Y78.190 E6.16812
G1 X60.026 Y78.569 E6.18080
G1 X62.309 Y76.286 E6.28876
G1 X62.309 Y76.666 E6.30143
G1 X60.026 Y78.948 E6.40939
G1 X60.026 Y79.328 E6.42207
G1 X62.309 Y77.045 E6.53002
G1 X62.309 Y77.424 E6.54270
G1 X60.026 Y79.707 E6.65066
G1 X60.026 Y80.086 E6.66333
G1 X62.309 Y77.803 E6.77129
G1 X62.309 Y78.182 E6.78397
G1 X60.026 Y80.465 E6.89192
G1 X60.026 Y80.844 E6.90460
G1 X62.309 Y78.561 E7.01255
G1 X62.309 Y78.940 E7.02523
G1 X60.026 Y81.223 E7.13319
G1 X60.026 Y81.602 E7.14587
G1 X62.309 Y79.319 E7.25382
G1 X62.309 Y79.699 E7.26650
G1 X60.026 Y81.982 E7.37445
G1 X60.026 Y82.361 E7.38713
G1 X62.309 Y80.078 E7.49509
G1 X62.309 Y80.457 E7.50776
G1 X60.026 Y82.740 E7.61572
G1 X60.026 Y83.119 E7.62840
G1 X62.309 Y80.836 E7.73635
G1 X62.309 Y81.215 E7.74903
G1 X60.026 Y83.498 E7.85699
G1 X60.026 Y83.877 E7.86966
G1 X62.309 Y81.594 E7.97762
G1 X62.309 Y81.973 E7.99030
G1 X60.026 Y84.256 E8.09825
G1 X60.026 Y84.636 E8.11093
G1 X62.309 Y82.353 E8.21889
G1 X62.309 Y82.732 E8.23156
G1 X60.026 Y85.015 E8.33952
G1 X60.026 Y85.394 E8.35220
G1 X62.309 Y83.111 E8.46015
G1 X62.309 Y83.490 E8.47283
G1 X60.026 Y85.773 E8.58079
G1 X60.026 Y86.152 E8.59346
G1 X62.309 Y83.869 E8.70142
G1 X62.309 Y84.248 E8.71410
G1 X60.026 Y86.531 E8.82205
G1 X60.026 Y86.910 E8.83473
G1 X62.309 Y84.627 E8.94268
G1 X62.309 Y85.007 E8.95536
G1 X60.026 Y87.289 E9.06332
G1 X60.026 Y87.669 E9.07600
G1 X62.309 Y85.386 E9.18395
G1 X62.309 Y85.765 E9.19663
G1 X60.026 Y88.048 E9.30458
G1 X60.026 Y88.427 E9.31726
G1 X62.309 Y86.144 E9.42522
G1 X62.309 Y86.523 E9.43789
G1 X60.026 Y88.806 E9.54585
G1 X60.026 Y89.185 E9.55853
G1 X62.309 Y86.902 E9.66648
G1 X62.309 Y87.281 E9.67916
G1 X60.026 Y89.564 E9.78712
G1 X60.026 Y89.943 E9.79979
G1 X62.309 Y87.660 E9.90775
G1 X62.309 Y88.040 E9.92043
G1 X60.026 Y90.323 E10.02838
G1 X60.026 Y90.521 E10.03503
G1 X60.206 Y90.521 E10.04106
G1 X62.309 Y88.419 E10.14048
G1 X62.309 Y88.798 E10.15316
G1 X60.585 Y90.521 E10.23465
G1 X60.964 Y90.521 E10.24733
G1 X62.309 Y89.177 E10.31089
G1 X62.309 Y89.556 E10.32357
G1 X61.344 Y90.521 E10.36920
G1 X61.723 Y90.521 E10.38188
G1 X62.309 Y89.935 E10.40958
G1 X62.309 Y90.314 E10.42226
G1 X62.102 Y90.521 E10.43204
G1 E8.43204 F2400.00000
G92 E0
G1 X64.788 Y64.328 F7800.000
G1 E2.00000 F2400.00000
G1 F1800.000
G1 X65.294 Y64.201 E2.01745
G1 X62.239 Y67.257 E2.16194
G1 X62.745 Y67.130 E2.17940
G1 X65.800 Y64.074 E2.32387
G1 X66.306 Y63.948 E2.34132
G1 X63.252 Y67.002 E2.48578
G1 X63.758 Y66.875 E2.50324
G1 X66.813 Y63.821 E2.64768
G1 X67.319 Y63.694 E2.66513
G1 X64.264 Y66.748 E2.80956
G1 X64.771 Y66.620 E2.82702
G1 X67.825 Y63.567 E2.97143
G1 X68.331 Y63.440 E2.98888
G1 X65.277 Y66.493 E3.13328
G1 X65.784 Y66.366 E3.15074
G1 X68.837 Y63.313 E3.29512
G1 X69.343 Y63.186 E3.31257
G1 X66.290 Y66.239 E3.45694
G1 X66.797 Y66.111 E3.47440
G1 X69.812 Y63.096 E3.61699
G1 X70.272 Y63.015 E3.63262
G1 X67.303 Y65.984 E3.77303
G1 X67.809 Y65.857 E3.79049
G1 X70.733 Y62.934 E3.92872
G1 X71.193 Y62.852 E3.94435
G1 X68.316 Y65.729 E4.08040
G1 X68.822 Y65.602 E4.09786
G1 X71.653 Y62.771 E4.23172
G1 X72.113 Y62.690 E4.24735
G1 X69.329 Y65.475 E4.37904
G1 X69.807 Y65.375 E4.39539
G1 X72.574 Y62.609 E4.52620
G1 X73.034 Y62.528 E4.54183
G1 X70.268 Y65.294 E4.67264
G1 X70.728 Y65.213 E4.68827
G1 X73.494 Y62.447 E4.81909
G1 X73.955 Y62.365 E4.83472
G1 X71.188 Y65.132 E4.96553
G1 X71.649 Y65.051 E4.98116
G1 X74.415 Y62.284 E5.11197
G1 X74.875 Y62.203 E5.12760
G1 X72.109 Y64.969 E5.25841
G1 X72.569 Y64.888 E5.27404
G1 X75.336 Y62.122 E5.40485
G1 X75.796 Y62.041 E5.42048
G1 X73.030 Y64.807 E5.55130
G1 X73.490 Y64.726 E5.56692
G1 X76.256 Y61.960 E5.69774
G1 X76.716 Y61.878 E5.71337
G1 X73.950 Y64.645 E5.84418
G1 X74.410 Y64.564 E5.85981
G1 X77.177 Y61.797 E5.99062
G1 X77.637 Y61.716 E6.00625
G1 X74.871 Y64.482 E6.13706
G1 X75.331 Y64.401 E6.15269
G1 X78.097 Y61.635 E6.28351
G1 X78.558 Y61.554 E6.29913
G1 X75.791 Y64.320 E6.42995
G1 X76.252 Y64.239 E6.44558
G1 X79.018 Y61.473 E6.57639
G1 X79.478 Y61.391 E6.59202
G1 X76.712 Y64.158 E6.72283
G1 X77.172 Y64.077 E6.73846
G1 X79.939 Y61.310 E6.86927
G1 X80.399 Y61.229 E6.88490
G1 X77.633 Y63.995 E7.01572
G1 X78.093 Y63.914 E7.03135
G1 X80.859 Y61.148 E7.16216
G1 X81.319 Y61.067 E7.17779
G1 X78.553 Y63.833 E7.30860
G1 X79.013 Y63.752 E7.32423
G1 X81.780 Y60.986 E7.45504
G1 X82.240 Y60.905 E7.47067
G1 X79.474 Y63.671 E7.60148
G1 X79.934 Y63.590 E7.61711
G1 X82.700 Y60.823 E7.74793
G1 X83.161 Y60.742 E7.76356
G1 X80.394 Y63.508 E7.89437
G1 X80.855 Y63.427 E7.91000
G1 X83.621 Y60.661 E8.04081
G1 X84.081 Y60.580 E8.05644
G1 X81.315 Y63.346 E8.18725
G1 X81.775 Y63.265 E8.20288
G1 X84.542 Y60.499 E8.33370
G1 X85.002 Y60.418 E8.34932
G1 X82.236 Y63.184 E8.48014
G1 X82.696 Y63.103 E8.49577
G1 X85.462 Y60.336 E8.62658
G1 X85.922 Y60.255 E8.64221
G1 X83.156 Y63.022 E8.77302
G1 X83.616 Y62.940 E8.78865
G1 X86.383 Y60.174 E8.91946
G1 X86.843 Y60.093 E8.93509
G1 X84.077 Y62.859 E9.06591
G1 X84.537 Y62.778 E9.08154
G1 X87.303 Y60.012 E9.21235
G1 X87.764 Y59.931 E9.22798
G1 X84.997 Y62.697 E9.35879
G1 X85.458 Y62.616 E9.37442
G1 X88.224 Y59.849 E9.50523
G1 X88.684 Y59.768 E9.52086
G1 X85.918 Y62.535 E9.65168
G1 X86.378 Y62.453 E9.66730
G1 X89.145 Y59.687 E9.79812
G1 X89.461 Y59.631 E9.80887
G1 X89.479 Y59.732 E9.81229
G1 X86.839 Y62.372 E9.93715
G1 X87.299 Y62.291 E9.95278
G1 X89.536 Y60.054 E10.05857
G1 X89.593 Y60.376 E10.06951
G1 X87.759 Y62.210 E10.15622
G1 X88.220 Y62.129 E10.17184
G1 X89.650 Y60.699 E10.23947
G1 X89.706 Y61.021 E10.25041
G1 X88.680 Y62.048 E10.29896
G1 X89.140 Y61.966 E10.31459
G1 X89.763 Y61.343 E10.34406
G1 X89.820 Y61.666 E10.35500
G1 X89.600 Y61.885 E10.36539
M106 S255
G1 Z0.500 F7800.000
G1 E8.36539 F2400.00000
G92 E0
G1 X62.490 Y67.410 F7800.000
G1 E2.00000 F2400.00000
G1 F2400.000
G1 X62.490 Y90.703 E3.00147
G1 X59.844 Y90.703 E3.11523
G1 X59.844 Y66.401 E4.16009
G1 X59.856 Y66.214 E4.16814
G1 X59.938 Y65.893 E4.18239
G1 X60.009 Y65.743 E4.18952
G1 X60.204 Y65.475 E4.20377
G1 X60.459 Y65.264 E4.21801
G1 X60.757 Y65.124 E4.23216
G1 X69.353 Y62.973 E4.61315
G1 X89.589 Y59.405 E5.49663
G1 X90.049 Y62.010 E5.61039
G1 X69.694 Y65.599 E6.49904
G1 X62.548 Y67.395 E6.81584
G1 X62.947 Y67.766 F7800.000
G1 F2160.000
G1 X62.947 Y91.160 E7.58822
G1 X59.387 Y91.160 E7.70576
G1 X59.387 Y66.387 E8.52370
G1 X59.402 Y66.157 E8.53131
G1 X59.443 Y65.937 E8.53869
G1 X59.513 Y65.725 E8.54607
G1 X59.608 Y65.522 E8.55344
G1 X59.727 Y65.334 E8.56082
G1 X59.870 Y65.162 E8.56820
G1 X60.033 Y65.009 E8.57558
G1 X60.214 Y64.877 E8.58296
G1 X60.409 Y64.770 E8.59034
G1 X60.617 Y64.688 E8.59769
G1 X68.734 Y62.656 E8.87397
G1 X68.727 Y62.619 E8.87523
G1 X89.960 Y58.875 E9.58708
G1 X90.578 Y62.381 E9.70463
G1 X69.790 Y66.047 E10.40159
G1 X63.005 Y67.752 E10.63256
G1 E8.63256 F2400.00000
G92 E0
G1 X60.160 Y89.984 F7800.000
G1 E2.00000 F2400.00000
G1 F1800.000
G1 X60.562 Y90.387 E2.02467
G1 X61.300 Y90.387 E2.05664
G1 X60.160 Y89.247 E2.12652
G1 X60.160 Y88.510 E2.15849
G1 X62.037 Y90.387 E2.27358
G1 X62.174 Y90.387 E2.27951
G1 X62.174 Y89.786 E2.30555
G1 X60.160 Y87.772 E2.42903
G1 X60.160 Y87.035 E2.46100
G1 X62.174 Y89.049 E2.58448
G1 X62.174 Y88.311 E2.61644
G1 X60.160 Y86.297 E2.73992
G1 X60.160 Y85.560 E2.77189
G1 X62.174 Y87.574 E2.89537
G1 X62.174 Y86.837 E2.92734
G1 X60.160 Y84.823 E3.05082
G1 X60.160 Y84.085 E3.08279
G1 X62.174 Y86.099 E3.20627
G1 X62.174 Y85.362 E3.23824
G1 X60.160 Y83.348 E3.36172
G1 X60.160 Y82.611 E3.39369
G1 X62.174 Y84.625 E3.51717
G1 X62.174 Y83.887 E3.54914
G1 X60.160 Y81.873 E3.67262
G1 X60.160 Y81.136 E3.70458
G1 X62.174 Y83.150 E3.82806
G1 X62.174 Y82.412 E3.86003
G1 X60.160 Y80.398 E3.98351
G1 X60.160 Y79.661 E4.01548
G1 X62.174 Y81.675 E4.13896
G1 X62.174 Y80.938 E4.17093
G1 X60.160 Y78.924 E4.29441
G1 X60.160 Y78.186 E4.32638
G1 X62.174 Y80.200 E4.44986
G1 X62.174 Y79.463 E4.48183
G1 X60.160 Y77.449 E4.60531
G1 X60.160 Y76.712 E4.63728
G1 X62.174 Y78.725 E4.76076
G1 X62.174 Y77.988 E4.79273
G1 X60.160 Y75.974 E4.91620
G1 X60.160 Y75.237 E4.94817
G1 X62.174 Y77.251 E5.07165
G1 X62.174 Y76.513 E5.10362
G1 X60.160 Y74.499 E5.22710
G1 X60.160 Y73.762 E5.25907
G1 X62.174 Y75.776 E5.38255
G1 X62.174 Y75.039 E5.41452
G1 X60.160 Y73.025 E5.53800
G1 X60.160 Y72.287 E5.56997
G1 X62.174 Y74.301 E5.69345
G1 X62.174 Y73.564 E5.72542
G1 X60.160 Y71.550 E5.84890
G1 X60.160 Y70.813 E5.88087
G1 X62.174 Y72.826 E6.00435
G1 X62.174 Y72.089 E6.03631
G1 X60.160 Y70.075 E6.15979
G1 X60.160 Y69.338 E6.19176
G1 X62.174 Y71.352 E6.31524
G1 X62.174 Y70.614 E6.34721
G1 X60.160 Y68.600 E6.47069
G1 X60.160 Y67.863 E6.50266
G1 X62.174 Y69.877 E6.62614
G1 X62.174 Y69.140 E6.65811
G1 X60.160 Y67.126 E6.78159
G1 X60.160 Y66.388 E6.81356
G1 X62.174 Y68.402 E6.93704
G1 X62.174 Y67.665 E6.96901
G1 X60.280 Y65.771 E7.08511
G1 X60.383 Y65.631 E7.09264
G1 X60.537 Y65.503 E7.10134
G1 X60.681 Y65.435 E7.10825
G1 X62.398 Y67.152 E7.21352
G1 X62.987 Y67.004 E7.23986
G1 X61.263 Y65.279 E7.34562
G1 X61.852 Y65.131 E7.37197
G1 X63.577 Y66.855 E7.47770
G1 X64.166 Y66.707 E7.50404
G1 X62.442 Y64.983 E7.60973
G1 X63.032 Y64.836 E7.63609
G1 X64.755 Y66.559 E7.74175
G1 X65.345 Y66.411 E7.76809
G1 X63.622 Y64.688 E7.87372
G1 X64.212 Y64.541 E7.90008
G1 X65.934 Y66.263 E8.00567
G1 X66.523 Y66.115 E8.03201
G1 X64.801 Y64.393 E8.13757
G1 X65.391 Y64.246 E8.16393
G1 X67.112 Y65.967 E8.26946
G1 X67.702 Y65.819 E8.29580
G1 X65.981 Y64.098 E8.40129
G1 X66.571 Y63.950 E8.42765
G1 X68.291 Y65.670 E8.53311
G1 X68.880 Y65.522 E8.55945
G1 X67.161 Y63.803 E8.66488
G1 X67.750 Y63.655 E8.69124
G1 X69.469 Y65.374 E8.79663
G1 X70.076 Y65.243 E8.82353
G1 X68.340 Y63.508 E8.92996
G1 X68.930 Y63.360 E8.95632
G1 X70.703 Y65.133 E9.06501
G1 X71.330 Y65.022 E9.09261
G1 X69.536 Y63.229 E9.20257
G1 X70.163 Y63.118 E9.23016
G1 X71.957 Y64.912 E9.34013
G1 X72.583 Y64.801 E9.36772
G1 X70.790 Y63.008 E9.47769
G1 X71.417 Y62.897 E9.50528
G1 X73.210 Y64.691 E9.61524
G1 X73.837 Y64.580 E9.64284
G1 X72.044 Y62.787 E9.75280
G1 X72.670 Y62.676 E9.78040
G1 X74.464 Y64.470 E9.89036
G1 X75.091 Y64.359 E9.91796
G1 X73.297 Y62.566 E10.02792
G1 X73.924 Y62.455 E10.05552
G1 X75.718 Y64.249 E10.16548
G1 X76.344 Y64.138 E10.19308
G1 X74.551 Y62.345 E10.30304
G1 X75.178 Y62.234 E10.33063
G1 X76.971 Y64.028 E10.44060
G1 X77.598 Y63.917 E10.46819
G1 X75.805 Y62.124 E10.57816
G1 X76.432 Y62.013 E10.60575
G1 X78.225 Y63.807 E10.71572
G1 X78.852 Y63.696 E10.74331
G1 X77.058 Y61.903 E10.85327
G1 X77.685 Y61.792 E10.88087
G1 X79.479 Y63.586 E10.99083
G1 X80.106 Y63.475 E11.01843
G1 X78.312 Y61.682 E11.12839
G1 X78.939 Y61.571 E11.15599
G1 X80.732 Y63.364 E11.26595
G1 X81.359 Y63.254 E11.29355
G1 X79.566 Y61.460 E11.40351
G1 X80.193 Y61.350 E11.43111
G1 X81.986 Y63.143 E11.54107
G1 X82.613 Y63.033 E11.56866
G1 X80.819 Y61.239 E11.67863
G1 X81.446 Y61.129 E11.70622
G1 X83.240 Y62.922 E11.81619
G1 X83.867 Y62.812 E11.84378
G1 X82.073 Y61.018 E11.95375
G1 X82.700 Y60.908 E11.98134
G1 X84.493 Y62.701 E12.09130
G1 X85.120 Y62.591 E12.11890
G1 X83.327 Y60.797 E12.22886
G1 X83.954 Y60.687 E12.25646
G1 X85.747 Y62.480 E12.36642
G1 X86.374 Y62.370 E12.39402
G1 X84.581 Y60.576 E12.50398
G1 X85.207 Y60.466 E12.53158
G1 X87.001 Y62.259 E12.64154
G1 X87.628 Y62.149 E12.66914
G1 X85.834 Y60.355 E12.77910
G1 X86.461 Y60.245 E12.80670
G1 X88.255 Y62.038 E12.91666
G1 X88.881 Y61.928 E12.94425
G1 X87.088 Y60.134 E13.05422
G1 X87.715 Y60.024 E13.08181
G1 X89.508 Y61.817 E13.19178
G1 X89.651 Y61.792 E13.19805
G1 X89.529 Y61.100 E13.22850
G1 X88.342 Y59.913 E13.30128
G1 X88.968 Y59.803 E13.32888
G1 X89.371 Y60.205 E13.35355
G1 Z0.700 F7800.000
G1 E11.35355 F2400.00000
G92 E0
G1 X62.490 Y67.410 F7800.000
G1 E2.00000 F2400.00000
G1 F2400.000
G1 X62.490 Y90.703 E3.00147
G1 X59.844 Y90.703 E3.11523
G1 X59.844 Y66.401 E4.16009
G1 X59.856 Y66.214 E4.16814
G1 X59.938 Y65.893 E4.18239
G1 X60.009 Y65.743 E4.18952
G1 X60.204 Y65.475 E4.20377
G1 X60.459 Y65.264 E4.21801
G1 X60.757 Y65.124 E4.23216
