; generated by Slic3r 1.3.1-dev (Build adea0d9) on 2020-03-03 at 01:56:12

; external perimeters extrusion width = 0.44mm (2.86mm^3/s)
; perimeters extrusion width = 0.56mm (4.14mm^3/s)
; infill extrusion width = 0.50mm (3.66mm^3/s)
; solid infill extrusion width = 0.56mm (3.10mm^3/s)
; top infill extrusion width = 0.56mm (3.10mm^3/s)

M107
G92 E0
;D3D:START:START
T0
M104 S215 T0

G21
G90
M107
T0
G28
G29
M109 T0 S215 T0
G0 F3000
M107
T0
G92 E0
G0 X0 Y149 Z0.1 F3600
G1 Y49 E6.5 F1200
G0 Z1
G92 E0
; Filament gcode

G21 ; set units to millimeters
G90 ; use absolute coordinates
M82 ; use absolute distances for extrusion
G92 E0
G1 Z0.300 F7800.000
G1 E-2.00000 F2400.00000
G92 E0
G1 X26.598 Y116.382 F7800.000
G1 E2.00000 F2400.00000
G1 F1800.000
G1 X28.305 Y116.382 E2.05541
G1 X29.231 Y116.318 E2.08554
G1 X29.231 Y125.384 E2.37991
G1 X26.598 Y125.384 E2.46539
G1 X26.598 Y116.442 E2.75570
G1 X26.333 Y116.117 F7800.000
G1 F1800.000
G1 X28.296 Y116.117 E2.81944
G1 X29.496 Y116.033 E2.85852
G1 X29.496 Y125.650 E3.17076
G1 X26.333 Y125.650 E3.27348
G1 X26.333 Y116.177 E3.58105
G1 X26.067 Y115.851 F7800.000
G1 F1800.000
G1 X28.286 Y115.851 E3.65311
G1 X29.762 Y115.748 E3.70113
G1 X29.762 Y125.916 E4.03124
G1 X26.067 Y125.916 E4.15121
G1 X26.067 Y115.911 E4.47602
G1 E2.47602 F2400.00000
G92 E0
G1 X121.640 Y33.560 F7800.000
G1 E2.00000 F2400.00000
G1 F1800.000
G1 X118.662 Y30.743 E2.13308
G1 X119.251 Y27.404 E2.24316
G1 X122.680 Y28.009 E2.35623
G1 X121.720 Y33.455 E2.53577
G1 X121.660 Y33.444 E2.53775
G1 X121.650 Y33.501 E2.53963
G1 X121.816 Y34.092 F7800.000
G1 F1800.000
G1 X118.376 Y30.838 E2.69337
G1 X119.035 Y27.096 E2.81672
G1 X122.988 Y27.793 E2.94704
G1 X121.936 Y33.762 E3.14383
G1 X121.876 Y33.752 E3.14581
G1 X121.826 Y34.033 E3.15508
G1 X121.991 Y34.624 F7800.000
G1 F1800.000
G1 X118.089 Y30.933 E3.32949
G1 X118.820 Y26.789 E3.46610
G1 X123.296 Y27.578 E3.61367
G1 X122.151 Y34.070 E3.82770
G1 X122.091 Y34.060 E3.82968
G1 X122.002 Y34.565 E3.84635
G1 E1.84635 F2400.00000
G92 E0
G1 X30.028 Y115.999 F7800.000
G1 E2.00000 F2400.00000
G1 F1800.000
G1 X30.028 Y126.181 E2.33058
G1 X25.801 Y126.181 E2.46779
G1 X25.801 Y115.586 E2.81180
G1 X28.277 Y115.586 E2.89219
G1 X35.136 Y115.106 E3.11541
G1 X41.944 Y114.149 E3.33863
G1 X48.669 Y112.720 E3.56185
G1 X55.278 Y110.825 E3.78507
G1 X61.739 Y108.473 E4.00830
G1 X68.020 Y105.677 E4.23152
G1 X74.091 Y102.449 E4.45474
G1 X79.921 Y98.805 E4.67797
G1 X85.484 Y94.764 E4.90119
G1 X90.750 Y90.345 E5.12441
G1 X95.696 Y85.569 E5.34763
G1 X100.297 Y80.459 E5.57085
G1 X104.530 Y75.041 E5.79407
G1 X108.374 Y69.341 E6.01730
G1 X111.812 Y63.387 E6.24052
G1 X114.826 Y57.208 E6.46374
G1 X117.401 Y50.833 E6.68696
G1 X119.526 Y44.294 E6.91019
G1 X121.189 Y37.623 E7.13341
G1 X121.702 Y34.716 E7.22924
G1 X117.803 Y31.027 E7.40351
G1 X118.604 Y26.481 E7.55339
G1 X123.604 Y27.362 E7.71821
G1 X122.366 Y34.378 E7.94950
G1 X122.306 Y34.367 E7.95148
G1 X121.713 Y37.734 E8.06247
G1 X120.041 Y44.442 E8.28690
G1 X117.904 Y51.016 E8.51134
G1 X115.315 Y57.425 E8.73578
G1 X112.285 Y63.639 E8.96021
G1 X108.828 Y69.625 E9.18464
G1 X104.963 Y75.356 E9.40908
G1 X100.707 Y80.803 E9.63352
G1 X96.081 Y85.940 E9.85795
G1 X91.109 Y90.742 E10.08238
G1 X85.813 Y95.186 E10.30682
G1 X80.221 Y99.249 E10.53125
G1 X74.358 Y102.912 E10.75569
G1 X68.255 Y106.158 E10.98012
G1 X61.940 Y108.969 E11.20456
G1 X55.444 Y111.333 E11.42899
G1 X48.799 Y113.239 E11.65343
G1 X42.037 Y114.676 E11.87786
G1 X35.192 Y115.638 E12.10230
G1 X30.087 Y115.995 E12.26842
G1 X30.293 Y116.247 F7800.000
G1 F1800.000
G1 X30.293 Y126.447 E12.59958
G1 X25.536 Y126.447 E12.75404
G1 X25.536 Y115.320 E13.11530
G1 X28.268 Y115.320 E13.20401
G1 X35.108 Y114.842 E13.42663
G1 X41.898 Y113.887 E13.64925
G1 X48.605 Y112.462 E13.87187
G1 X55.196 Y110.572 E14.09449
G1 X61.640 Y108.227 E14.31711
G1 X67.904 Y105.438 E14.53973
G1 X73.958 Y102.219 E14.76235
G1 X79.773 Y98.585 E14.98497
G1 X85.320 Y94.555 E15.20759
G1 X90.573 Y90.147 E15.43021
G1 X95.505 Y85.384 E15.65283
G1 X100.093 Y80.288 E15.87545
G1 X104.315 Y74.885 E16.09807
G1 X108.149 Y69.201 E16.32069
G1 X111.577 Y63.263 E16.54330
G1 X114.583 Y57.100 E16.76593
G1 X117.152 Y50.742 E16.98855
G1 X119.271 Y44.221 E17.21117
G1 X120.929 Y37.568 E17.43379
G1 X121.416 Y34.811 E17.52467
G1 X117.516 Y31.122 E17.69895
G1 X118.389 Y26.173 E17.86209
G1 X123.911 Y27.147 E18.04416
G1 X122.582 Y34.686 E18.29270
G1 X122.522 Y34.675 E18.29467
G1 X121.973 Y37.790 E18.39734
G1 X120.296 Y44.515 E18.62238
G1 X118.154 Y51.107 E18.84742
G1 X115.558 Y57.533 E19.07246
G1 X112.519 Y63.763 E19.29749
G1 X109.053 Y69.766 E19.52253
G1 X105.178 Y75.512 E19.74756
G1 X100.910 Y80.974 E19.97260
G1 X96.272 Y86.125 E20.19764
G1 X91.286 Y90.940 E20.42268
G1 X85.977 Y95.395 E20.64772
G1 X80.369 Y99.469 E20.87275
G1 X74.491 Y103.142 E21.09779
G1 X68.371 Y106.396 E21.32283
G1 X62.039 Y109.216 E21.54786
G1 X55.526 Y111.586 E21.77290
G1 X48.863 Y113.497 E21.99794
G1 X42.083 Y114.938 E22.22297
G1 X35.219 Y115.902 E22.44801
G1 X30.353 Y116.243 E22.60639
G1 X30.559 Y116.495 F7800.000
G1 F1800.000
G1 X30.559 Y126.713 E22.93814
G1 X25.270 Y126.713 E23.10985
G1 X25.270 Y115.054 E23.48835
G1 X28.259 Y115.054 E23.58538
G1 X35.080 Y114.577 E23.80740
G1 X41.852 Y113.626 E24.02941
G1 X48.541 Y112.204 E24.25144
G1 X55.114 Y110.319 E24.47345
G1 X61.540 Y107.980 E24.69547
G1 X67.787 Y105.199 E24.91749
G1 X73.825 Y101.988 E25.13950
G1 X79.624 Y98.365 E25.36152
G1 X85.156 Y94.345 E25.58354
G1 X90.395 Y89.950 E25.80556
G1 X95.314 Y85.199 E26.02757
G1 X99.890 Y80.118 E26.24959
G1 X104.100 Y74.729 E26.47161
G1 X107.924 Y69.060 E26.69363
G1 X111.343 Y63.138 E26.91564
G1 X114.340 Y56.992 E27.13766
G1 X116.902 Y50.651 E27.35968
G1 X119.015 Y44.148 E27.58170
G1 X120.669 Y37.512 E27.80372
G1 X121.129 Y34.906 E27.88966
G1 X117.230 Y31.217 E28.06393
G1 X118.173 Y25.866 E28.24035
G1 X124.219 Y26.932 E28.43966
G1 X122.797 Y34.994 E28.70545
G1 X122.737 Y34.983 E28.70743
G1 X122.233 Y37.845 E28.80177
G1 X120.552 Y44.588 E29.02740
G1 X118.404 Y51.198 E29.25304
G1 X115.800 Y57.642 E29.47869
G1 X112.754 Y63.888 E29.70433
G1 X109.279 Y69.907 E29.92996
G1 X105.393 Y75.668 E30.15560
G1 X101.114 Y81.145 E30.38124
G1 X96.464 Y86.310 E30.60688
G1 X91.464 Y91.137 E30.83252
G1 X86.140 Y95.605 E31.05816
G1 X80.518 Y99.690 E31.28380
G1 X74.624 Y103.372 E31.50944
G1 X68.488 Y106.635 E31.73508
G1 X62.139 Y109.462 E31.96072
G1 X55.608 Y111.839 E32.18636
G1 X48.927 Y113.755 E32.41200
G1 X42.129 Y115.200 E32.63764
G1 X35.247 Y116.167 E32.86328
G1 X30.619 Y116.490 E33.01392
G1 X30.825 Y116.742 F7800.000
G1 F1800.000
G1 X30.825 Y126.978 E33.34624
G1 X25.005 Y126.978 E33.53520
G1 X25.005 Y114.789 E33.93096
G1 X28.249 Y114.789 E34.03631
G1 X35.052 Y114.313 E34.25772
G1 X41.806 Y113.364 E34.47914
G1 X48.477 Y111.946 E34.70055
G1 X55.032 Y110.066 E34.92197
G1 X61.440 Y107.734 E35.14338
G1 X67.671 Y104.960 E35.36480
G1 X73.692 Y101.758 E35.58621
G1 X79.476 Y98.144 E35.80763
G1 X84.993 Y94.136 E36.02904
G1 X90.217 Y89.752 E36.25046
G1 X95.123 Y85.015 E36.47187
G1 X99.686 Y79.947 E36.69329
G1 X103.885 Y74.573 E36.91470
G1 X107.698 Y68.919 E37.13612
G1 X111.108 Y63.013 E37.35753
G1 X114.098 Y56.883 E37.57895
G1 X116.652 Y50.560 E37.80037
G1 X118.760 Y44.074 E38.02178
G1 X120.409 Y37.457 E38.24320
G1 X120.843 Y35.000 E38.32420
G1 X116.943 Y31.311 E38.49847
G1 X117.958 Y25.558 E38.68815
G1 X124.527 Y26.716 E38.90471
G1 X123.013 Y35.302 E39.18775
G1 X122.953 Y35.291 E39.18973
G1 X122.493 Y37.900 E39.27574
G1 X120.807 Y44.661 E39.50198
G1 X118.654 Y51.289 E39.72823
G1 X116.043 Y57.750 E39.95447
G1 X112.989 Y64.013 E40.18071
G1 X109.504 Y70.048 E40.40695
G1 X105.608 Y75.825 E40.63319
G1 X101.317 Y81.316 E40.85944
G1 X96.655 Y86.494 E41.08568
G1 X91.642 Y91.335 E41.31192
G1 X86.304 Y95.814 E41.53816
G1 X80.666 Y99.910 E41.76440
G1 X74.757 Y103.603 E41.99064
G1 X68.604 Y106.874 E42.21689
G1 X62.238 Y109.708 E42.44313
G1 X55.690 Y112.092 E42.66937
G1 X48.992 Y114.013 E42.89561
G1 X42.176 Y115.461 E43.12185
G1 X35.275 Y116.431 E43.34810
G1 X30.884 Y116.738 E43.49100
G1 X30.425 Y116.757 F7800.000
G1 X29.895 Y115.741 F7800.000
G1 F1800.000
G1 X35.164 Y115.372 E43.62324
G1 X41.986 Y114.413 E43.79574
G1 X48.730 Y112.980 E43.96836
G1 X55.361 Y111.079 E44.14110
G1 X61.839 Y108.721 E44.31371
G1 X68.142 Y105.915 E44.48645
G1 X74.224 Y102.680 E44.65895
G1 X80.067 Y99.030 E44.83145
G1 X85.648 Y94.975 E45.00418
G1 X90.930 Y90.544 E45.17680
G1 X95.889 Y85.754 E45.34942
G1 X100.505 Y80.628 E45.52215
G1 X104.746 Y75.199 E45.69465
G1 X108.599 Y69.487 E45.86715
G1 X112.048 Y63.513 E46.03988
G1 X115.070 Y57.317 E46.21250
G1 X117.653 Y50.924 E46.38512
G1 X119.783 Y44.368 E46.55774
G1 X121.451 Y37.679 E46.73035
G1 X121.962 Y34.780 E46.80406
G1 X121.413 Y33.182 F7800.000
G1 F1800.000
G1 X121.620 Y32.975 E46.81392
G1 X121.704 Y32.501 E46.83016
G1 X121.213 Y32.992 E46.85358
G1 X121.012 Y32.802 E46.86290
G1 X121.787 Y32.027 E46.89988
G1 X121.871 Y31.553 E46.91611
G1 X120.812 Y32.612 E46.96665
G1 X120.611 Y32.422 E46.97597
G1 X121.954 Y31.079 E47.04007
G1 X122.038 Y30.605 E47.05630
G1 X120.410 Y32.233 E47.13396
G1 X120.210 Y32.043 E47.14328
G1 X122.122 Y30.131 E47.23449
G1 X122.205 Y29.657 E47.25073
G1 X120.009 Y31.853 E47.35550
G1 X119.809 Y31.663 E47.36482
G1 X122.289 Y29.183 E47.48315
G1 X122.372 Y28.709 E47.49939
G1 X119.608 Y31.474 E47.63128
G1 X119.407 Y31.284 E47.64060
G1 X122.456 Y28.236 E47.78605
G1 X122.476 Y28.121 E47.78997
G1 X122.224 Y28.077 E47.79859
G1 X119.207 Y31.094 E47.94257
G1 X119.006 Y30.904 E47.95189
G1 X121.893 Y28.018 E48.08960
G1 X121.561 Y27.960 E48.10097
G1 X118.861 Y30.659 E48.22977
G1 X118.945 Y30.185 E48.24600
G1 X121.229 Y27.901 E48.35497
G1 X120.897 Y27.843 E48.36634
G1 X119.029 Y29.711 E48.45549
G1 X119.112 Y29.237 E48.47173
G1 X120.565 Y27.784 E48.54106
G1 X120.233 Y27.726 E48.55243
G1 X119.196 Y28.763 E48.60194
G1 X119.279 Y28.289 E48.61817
G1 X119.901 Y27.667 E48.64786
G1 X119.570 Y27.608 E48.65923
G1 X119.363 Y27.815 E48.66909
G1 E46.66909 F2400.00000
G92 E0
G1 X26.967 Y116.545 F7800.000
G1 E2.00000 F2400.00000
G1 F1800.000
G1 X26.761 Y116.752 E2.00954
G1 X26.761 Y117.129 E2.02186
G1 X27.345 Y116.545 E2.04883
G1 X27.722 Y116.545 E2.06115
G1 X26.761 Y117.507 E2.10554
G1 X26.761 Y117.884 E2.11787
G1 X28.100 Y116.545 E2.17968
G1 X28.482 Y116.540 E2.19215
G1 X26.761 Y118.262 E2.27160
G1 X26.761 Y118.639 E2.28392
G1 X28.888 Y116.512 E2.38211
G1 X29.068 Y116.499 E2.38801
G1 X29.068 Y116.709 E2.39486
G1 X26.761 Y119.017 E2.50137
G1 X26.761 Y119.394 E2.51369
G1 X29.068 Y117.086 E2.62021
G1 X29.068 Y117.464 E2.63253
G1 X26.761 Y119.772 E2.73904
G1 X26.761 Y120.150 E2.75136
G1 X29.068 Y117.842 E2.85788
G1 X29.068 Y118.219 E2.87020
G1 X26.761 Y120.527 E2.97671
G1 X26.761 Y120.905 E2.98903
G1 X29.068 Y118.597 E3.09555
G1 X29.068 Y118.974 E3.10787
G1 X26.761 Y121.282 E3.21438
G1 X26.761 Y121.660 E3.22670
G1 X29.068 Y119.352 E3.33322
G1 X29.068 Y119.729 E3.34554
G1 X26.761 Y122.037 E3.45205
G1 X26.761 Y122.415 E3.46437
G1 X29.068 Y120.107 E3.57089
G1 X29.068 Y120.485 E3.58321
G1 X26.761 Y122.793 E3.68972
G1 X26.761 Y123.170 E3.70204
G1 X29.068 Y120.862 E3.80856
G1 X29.068 Y121.240 E3.82088
G1 X26.761 Y123.548 E3.92739
G1 X26.761 Y123.925 E3.93971
G1 X29.068 Y121.617 E4.04623
G1 X29.068 Y121.995 E4.05855
G1 X26.761 Y124.303 E4.16506
G1 X26.761 Y124.680 E4.17738
G1 X29.068 Y122.372 E4.28390
G1 X29.068 Y122.750 E4.29622
G1 X26.761 Y125.058 E4.40273
G1 X26.761 Y125.222 E4.40809
G1 X26.974 Y125.222 E4.41505
G1 X29.068 Y123.128 E4.51172
G1 X29.068 Y123.505 E4.52404
G1 X27.351 Y125.222 E4.60328
G1 X27.729 Y125.222 E4.61560
G1 X29.068 Y123.883 E4.67742
G1 X29.068 Y124.260 E4.68974
G1 X28.107 Y125.222 E4.73413
G1 X28.484 Y125.222 E4.74645
G1 X29.068 Y124.638 E4.77342
G1 X29.068 Y125.015 E4.78574
G1 X28.862 Y125.222 E4.79528
M106 S255
G1 Z0.500 F7800.000
G1 E2.79528 F2400.00000
G92 E0
G1 X28.244 Y117.369 F7800.000
G1 E2.00000 F2400.00000
G1 F1800.000
G1 X28.244 Y124.398 E2.29615
G1 X27.585 Y124.398 E2.32393
G1 X27.585 Y117.369 E2.62009
G1 X28.184 Y117.369 E2.64533
G1 X28.761 Y116.821 F7800.000
G1 F1800.000
G1 X28.761 Y124.915 E2.98636
G1 X27.068 Y124.915 E3.05771
G1 X27.068 Y116.852 E3.39744
G1 X28.321 Y116.852 E3.45026
G1 X28.701 Y116.825 E3.46631
G1 X29.278 Y116.267 F7800.000
G1 F1800.000
G1 X29.278 Y125.432 E3.85248
G1 X26.551 Y125.432 E3.96741
G1 X26.551 Y116.335 E4.35071
G1 X28.303 Y116.335 E4.42456
G1 X29.218 Y116.271 E4.46321
G1 X29.795 Y115.712 F7800.000
G1 F1800.000
G1 X29.795 Y125.949 E4.89454
G1 X26.034 Y125.949 E5.05304
G1 X26.034 Y115.818 E5.47992
G1 X28.285 Y115.818 E5.57479
G1 X29.735 Y115.716 E5.63605
G1 E3.63605 F2400.00000
G92 E0
G1 X120.683 Y30.679 F7800.000
G1 E2.00000 F2400.00000
G1 F1800.000
G1 X120.269 Y30.287 E2.02399
G1 X120.484 Y29.067 E2.07619
G1 X120.952 Y29.150 E2.09621
G1 X120.693 Y30.620 E2.15911
G1 X121.025 Y31.716 F7800.000
G1 F1800.000
G1 X119.712 Y30.472 E2.23533
G1 X120.065 Y28.468 E2.32104
G1 X121.551 Y28.730 E2.38463
G1 X121.035 Y31.657 E2.50983
G1 X121.367 Y32.752 F7800.000
G1 F1800.000
G1 X119.154 Y30.656 E2.63828
G1 X119.646 Y27.869 E2.75749
G1 X122.150 Y28.311 E2.86466
G1 X121.378 Y32.693 E3.05216
G1 X121.682 Y33.594 F7800.000
G1 F1800.000
G1 X121.398 Y33.494 E3.06486
G1 X118.597 Y30.840 E3.22744
G1 X119.226 Y27.270 E3.38016
G1 X122.749 Y27.892 E3.53090
G1 X121.759 Y33.510 E3.77127
G1 X121.699 Y33.499 E3.77384
G1 X121.692 Y33.535 E3.77538
G1 X122.085 Y34.285 F7800.000
G1 F1800.000
G1 X121.122 Y33.944 E3.81844
G1 X118.039 Y31.024 E3.99736
G1 X118.807 Y26.671 E4.18359
G1 X123.348 Y27.472 E4.37790
G1 X122.178 Y34.109 E4.66186
G1 X122.118 Y34.098 E4.66443
G1 X122.095 Y34.226 E4.66990
G1 X121.433 Y34.603 F7800.000
G1 F2400.000
G1 X120.846 Y34.395 E4.69614
G1 X117.482 Y31.208 E4.89141
G1 X118.387 Y26.072 E5.11114
G1 X123.947 Y27.053 E5.34903
G1 X122.597 Y34.708 E5.67657
G1 X122.537 Y34.697 E5.67914
G1 X121.992 Y37.793 E5.81160
G1 X120.314 Y44.520 E6.10371
G1 X118.172 Y51.113 E6.39582
G1 X115.575 Y57.541 E6.68793
G1 X112.536 Y63.772 E6.98004
G1 X109.070 Y69.776 E7.27214
G1 X105.193 Y75.523 E7.56425
G1 X100.925 Y80.986 E7.85636
G1 X96.286 Y86.138 E8.14847
G1 X91.299 Y90.954 E8.44058
G1 X85.988 Y95.410 E8.73269
G1 X80.380 Y99.485 E9.02480
G1 X74.501 Y103.159 E9.31690
G1 X68.380 Y106.414 E9.60901
G1 X62.046 Y109.233 E9.90112
G1 X55.532 Y111.604 E10.19323
G1 X48.868 Y113.515 E10.48534
G1 X42.087 Y114.957 E10.77745
G1 X35.221 Y115.922 E11.06956
G1 X30.312 Y116.265 E11.27691
G1 X30.312 Y126.466 E11.70674
G1 X25.517 Y126.466 E11.90882
G1 X25.517 Y115.301 E12.37927
G1 X28.267 Y115.301 E12.49517
G1 X35.106 Y114.823 E12.78403
G1 X41.895 Y113.868 E13.07289
G1 X48.600 Y112.443 E13.36175
G1 X55.190 Y110.554 E13.65060
G1 X61.632 Y108.209 E13.93946
G1 X67.895 Y105.420 E14.22832
G1 X73.948 Y102.202 E14.51718
G1 X79.762 Y98.569 E14.80604
G1 X85.308 Y94.540 E15.09490
G1 X90.560 Y90.133 E15.38376
G1 X95.491 Y85.371 E15.67262
G1 X100.078 Y80.276 E15.96148
G1 X104.299 Y74.874 E16.25033
G1 X108.133 Y69.190 E16.53919
G1 X111.560 Y63.254 E16.82805
G1 X114.566 Y57.092 E17.11691
G1 X117.134 Y50.735 E17.40577
G1 X119.252 Y44.216 E17.69463
G1 X120.911 Y37.564 E17.98349
G1 X121.422 Y34.662 E18.10763
G1 X120.915 Y34.905 F7800.000
G1 F2160.000
G1 X120.602 Y34.794 E18.11840
G1 X116.989 Y31.371 E18.27944
G1 X118.016 Y25.543 E18.47092
G1 X124.477 Y26.682 E18.68319
G1 X122.968 Y35.238 E18.96430
G1 X122.908 Y35.227 E18.96627
G1 X122.439 Y37.889 E19.05371
G1 X120.754 Y44.646 E19.27906
G1 X118.602 Y51.270 E19.50441
G1 X115.993 Y57.727 E19.72977
G1 X112.940 Y63.987 E19.95512
G1 X109.458 Y70.018 E20.18047
G1 X105.563 Y75.792 E20.40582
G1 X101.275 Y81.280 E20.63117
G1 X96.615 Y86.456 E20.85652
G1 X91.605 Y91.294 E21.08187
G1 X86.270 Y95.771 E21.30723
G1 X80.636 Y99.864 E21.53258
G1 X74.729 Y103.555 E21.75793
G1 X68.580 Y106.825 E21.98328
G1 X62.218 Y109.657 E22.20863
G1 X55.673 Y112.039 E22.43398
G1 X48.978 Y113.959 E22.65933
G1 X42.166 Y115.407 E22.88468
G1 X35.269 Y116.376 E23.11003
G1 X30.770 Y116.691 E23.25599
G1 X30.770 Y126.923 E23.58707
G1 X25.059 Y126.923 E23.77183
G1 X25.059 Y114.844 E24.16268
