; generated by Slic3r 1.3.1-dev (Build (Unknown revision)) on 2020-03-04 at 15:10:25

; external perimeters extrusion width = 0.55mm (4.37mm^3/s)
; perimeters extrusion width = 0.70mm (11.44mm^3/s)
; infill extrusion width = 0.62mm (13.45mm^3/s)
; solid infill extrusion width = 0.70mm (3.81mm^3/s)
; top infill extrusion width = 0.70mm (2.86mm^3/s)

M107
G92 E0
M104 S200 ; set temperature
G28 ; home all axes
G1 Z5 F5000 ; lift nozzle

; Filament gcode

M109 S200 ; set temperature and wait for it to be reached
G21 ; set units to millimeters
G90 ; use absolute coordinates
M82 ; use absolute distances for extrusion
G92 E0
G1 Z0.350 F7800.000
G1 E-2.00000 F2400.00000
G92 E0
G1 X-49.068 Y58.498 F7800.000
G1 E2.00000 F2400.00000
G1 F1800.000
G1 X249.068 Y58.498 E11.22472
G1 X250.446 Y58.643 E11.26757
G1 X253.513 Y59.295 E11.36459
G1 X254.829 Y59.723 E11.40744
G1 X257.694 Y60.998 E11.50447
G1 X258.894 Y61.691 E11.54733
G1 X261.431 Y63.534 E11.64436
G1 X262.461 Y64.461 E11.68722
G1 X264.559 Y66.792 E11.78425
G1 X265.372 Y67.912 E11.82708
G1 X266.940 Y70.627 E11.92411
G1 X267.504 Y71.893 E11.96697
G1 X268.473 Y74.875 E12.06400
G1 X268.761 Y76.229 E12.10683
G1 X269.089 Y79.348 E12.20386
G1 X269.089 Y80.734 E12.24674
G1 X268.761 Y83.853 E12.34377
G1 X268.473 Y85.207 E12.38661
G1 X267.504 Y88.189 E12.48363
G1 X266.940 Y89.455 E12.52649
G1 X265.372 Y92.170 E12.62352
G1 X264.559 Y93.290 E12.66636
G1 X262.461 Y95.621 E12.76338
G1 X261.431 Y96.548 E12.80625
G1 X258.894 Y98.391 E12.90328
G1 X257.694 Y99.084 E12.94614
G1 X254.829 Y100.359 E13.04317
G1 X254.019 Y100.658 E13.06990
G1 X170.564 Y125.414 E15.76331
G1 X170.058 Y125.542 E15.77948
G1 X165.969 Y126.412 E15.90882
G1 X165.158 Y126.532 E15.93418
G1 X-8.797 Y141.477 E21.33641
G1 X-9.364 Y141.502 E21.35397
G1 X-15.636 Y141.502 E21.54803
G1 X-17.013 Y141.357 E21.59088
G1 X-23.148 Y140.053 E21.78494
G1 X-24.465 Y139.625 E21.82779
G1 X-30.195 Y137.074 E22.02184
G1 X-31.394 Y136.381 E22.06470
G1 X-36.468 Y132.695 E22.25875
G1 X-37.497 Y131.768 E22.30160
G1 X-41.694 Y127.108 E22.49566
G1 X-42.259 Y126.385 E22.52403
G1 X-65.123 Y92.569 E23.78709
G1 X-65.373 Y92.170 E23.80163
G1 X-66.941 Y89.454 E23.89866
G1 X-67.504 Y88.189 E23.94151
G1 X-68.473 Y85.207 E24.03854
G1 X-68.761 Y83.852 E24.08139
G1 X-69.089 Y80.734 E24.17841
G1 X-69.089 Y79.349 E24.22127
G1 X-68.761 Y76.230 E24.31830
G1 X-68.473 Y74.875 E24.36115
G1 X-67.504 Y71.893 E24.45817
G1 X-66.941 Y70.628 E24.50103
G1 X-65.373 Y67.912 E24.59805
G1 X-64.559 Y66.791 E24.64091
G1 X-62.460 Y64.461 E24.73794
G1 X-61.431 Y63.534 E24.78079
G1 X-58.894 Y61.691 E24.87782
G1 X-57.695 Y60.999 E24.92067
G1 X-54.830 Y59.723 E25.01770
G1 X-53.513 Y59.295 E25.06055
G1 X-50.445 Y58.643 E25.15758
G1 X-49.143 Y58.506 E25.19811
G1 E23.19811 F2400.00000
G92 E0
G1 X229.382 Y75.789 F7800.000
G1 E2.00000 F2400.00000
G1 F1800.000
G1 X229.288 Y75.041 E2.02331
G1 X229.382 Y74.293 E2.04663
G1 X229.522 Y73.861 E2.06070
G1 X229.716 Y73.451 E2.07474
G1 X230.128 Y72.884 E2.09642
G1 X230.494 Y72.539 E2.11199
G1 X231.133 Y72.134 E2.13537
G1 X231.850 Y71.901 E2.15870
G1 X232.300 Y71.844 E2.17274
G1 X232.700 Y71.844 E2.18513
G1 X233.101 Y71.895 E2.19762
G1 X233.490 Y71.995 E2.21005
G1 X233.910 Y72.161 E2.22403
G1 X234.548 Y72.566 E2.24741
G1 X235.063 Y73.116 E2.27072
G1 X235.305 Y73.496 E2.28466
G1 X235.478 Y73.861 E2.29716
G1 X235.618 Y74.293 E2.31124
G1 X235.712 Y75.041 E2.33455
G1 X235.618 Y75.789 E2.35786
G1 X235.478 Y76.221 E2.37193
G1 X235.284 Y76.632 E2.38598
G1 X234.872 Y77.198 E2.40766
G1 X234.506 Y77.543 E2.42322
G1 X233.867 Y77.948 E2.44661
G1 X233.150 Y78.181 E2.46993
G1 X232.700 Y78.238 E2.48397
G1 X232.300 Y78.238 E2.49637
G1 X231.899 Y78.187 E2.50885
G1 X231.510 Y78.087 E2.52128
G1 X231.090 Y77.921 E2.53527
G1 X230.452 Y77.516 E2.55865
G1 X229.937 Y76.967 E2.58196
G1 X229.695 Y76.586 E2.59590
G1 X229.522 Y76.221 E2.60840
G1 X229.405 Y75.860 E2.62015
G1 X229.994 Y75.652 F7800.000
G1 F1800.000
G1 X229.917 Y75.041 E2.63921
G1 X229.994 Y74.430 E2.65826
G1 X230.104 Y74.092 E2.66926
G1 X230.256 Y73.771 E2.68025
G1 X230.599 Y73.299 E2.69831
G1 X230.879 Y73.035 E2.71022
G1 X231.401 Y72.704 E2.72932
G1 X231.986 Y72.514 E2.74838
G1 X232.339 Y72.469 E2.75937
G1 X232.661 Y72.469 E2.76934
G1 X232.983 Y72.510 E2.77939
G1 X233.296 Y72.590 E2.78938
G1 X233.625 Y72.721 E2.80033
G1 X234.147 Y73.051 E2.81944
G1 X234.568 Y73.500 E2.83848
G1 X234.757 Y73.798 E2.84941
G1 X234.896 Y74.092 E2.85946
G1 X235.006 Y74.430 E2.87046
G1 X235.083 Y75.041 E2.88951
G1 X235.006 Y75.652 E2.90857
G1 X234.896 Y75.990 E2.91957
G1 X234.744 Y76.311 E2.93056
G1 X234.401 Y76.783 E2.94862
G1 X234.121 Y77.047 E2.96053
G1 X233.599 Y77.378 E2.97963
G1 X233.014 Y77.568 E2.99869
G1 X232.661 Y77.613 E3.00968
G1 X232.339 Y77.613 E3.01965
G1 X232.017 Y77.572 E3.02970
G1 X231.704 Y77.492 E3.03969
G1 X231.375 Y77.361 E3.05064
G1 X230.853 Y77.031 E3.06974
G1 X230.432 Y76.582 E3.08879
G1 X230.243 Y76.284 E3.09972
G1 X230.104 Y75.990 E3.10977
G1 X230.017 Y75.723 E3.11845
G1 X230.607 Y75.515 F7800.000
G1 F1800.000
G1 X230.547 Y75.041 E3.13324
G1 X230.607 Y74.567 E3.14804
G1 X230.686 Y74.323 E3.15597
G1 X230.796 Y74.091 E3.16391
G1 X231.070 Y73.713 E3.17835
G1 X231.264 Y73.531 E3.18660
G1 X231.669 Y73.274 E3.20142
G1 X232.123 Y73.126 E3.21621
G1 X232.378 Y73.094 E3.22415
G1 X232.622 Y73.094 E3.23170
G1 X232.866 Y73.125 E3.23930
G1 X233.102 Y73.186 E3.24686
G1 X233.340 Y73.280 E3.25478
G1 X233.745 Y73.536 E3.26960
G1 X234.072 Y73.885 E3.28439
G1 X234.209 Y74.101 E3.29230
G1 X234.314 Y74.323 E3.29989
G1 X234.393 Y74.567 E3.30783
G1 X234.453 Y75.041 E3.32262
G1 X234.393 Y75.515 E3.33742
G1 X234.314 Y75.759 E3.34535
G1 X234.204 Y75.991 E3.35329
G1 X233.930 Y76.369 E3.36773
G1 X233.736 Y76.552 E3.37598
G1 X233.331 Y76.808 E3.39080
G1 X232.877 Y76.956 E3.40559
G1 X232.622 Y76.988 E3.41353
G1 X232.378 Y76.988 E3.42108
G1 X232.134 Y76.957 E3.42868
G1 X231.898 Y76.896 E3.43624
G1 X231.660 Y76.802 E3.44416
G1 X231.255 Y76.546 E3.45898
G1 X230.928 Y76.197 E3.47377
G1 X230.791 Y75.981 E3.48168
G1 X230.686 Y75.759 E3.48927
G1 X230.630 Y75.587 E3.49489
G1 X230.607 Y75.515 F7800.000
G1 E1.49489 F2400.00000
G92 E0
G1 X225.712 Y75.041 F7800.000
G1 E2.00000 F2400.00000
G1 F1800.000
G1 X225.618 Y75.789 E2.02331
G1 X225.478 Y76.221 E2.03739
G1 X225.284 Y76.632 E2.05143
G1 X224.872 Y77.198 E2.07311
G1 X224.506 Y77.543 E2.08867
G1 X223.867 Y77.948 E2.11206
G1 X223.150 Y78.181 E2.13538
G1 X222.700 Y78.238 E2.14942
G1 X222.300 Y78.238 E2.16182
G1 X221.899 Y78.187 E2.17430
G1 X221.510 Y78.087 E2.18673
G1 X221.090 Y77.921 E2.20072
G1 X220.452 Y77.516 E2.22410
G1 X219.937 Y76.967 E2.24741
G1 X219.695 Y76.586 E2.26135
G1 X219.522 Y76.221 E2.27385
G1 X219.382 Y75.789 E2.28792
G1 X219.288 Y75.041 E2.31124
G1 X219.382 Y74.293 E2.33455
G1 X219.522 Y73.861 E2.34862
G1 X219.716 Y73.451 E2.36267
G1 X220.128 Y72.884 E2.38435
G1 X220.494 Y72.539 E2.39991
G1 X221.133 Y72.134 E2.42329
G1 X221.850 Y71.901 E2.44662
G1 X222.300 Y71.844 E2.46066
G1 X222.700 Y71.844 E2.47306
G1 X223.101 Y71.895 E2.48554
G1 X223.490 Y71.995 E2.49797
G1 X223.910 Y72.161 E2.51195
G1 X224.548 Y72.566 E2.53534
G1 X225.063 Y73.116 E2.55865
G1 X225.305 Y73.496 E2.57259
G1 X225.478 Y73.861 E2.58509
G1 X225.618 Y74.293 E2.59916
G1 X225.703 Y74.967 E2.62015
G1 X225.083 Y75.041 F7800.000
G1 F1800.000
G1 X225.006 Y75.652 E2.63921
G1 X224.896 Y75.990 E2.65021
G1 X224.744 Y76.311 E2.66120
G1 X224.401 Y76.783 E2.67926
G1 X224.121 Y77.047 E2.69117
G1 X223.599 Y77.378 E2.71027
G1 X223.014 Y77.568 E2.72933
G1 X222.661 Y77.613 E2.74032
G1 X222.339 Y77.613 E2.75029
G1 X222.017 Y77.572 E2.76033
G1 X221.704 Y77.492 E2.77033
G1 X221.375 Y77.361 E2.78128
G1 X220.853 Y77.031 E2.80038
G1 X220.432 Y76.582 E2.81943
G1 X220.243 Y76.284 E2.83036
G1 X220.104 Y75.990 E2.84040
G1 X219.994 Y75.652 E2.85141
G1 X219.917 Y75.041 E2.87046
G1 X219.994 Y74.430 E2.88951
G1 X220.104 Y74.092 E2.90052
G1 X220.256 Y73.771 E2.91151
G1 X220.599 Y73.299 E2.92957
G1 X220.879 Y73.035 E2.94148
G1 X221.401 Y72.704 E2.96058
G1 X221.986 Y72.514 E2.97963
G1 X222.339 Y72.469 E2.99063
G1 X222.661 Y72.469 E3.00060
G1 X222.983 Y72.510 E3.01064
G1 X223.296 Y72.590 E3.02064
G1 X223.625 Y72.721 E3.03159
G1 X224.147 Y73.051 E3.05069
G1 X224.568 Y73.500 E3.06974
G1 X224.757 Y73.798 E3.08066
G1 X224.896 Y74.092 E3.09071
G1 X225.006 Y74.430 E3.10172
G1 X225.073 Y74.967 E3.11845
G1 X224.453 Y75.041 F7800.000
G1 F1800.000
G1 X224.393 Y75.515 E3.13324
G1 X224.314 Y75.759 E3.14118
G1 X224.204 Y75.991 E3.14911
G1 X223.930 Y76.369 E3.16355
G1 X223.736 Y76.552 E3.17181
G1 X223.331 Y76.808 E3.18662
G1 X222.877 Y76.956 E3.20141
G1 X222.622 Y76.988 E3.20936
G1 X222.378 Y76.988 E3.21690
G1 X222.134 Y76.957 E3.22451
G1 X221.898 Y76.896 E3.23207
G1 X221.660 Y76.802 E3.23999
G1 X221.255 Y76.546 E3.25481
G1 X220.928 Y76.197 E3.26959
G1 X220.791 Y75.981 E3.27750
G1 X220.686 Y75.759 E3.28510
G1 X220.607 Y75.515 E3.29303
G1 X220.547 Y75.041 E3.30783
G1 X220.607 Y74.567 E3.32262
G1 X220.686 Y74.323 E3.33056
G1 X220.796 Y74.091 E3.33849
G1 X221.070 Y73.713 E3.35293
G1 X221.264 Y73.531 E3.36119
G1 X221.669 Y73.274 E3.37601
G1 X222.123 Y73.126 E3.39079
G1 X222.378 Y73.094 E3.39874
G1 X222.622 Y73.094 E3.40628
G1 X222.866 Y73.125 E3.41389
G1 X223.102 Y73.186 E3.42145
G1 X223.340 Y73.280 E3.42937
G1 X223.745 Y73.536 E3.44419
G1 X224.072 Y73.885 E3.45897
G1 X224.209 Y74.101 E3.46688
G1 X224.314 Y74.323 E3.47448
G1 X224.393 Y74.567 E3.48241
G1 X224.443 Y74.967 E3.49489
G1 X224.453 Y75.041 F7800.000
G1 E1.49489 F2400.00000
G92 E0
G1 X215.712 Y75.041 F7800.000
G1 E2.00000 F2400.00000
G1 F1800.000
G1 X215.618 Y75.789 E2.02331
G1 X215.478 Y76.221 E2.03739
G1 X215.284 Y76.632 E2.05143
G1 X214.872 Y77.198 E2.07311
G1 X214.506 Y77.543 E2.08867
G1 X213.867 Y77.948 E2.11206
G1 X213.150 Y78.181 E2.13538
G1 X212.700 Y78.238 E2.14942
G1 X212.300 Y78.238 E2.16182
G1 X211.899 Y78.187 E2.17430
G1 X211.510 Y78.087 E2.18673
G1 X211.090 Y77.921 E2.20072
G1 X210.452 Y77.516 E2.22410
G1 X209.937 Y76.967 E2.24741
G1 X209.695 Y76.586 E2.26135
G1 X209.522 Y76.221 E2.27385
G1 X209.382 Y75.789 E2.28792
G1 X209.288 Y75.041 E2.31124
G1 X209.382 Y74.293 E2.33455
G1 X209.522 Y73.861 E2.34862
G1 X209.716 Y73.451 E2.36267
G1 X210.128 Y72.884 E2.38435
G1 X210.494 Y72.539 E2.39991
G1 X211.133 Y72.134 E2.42329
G1 X211.850 Y71.901 E2.44662
G1 X212.300 Y71.844 E2.46066
G1 X212.700 Y71.844 E2.47306
G1 X213.101 Y71.895 E2.48554
G1 X213.490 Y71.995 E2.49797
G1 X213.910 Y72.161 E2.51195
G1 X214.548 Y72.566 E2.53534
G1 X215.063 Y73.116 E2.55865
G1 X215.305 Y73.496 E2.57259
G1 X215.478 Y73.861 E2.58509
G1 X215.618 Y74.293 E2.59916
G1 X215.703 Y74.967 E2.62015
G1 X215.083 Y75.041 F7800.000
G1 F1800.000
G1 X215.006 Y75.652 E2.63921
G1 X214.896 Y75.990 E2.65021
G1 X214.744 Y76.311 E2.66120
G1 X214.401 Y76.783 E2.67926
G1 X214.121 Y77.047 E2.69117
G1 X213.599 Y77.378 E2.71027
G1 X213.014 Y77.568 E2.72933
G1 X212.661 Y77.613 E2.74032
G1 X212.339 Y77.613 E2.75029
G1 X212.017 Y77.572 E2.76033
G1 X211.704 Y77.492 E2.77033
G1 X211.375 Y77.361 E2.78128
G1 X210.853 Y77.031 E2.80038
G1 X210.432 Y76.582 E2.81943
G1 X210.243 Y76.284 E2.83036
G1 X210.104 Y75.990 E2.84040
G1 X209.994 Y75.652 E2.85141
G1 X209.917 Y75.041 E2.87046
G1 X209.994 Y74.430 E2.88951
G1 X210.104 Y74.092 E2.90052
G1 X210.256 Y73.771 E2.91151
G1 X210.599 Y73.299 E2.92957
G1 X210.879 Y73.035 E2.94148
G1 X211.401 Y72.704 E2.96058
G1 X211.986 Y72.514 E2.97963
G1 X212.339 Y72.469 E2.99063
G1 X212.661 Y72.469 E3.00060
G1 X212.983 Y72.510 E3.01064
G1 X213.296 Y72.590 E3.02064
G1 X213.625 Y72.721 E3.03159
G1 X214.147 Y73.051 E3.05069
G1 X214.568 Y73.500 E3.06974
G1 X214.757 Y73.798 E3.08066
G1 X214.896 Y74.092 E3.09071
G1 X215.006 Y74.430 E3.10172
G1 X215.073 Y74.967 E3.11845
G1 X214.453 Y75.041 F7800.000
G1 F1800.000
G1 X214.393 Y75.515 E3.13324
G1 X214.314 Y75.759 E3.14118
G1 X214.204 Y75.991 E3.14911
G1 X213.930 Y76.369 E3.16355
G1 X213.736 Y76.552 E3.17181
G1 X213.331 Y76.808 E3.18662
G1 X212.877 Y76.956 E3.20141
G1 X212.622 Y76.988 E3.20936
G1 X212.378 Y76.988 E3.21690
G1 X212.134 Y76.957 E3.22451
G1 X211.898 Y76.896 E3.23207
G1 X211.660 Y76.802 E3.23999
G1 X211.255 Y76.546 E3.25481
G1 X210.928 Y76.197 E3.26959
G1 X210.791 Y75.981 E3.27750
G1 X210.686 Y75.759 E3.28510
G1 X210.607 Y75.515 E3.29303
G1 X210.547 Y75.041 E3.30783
G1 X210.607 Y74.567 E3.32262
G1 X210.686 Y74.323 E3.33056
G1 X210.796 Y74.091 E3.33849
G1 X211.070 Y73.713 E3.35293
G1 X211.264 Y73.531 E3.36119
G1 X211.669 Y73.274 E3.37601
G1 X212.123 Y73.126 E3.39079
G1 X212.378 Y73.094 E3.39874
G1 X212.622 Y73.094 E3.40628
G1 X212.866 Y73.125 E3.41389
G1 X213.102 Y73.186 E3.42145
G1 X213.340 Y73.280 E3.42937
G1 X213.745 Y73.536 E3.44419
G1 X214.072 Y73.885 E3.45897
G1 X214.209 Y74.101 E3.46688
G1 X214.314 Y74.323 E3.47448
G1 X214.393 Y74.567 E3.48241
G1 X214.443 Y74.967 E3.49489
G1 X214.453 Y75.041 F7800.000
G1 E1.49489 F2400.00000
G92 E0
G1 X205.712 Y75.041 F7800.000
G1 E2.00000 F2400.00000
G1 F1800.000
G1 X205.618 Y75.789 E2.02331
G1 X205.478 Y76.221 E2.03739
G1 X205.284 Y76.632 E2.05143
G1 X204.872 Y77.198 E2.07311
G1 X204.506 Y77.543 E2.08867
G1 X203.910 Y77.921 E2.11050
G1 X203.490 Y78.087 E2.12448
G1 X203.101 Y78.187 E2.13691
G1 X202.700 Y78.238 E2.14940
G1 X202.300 Y78.238 E2.16179
G1 X201.899 Y78.187 E2.17428
G1 X201.510 Y78.087 E2.18671
G1 X201.090 Y77.921 E2.20069
G1 X200.452 Y77.516 E2.22408
G1 X199.937 Y76.966 E2.24739
G1 X199.695 Y76.586 E2.26132
G1 X199.522 Y76.221 E2.27382
G1 X199.382 Y75.789 E2.28790
G1 X199.288 Y75.041 E2.31121
G1 X199.382 Y74.294 E2.33452
G1 X199.522 Y73.861 E2.34860
G1 X199.716 Y73.451 E2.36264
G1 X200.128 Y72.884 E2.38432
G1 X200.494 Y72.539 E2.39989
G1 X201.090 Y72.161 E2.42171
G1 X201.510 Y71.995 E2.43569
G1 X201.899 Y71.895 E2.44813
G1 X202.300 Y71.844 E2.46061
G1 X202.700 Y71.844 E2.47301
G1 X203.101 Y71.895 E2.48549
G1 X203.490 Y71.995 E2.49792
G1 X203.910 Y72.161 E2.51190
G1 X204.548 Y72.566 E2.53529
G1 X205.063 Y73.116 E2.55860
G1 X205.305 Y73.496 E2.57254
G1 X205.478 Y73.861 E2.58503
G1 X205.618 Y74.293 E2.59911
G1 X205.703 Y74.967 E2.62010
G1 X205.083 Y75.041 F7800.000
G1 F1800.000
G1 X205.006 Y75.652 E2.63916
G1 X204.896 Y75.990 E2.65016
G1 X204.744 Y76.311 E2.66115
G1 X204.401 Y76.783 E2.67921
G1 X204.121 Y77.047 E2.69112
G1 X203.625 Y77.361 E2.70927
G1 X203.296 Y77.492 E2.72022
G1 X202.983 Y77.572 E2.73022
G1 X202.661 Y77.613 E2.74026
G1 X202.339 Y77.613 E2.75023
G1 X202.017 Y77.572 E2.76028
G1 X201.704 Y77.492 E2.77027
G1 X201.375 Y77.361 E2.78123
G1 X200.853 Y77.031 E2.80033
G1 X200.432 Y76.582 E2.81937
G1 X200.243 Y76.284 E2.83030
G1 X200.104 Y75.990 E2.84035
G1 X199.994 Y75.652 E2.85135
G1 X199.917 Y75.041 E2.87040
G1 X199.994 Y74.430 E2.88946
G1 X200.104 Y74.092 E2.90046
G1 X200.256 Y73.771 E2.91145
G1 X200.599 Y73.299 E2.92951
G1 X200.879 Y73.035 E2.94142
G1 X201.375 Y72.721 E2.95957
G1 X201.704 Y72.590 E2.97052
G1 X202.017 Y72.510 E2.98052
G1 X202.339 Y72.469 E2.99056
G1 X202.661 Y72.469 E3.00054
G1 X202.983 Y72.510 E3.01058
G1 X203.296 Y72.590 E3.02058
G1 X203.625 Y72.721 E3.03153
G1 X204.147 Y73.051 E3.05063
G1 X204.568 Y73.500 E3.06968
G1 X204.757 Y73.798 E3.08060
G1 X204.896 Y74.092 E3.09065
G1 X205.006 Y74.430 E3.10165
G1 X205.073 Y74.967 E3.11839
G1 X204.453 Y75.041 F7800.000
G1 F1800.000
G1 X204.393 Y75.515 E3.13318
G1 X204.314 Y75.759 E3.14112
G1 X204.204 Y75.991 E3.14905
G1 X203.930 Y76.369 E3.16349
G1 X203.736 Y76.552 E3.17174
G1 X203.340 Y76.802 E3.18622
G1 X203.102 Y76.896 E3.19414
G1 X202.866 Y76.957 E3.20170
G1 X202.622 Y76.988 E3.20931
G1 X202.378 Y76.988 E3.21685
G1 X202.134 Y76.957 E3.22446
G1 X201.898 Y76.896 E3.23202
G1 X201.660 Y76.802 E3.23994
G1 X201.255 Y76.546 E3.25476
G1 X200.928 Y76.197 E3.26954
G1 X200.791 Y75.981 E3.27745
G1 X200.686 Y75.759 E3.28505
G1 X200.607 Y75.515 E3.29299
G1 X200.547 Y75.041 E3.30778
G1 X200.607 Y74.567 E3.32257
G1 X200.686 Y74.323 E3.33051
G1 X200.796 Y74.091 E3.33844
G1 X201.070 Y73.713 E3.35288
G1 X201.264 Y73.531 E3.36114
G1 X201.660 Y73.280 E3.37562
G1 X201.898 Y73.186 E3.38354
G1 X202.134 Y73.125 E3.39110
G1 X202.378 Y73.094 E3.39870
