; generated by Slic3r 1.3.1-dev (Build (Unknown revision)) on 2020-03-04 at 16:34:15

; external perimeters extrusion width = 0.44mm (2.86mm^3/s)
; perimeters extrusion width = 0.56mm (4.14mm^3/s)
; infill extrusion width = 0.50mm (3.66mm^3/s)
; solid infill extrusion width = 0.56mm (3.10mm^3/s)
; top infill extrusion width = 0.56mm (3.10mm^3/s)

M107
G92 E0
;D3D:START:START
T0
M104 S215 T0

G21
G90
M107
T0
G28
G29
M109 T0 S215 T0
G0 F3000
M107
T0
G92 E0
G0 X0 Y149 Z0.1 F3600
G1 Y49 E6.5 F1200
G0 Z1
G92 E0
; Filament gcode

G21 ; set units to millimeters
G90 ; use absolute coordinates
M82 ; use absolute distances for extrusion
G92 E0
G1 Z0.300 F7800.000
G1 E-2.00000 F2400.00000
G92 E0
G1 X205.267 Y49.491 F7800.000
G1 E2.00000 F2400.00000
G1 F1800.000
G1 X205.364 Y49.195 E2.01032
G1 X205.497 Y48.914 E2.02062
G1 X205.809 Y48.484 E2.03824
G1 X206.051 Y48.256 E2.04924
G1 X206.520 Y47.958 E2.06765
G1 X207.047 Y47.787 E2.08601
G1 X207.356 Y47.748 E2.09633
G1 X207.644 Y47.748 E2.10585
G1 X207.931 Y47.784 E2.11544
G1 X208.210 Y47.856 E2.12498
G1 X208.498 Y47.970 E2.13525
G1 X208.967 Y48.268 E2.15366
G1 X209.346 Y48.672 E2.17202
G1 X209.513 Y48.933 E2.18228
G1 X209.636 Y49.195 E2.19187
G1 X209.733 Y49.491 E2.20219
G1 X209.802 Y50.041 E2.22055
G1 X209.733 Y50.591 E2.23892
G1 X209.636 Y50.887 E2.24924
G1 X209.503 Y51.169 E2.25954
G1 X209.191 Y51.598 E2.27716
G1 X208.949 Y51.826 E2.28816
G1 X208.480 Y52.124 E2.30657
G1 X207.953 Y52.295 E2.32493
G1 X207.644 Y52.334 E2.33525
G1 X207.356 Y52.334 E2.34477
G1 X207.069 Y52.298 E2.35436
G1 X206.790 Y52.226 E2.36390
G1 X206.502 Y52.112 E2.37417
G1 X206.033 Y51.815 E2.39258
G1 X205.654 Y51.410 E2.41094
G1 X205.487 Y51.149 E2.42120
G1 X205.364 Y50.887 E2.43079
G1 X205.267 Y50.591 E2.44111
G1 X205.198 Y50.041 E2.45947
G1 X205.260 Y49.551 E2.47585
G1 X205.528 Y49.549 F7800.000
G1 F1800.000
G1 X205.611 Y49.293 E2.48477
G1 X205.726 Y49.050 E2.49369
G1 X206.009 Y48.660 E2.50965
G1 X206.215 Y48.467 E2.51899
G1 X206.634 Y48.201 E2.53545
G1 X207.106 Y48.047 E2.55188
G1 X207.373 Y48.014 E2.56080
G1 X207.627 Y48.014 E2.56922
G1 X207.881 Y48.046 E2.57770
G1 X208.127 Y48.109 E2.58613
G1 X208.377 Y48.208 E2.59503
G1 X208.797 Y48.474 E2.61149
G1 X209.136 Y48.835 E2.62791
G1 X209.280 Y49.062 E2.63679
G1 X209.389 Y49.293 E2.64526
G1 X209.472 Y49.549 E2.65418
G1 X209.534 Y50.041 E2.67061
G1 X209.472 Y50.533 E2.68704
G1 X209.389 Y50.789 E2.69596
G1 X209.274 Y51.033 E2.70488
G1 X208.991 Y51.422 E2.72084
G1 X208.785 Y51.616 E2.73018
G1 X208.366 Y51.882 E2.74664
G1 X207.894 Y52.035 E2.76307
G1 X207.627 Y52.069 E2.77199
G1 X207.373 Y52.069 E2.78041
G1 X207.119 Y52.037 E2.78889
G1 X206.873 Y51.973 E2.79732
G1 X206.623 Y51.874 E2.80622
G1 X206.203 Y51.608 E2.82268
G1 X205.864 Y51.247 E2.83909
G1 X205.720 Y51.020 E2.84798
G1 X205.611 Y50.789 E2.85645
G1 X205.528 Y50.533 E2.86537
G1 X205.466 Y50.041 E2.88180
G1 X205.520 Y49.609 E2.89624
G1 X205.788 Y49.607 F7800.000
G1 F1800.000
G1 X205.858 Y49.391 E2.90377
G1 X205.955 Y49.186 E2.91129
G1 X206.210 Y48.836 E2.92561
G1 X206.378 Y48.677 E2.93329
G1 X206.748 Y48.443 E2.94780
G1 X207.164 Y48.308 E2.96228
G1 X207.390 Y48.279 E2.96982
G1 X207.610 Y48.279 E2.97713
G1 X207.831 Y48.307 E2.98450
G1 X208.045 Y48.362 E2.99182
G1 X208.256 Y48.446 E2.99934
G1 X208.626 Y48.680 E3.01385
G1 X208.925 Y48.999 E3.02833
G1 X209.047 Y49.190 E3.03584
G1 X209.142 Y49.391 E3.04320
G1 X209.212 Y49.607 E3.05072
G1 X209.266 Y50.041 E3.06521
G1 X209.212 Y50.475 E3.07970
G1 X209.142 Y50.691 E3.08723
G1 X209.045 Y50.896 E3.09475
G1 X208.790 Y51.246 E3.10907
G1 X208.622 Y51.405 E3.11675
G1 X208.252 Y51.639 E3.13126
G1 X207.836 Y51.774 E3.14574
G1 X207.610 Y51.803 E3.15328
G1 X207.390 Y51.803 E3.16059
G1 X207.169 Y51.775 E3.16796
G1 X206.955 Y51.720 E3.17528
G1 X206.744 Y51.636 E3.18280
G1 X206.374 Y51.402 E3.19731
G1 X206.075 Y51.083 E3.21179
G1 X205.953 Y50.892 E3.21930
G1 X205.858 Y50.691 E3.22666
G1 X205.788 Y50.475 E3.23418
G1 X205.734 Y50.041 E3.24867
G1 X205.781 Y49.667 E3.26118
G1 E1.26118 F2400.00000
G92 E0
G1 X199.802 Y50.041 F7800.000
G1 E2.00000 F2400.00000
G1 F1800.000
G1 X199.733 Y50.591 E2.01837
G1 X199.636 Y50.887 E2.02868
G1 X199.503 Y51.169 E2.03899
G1 X199.191 Y51.598 E2.05660
G1 X198.949 Y51.826 E2.06761
G1 X198.480 Y52.124 E2.08601
G1 X197.953 Y52.295 E2.10438
G1 X197.644 Y52.334 E2.11469
G1 X197.356 Y52.334 E2.12421
G1 X197.069 Y52.298 E2.13380
G1 X196.790 Y52.226 E2.14334
G1 X196.502 Y52.112 E2.15362
G1 X196.033 Y51.815 E2.17203
G1 X195.654 Y51.410 E2.19039
G1 X195.487 Y51.149 E2.20065
G1 X195.364 Y50.887 E2.21024
G1 X195.267 Y50.591 E2.22055
G1 X195.198 Y50.041 E2.23892
G1 X195.267 Y49.491 E2.25729
G1 X195.364 Y49.195 E2.26760
G1 X195.497 Y48.914 E2.27791
G1 X195.809 Y48.484 E2.29552
G1 X196.051 Y48.256 E2.30653
G1 X196.520 Y47.958 E2.32493
G1 X197.047 Y47.787 E2.34330
G1 X197.356 Y47.748 E2.35361
G1 X197.644 Y47.748 E2.36313
G1 X197.931 Y47.784 E2.37272
G1 X198.210 Y47.856 E2.38226
G1 X198.498 Y47.970 E2.39254
G1 X198.967 Y48.268 E2.41095
G1 X199.346 Y48.672 E2.42931
G1 X199.513 Y48.933 E2.43957
G1 X199.636 Y49.195 E2.44916
G1 X199.733 Y49.491 E2.45947
G1 X199.794 Y49.982 E2.47585
G1 X199.534 Y50.041 F7800.000
G1 F1800.000
G1 X199.472 Y50.533 E2.49228
G1 X199.389 Y50.789 E2.50120
G1 X199.274 Y51.033 E2.51012
G1 X198.991 Y51.422 E2.52608
G1 X198.785 Y51.616 E2.53542
G1 X198.366 Y51.882 E2.55188
G1 X197.894 Y52.035 E2.56830
G1 X197.627 Y52.069 E2.57723
G1 X197.373 Y52.069 E2.58565
G1 X197.119 Y52.037 E2.59413
G1 X196.873 Y51.973 E2.60256
G1 X196.623 Y51.874 E2.61146
G1 X196.203 Y51.608 E2.62791
G1 X195.864 Y51.247 E2.64433
G1 X195.720 Y51.020 E2.65322
G1 X195.611 Y50.789 E2.66169
G1 X195.528 Y50.533 E2.67061
G1 X195.466 Y50.041 E2.68704
G1 X195.528 Y49.549 E2.70347
G1 X195.611 Y49.293 E2.71239
G1 X195.726 Y49.050 E2.72131
G1 X196.009 Y48.660 E2.73727
G1 X196.215 Y48.467 E2.74661
G1 X196.634 Y48.201 E2.76307
G1 X197.106 Y48.047 E2.77949
G1 X197.373 Y48.014 E2.78842
G1 X197.627 Y48.014 E2.79684
G1 X197.881 Y48.046 E2.80531
G1 X198.127 Y48.109 E2.81375
G1 X198.377 Y48.208 E2.82265
G1 X198.797 Y48.474 E2.83910
G1 X199.136 Y48.835 E2.85552
G1 X199.280 Y49.062 E2.86441
G1 X199.389 Y49.293 E2.87288
G1 X199.472 Y49.549 E2.88180
G1 X199.527 Y49.982 E2.89624
G1 X199.266 Y50.041 F7800.000
G1 F1800.000
G1 X199.212 Y50.475 E2.91073
G1 X199.142 Y50.691 E2.91826
G1 X199.045 Y50.896 E2.92578
G1 X198.790 Y51.246 E2.94010
G1 X198.622 Y51.405 E2.94778
G1 X198.252 Y51.639 E2.96229
G1 X197.836 Y51.774 E2.97677
G1 X197.610 Y51.803 E2.98431
G1 X197.390 Y51.803 E2.99162
G1 X197.169 Y51.775 E2.99899
G1 X196.955 Y51.720 E3.00631
G1 X196.744 Y51.636 E3.01383
G1 X196.374 Y51.402 E3.02834
G1 X196.075 Y51.083 E3.04282
G1 X195.953 Y50.892 E3.05033
G1 X195.858 Y50.691 E3.05769
G1 X195.788 Y50.475 E3.06521
G1 X195.734 Y50.041 E3.07970
G1 X195.788 Y49.607 E3.09419
G1 X195.858 Y49.391 E3.10172
G1 X195.955 Y49.186 E3.10924
G1 X196.210 Y48.836 E3.12356
G1 X196.378 Y48.677 E3.13124
G1 X196.748 Y48.443 E3.14575
G1 X197.164 Y48.308 E3.16023
G1 X197.390 Y48.279 E3.16777
G1 X197.610 Y48.279 E3.17508
G1 X197.831 Y48.307 E3.18245
G1 X198.045 Y48.362 E3.18977
G1 X198.256 Y48.446 E3.19729
G1 X198.626 Y48.680 E3.21180
G1 X198.925 Y48.999 E3.22628
G1 X199.047 Y49.190 E3.23379
G1 X199.142 Y49.391 E3.24115
G1 X199.212 Y49.607 E3.24867
G1 X199.259 Y49.982 E3.26118
G1 E1.26118 F2400.00000
G92 E0
G1 X189.802 Y50.041 F7800.000
G1 E2.00000 F2400.00000
G1 F1800.000
G1 X189.733 Y50.591 E2.01837
G1 X189.636 Y50.887 E2.02868
G1 X189.503 Y51.169 E2.03899
G1 X189.191 Y51.598 E2.05660
G1 X188.949 Y51.826 E2.06761
G1 X188.480 Y52.124 E2.08601
G1 X187.953 Y52.295 E2.10438
G1 X187.644 Y52.334 E2.11469
G1 X187.356 Y52.334 E2.12421
G1 X187.069 Y52.298 E2.13380
G1 X186.790 Y52.226 E2.14334
G1 X186.502 Y52.112 E2.15362
G1 X186.033 Y51.815 E2.17203
G1 X185.654 Y51.410 E2.19039
G1 X185.487 Y51.149 E2.20065
G1 X185.364 Y50.887 E2.21024
G1 X185.267 Y50.591 E2.22055
G1 X185.198 Y50.041 E2.23892
G1 X185.267 Y49.491 E2.25729
G1 X185.364 Y49.195 E2.26760
G1 X185.497 Y48.914 E2.27791
G1 X185.809 Y48.484 E2.29552
G1 X186.051 Y48.256 E2.30653
G1 X186.520 Y47.958 E2.32493
G1 X187.047 Y47.787 E2.34330
G1 X187.356 Y47.748 E2.35361
G1 X187.644 Y47.748 E2.36313
G1 X187.931 Y47.784 E2.37272
G1 X188.210 Y47.856 E2.38226
G1 X188.498 Y47.970 E2.39254
G1 X188.967 Y48.268 E2.41095
G1 X189.346 Y48.672 E2.42931
G1 X189.513 Y48.933 E2.43957
G1 X189.636 Y49.195 E2.44916
G1 X189.733 Y49.491 E2.45947
G1 X189.794 Y49.982 E2.47585
G1 X189.534 Y50.041 F7800.000
G1 F1800.000
G1 X189.472 Y50.533 E2.49228
G1 X189.389 Y50.789 E2.50120
G1 X189.274 Y51.033 E2.51012
G1 X188.991 Y51.422 E2.52608
G1 X188.785 Y51.616 E2.53542
G1 X188.366 Y51.882 E2.55188
G1 X187.894 Y52.035 E2.56830
G1 X187.627 Y52.069 E2.57723
G1 X187.373 Y52.069 E2.58565
G1 X187.119 Y52.037 E2.59413
G1 X186.873 Y51.973 E2.60256
G1 X186.623 Y51.874 E2.61146
G1 X186.203 Y51.608 E2.62791
G1 X185.864 Y51.247 E2.64433
G1 X185.720 Y51.020 E2.65322
G1 X185.611 Y50.789 E2.66169
G1 X185.528 Y50.533 E2.67061
G1 X185.466 Y50.041 E2.68704
G1 X185.528 Y49.549 E2.70347
G1 X185.611 Y49.293 E2.71239
G1 X185.726 Y49.050 E2.72131
G1 X186.009 Y48.660 E2.73727
G1 X186.215 Y48.467 E2.74661
G1 X186.634 Y48.201 E2.76307
G1 X187.106 Y48.047 E2.77949
G1 X187.373 Y48.014 E2.78842
G1 X187.627 Y48.014 E2.79684
G1 X187.881 Y48.046 E2.80531
G1 X188.127 Y48.109 E2.81375
G1 X188.377 Y48.208 E2.82265
G1 X188.797 Y48.474 E2.83910
G1 X189.136 Y48.835 E2.85552
G1 X189.280 Y49.062 E2.86441
G1 X189.389 Y49.293 E2.87288
G1 X189.472 Y49.549 E2.88180
G1 X189.527 Y49.982 E2.89624
G1 X189.266 Y50.041 F7800.000
G1 F1800.000
G1 X189.212 Y50.475 E2.91073
G1 X189.142 Y50.691 E2.91826
G1 X189.045 Y50.896 E2.92578
G1 X188.790 Y51.246 E2.94010
G1 X188.622 Y51.405 E2.94778
G1 X188.252 Y51.639 E2.96229
G1 X187.836 Y51.774 E2.97677
G1 X187.610 Y51.803 E2.98431
G1 X187.390 Y51.803 E2.99162
G1 X187.169 Y51.775 E2.99899
G1 X186.955 Y51.720 E3.00631
G1 X186.744 Y51.636 E3.01383
G1 X186.374 Y51.402 E3.02834
G1 X186.075 Y51.083 E3.04282
G1 X185.953 Y50.892 E3.05033
G1 X185.858 Y50.691 E3.05769
G1 X185.788 Y50.475 E3.06521
G1 X185.734 Y50.041 E3.07970
G1 X185.788 Y49.607 E3.09419
G1 X185.858 Y49.391 E3.10172
G1 X185.955 Y49.186 E3.10924
G1 X186.210 Y48.836 E3.12356
G1 X186.378 Y48.677 E3.13124
G1 X186.748 Y48.443 E3.14575
G1 X187.164 Y48.308 E3.16023
G1 X187.390 Y48.279 E3.16777
G1 X187.610 Y48.279 E3.17508
G1 X187.831 Y48.307 E3.18245
G1 X188.045 Y48.362 E3.18977
G1 X188.256 Y48.446 E3.19729
G1 X188.626 Y48.680 E3.21180
G1 X188.925 Y48.999 E3.22628
G1 X189.047 Y49.190 E3.23379
G1 X189.142 Y49.391 E3.24115
G1 X189.212 Y49.607 E3.24867
G1 X189.259 Y49.982 E3.26118
G1 E1.26118 F2400.00000
G92 E0
G1 X179.802 Y50.041 F7800.000
G1 E2.00000 F2400.00000
G1 F1800.000
G1 X179.733 Y50.591 E2.01837
G1 X179.636 Y50.887 E2.02869
G1 X179.503 Y51.169 E2.03899
G1 X179.191 Y51.598 E2.05660
G1 X178.949 Y51.826 E2.06761
G1 X178.498 Y52.112 E2.08529
G1 X178.210 Y52.226 E2.09557
G1 X177.931 Y52.298 E2.10511
G1 X177.644 Y52.334 E2.11470
G1 X177.356 Y52.334 E2.12422
G1 X177.069 Y52.298 E2.13380
G1 X176.790 Y52.226 E2.14335
G1 X176.502 Y52.112 E2.15363
G1 X176.032 Y51.815 E2.17203
G1 X175.654 Y51.410 E2.19039
G1 X175.487 Y51.149 E2.20065
G1 X175.364 Y50.887 E2.21024
G1 X175.267 Y50.591 E2.22056
G1 X175.198 Y50.041 E2.23892
G1 X175.267 Y49.491 E2.25729
G1 X175.364 Y49.195 E2.26761
G1 X175.497 Y48.914 E2.27791
G1 X175.809 Y48.484 E2.29552
G1 X176.051 Y48.256 E2.30653
G1 X176.502 Y47.970 E2.32421
G1 X176.790 Y47.856 E2.33449
G1 X177.069 Y47.784 E2.34403
G1 X177.356 Y47.748 E2.35362
G1 X177.644 Y47.748 E2.36314
G1 X177.931 Y47.784 E2.37273
G1 X178.210 Y47.856 E2.38227
G1 X178.498 Y47.970 E2.39255
G1 X178.968 Y48.268 E2.41096
G1 X179.346 Y48.672 E2.42931
G1 X179.513 Y48.933 E2.43957
G1 X179.636 Y49.195 E2.44916
G1 X179.733 Y49.491 E2.45948
G1 X179.794 Y49.982 E2.47586
G1 X179.534 Y50.041 F7800.000
G1 F1800.000
G1 X179.472 Y50.533 E2.49229
G1 X179.389 Y50.789 E2.50121
G1 X179.274 Y51.033 E2.51012
G1 X178.991 Y51.422 E2.52609
G1 X178.785 Y51.616 E2.53543
G1 X178.377 Y51.874 E2.55144
G1 X178.127 Y51.973 E2.56034
G1 X177.881 Y52.037 E2.56877
G1 X177.627 Y52.069 E2.57725
G1 X177.373 Y52.069 E2.58566
G1 X177.119 Y52.037 E2.59414
G1 X176.873 Y51.973 E2.60258
G1 X176.623 Y51.874 E2.61147
G1 X176.203 Y51.608 E2.62793
G1 X175.864 Y51.247 E2.64435
G1 X175.720 Y51.020 E2.65324
G1 X175.611 Y50.789 E2.66171
G1 X175.528 Y50.533 E2.67063
G1 X175.466 Y50.041 E2.68706
G1 X175.528 Y49.549 E2.70349
G1 X175.611 Y49.293 E2.71241
G1 X175.726 Y49.050 E2.72133
G1 X176.009 Y48.660 E2.73729
G1 X176.215 Y48.467 E2.74663
G1 X176.623 Y48.208 E2.76264
G1 X176.873 Y48.109 E2.77154
G1 X177.119 Y48.046 E2.77997
G1 X177.373 Y48.014 E2.78845
G1 X177.627 Y48.014 E2.79686
G1 X177.881 Y48.046 E2.80534
G1 X178.127 Y48.109 E2.81378
G1 X178.377 Y48.208 E2.82268
G1 X178.797 Y48.474 E2.83913
G1 X179.136 Y48.835 E2.85555
G1 X179.280 Y49.062 E2.86444
G1 X179.389 Y49.293 E2.87291
G1 X179.472 Y49.549 E2.88183
G1 X179.527 Y49.982 E2.89627
G1 X179.266 Y50.041 F7800.000
G1 F1800.000
G1 X179.212 Y50.475 E2.91076
G1 X179.142 Y50.691 E2.91829
G1 X179.045 Y50.896 E2.92581
G1 X178.790 Y51.246 E2.94013
G1 X178.622 Y51.405 E2.94781
G1 X178.256 Y51.636 E2.96214
G1 X178.045 Y51.720 E2.96966
G1 X177.831 Y51.775 E2.97699
G1 X177.610 Y51.803 E2.98436
G1 X177.390 Y51.803 E2.99167
G1 X177.169 Y51.775 E2.99904
G1 X176.955 Y51.720 E3.00636
G1 X176.744 Y51.636 E3.01388
G1 X176.374 Y51.402 E3.02839
G1 X176.075 Y51.083 E3.04287
G1 X175.953 Y50.892 E3.05038
G1 X175.858 Y50.691 E3.05774
G1 X175.788 Y50.475 E3.06526
G1 X175.734 Y50.041 E3.07975
G1 X175.788 Y49.607 E3.09424
G1 X175.858 Y49.391 E3.10177
G1 X175.955 Y49.186 E3.10929
G1 X176.210 Y48.836 E3.12361
G1 X176.378 Y48.677 E3.13129
G1 X176.744 Y48.446 E3.14562
G1 X176.955 Y48.362 E3.15314
G1 X177.169 Y48.307 E3.16047
G1 X177.390 Y48.279 E3.16784
G1 X177.610 Y48.279 E3.17515
G1 X177.831 Y48.307 E3.18252
G1 X178.045 Y48.362 E3.18984
G1 X178.256 Y48.446 E3.19736
G1 X178.626 Y48.680 E3.21187
G1 X178.925 Y48.999 E3.22635
G1 X179.047 Y49.190 E3.23386
G1 X179.142 Y49.391 E3.24122
G1 X179.212 Y49.607 E3.24874
G1 X179.259 Y49.982 E3.26125
G1 E1.26125 F2400.00000
G92 E0
G1 X169.802 Y50.041 F7800.000
G1 E2.00000 F2400.00000
G1 F1800.000
G1 X169.733 Y50.591 E2.01837
G1 X169.636 Y50.887 E2.02869
G1 X169.503 Y51.169 E2.03899
G1 X169.191 Y51.598 E2.05660
G1 X168.949 Y51.826 E2.06761
G1 X168.480 Y52.124 E2.08601
G1 X167.953 Y52.295 E2.10438
G1 X167.644 Y52.334 E2.11469
G1 X167.356 Y52.334 E2.12421
G1 X167.069 Y52.298 E2.13380
G1 X166.790 Y52.226 E2.14334
G1 X166.502 Y52.112 E2.15362
G1 X166.032 Y51.815 E2.17203
G1 X165.654 Y51.410 E2.19039
G1 X165.487 Y51.149 E2.20065
G1 X165.364 Y50.887 E2.21023
G1 X165.267 Y50.591 E2.22055
G1 X165.198 Y50.041 E2.23892
G1 X165.267 Y49.491 E2.25729
G1 X165.364 Y49.195 E2.26761
G1 X165.497 Y48.914 E2.27791
G1 X165.809 Y48.484 E2.29552
G1 X166.051 Y48.256 E2.30653
G1 X166.520 Y47.958 E2.32493
G1 X167.047 Y47.787 E2.34330
G1 X167.356 Y47.748 E2.35361
G1 X167.644 Y47.748 E2.36313
G1 X167.931 Y47.784 E2.37272
G1 X168.210 Y47.856 E2.38226
G1 X168.498 Y47.970 E2.39254
G1 X168.968 Y48.268 E2.41095
G1 X169.346 Y48.672 E2.42931
G1 X169.513 Y48.933 E2.43957
G1 X169.636 Y49.195 E2.44915
G1 X169.733 Y49.491 E2.45947
G1 X169.794 Y49.982 E2.47585
G1 X169.534 Y50.041 F7800.000
G1 F1800.000
G1 X169.472 Y50.533 E2.49228
G1 X169.389 Y50.789 E2.50120
G1 X169.274 Y51.033 E2.51012
G1 X168.991 Y51.422 E2.52608
G1 X168.785 Y51.616 E2.53542
G1 X168.366 Y51.882 E2.55188
G1 X167.894 Y52.035 E2.56830
G1 X167.627 Y52.069 E2.57723
G1 X167.373 Y52.069 E2.58565
G1 X167.119 Y52.037 E2.59412
G1 X166.873 Y51.973 E2.60256
G1 X166.623 Y51.874 E2.61146
G1 X166.203 Y51.608 E2.62791
G1 X165.864 Y51.247 E2.64433
G1 X165.720 Y51.020 E2.65322
G1 X165.611 Y50.789 E2.66169
G1 X165.528 Y50.533 E2.67061
G1 X165.466 Y50.041 E2.68704
G1 X165.528 Y49.549 E2.70347
G1 X165.611 Y49.293 E2.71239
G1 X165.726 Y49.050 E2.72131
G1 X166.009 Y48.660 E2.73727
G1 X166.215 Y48.467 E2.74661
G1 X166.634 Y48.201 E2.76307
