<<<<<<< HEAD
; generated by Slic3r 1.3.1-dev (Build 54a31ee) on 2020-03-17 at 10:35:20
=======
; generated by Slic3r 1.3.0 on 2020-03-10 at 21:33:45
>>>>>>> 0893c9c203ed557a00dbf82e1c1cb52662de293e

; external perimeters extrusion width = 0.44mm (2.86mm^3/s)
; perimeters extrusion width = 0.56mm (4.14mm^3/s)
; infill extrusion width = 0.50mm (3.66mm^3/s)
; solid infill extrusion width = 0.56mm (3.10mm^3/s)
; top infill extrusion width = 0.56mm (3.10mm^3/s)

M107
;D3D:START:START
T0
M104 S215 T0

G21
G90
M107
T0
G28
G29
M109 T0 S215 T0
G0 F3000
M107
T0
G92 E0
G0 X0 Y149 Z0.1 F3600
G1 Y49 E6.5 F1200
G0 Z1
G92 E0
; Filament gcode

G21 ; set units to millimeters
G90 ; use absolute coordinates
M82 ; use absolute distances for extrusion
G92 E0
<<<<<<< HEAD
G1 Z0.200 F6000.000
G1 E-2.00000 F1200.00000
G92 E0
G1 Z0.700 F6000.000
G1 X-68.349 Y68.490 F6000.000
G1 Z0.200 F6000.000
G1 E2.00000 F1200.00000
G1 F1800.000
G1 X-68.167 Y68.709 E2.00608
G1 X-68.015 Y68.950 E2.01217
G1 X-67.894 Y69.207 E2.01825
G1 X-67.806 Y69.478 E2.02433
G1 X-67.752 Y69.757 E2.03041
G1 X-67.735 Y70.041 E2.03649
G1 X-67.752 Y70.325 E2.04257
G1 X-67.806 Y70.605 E2.04866
G1 X-67.894 Y70.875 E2.05473
G1 X-68.015 Y71.132 E2.06082
G1 X-68.167 Y71.373 E2.06690
G1 X-68.349 Y71.592 E2.07298
G1 X-68.556 Y71.787 E2.07906
G1 X-68.786 Y71.954 E2.08514
G1 X-69.035 Y72.091 E2.09122
G1 X-69.300 Y72.196 E2.09730
G1 X-69.576 Y72.266 E2.10339
G1 X-69.858 Y72.302 E2.10947
G1 X-70.142 Y72.302 E2.11555
G1 X-70.424 Y72.266 E2.12163
G1 X-70.700 Y72.196 E2.12772
G1 X-70.965 Y72.091 E2.13380
G1 X-71.214 Y71.954 E2.13988
G1 X-71.444 Y71.787 E2.14596
G1 X-71.651 Y71.592 E2.15204
G1 X-71.833 Y71.373 E2.15812
G1 X-71.985 Y71.132 E2.16420
G1 X-72.106 Y70.875 E2.17028
G1 X-72.194 Y70.604 E2.17637
G1 X-72.248 Y70.325 E2.18245
G1 X-72.265 Y70.041 E2.18853
G1 X-72.248 Y69.757 E2.19461
G1 X-72.194 Y69.478 E2.20069
G1 X-72.106 Y69.207 E2.20677
G1 X-71.985 Y68.950 E2.21285
G1 X-71.833 Y68.709 E2.21894
G1 X-71.651 Y68.490 E2.22502
G1 X-71.444 Y68.295 E2.23110
G1 X-71.214 Y68.128 E2.23718
G1 X-70.965 Y67.991 E2.24326
G1 X-70.700 Y67.886 E2.24934
G1 X-70.424 Y67.816 E2.25543
G1 X-70.142 Y67.780 E2.26151
G1 X-69.858 Y67.780 E2.26759
G1 X-69.576 Y67.816 E2.27367
G1 X-69.300 Y67.886 E2.27975
G1 X-69.035 Y67.991 E2.28583
G1 X-68.786 Y68.128 E2.29191
G1 X-68.556 Y68.295 E2.29800
G1 X-68.392 Y68.449 E2.30279
G1 X-68.536 Y68.667 F6000.000
G1 F1800.000
G1 X-68.376 Y68.861 E2.30818
G1 X-68.240 Y69.074 E2.31358
G1 X-68.133 Y69.302 E2.31897
G1 X-68.055 Y69.542 E2.32435
G1 X-68.008 Y69.789 E2.32975
G1 X-67.992 Y70.041 E2.33514
G1 X-68.008 Y70.293 E2.34053
G1 X-68.055 Y70.540 E2.34592
G1 X-68.133 Y70.780 E2.35131
G1 X-68.240 Y71.008 E2.35669
G1 X-68.376 Y71.221 E2.36209
G1 X-68.536 Y71.416 E2.36748
G1 X-68.720 Y71.588 E2.37287
G1 X-68.924 Y71.736 E2.37826
G1 X-69.145 Y71.858 E2.38365
G1 X-69.379 Y71.951 E2.38904
G1 X-69.624 Y72.013 E2.39443
G1 X-69.874 Y72.045 E2.39982
G1 X-70.126 Y72.045 E2.40520
G1 X-70.376 Y72.013 E2.41059
G1 X-70.621 Y71.951 E2.41599
G1 X-70.855 Y71.858 E2.42138
G1 X-71.076 Y71.736 E2.42677
G1 X-71.280 Y71.588 E2.43216
G1 X-71.464 Y71.416 E2.43755
G1 X-71.624 Y71.221 E2.44294
G1 X-71.760 Y71.008 E2.44833
G1 X-71.867 Y70.780 E2.45372
G1 X-71.945 Y70.540 E2.45911
G1 X-71.992 Y70.293 E2.46450
G1 X-72.008 Y70.041 E2.46989
G1 X-71.992 Y69.789 E2.47528
G1 X-71.945 Y69.542 E2.48067
G1 X-71.867 Y69.302 E2.48606
G1 X-71.760 Y69.074 E2.49145
G1 X-71.624 Y68.861 E2.49684
G1 X-71.464 Y68.667 E2.50223
G1 X-71.280 Y68.494 E2.50762
G1 X-71.076 Y68.346 E2.51301
G1 X-70.855 Y68.224 E2.51840
G1 X-70.621 Y68.131 E2.52379
G1 X-70.376 Y68.069 E2.52918
G1 X-70.126 Y68.037 E2.53457
G1 X-69.874 Y68.037 E2.53996
G1 X-69.624 Y68.069 E2.54535
G1 X-69.379 Y68.131 E2.55074
G1 X-69.145 Y68.224 E2.55613
G1 X-68.924 Y68.346 E2.56152
G1 X-68.720 Y68.494 E2.56691
G1 X-68.580 Y68.625 E2.57101
G1 X-68.724 Y68.843 F6000.000
G1 F1800.000
G1 X-68.584 Y69.012 E2.57571
G1 X-68.466 Y69.198 E2.58041
G1 X-68.373 Y69.397 E2.58511
G1 X-68.305 Y69.606 E2.58981
G1 X-68.263 Y69.822 E2.59451
G1 X-68.250 Y70.041 E2.59921
G1 X-68.263 Y70.260 E2.60390
G1 X-68.305 Y70.476 E2.60860
G1 X-68.373 Y70.685 E2.61330
G1 X-68.466 Y70.884 E2.61800
G1 X-68.584 Y71.070 E2.62270
G1 X-68.724 Y71.239 E2.62740
G1 X-68.884 Y71.390 E2.63210
G1 X-69.062 Y71.519 E2.63680
G1 X-69.255 Y71.625 E2.64149
G1 X-69.459 Y71.706 E2.64619
G1 X-69.672 Y71.760 E2.65089
G1 X-69.890 Y71.788 E2.65559
G1 X-70.110 Y71.788 E2.66029
G1 X-70.328 Y71.760 E2.66499
G1 X-70.541 Y71.706 E2.66969
G1 X-70.745 Y71.625 E2.67438
G1 X-70.938 Y71.519 E2.67908
G1 X-71.116 Y71.390 E2.68378
G1 X-71.276 Y71.239 E2.68848
G1 X-71.416 Y71.070 E2.69318
G1 X-71.534 Y70.884 E2.69788
G1 X-71.627 Y70.685 E2.70258
G1 X-71.695 Y70.476 E2.70727
G1 X-71.736 Y70.260 E2.71197
G1 X-71.750 Y70.041 E2.71667
G1 X-71.736 Y69.822 E2.72137
G1 X-71.695 Y69.606 E2.72607
G1 X-71.627 Y69.397 E2.73077
G1 X-71.534 Y69.198 E2.73546
G1 X-71.416 Y69.012 E2.74016
G1 X-71.276 Y68.843 E2.74486
G1 X-71.116 Y68.692 E2.74956
G1 X-70.938 Y68.563 E2.75426
G1 X-70.745 Y68.457 E2.75896
G1 X-70.541 Y68.376 E2.76366
G1 X-70.328 Y68.322 E2.76836
G1 X-70.110 Y68.294 E2.77305
G1 X-69.890 Y68.294 E2.77775
G1 X-69.672 Y68.322 E2.78245
G1 X-69.459 Y68.376 E2.78715
G1 X-69.255 Y68.457 E2.79185
G1 X-69.062 Y68.563 E2.79655
G1 X-68.768 Y68.802 E2.80464
G1 E0.80464 F1200.00000
G92 E0
G1 Z0.700 F6000.000
G1 X-69.858 Y52.302 F6000.000
G1 Z0.200 F6000.000
G1 E2.00000 F1200.00000
G1 F1800.000
G1 X-70.142 Y52.302 E2.00608
G1 X-70.425 Y52.266 E2.01216
G1 X-70.700 Y52.196 E2.01825
G1 X-70.965 Y52.091 E2.02433
G1 X-71.214 Y51.954 E2.03041
G1 X-71.444 Y51.787 E2.03649
G1 X-71.651 Y51.592 E2.04257
G1 X-71.833 Y51.373 E2.04865
G1 X-71.985 Y51.132 E2.05473
G1 X-72.106 Y50.875 E2.06082
G1 X-72.194 Y50.604 E2.06690
G1 X-72.248 Y50.325 E2.07298
G1 X-72.265 Y50.041 E2.07906
G1 X-72.248 Y49.757 E2.08514
G1 X-72.194 Y49.478 E2.09122
G1 X-72.106 Y49.207 E2.09731
G1 X-71.985 Y48.950 E2.10339
G1 X-71.833 Y48.709 E2.10947
G1 X-71.651 Y48.490 E2.11555
G1 X-71.444 Y48.295 E2.12163
G1 X-71.214 Y48.128 E2.12771
G1 X-70.965 Y47.991 E2.13379
G1 X-70.700 Y47.886 E2.13988
G1 X-70.425 Y47.816 E2.14596
G1 X-70.142 Y47.780 E2.15204
G1 X-69.858 Y47.780 E2.15812
G1 X-69.575 Y47.816 E2.16420
G1 X-69.300 Y47.886 E2.17028
G1 X-69.035 Y47.991 E2.17636
G1 X-68.786 Y48.128 E2.18245
G1 X-68.556 Y48.296 E2.18853
G1 X-68.349 Y48.490 E2.19461
G1 X-68.167 Y48.709 E2.20069
G1 X-68.015 Y48.950 E2.20677
G1 X-67.894 Y49.207 E2.21286
G1 X-67.806 Y49.478 E2.21893
G1 X-67.752 Y49.757 E2.22502
G1 X-67.735 Y50.041 E2.23110
G1 X-67.752 Y50.325 E2.23718
G1 X-67.806 Y50.605 E2.24326
G1 X-67.894 Y50.875 E2.24934
G1 X-68.015 Y51.132 E2.25542
G1 X-68.167 Y51.373 E2.26151
G1 X-68.349 Y51.592 E2.26759
G1 X-68.556 Y51.787 E2.27367
G1 X-68.786 Y51.954 E2.27975
G1 X-69.035 Y52.091 E2.28583
G1 X-69.300 Y52.196 E2.29191
G1 X-69.575 Y52.266 E2.29800
G1 X-69.798 Y52.295 E2.30279
G1 X-69.874 Y52.045 F6000.000
G1 F1800.000
G1 X-70.126 Y52.045 E2.30818
G1 X-70.376 Y52.013 E2.31357
G1 X-70.620 Y51.951 E2.31897
G1 X-70.855 Y51.858 E2.32436
G1 X-71.076 Y51.736 E2.32975
G1 X-71.280 Y51.588 E2.33514
G1 X-71.464 Y51.416 E2.34053
G1 X-71.624 Y51.221 E2.34592
G1 X-71.760 Y51.008 E2.35131
G1 X-71.867 Y50.780 E2.35670
G1 X-71.945 Y50.540 E2.36209
G1 X-71.992 Y50.293 E2.36748
G1 X-72.008 Y50.041 E2.37287
G1 X-71.992 Y49.789 E2.37826
G1 X-71.945 Y49.542 E2.38365
G1 X-71.867 Y49.302 E2.38904
G1 X-71.760 Y49.074 E2.39443
G1 X-71.624 Y48.861 E2.39982
G1 X-71.464 Y48.667 E2.40521
G1 X-71.280 Y48.494 E2.41060
G1 X-71.076 Y48.346 E2.41599
G1 X-70.855 Y48.224 E2.42138
G1 X-70.620 Y48.131 E2.42677
G1 X-70.376 Y48.069 E2.43216
G1 X-70.126 Y48.037 E2.43755
G1 X-69.874 Y48.037 E2.44294
G1 X-69.624 Y48.069 E2.44833
G1 X-69.380 Y48.131 E2.45372
G1 X-69.145 Y48.224 E2.45911
G1 X-68.924 Y48.346 E2.46450
G1 X-68.720 Y48.494 E2.46989
G1 X-68.536 Y48.667 E2.47528
G1 X-68.376 Y48.861 E2.48067
G1 X-68.240 Y49.074 E2.48606
G1 X-68.133 Y49.302 E2.49145
G1 X-68.055 Y49.542 E2.49684
G1 X-68.008 Y49.789 E2.50223
G1 X-67.992 Y50.041 E2.50762
G1 X-68.008 Y50.293 E2.51301
G1 X-68.055 Y50.540 E2.51840
G1 X-68.133 Y50.780 E2.52379
G1 X-68.240 Y51.008 E2.52918
G1 X-68.376 Y51.221 E2.53457
G1 X-68.536 Y51.416 E2.53996
G1 X-68.720 Y51.588 E2.54535
G1 X-68.924 Y51.736 E2.55074
G1 X-69.145 Y51.858 E2.55613
G1 X-69.380 Y51.951 E2.56152
G1 X-69.624 Y52.013 E2.56691
G1 X-69.814 Y52.037 E2.57101
G1 X-69.890 Y51.788 F6000.000
G1 F1800.000
G1 X-70.110 Y51.788 E2.57571
G1 X-70.328 Y51.760 E2.58041
G1 X-70.541 Y51.706 E2.58511
G1 X-70.745 Y51.625 E2.58981
G1 X-70.938 Y51.519 E2.59451
G1 X-71.116 Y51.390 E2.59921
G1 X-71.276 Y51.239 E2.60391
G1 X-71.416 Y51.070 E2.60860
G1 X-71.534 Y50.884 E2.61330
G1 X-71.627 Y50.685 E2.61800
G1 X-71.695 Y50.476 E2.62270
G1 X-71.736 Y50.260 E2.62740
G1 X-71.750 Y50.041 E2.63210
G1 X-71.736 Y49.822 E2.63680
G1 X-71.695 Y49.606 E2.64149
G1 X-71.627 Y49.397 E2.64619
G1 X-71.534 Y49.198 E2.65089
G1 X-71.416 Y49.012 E2.65559
G1 X-71.276 Y48.843 E2.66029
G1 X-71.116 Y48.692 E2.66499
G1 X-70.938 Y48.563 E2.66969
G1 X-70.745 Y48.457 E2.67438
G1 X-70.541 Y48.376 E2.67908
G1 X-70.328 Y48.322 E2.68378
G1 X-70.110 Y48.294 E2.68848
G1 X-69.890 Y48.294 E2.69318
G1 X-69.672 Y48.322 E2.69788
G1 X-69.459 Y48.376 E2.70257
G1 X-69.255 Y48.457 E2.70727
G1 X-69.062 Y48.563 E2.71197
G1 X-68.884 Y48.692 E2.71667
G1 X-68.724 Y48.843 E2.72137
G1 X-68.584 Y49.012 E2.72607
G1 X-68.466 Y49.198 E2.73077
G1 X-68.373 Y49.397 E2.73547
G1 X-68.305 Y49.606 E2.74016
G1 X-68.263 Y49.822 E2.74486
G1 X-68.250 Y50.041 E2.74956
G1 X-68.263 Y50.260 E2.75426
G1 X-68.305 Y50.476 E2.75896
G1 X-68.373 Y50.685 E2.76366
G1 X-68.466 Y50.884 E2.76835
G1 X-68.584 Y51.070 E2.77305
G1 X-68.724 Y51.239 E2.77775
G1 X-68.884 Y51.390 E2.78245
G1 X-69.062 Y51.519 E2.78715
G1 X-69.255 Y51.625 E2.79185
G1 X-69.459 Y51.706 E2.79655
G1 X-69.831 Y51.780 E2.80464
G1 E0.80464 F1200.00000
G92 E0
G1 Z0.700 F6000.000
G1 X-62.248 Y50.325 F6000.000
G1 Z0.200 F6000.000
G1 E2.00000 F1200.00000
G1 F1800.000
G1 X-62.265 Y50.041 E2.00608
G1 X-62.248 Y49.757 E2.01217
G1 X-62.194 Y49.478 E2.01825
G1 X-62.106 Y49.207 E2.02433
G1 X-61.985 Y48.950 E2.03041
G1 X-61.833 Y48.709 E2.03649
G1 X-61.652 Y48.490 E2.04257
G1 X-61.444 Y48.295 E2.04865
G1 X-61.214 Y48.128 E2.05474
G1 X-60.965 Y47.991 E2.06082
G1 X-60.700 Y47.886 E2.06690
G1 X-60.425 Y47.816 E2.07298
G1 X-60.142 Y47.780 E2.07906
G1 X-59.858 Y47.780 E2.08514
G1 X-59.575 Y47.816 E2.09122
G1 X-59.300 Y47.886 E2.09731
G1 X-59.035 Y47.991 E2.10339
G1 X-58.786 Y48.128 E2.10947
G1 X-58.556 Y48.296 E2.11555
G1 X-58.349 Y48.490 E2.12163
G1 X-58.167 Y48.709 E2.12771
G1 X-58.015 Y48.950 E2.13380
G1 X-57.894 Y49.207 E2.13988
G1 X-57.806 Y49.478 E2.14596
G1 X-57.752 Y49.757 E2.15204
G1 X-57.735 Y50.041 E2.15812
G1 X-57.752 Y50.325 E2.16420
G1 X-57.806 Y50.605 E2.17029
G1 X-57.894 Y50.875 E2.17636
G1 X-58.015 Y51.132 E2.18245
G1 X-58.167 Y51.373 E2.18853
G1 X-58.349 Y51.592 E2.19461
G1 X-58.556 Y51.787 E2.20069
G1 X-58.786 Y51.954 E2.20677
G1 X-59.035 Y52.091 E2.21286
G1 X-59.300 Y52.196 E2.21894
G1 X-59.575 Y52.266 E2.22502
G1 X-59.858 Y52.302 E2.23110
G1 X-60.142 Y52.302 E2.23718
G1 X-60.425 Y52.266 E2.24326
G1 X-60.700 Y52.196 E2.24934
G1 X-60.965 Y52.091 E2.25542
G1 X-61.214 Y51.954 E2.26150
G1 X-61.444 Y51.787 E2.26759
G1 X-61.652 Y51.592 E2.27367
G1 X-61.833 Y51.373 E2.27975
G1 X-61.985 Y51.132 E2.28583
G1 X-62.106 Y50.875 E2.29192
G1 X-62.194 Y50.605 E2.29799
G1 X-62.236 Y50.384 E2.30279
G1 X-61.992 Y50.293 F6000.000
G1 F1800.000
G1 X-62.008 Y50.041 E2.30818
G1 X-61.992 Y49.789 E2.31358
G1 X-61.945 Y49.542 E2.31897
G1 X-61.867 Y49.302 E2.32435
G1 X-61.760 Y49.074 E2.32974
G1 X-61.624 Y48.861 E2.33513
G1 X-61.464 Y48.667 E2.34052
G1 X-61.280 Y48.494 E2.34592
G1 X-61.076 Y48.346 E2.35131
G1 X-60.855 Y48.224 E2.35670
G1 X-60.620 Y48.131 E2.36209
G1 X-60.376 Y48.069 E2.36748
G1 X-60.126 Y48.037 E2.37286
G1 X-59.874 Y48.037 E2.37826
G1 X-59.624 Y48.069 E2.38365
G1 X-59.380 Y48.131 E2.38904
G1 X-59.145 Y48.224 E2.39442
G1 X-58.924 Y48.346 E2.39981
G1 X-58.720 Y48.494 E2.40521
G1 X-58.536 Y48.667 E2.41060
G1 X-58.376 Y48.861 E2.41598
G1 X-58.240 Y49.074 E2.42138
G1 X-58.133 Y49.302 E2.42677
G1 X-58.055 Y49.542 E2.43215
G1 X-58.008 Y49.789 E2.43754
G1 X-57.992 Y50.041 E2.44294
G1 X-58.008 Y50.293 E2.44833
G1 X-58.055 Y50.540 E2.45372
G1 X-58.133 Y50.780 E2.45911
G1 X-58.240 Y51.008 E2.46450
G1 X-58.376 Y51.221 E2.46989
G1 X-58.536 Y51.416 E2.47528
G1 X-58.720 Y51.588 E2.48067
G1 X-58.924 Y51.736 E2.48606
G1 X-59.145 Y51.858 E2.49145
G1 X-59.380 Y51.951 E2.49684
G1 X-59.624 Y52.013 E2.50223
G1 X-59.874 Y52.045 E2.50762
G1 X-60.126 Y52.045 E2.51301
G1 X-60.376 Y52.013 E2.51840
G1 X-60.620 Y51.951 E2.52379
G1 X-60.855 Y51.858 E2.52918
G1 X-61.076 Y51.736 E2.53457
G1 X-61.280 Y51.588 E2.53996
G1 X-61.464 Y51.416 E2.54535
G1 X-61.624 Y51.221 E2.55074
G1 X-61.760 Y51.008 E2.55613
G1 X-61.867 Y50.780 E2.56152
G1 X-61.945 Y50.540 E2.56691
G1 X-61.981 Y50.352 E2.57101
G1 X-61.737 Y50.260 F6000.000
G1 F1800.000
G1 X-61.750 Y50.041 E2.57571
G1 X-61.737 Y49.822 E2.58041
G1 X-61.695 Y49.606 E2.58511
G1 X-61.627 Y49.397 E2.58981
G1 X-61.534 Y49.198 E2.59451
G1 X-61.416 Y49.012 E2.59921
G1 X-61.276 Y48.843 E2.60390
G1 X-61.116 Y48.692 E2.60860
G1 X-60.938 Y48.563 E2.61330
G1 X-60.745 Y48.457 E2.61800
G1 X-60.541 Y48.376 E2.62270
G1 X-60.328 Y48.322 E2.62740
G1 X-60.110 Y48.294 E2.63209
G1 X-59.890 Y48.294 E2.63679
G1 X-59.672 Y48.322 E2.64149
G1 X-59.459 Y48.376 E2.64619
G1 X-59.255 Y48.457 E2.65089
G1 X-59.062 Y48.563 E2.65559
G1 X-58.884 Y48.692 E2.66029
G1 X-58.724 Y48.843 E2.66498
G1 X-58.584 Y49.012 E2.66968
G1 X-58.466 Y49.198 E2.67438
G1 X-58.373 Y49.397 E2.67908
G1 X-58.305 Y49.606 E2.68378
G1 X-58.263 Y49.822 E2.68848
G1 X-58.250 Y50.041 E2.69318
G1 X-58.263 Y50.260 E2.69788
G1 X-58.305 Y50.476 E2.70257
G1 X-58.373 Y50.685 E2.70727
G1 X-58.466 Y50.884 E2.71197
G1 X-58.584 Y51.070 E2.71667
G1 X-58.724 Y51.239 E2.72137
G1 X-58.884 Y51.390 E2.72607
G1 X-59.062 Y51.519 E2.73077
G1 X-59.255 Y51.625 E2.73546
G1 X-59.459 Y51.706 E2.74016
G1 X-59.672 Y51.760 E2.74486
G1 X-59.890 Y51.788 E2.74956
G1 X-60.110 Y51.788 E2.75426
G1 X-60.328 Y51.760 E2.75896
G1 X-60.541 Y51.706 E2.76365
G1 X-60.745 Y51.625 E2.76835
G1 X-60.938 Y51.519 E2.77305
G1 X-61.116 Y51.390 E2.77775
G1 X-61.276 Y51.239 E2.78245
G1 X-61.416 Y51.070 E2.78715
G1 X-61.534 Y50.884 E2.79185
G1 X-61.627 Y50.685 E2.79654
G1 X-61.725 Y50.319 E2.80464
G1 E0.80464 F1200.00000
G92 E0
G1 Z0.700 F6000.000
G1 X-52.265 Y50.041 F6000.000
G1 Z0.200 F6000.000
G1 E2.00000 F1200.00000
G1 F1800.000
G1 X-52.248 Y49.757 E2.00608
G1 X-52.194 Y49.478 E2.01217
G1 X-52.106 Y49.207 E2.01824
G1 X-51.985 Y48.950 E2.02433
G1 X-51.833 Y48.709 E2.03041
G1 X-51.652 Y48.490 E2.03649
G1 X-51.444 Y48.295 E2.04257
G1 X-51.214 Y48.128 E2.04865
G1 X-50.965 Y47.991 E2.05473
G1 X-50.700 Y47.886 E2.06082
G1 X-50.425 Y47.816 E2.06690
G1 X-50.142 Y47.780 E2.07298
G1 X-49.858 Y47.780 E2.07906
G1 X-49.575 Y47.816 E2.08514
G1 X-49.300 Y47.886 E2.09122
G1 X-49.035 Y47.991 E2.09730
G1 X-48.786 Y48.128 E2.10338
G1 X-48.556 Y48.296 E2.10947
G1 X-48.349 Y48.490 E2.11555
G1 X-48.167 Y48.709 E2.12163
G1 X-48.015 Y48.950 E2.12771
G1 X-47.894 Y49.207 E2.13379
G1 X-47.806 Y49.478 E2.13987
G1 X-47.752 Y49.757 E2.14596
G1 X-47.735 Y50.041 E2.15204
G1 X-47.752 Y50.325 E2.15812
G1 X-47.806 Y50.605 E2.16420
G1 X-47.894 Y50.875 E2.17028
G1 X-48.015 Y51.132 E2.17636
G1 X-48.167 Y51.373 E2.18245
G1 X-48.349 Y51.592 E2.18853
G1 X-48.556 Y51.787 E2.19461
G1 X-48.786 Y51.954 E2.20069
G1 X-49.035 Y52.091 E2.20677
G1 X-49.300 Y52.196 E2.21285
G1 X-49.575 Y52.266 E2.21893
G1 X-49.858 Y52.302 E2.22502
G1 X-50.142 Y52.302 E2.23110
G1 X-50.425 Y52.266 E2.23718
G1 X-50.700 Y52.196 E2.24326
G1 X-50.965 Y52.091 E2.24934
G1 X-51.214 Y51.954 E2.25542
G1 X-51.444 Y51.787 E2.26150
G1 X-51.652 Y51.592 E2.26759
G1 X-51.833 Y51.373 E2.27367
G1 X-51.985 Y51.132 E2.27975
G1 X-52.106 Y50.875 E2.28583
G1 X-52.194 Y50.605 E2.29191
G1 X-52.248 Y50.325 E2.29799
