; generated by Slic3r 1.3.1-dev (Build b582df12363b11c5b5e1a4337ffac850e4543f71) on 2020-07-23 at 17:25:41

; external perimeters extrusion width = 0.80mm (5.60mm^3/s)
; perimeters extrusion width = 0.80mm (5.60mm^3/s)
; infill extrusion width = 0.80mm (11.20mm^3/s)
; solid infill extrusion width = 0.80mm (5.60mm^3/s)
; top infill extrusion width = 0.45mm (2.97mm^3/s)

M107
;D3D:START:START
T0
M104 S215 T0

G21
G90
M107
T0
G28
G29
M109 T0 S215 T0
G0 F3000
M107
T0
G92 E0
G0 X0 Y149 Z0.1 F3600
G1 Y49 E6.5 F1200
G0 Z1
G92 E0
; Filament gcode

G21 ; set units to millimeters
G90 ; use absolute coordinates
M82 ; use absolute distances for extrusion
G92 E0
G92 E0
G1 Z0.250 F6000.000
G1 E-2.00000 F1200.00000
G92 E0
G1 X30.795 Y25.689 F6000.000
G1 E2.00000 F1200.00000
G1 F900
G1 X32.549 Y24.558 E2.16187
G1 X34.594 Y24.163 E2.32340
G1 X115.406 Y24.163 E8.59234
G1 X117.455 Y24.560 E8.75421
G1 X119.208 Y25.692 E8.91608
G1 X120.412 Y27.396 E9.07795
G1 X120.894 Y29.421 E9.23948
G1 X122.288 Y62.276 E11.79043
G1 X122.327 Y64.863 E11.99116
G1 X122.302 Y67.549 E12.19950
G1 X122.219 Y70.294 E12.41254
G1 X122.092 Y72.978 E12.62099
G1 X121.920 Y75.737 E12.83543
G1 X121.710 Y78.503 E13.05065
G1 X121.486 Y81.035 E13.24777
G1 X121.240 Y83.493 E13.43946
G1 X120.984 Y85.773 E13.61738
G1 X120.720 Y87.856 E13.78031
G1 X120.427 Y89.809 E13.93349
G1 X120.078 Y91.684 E14.08142
G1 X119.645 Y93.518 E14.22766
G1 X119.099 Y95.337 E14.37492
G1 X118.975 Y95.697 E14.40448
G1 X118.265 Y97.508 E14.55536
G1 X117.591 Y98.948 E14.67869
G1 X116.452 Y101.014 E14.86175
G1 X115.344 Y102.753 E15.02169
G1 X114.256 Y104.301 E15.16846
G1 X112.918 Y106.050 E15.33926
G1 X112.226 Y106.890 E15.42372
G1 X106.994 Y112.449 E16.01588
G1 X106.643 Y112.790 E16.05386
G1 X105.055 Y114.189 E16.21800
G1 X103.400 Y115.518 E16.38269
G1 X101.737 Y116.726 E16.54211
G1 X100.066 Y117.820 E16.69706
G1 X98.601 Y118.690 E16.82928
G1 X96.897 Y119.607 E16.97936
G1 X95.176 Y120.444 E17.12784
G1 X93.287 Y121.277 E17.28797
G1 X91.544 Y121.984 E17.43386
G1 X89.868 Y122.617 E17.57287
G1 X87.814 Y123.326 E17.74145
G1 X85.822 Y123.936 E17.90303
G1 X83.752 Y124.481 E18.06907
G1 X81.609 Y124.941 E18.23913
G1 X79.396 Y125.295 E18.41295
G1 X77.119 Y125.518 E18.59042
G1 X75.199 Y125.588 E18.73951
G1 X72.881 Y125.518 E18.91942
G1 X70.604 Y125.295 E19.09690
G1 X68.391 Y124.941 E19.27072
G1 X66.248 Y124.481 E19.44078
G1 X64.178 Y123.936 E19.60681
G1 X62.011 Y123.269 E19.78267
G1 X60.132 Y122.617 E19.93698
G1 X58.329 Y121.934 E20.08655
G1 X56.565 Y121.215 E20.23433
G1 X55.000 Y120.525 E20.36698
G1 X53.301 Y119.708 E20.51321
G1 X51.613 Y118.811 E20.66154
G1 X49.713 Y117.682 E20.83296
G1 X48.044 Y116.574 E20.98839
G1 X46.391 Y115.357 E21.14763
G1 X44.753 Y114.027 E21.31128
G1 X43.355 Y112.788 E21.45619
G1 X43.006 Y112.449 E21.49396
G1 X37.774 Y106.890 E22.08613
G1 X37.082 Y106.050 E22.17058
G1 X35.744 Y104.301 E22.34139
G1 X34.656 Y102.753 E22.48816
G1 X33.551 Y101.018 E22.64777
G1 X32.577 Y99.277 E22.80246
G1 X31.735 Y97.508 E22.95449
G1 X31.581 Y97.147 E22.98493
G1 X30.901 Y95.337 E23.13493
G1 X30.355 Y93.518 E23.28219
G1 X29.922 Y91.684 E23.42843
G1 X29.573 Y89.809 E23.57637
G1 X29.280 Y87.856 E23.72954
G1 X29.016 Y85.772 E23.89248
G1 X28.760 Y83.493 E24.07039
G1 X28.520 Y81.099 E24.25705
G1 X28.290 Y78.503 E24.45920
G1 X28.085 Y75.811 E24.66870
G1 X27.913 Y73.061 E24.88243
G1 X27.777 Y70.198 E25.10478
G1 X27.698 Y67.549 E25.31035
G1 X27.673 Y64.863 E25.51869
G1 X27.712 Y62.276 E25.71942
G1 X29.106 Y29.421 E28.27037
G1 X29.590 Y27.392 E28.43224
G1 X30.761 Y25.738 E28.58946
G1 X31.516 Y26.043 F6000.000
G1 F900
G1 X33.217 Y25.114 E28.73982
G1 X34.594 Y24.910 E28.84776
G1 X115.406 Y24.910 E35.11671
G1 X117.304 Y25.306 E35.26707
G1 X118.885 Y26.427 E35.41744
G1 X119.886 Y28.087 E35.56780
G1 X120.148 Y29.453 E35.67574
G1 X121.449 Y59.859 E38.03658
G1 X121.542 Y62.288 E38.22513
G1 X121.580 Y64.741 E38.41546
G1 X121.558 Y67.427 E38.62386
G1 X121.477 Y70.176 E38.83714
G1 X121.346 Y72.943 E39.05204
G1 X121.171 Y75.754 E39.27055
G1 X120.966 Y78.438 E39.47934
G1 X120.743 Y80.969 E39.67646
G1 X120.497 Y83.419 E39.86746
G1 X120.242 Y85.689 E40.04469
G1 X119.980 Y87.762 E40.20680
G1 X119.689 Y89.698 E40.35861
G1 X119.345 Y91.546 E40.50445
G1 X118.919 Y93.344 E40.64781
G1 X118.278 Y95.430 E40.81704
G1 X117.589 Y97.191 E40.96379
G1 X116.915 Y98.631 E41.08711
G1 X115.960 Y100.379 E41.24166
G1 X115.755 Y100.720 E41.27249
G1 X114.733 Y102.324 E41.42000
G1 X113.645 Y103.871 E41.56677
G1 X112.326 Y105.595 E41.73512
G1 X111.651 Y106.413 E41.81740
G1 X106.451 Y111.937 E42.40589
G1 X106.148 Y112.231 E42.43870
G1 X104.586 Y113.608 E42.60020
G1 X102.959 Y114.916 E42.76211
G1 X101.327 Y116.103 E42.91872
G1 X99.686 Y117.178 E43.07093
G1 X98.220 Y118.048 E43.20314
G1 X96.545 Y118.949 E43.35064
G1 X94.851 Y119.772 E43.49678
G1 X93.006 Y120.586 E43.65317
G1 X91.281 Y121.285 E43.79762
G1 X89.604 Y121.918 E43.93664
G1 X87.594 Y122.613 E44.10165
G1 X85.630 Y123.215 E44.26096
G1 X83.593 Y123.752 E44.42437
G1 X81.488 Y124.205 E44.59141
G1 X79.319 Y124.552 E44.76179
G1 X77.092 Y124.772 E44.93539
G1 X75.172 Y124.842 E45.08448
G1 X72.908 Y124.772 E45.26020
G1 X70.681 Y124.552 E45.43379
G1 X68.512 Y124.205 E45.60418
G1 X66.407 Y123.752 E45.77122
G1 X64.370 Y123.215 E45.93462
G1 X62.255 Y122.563 E46.10627
G1 X60.396 Y121.918 E46.25895
G1 X58.610 Y121.242 E46.40709
G1 X56.866 Y120.532 E46.55318
G1 X55.301 Y119.842 E46.68583
G1 X53.626 Y119.036 E46.83002
G1 X51.965 Y118.152 E46.97600
G1 X50.124 Y117.059 E47.14210
G1 X48.484 Y115.971 E47.29472
G1 X46.860 Y114.776 E47.45117
G1 X45.248 Y113.468 E47.61218
G1 X43.851 Y112.230 E47.75706
G1 X43.549 Y111.937 E47.78970
G1 X38.349 Y106.413 E48.37819
G1 X37.674 Y105.595 E48.46046
G1 X36.355 Y103.871 E48.62882
G1 X35.267 Y102.324 E48.77558
G1 X34.181 Y100.619 E48.93236
G1 X33.230 Y98.916 E49.08366
G1 X32.411 Y97.191 E49.23179
G1 X31.614 Y95.118 E49.40406
G1 X31.081 Y93.344 E49.54776
G1 X30.655 Y91.546 E49.69113
G1 X30.311 Y89.698 E49.83698
G1 X30.020 Y87.762 E49.98877
G1 X29.758 Y85.689 E50.15089
G1 X29.503 Y83.419 E50.32812
G1 X29.263 Y81.025 E50.51477
G1 X29.034 Y78.438 E50.71624
G1 X28.829 Y75.754 E50.92503
G1 X28.657 Y73.014 E51.13798
G1 X28.523 Y70.176 E51.35844
G1 X28.444 Y67.527 E51.56401
G1 X28.420 Y64.857 E51.77114
G1 X28.458 Y62.288 E51.97045
G1 X29.852 Y29.453 E54.51983
G1 X30.328 Y27.575 E54.67020
G1 X31.479 Y26.090 E54.81590
G1 E52.81590 F1200.00000
G92 E0
G1 X47.486 Y109.110 F6000.000
G1 E2.00000 F1200.00000
G1 F900
G1 X47.000 Y108.001 E2.03607
G1 X47.000 Y108.345 F6000.000
G1 F900
G1 X48.558 Y109.725 E2.13260
G1 X49.995 Y110.886 E2.21829
G1 X51.429 Y111.935 E2.30070
G1 X52.869 Y112.885 E2.38073
G1 X54.325 Y113.749 E2.45925
G1 X55.806 Y114.540 E2.53712
G1 X57.320 Y115.272 E2.61514
G1 X58.877 Y115.958 E2.69407
G1 X60.487 Y116.612 E2.77468
G1 X62.154 Y117.241 E2.85732
G1 X63.884 Y117.840 E2.94225
G1 X65.660 Y118.388 E3.02846
G1 X67.477 Y118.872 E3.11567
G1 X69.327 Y119.275 E3.20351
G1 X71.203 Y119.583 E3.29169
G1 X73.097 Y119.780 E3.37999
G1 X75.000 Y119.848 E3.46833
G1 X76.903 Y119.780 E3.55667
G1 X78.797 Y119.583 E3.64498
G1 X80.673 Y119.275 E3.73315
G1 X82.523 Y118.872 E3.82100
G1 X84.340 Y118.388 E3.90821
G1 X86.116 Y117.840 E3.99442
G1 X87.846 Y117.241 E4.07934
G1 X89.513 Y116.612 E4.16199
G1 X91.123 Y115.958 E4.24259
G1 X92.680 Y115.272 E4.32153
G1 X94.194 Y114.540 E4.39955
G1 X95.675 Y113.749 E4.47741
G1 X97.131 Y112.885 E4.55594
G1 X98.571 Y111.935 E4.63597
G1 X100.005 Y110.886 E4.71838
G1 X101.442 Y109.725 E4.80407
G1 X103.000 Y108.345 E4.90060
G1 X103.000 Y108.000 F6000.000
G1 F900
G1 X102.514 Y109.110 E4.93667
G1 E2.93667 F1200.00000
G92 E0
G1 X34.844 Y29.656 F6000.000
G1 E2.00000 F1200.00000
G1 F900
G1 X34.843 Y44.143 E2.67208
G1 X34.825 Y45.770 E2.74756
G1 X34.758 Y46.967 E2.80317
G1 X34.697 Y47.704 E2.83747
G1 X34.004 Y54.041 E3.13325
G1 X33.831 Y55.881 E3.21897
G1 X33.674 Y57.890 E3.31244
G1 X33.544 Y60.056 E3.41312
G1 X33.454 Y62.365 E3.52034
G1 X33.416 Y64.815 E3.63403
G1 X33.439 Y67.383 E3.75315
G1 X33.517 Y70.025 E3.87574
G1 X33.644 Y72.704 E4.00021
G1 X33.811 Y75.379 E4.12452
G1 X34.011 Y77.999 E4.24643
G1 X34.234 Y80.527 E4.36418
G1 X34.474 Y82.918 E4.47567
G1 X34.723 Y85.129 E4.57889
G1 X34.976 Y87.131 E4.67251
G1 X35.250 Y88.948 E4.75774
G1 X35.564 Y90.616 E4.83648
G1 X35.935 Y92.163 E4.91030
G1 X36.389 Y93.648 E4.98230
G1 X36.939 Y95.081 E5.05352
G1 X37.602 Y96.497 E5.12608
G1 X38.408 Y97.954 E5.20332
G1 X39.357 Y99.455 E5.28569
G1 X40.439 Y100.993 E5.37294
G1 X42.000 Y102.998 E5.49082
G1 E3.49082 F1200.00000
G92 E0
G1 X115.156 Y29.656 F6000.000
G1 E2.00000 F1200.00000
G1 F900
G1 X115.156 Y44.142 E2.67201
G1 X115.175 Y45.771 E2.74757
G1 X115.242 Y46.967 E2.80314
G1 X115.303 Y47.704 E2.83745
G1 X115.996 Y54.041 E3.13321
G1 X116.169 Y55.881 E3.21893
G1 X116.326 Y57.890 E3.31240
G1 X116.456 Y60.056 E3.41307
G1 X116.546 Y62.365 E3.52029
G1 X116.584 Y64.815 E3.63397
G1 X116.561 Y67.383 E3.75309
G1 X116.483 Y70.025 E3.87568
G1 X116.356 Y72.704 E4.00015
G1 X116.189 Y75.379 E4.12445
G1 X115.989 Y77.999 E4.24636
G1 X115.766 Y80.527 E4.36410
G1 X115.526 Y82.918 E4.47559
G1 X115.277 Y85.129 E4.57881
G1 X115.024 Y87.131 E4.67242
G1 X114.750 Y88.948 E4.75766
G1 X114.436 Y90.616 E4.83639
G1 X114.065 Y92.163 E4.91021
G1 X113.611 Y93.647 E4.98221
G1 X113.061 Y95.081 E5.05343
G1 X112.398 Y96.497 E5.12598
G1 X111.592 Y97.954 E5.20322
G1 X110.643 Y99.455 E5.28559
G1 X109.561 Y100.993 E5.37283
G1 X108.000 Y102.998 E5.49071
G1 Z0.500 F6000.000
G1 E3.49071 F1200.00000
G92 E0
G1 X47.486 Y109.112 F6000.000
G1 E2.00000 F1200.00000
G1 F1800
G1 X47.000 Y108.003 E2.03584
G1 X47.000 Y108.348 F6000.000
G1 F1800
G1 X48.556 Y109.727 E2.13227
G1 X49.993 Y110.888 E2.21796
G1 X51.427 Y111.937 E2.30038
G1 X52.868 Y112.887 E2.38042
G1 X54.324 Y113.751 E2.45896
G1 X55.804 Y114.542 E2.53684
G1 X57.319 Y115.275 E2.61487
G1 X58.876 Y115.961 E2.69382
G1 X60.487 Y116.615 E2.77444
G1 X62.154 Y117.245 E2.85710
G1 X63.884 Y117.844 E2.94203
G1 X65.660 Y118.393 E3.02825
G1 X67.477 Y118.877 E3.11547
G1 X69.327 Y119.281 E3.20332
G1 X71.203 Y119.589 E3.29150
G1 X73.097 Y119.786 E3.37981
G1 X75.000 Y119.855 E3.46815
G1 X76.903 Y119.786 E3.55649
G1 X78.797 Y119.589 E3.64480
G1 X80.673 Y119.281 E3.73298
G1 X82.523 Y118.877 E3.82083
G1 X84.340 Y118.393 E3.90805
G1 X86.116 Y117.844 E3.99427
G1 X87.846 Y117.245 E4.07921
G1 X89.513 Y116.615 E4.16186
G1 X91.124 Y115.961 E4.24248
G1 X92.681 Y115.275 E4.32144
G1 X94.195 Y114.542 E4.39947
G1 X95.676 Y113.751 E4.47734
G1 X97.132 Y112.887 E4.55588
G1 X98.573 Y111.937 E4.63592
G1 X100.007 Y110.888 E4.71834
G1 X101.444 Y109.727 E4.80403
G1 X103.000 Y108.348 E4.90046
G1 X103.000 Y108.003 F6000.000
G1 F1800
G1 X102.514 Y109.112 E4.93630
G1 E2.93630 F1200.00000
G92 E0
G1 X34.844 Y29.656 F6000.000
G1 E2.00000 F1200.00000
G1 F1800
G1 X34.843 Y44.143 E2.67209
G1 X34.825 Y45.770 E2.74756
G1 X34.758 Y46.967 E2.80317
G1 X34.697 Y47.704 E2.83748
G1 X34.004 Y54.041 E3.13325
G1 X33.831 Y55.881 E3.21897
G1 X33.674 Y57.890 E3.31245
G1 X33.544 Y60.056 E3.41312
G1 X33.454 Y62.365 E3.52035
G1 X33.416 Y64.815 E3.63403
G1 X33.439 Y67.383 E3.75315
G1 X33.517 Y70.025 E3.87575
G1 X33.644 Y72.704 E4.00022
G1 X33.811 Y75.379 E4.12453
G1 X34.011 Y77.999 E4.24644
G1 X34.234 Y80.527 E4.36419
G1 X34.474 Y82.918 E4.47568
G1 X34.723 Y85.129 E4.57890
G1 X34.976 Y87.131 E4.67252
G1 X35.250 Y88.948 E4.75776
G1 X35.564 Y90.616 E4.83649
G1 X35.935 Y92.163 E4.91032
G1 X36.389 Y93.648 E4.98232
G1 X36.939 Y95.081 E5.05354
G1 X37.602 Y96.497 E5.12610
G1 X38.408 Y97.955 E5.20334
G1 X39.357 Y99.455 E5.28571
G1 X40.438 Y100.994 E5.37296
G1 X42.000 Y103.000 E5.49092
G1 E3.49092 F1200.00000
G92 E0
G1 X115.156 Y29.656 F6000.000
G1 E2.00000 F1200.00000
G1 F1800
G1 X115.156 Y44.142 E2.67201
G1 X115.175 Y45.771 E2.74757
G1 X115.242 Y46.967 E2.80314
G1 X115.303 Y47.704 E2.83745
G1 X115.996 Y54.041 E3.13321
G1 X116.169 Y55.881 E3.21893
G1 X116.326 Y57.890 E3.31240
G1 X116.456 Y60.056 E3.41307
G1 X116.546 Y62.365 E3.52029
G1 X116.584 Y64.815 E3.63397
G1 X116.561 Y67.383 E3.75309
G1 X116.483 Y70.025 E3.87568
G1 X116.356 Y72.704 E4.00015
G1 X116.189 Y75.379 E4.12445
G1 X115.989 Y77.999 E4.24636
G1 X115.766 Y80.527 E4.36410
G1 X115.526 Y82.918 E4.47559
G1 X115.277 Y85.129 E4.57881
G1 X115.024 Y87.131 E4.67242
G1 X114.750 Y88.948 E4.75766
G1 X114.436 Y90.616 E4.83639
G1 X114.065 Y92.163 E4.91021
G1 X113.611 Y93.648 E4.98221
G1 X113.061 Y95.081 E5.05343
G1 X112.398 Y96.497 E5.12599
G1 X111.592 Y97.955 E5.20323
G1 X110.643 Y99.455 E5.28560
G1 X109.562 Y100.994 E5.37284
G1 X108.000 Y103.000 E5.49079
G1 Z0.750 F6000.000
G1 E3.49079 F1200.00000
G92 E0
G1 X47.486 Y109.115 F6000.000
G1 E2.00000 F1200.00000
G1 F1800
G1 X47.000 Y108.006 E2.03558
G1 X47.000 Y108.350 F6000.000
G1 F1800
G1 X48.554 Y109.728 E2.13191
G1 X49.992 Y110.889 E2.21761
G1 X51.426 Y111.938 E2.30004
G1 X52.866 Y112.888 E2.38008
G1 X54.323 Y113.753 E2.45863
G1 X55.803 Y114.544 E2.53651
G1 X57.318 Y115.277 E2.61455
G1 X58.876 Y115.964 E2.69352
G1 X60.486 Y116.619 E2.77415
G1 X62.153 Y117.249 E2.85682
G1 X63.884 Y117.848 E2.94177
G1 X65.660 Y118.398 E3.02799
G1 X67.477 Y118.882 E3.11522
G1 X69.327 Y119.287 E3.20307
G1 X71.203 Y119.595 E3.29125
G1 X73.097 Y119.792 E3.37956
G1 X75.000 Y119.861 E3.46790
G1 X76.903 Y119.792 E3.55624
G1 X78.797 Y119.595 E3.64455
G1 X80.673 Y119.287 E3.73273
G1 X82.523 Y118.882 E3.82059
G1 X84.340 Y118.398 E3.90781
G1 X86.116 Y117.848 E3.99404
G1 X87.847 Y117.249 E4.07898
G1 X89.514 Y116.619 E4.16165
G1 X91.124 Y115.964 E4.24228
G1 X92.682 Y115.277 E4.32125
G1 X94.197 Y114.544 E4.39929
G1 X95.677 Y113.753 E4.47718
G1 X97.134 Y112.888 E4.55572
G1 X98.574 Y111.938 E4.63577
G1 X100.008 Y110.889 E4.71819
G1 X101.446 Y109.728 E4.80389
G1 X103.000 Y108.350 E4.90022
G1 X103.000 Y108.006 F6000.000
G1 F1800
G1 X102.514 Y109.115 E4.93581
G1 E2.93581 F1200.00000
G92 E0
G1 X115.156 Y29.656 F6000.000
G1 E2.00000 F1200.00000
G1 F1800
G1 X115.156 Y44.142 E2.67201
G1 X115.175 Y45.771 E2.74757
G1 X115.242 Y46.967 E2.80314
G1 X115.303 Y47.704 E2.83745
G1 X115.996 Y54.041 E3.13321
G1 X116.169 Y55.881 E3.21893
G1 X116.326 Y57.890 E3.31240
G1 X116.456 Y60.056 E3.41307
G1 X116.546 Y62.365 E3.52029
G1 X116.584 Y64.815 E3.63397
G1 X116.561 Y67.383 E3.75309
G1 X116.483 Y70.025 E3.87568
G1 X116.356 Y72.704 E4.00015
G1 X116.189 Y75.379 E4.12445
G1 X115.989 Y77.999 E4.24636
G1 X115.766 Y80.527 E4.36410
G1 X115.526 Y82.918 E4.47559
G1 X115.277 Y85.129 E4.57881
G1 X115.024 Y87.131 E4.67242
G1 X114.750 Y88.948 E4.75766
G1 X114.436 Y90.616 E4.83640
G1 X114.065 Y92.163 E4.91022
G1 X113.611 Y93.648 E4.98222
G1 X113.061 Y95.081 E5.05343
G1 X112.398 Y96.498 E5.12599
G1 X111.593 Y97.955 E5.20323
G1 X110.644 Y99.456 E5.28560
G1 X109.563 Y100.994 E5.37284
G1 X108.000 Y103.002 E5.49087
G1 E3.49087 F1200.00000
G92 E0
G1 X34.844 Y29.656 F6000.000
G1 E2.00000 F1200.00000
G1 F1800
G1 X34.843 Y44.143 E2.67209
G1 X34.825 Y45.770 E2.74756
G1 X34.758 Y46.967 E2.80317
G1 X34.697 Y47.704 E2.83748
G1 X34.004 Y54.041 E3.13325
G1 X33.831 Y55.881 E3.21897
G1 X33.674 Y57.890 E3.31245
G1 X33.544 Y60.056 E3.41312
G1 X33.454 Y62.365 E3.52035
G1 X33.416 Y64.815 E3.63403
G1 X33.439 Y67.383 E3.75315
G1 X33.517 Y70.025 E3.87575
G1 X33.644 Y72.704 E4.00022
G1 X33.811 Y75.379 E4.12453
G1 X34.011 Y77.999 E4.24644
G1 X34.234 Y80.527 E4.36419
G1 X34.474 Y82.918 E4.47568
G1 X34.723 Y85.129 E4.57890
G1 X34.976 Y87.131 E4.67252
G1 X35.250 Y88.948 E4.75776
G1 X35.564 Y90.616 E4.83650
G1 X35.935 Y92.163 E4.91032
G1 X36.389 Y93.648 E4.98232
G1 X36.939 Y95.081 E5.05354
G1 X37.602 Y96.498 E5.12610
G1 X38.407 Y97.955 E5.20335
G1 X39.356 Y99.456 E5.28572
G1 X40.437 Y100.994 E5.37296
G1 X42.000 Y103.002 E5.49099
G1 Z1.000 F6000.000
G1 E3.49099 F1200.00000
G92 E0
G1 X47.486 Y109.118 F6000.000
G1 E2.00000 F1200.00000
G1 F1800
G1 X47.000 Y108.009 E2.03535
G1 X47.000 Y108.353 F6000.000
G1 F1800
G1 X48.553 Y109.730 E2.13158
G1 X49.990 Y110.891 E2.21728
G1 X51.424 Y111.940 E2.29971
G1 X52.865 Y112.890 E2.37977
G1 X54.321 Y113.755 E2.45832
G1 X55.802 Y114.547 E2.53622
G1 X57.317 Y115.280 E2.61428
