; generated by Slic3r 1.3.1-dev (Build b582df12363b11c5b5e1a4337ffac850e4543f71) on 2020-07-23 at 17:28:18

; external perimeters extrusion width = 0.80mm (5.60mm^3/s)
; perimeters extrusion width = 0.80mm (5.60mm^3/s)
; infill extrusion width = 0.80mm (11.20mm^3/s)
; solid infill extrusion width = 0.80mm (5.60mm^3/s)
; top infill extrusion width = 0.45mm (2.97mm^3/s)

M107
;D3D:START:START
T0
M104 S215 T0

G21
G90
M107
T0
G28
G29
M109 T0 S215 T0
G0 F3000
M107
T0
G92 E0
G0 X0 Y149 Z0.1 F3600
G1 Y49 E6.5 F1200
G0 Z1
G92 E0
; Filament gcode

G21 ; set units to millimeters
G90 ; use absolute coordinates
M82 ; use absolute distances for extrusion
G92 E0
G92 E0
G1 Z0.250 F6000.000
G1 E-2.00000 F1200.00000
G92 E0
G1 X30.795 Y25.813 F6000.000
G1 E2.00000 F1200.00000
G1 F900
G1 X32.549 Y24.682 E2.16187
G1 X34.594 Y24.288 E2.32340
G1 X115.406 Y24.288 E8.59234
G1 X117.455 Y24.684 E8.75421
G1 X119.208 Y25.816 E8.91608
G1 X120.412 Y27.520 E9.07795
G1 X120.894 Y29.546 E9.23948
G1 X122.288 Y62.400 E11.79043
G1 X122.327 Y64.987 E11.99115
G1 X122.302 Y67.673 E12.19950
G1 X122.219 Y70.415 E12.41228
G1 X122.092 Y73.102 E12.62098
G1 X121.920 Y75.861 E12.83543
G1 X121.710 Y78.628 E13.05065
G1 X121.480 Y81.218 E13.25234
G1 X121.240 Y83.618 E13.43946
G1 X120.984 Y85.897 E13.61737
G1 X120.720 Y87.981 E13.78031
G1 X120.427 Y89.933 E13.93347
G1 X120.078 Y91.808 E14.08143
G1 X119.645 Y93.643 E14.22766
G1 X119.099 Y95.461 E14.37493
G1 X118.975 Y95.821 E14.40450
G1 X118.265 Y97.632 E14.55539
G1 X117.591 Y99.072 E14.67871
G1 X116.449 Y101.142 E14.86212
G1 X115.343 Y102.877 E15.02173
G1 X114.117 Y104.613 E15.18657
G1 X112.788 Y106.335 E15.35531
G1 X111.365 Y108.040 E15.52755
G1 X110.690 Y108.790 E15.60586
G1 X106.878 Y112.684 E16.02859
G1 X105.057 Y114.309 E16.21789
G1 X103.398 Y115.641 E16.38293
G1 X101.743 Y116.844 E16.54164
G1 X100.066 Y117.942 E16.69718
G1 X98.385 Y118.933 E16.84850
G1 X96.697 Y119.830 E16.99682
G1 X94.998 Y120.647 E17.14305
G1 X93.286 Y121.399 E17.28815
G1 X91.543 Y122.105 E17.43403
G1 X89.721 Y122.790 E17.58500
G1 X87.812 Y123.446 E17.74160
G1 X85.821 Y124.056 E17.90317
G1 X83.751 Y124.601 E18.06917
G1 X81.608 Y125.060 E18.23921
G1 X79.395 Y125.413 E18.41300
G1 X77.121 Y125.636 E18.59024
G1 X74.804 Y125.706 E18.77013
G1 X72.521 Y125.611 E18.94739
G1 X70.291 Y125.371 E19.12134
G1 X68.392 Y125.060 E19.27064
G1 X66.022 Y124.546 E19.45873
G1 X63.985 Y124.001 E19.62232
G1 X61.937 Y123.363 E19.78869
G1 X60.145 Y122.742 E19.93587
G1 X58.344 Y122.061 E20.08520
G1 X56.574 Y121.340 E20.23345
G1 X55.001 Y120.647 E20.36679
G1 X53.113 Y119.733 E20.52954
G1 X51.402 Y118.813 E20.68021
G1 X49.935 Y117.943 E20.81255
G1 X48.264 Y116.848 E20.96749
G1 X46.602 Y115.641 E21.12689
G1 X44.946 Y114.312 E21.29157
G1 X43.404 Y112.953 E21.45102
G1 X43.122 Y112.684 E21.48123
G1 X39.348 Y108.828 E21.89981
G1 X38.511 Y107.896 E21.99696
G1 X37.088 Y106.179 E22.16998
G1 X35.749 Y104.431 E22.34080
G1 X34.657 Y102.877 E22.48811
G1 X33.549 Y101.138 E22.64808
G1 X32.411 Y99.076 E22.83077
G1 X31.735 Y97.632 E22.95445
G1 X31.025 Y95.821 E23.10534
G1 X30.902 Y95.465 E23.13461
G1 X30.355 Y93.644 E23.28208
G1 X29.922 Y91.809 E23.42836
G1 X29.606 Y90.130 E23.56089
G1 X29.298 Y88.109 E23.71945
G1 X29.025 Y85.974 E23.88642
G1 X28.761 Y83.620 E24.07019
G1 X28.514 Y81.161 E24.26188
G1 X28.285 Y78.560 E24.46444
G1 X28.080 Y75.863 E24.67429
G1 X27.908 Y73.102 E24.88884
G1 X27.777 Y70.324 E25.10463
G1 X27.698 Y67.673 E25.31033
G1 X27.673 Y64.988 E25.51867
G1 X27.712 Y62.400 E25.71939
G1 X27.806 Y59.954 E25.90928
G1 X29.106 Y29.546 E28.27035
G1 X29.590 Y27.516 E28.43222
G1 X30.761 Y25.862 E28.58943
G1 X31.516 Y26.167 F6000.000
G1 F900
G1 X33.217 Y25.238 E28.73980
G1 X34.594 Y25.034 E28.84774
G1 X115.406 Y25.034 E35.11669
G1 X117.304 Y25.430 E35.26705
G1 X118.885 Y26.551 E35.41741
G1 X119.886 Y28.211 E35.56778
G1 X120.148 Y29.578 E35.67572
G1 X121.448 Y59.980 E38.03631
G1 X121.542 Y62.412 E38.22510
G1 X121.580 Y64.865 E38.41543
G1 X121.558 Y67.552 E38.62383
G1 X121.477 Y70.300 E38.83712
G1 X121.346 Y73.067 E39.05201
G1 X121.171 Y75.878 E39.27053
G1 X120.966 Y78.562 E39.47931
G1 X120.738 Y81.144 E39.68038
G1 X120.497 Y83.543 E39.86744
G1 X120.242 Y85.813 E40.04466
G1 X119.980 Y87.887 E40.20678
G1 X119.689 Y89.822 E40.35858
G1 X119.345 Y91.670 E40.50443
G1 X118.919 Y93.469 E40.64780
G1 X118.278 Y95.554 E40.81704
G1 X117.589 Y97.316 E40.96379
G1 X116.915 Y98.755 E41.08711
G1 X115.818 Y100.743 E41.26322
G1 X114.733 Y102.448 E41.42001
G1 X113.525 Y104.158 E41.58239
G1 X112.214 Y105.858 E41.74896
G1 X110.809 Y107.542 E41.91907
G1 X110.151 Y108.273 E41.99534
G1 X106.345 Y112.162 E42.41750
G1 X104.588 Y113.729 E42.60011
G1 X102.958 Y115.038 E42.76231
G1 X101.331 Y116.221 E42.91831
G1 X99.685 Y117.300 E43.07102
G1 X98.034 Y118.275 E43.21975
G1 X96.372 Y119.158 E43.36572
G1 X94.698 Y119.964 E43.50990
G1 X93.005 Y120.708 E43.65331
G1 X91.279 Y121.407 E43.79775
G1 X89.477 Y122.084 E43.94709
G1 X87.592 Y122.733 E44.10175
G1 X85.629 Y123.335 E44.26105
G1 X83.592 Y123.871 E44.42443
G1 X81.487 Y124.324 E44.59144
G1 X79.319 Y124.670 E44.76180
G1 X77.094 Y124.890 E44.93520
G1 X74.830 Y124.960 E45.11090
G1 X72.596 Y124.869 E45.28433
G1 X70.410 Y124.634 E45.45488
G1 X68.512 Y124.323 E45.60408
G1 X66.212 Y123.824 E45.78670
G1 X64.203 Y123.287 E45.94799
G1 X62.180 Y122.657 E46.11240
G1 X60.407 Y122.043 E46.25795
G1 X58.623 Y121.368 E46.40587
G1 X56.874 Y120.656 E46.55237
G1 X55.302 Y119.964 E46.68561
G1 X53.463 Y119.075 E46.84407
G1 X51.783 Y118.171 E46.99207
G1 X50.316 Y117.301 E47.12439
G1 X48.675 Y116.225 E47.27659
G1 X47.042 Y115.038 E47.43318
G1 X45.415 Y113.731 E47.59508
G1 X43.655 Y112.162 E47.77798
G1 X39.881 Y108.306 E48.19656
G1 X39.084 Y107.418 E48.28909
G1 X37.679 Y105.724 E48.45989
G1 X36.359 Y104.000 E48.62825
G1 X35.267 Y102.448 E48.77549
G1 X34.180 Y100.740 E48.93258
G1 X33.087 Y98.759 E49.10808
G1 X32.411 Y97.316 E49.23171
G1 X31.722 Y95.554 E49.37846
G1 X31.081 Y93.469 E49.54762
G1 X30.655 Y91.671 E49.69102
G1 X30.339 Y89.992 E49.82355
G1 X30.036 Y87.998 E49.98001
G1 X29.766 Y85.880 E50.14561
G1 X29.503 Y83.545 E50.32789
G1 X29.258 Y81.095 E50.51890
G1 X29.029 Y78.503 E50.72072
G1 X28.825 Y75.816 E50.92981
G1 X28.654 Y73.067 E51.14347
G1 X28.523 Y70.301 E51.35826
G1 X28.444 Y67.651 E51.56394
G1 X28.420 Y64.981 E51.77107
G1 X28.458 Y62.412 E51.97038
G1 X28.551 Y59.983 E52.15892
G1 X29.852 Y29.578 E54.51976
G1 X30.328 Y27.699 E54.67012
G1 X31.479 Y26.215 E54.81583
G1 E52.81583 F1200.00000
G92 E0
G1 X47.563 Y109.299 F6000.000
G1 E2.00000 F1200.00000
G1 F900
G1 X46.999 Y108.121 E2.03522
G1 X47.023 Y108.487 F6000.000
G1 F900
G1 X48.559 Y109.848 E2.13042
G1 X49.996 Y111.009 E2.21610
G1 X51.430 Y112.057 E2.29850
G1 X52.871 Y113.007 E2.37851
G1 X54.326 Y113.871 E2.45703
G1 X55.807 Y114.662 E2.53488
G1 X57.321 Y115.394 E2.61288
G1 X58.878 Y116.079 E2.69180
G1 X60.488 Y116.733 E2.77239
G1 X62.074 Y117.332 E2.85102
G1 X63.885 Y117.960 E2.93994
G1 X65.660 Y118.508 E3.02613
G1 X67.477 Y118.991 E3.11333
G1 X69.327 Y119.394 E3.20116
G1 X71.203 Y119.701 E3.28933
G1 X73.097 Y119.897 E3.37763
G1 X75.000 Y119.966 E3.46597
G1 X76.903 Y119.897 E3.55431
G1 X78.797 Y119.701 E3.64261
G1 X80.673 Y119.394 E3.73078
G1 X82.523 Y118.991 E3.81861
G1 X84.340 Y118.508 E3.90581
G1 X86.115 Y117.960 E3.99201
G1 X87.930 Y117.330 E4.08108
G1 X89.512 Y116.733 E4.15955
G1 X91.122 Y116.080 E4.24014
G1 X92.679 Y115.394 E4.31906
G1 X94.193 Y114.662 E4.39706
G1 X95.674 Y113.871 E4.47491
G1 X97.129 Y113.007 E4.55342
G1 X98.570 Y112.057 E4.63344
G1 X100.004 Y111.009 E4.71584
G1 X101.441 Y109.848 E4.80152
G1 X102.977 Y108.486 E4.89677
G1 X103.003 Y108.119 F6000.000
G1 F900
G1 X102.436 Y109.300 E4.93216
G1 E2.93216 F1200.00000
G92 E0
G1 X34.844 Y29.780 F6000.000
G1 E2.00000 F1200.00000
G1 F900
G1 X34.843 Y44.267 E2.67208
G1 X34.825 Y45.913 E2.74844
G1 X34.697 Y47.828 E2.83746
G1 X34.004 Y54.166 E3.13323
G1 X33.831 Y56.005 E3.21895
G1 X33.674 Y58.014 E3.31243
G1 X33.544 Y60.180 E3.41310
G1 X33.454 Y62.490 E3.52032
G1 X33.416 Y64.940 E3.63401
G1 X33.439 Y67.507 E3.75313
G1 X33.517 Y70.149 E3.87573
G1 X33.644 Y72.829 E4.00019
G1 X33.811 Y75.501 E4.12442
G1 X34.011 Y78.123 E4.24641
G1 X34.234 Y80.651 E4.36416
G1 X34.474 Y83.044 E4.47572
G1 X34.723 Y85.254 E4.57887
G1 X34.976 Y87.256 E4.67249
G1 X35.250 Y89.072 E4.75772
G1 X35.564 Y90.740 E4.83646
G1 X35.937 Y92.295 E4.91063
G1 X36.387 Y93.763 E4.98188
G1 X36.940 Y95.205 E5.05349
G1 X37.610 Y96.636 E5.12683
G1 X38.409 Y98.078 E5.20330
G1 X39.358 Y99.579 E5.28567
G1 X40.440 Y101.117 E5.37291
G1 X41.631 Y102.666 E5.46357
G1 X43.245 Y104.589 E5.58003
G1 E3.58003 F1200.00000
G92 E0
G1 X115.156 Y29.780 F6000.000
G1 E2.00000 F1200.00000
G1 F900
G1 X115.156 Y44.266 E2.67202
G1 X115.175 Y45.895 E2.74758
G1 X115.242 Y47.091 E2.80315
G1 X115.303 Y47.828 E2.83746
G1 X115.996 Y54.166 E3.13323
G1 X116.169 Y56.005 E3.21895
G1 X116.326 Y58.014 E3.31242
G1 X116.456 Y60.180 E3.41309
G1 X116.546 Y62.490 E3.52031
G1 X116.584 Y64.940 E3.63400
G1 X116.561 Y67.507 E3.75311
G1 X116.483 Y70.149 E3.87571
G1 X116.356 Y72.829 E4.00017
G1 X116.189 Y75.501 E4.12440
G1 X115.989 Y78.123 E4.24639
G1 X115.766 Y80.651 E4.36414
G1 X115.526 Y83.044 E4.47569
G1 X115.277 Y85.254 E4.57884
G1 X115.024 Y87.256 E4.67246
G1 X114.750 Y89.072 E4.75769
G1 X114.436 Y90.740 E4.83643
G1 X114.063 Y92.295 E4.91060
G1 X113.613 Y93.763 E4.98184
G1 X113.060 Y95.205 E5.05346
G1 X112.390 Y96.636 E5.12680
G1 X111.591 Y98.078 E5.20326
G1 X110.642 Y99.579 E5.28563
G1 X109.560 Y101.117 E5.37287
G1 X108.369 Y102.666 E5.46353
G1 X106.755 Y104.588 E5.57999
G1 Z0.500 F6000.000
G1 E3.57999 F1200.00000
G92 E0
G1 X47.563 Y109.297 F6000.000
G1 E2.00000 F1200.00000
G1 F1800
G1 X46.997 Y108.116 E2.03566
G1 X47.022 Y108.483 F6000.000
G1 F1800
G1 X48.561 Y109.847 E2.13101
G1 X49.998 Y111.007 E2.21668
G1 X51.432 Y112.056 E2.29907
G1 X52.872 Y113.005 E2.37908
G1 X54.328 Y113.869 E2.45758
G1 X55.808 Y114.659 E2.53541
G1 X57.321 Y115.391 E2.61340
G1 X58.878 Y116.077 E2.69231
G1 X60.488 Y116.730 E2.77288
G1 X61.914 Y117.268 E2.84358
G1 X63.885 Y117.956 E2.94041
G1 X65.661 Y118.503 E3.02657
G1 X67.477 Y118.986 E3.11376
G1 X69.327 Y119.388 E3.20159
G1 X71.203 Y119.695 E3.28975
G1 X73.097 Y119.891 E3.37805
G1 X75.000 Y119.960 E3.46638
G1 X76.903 Y119.891 E3.55471
G1 X78.797 Y119.695 E3.64301
G1 X80.673 Y119.388 E3.73117
G1 X82.523 Y118.986 E3.81900
G1 X84.339 Y118.503 E3.90619
G1 X86.115 Y117.956 E3.99237
G1 X88.089 Y117.267 E4.08933
G1 X89.512 Y116.730 E4.15988
G1 X91.122 Y116.077 E4.24045
G1 X92.679 Y115.391 E4.31936
G1 X94.192 Y114.659 E4.39735
G1 X95.672 Y113.869 E4.47518
G1 X97.128 Y113.005 E4.55368
G1 X98.568 Y112.056 E4.63369
G1 X100.002 Y111.007 E4.71608
G1 X101.439 Y109.847 E4.80175
G1 X102.978 Y108.483 E4.89710
G1 X103.003 Y108.116 F6000.000
G1 F1800
G1 X102.437 Y109.297 E4.93276
G1 E2.93276 F1200.00000
G92 E0
G1 X34.844 Y29.780 F6000.000
G1 E2.00000 F1200.00000
G1 F1800
G1 X34.843 Y44.267 E2.67208
G1 X34.825 Y45.894 E2.74756
G1 X34.758 Y47.091 E2.80316
G1 X34.697 Y47.828 E2.83747
G1 X34.004 Y54.166 E3.13324
G1 X33.831 Y56.005 E3.21896
G1 X33.674 Y58.014 E3.31244
G1 X33.544 Y60.180 E3.41311
G1 X33.454 Y62.490 E3.52033
G1 X33.416 Y64.940 E3.63402
G1 X33.439 Y67.507 E3.75314
G1 X33.517 Y70.149 E3.87573
G1 X33.644 Y72.829 E4.00020
G1 X33.811 Y75.501 E4.12443
G1 X34.011 Y78.123 E4.24642
G1 X34.234 Y80.651 E4.36417
G1 X34.474 Y83.044 E4.47572
G1 X34.723 Y85.254 E4.57888
G1 X34.976 Y87.256 E4.67249
G1 X35.250 Y89.072 E4.75773
G1 X35.564 Y90.740 E4.83646
G1 X35.937 Y92.295 E4.91064
G1 X36.387 Y93.763 E4.98188
G1 X36.940 Y95.205 E5.05350
G1 X37.611 Y96.636 E5.12684
G1 X38.409 Y98.078 E5.20330
G1 X39.358 Y99.578 E5.28567
G1 X40.440 Y101.116 E5.37291
G1 X41.632 Y102.666 E5.46357
G1 X43.245 Y104.586 E5.57994
G1 E3.57994 F1200.00000
G92 E0
G1 X115.156 Y29.780 F6000.000
G1 E2.00000 F1200.00000
G1 F1800
G1 X115.156 Y44.266 E2.67202
G1 X115.175 Y45.895 E2.74758
G1 X115.242 Y47.091 E2.80315
G1 X115.303 Y47.828 E2.83746
G1 X115.996 Y54.166 E3.13323
G1 X116.169 Y56.005 E3.21895
G1 X116.326 Y58.014 E3.31242
G1 X116.456 Y60.180 E3.41309
G1 X116.546 Y62.490 E3.52031
G1 X116.584 Y64.940 E3.63400
G1 X116.561 Y67.507 E3.75311
G1 X116.483 Y70.149 E3.87571
G1 X116.356 Y72.829 E4.00017
G1 X116.189 Y75.501 E4.12440
G1 X115.989 Y78.123 E4.24639
G1 X115.766 Y80.651 E4.36414
G1 X115.526 Y83.044 E4.47569
G1 X115.277 Y85.254 E4.57884
G1 X115.024 Y87.256 E4.67246
G1 X114.750 Y89.072 E4.75769
G1 X114.436 Y90.740 E4.83643
G1 X114.063 Y92.295 E4.91060
G1 X113.613 Y93.763 E4.98184
G1 X113.060 Y95.205 E5.05346
G1 X112.389 Y96.636 E5.12679
G1 X111.591 Y98.078 E5.20326
G1 X110.642 Y99.578 E5.28563
G1 X109.560 Y101.116 E5.37287
G1 X108.368 Y102.666 E5.46353
G1 X106.755 Y104.586 E5.57989
G1 Z0.750 F6000.000
G1 E3.57989 F1200.00000
G92 E0
G1 X47.563 Y109.294 F6000.000
G1 E2.00000 F1200.00000
G1 F1800
G1 X46.997 Y108.113 E2.03593
G1 X47.022 Y108.480 F6000.000
G1 F1800
G1 X48.563 Y109.845 E2.13139
G1 X49.997 Y111.003 E2.21688
G1 X51.433 Y112.054 E2.29944
G1 X52.873 Y113.003 E2.37943
G1 X54.329 Y113.867 E2.45792
G1 X55.809 Y114.657 E2.53574
G1 X57.322 Y115.388 E2.61371
G1 X58.879 Y116.074 E2.69261
G1 X60.489 Y116.727 E2.77317
G1 X61.755 Y117.204 E2.83594
G1 X63.886 Y117.952 E2.94068
G1 X65.661 Y118.498 E3.02682
G1 X67.477 Y118.980 E3.11400
G1 X69.328 Y119.383 E3.20182
G1 X71.203 Y119.689 E3.28998
G1 X73.097 Y119.885 E3.37827
G1 X75.000 Y119.954 E3.46660
G1 X76.903 Y119.885 E3.55493
G1 X78.797 Y119.689 E3.64323
G1 X80.672 Y119.383 E3.73139
G1 X82.523 Y118.980 E3.81920
G1 X84.339 Y118.498 E3.90639
G1 X86.115 Y117.952 E3.99256
G1 X88.248 Y117.203 E4.09740
G1 X89.511 Y116.727 E4.16004
G1 X91.121 Y116.074 E4.24060
G1 X92.678 Y115.388 E4.31949
G1 X94.191 Y114.657 E4.39747
G1 X95.671 Y113.867 E4.47529
G1 X97.127 Y113.003 E4.55378
G1 X98.567 Y112.054 E4.63377
G1 X100.000 Y111.006 E4.71616
G1 X101.437 Y109.845 E4.80182
G1 X102.978 Y108.480 E4.89728
G1 X103.003 Y108.113 F6000.000
G1 F1800
G1 X102.437 Y109.294 E4.93321
G1 E2.93321 F1200.00000
G92 E0
G1 X34.844 Y29.780 F6000.000
G1 E2.00000 F1200.00000
G1 F1800
G1 X34.843 Y44.267 E2.67208
G1 X34.825 Y45.894 E2.74756
G1 X34.758 Y47.091 E2.80316
G1 X34.697 Y47.828 E2.83747
G1 X34.004 Y54.166 E3.13324
G1 X33.831 Y56.005 E3.21896
G1 X33.674 Y58.014 E3.31244
G1 X33.544 Y60.180 E3.41311
G1 X33.454 Y62.490 E3.52033
G1 X33.416 Y64.940 E3.63402
G1 X33.439 Y67.507 E3.75314
G1 X33.517 Y70.149 E3.87573
G1 X33.644 Y72.829 E4.00020
G1 X33.811 Y75.501 E4.12443
G1 X34.011 Y78.123 E4.24642
G1 X34.234 Y80.651 E4.36417
G1 X34.474 Y83.044 E4.47572
G1 X34.723 Y85.254 E4.57887
G1 X34.976 Y87.256 E4.67249
G1 X35.250 Y89.072 E4.75773
G1 X35.564 Y90.740 E4.83646
G1 X35.937 Y92.295 E4.91064
G1 X36.387 Y93.763 E4.98188
G1 X36.940 Y95.205 E5.05349
G1 X37.611 Y96.636 E5.12683
G1 X38.409 Y98.078 E5.20329
G1 X39.359 Y99.578 E5.28566
G1 X40.441 Y101.116 E5.37291
G1 X41.633 Y102.665 E5.46357
G1 X43.245 Y104.584 E5.57985
G1 E3.57985 F1200.00000
G92 E0
G1 X115.156 Y29.780 F6000.000
G1 E2.00000 F1200.00000
G1 F1800
G1 X115.156 Y44.266 E2.67202
G1 X115.175 Y45.895 E2.74758
G1 X115.242 Y47.091 E2.80316
G1 X115.303 Y47.828 E2.83746
G1 X115.996 Y54.166 E3.13323
G1 X116.169 Y56.005 E3.21895
G1 X116.326 Y58.014 E3.31243
G1 X116.456 Y60.180 E3.41310
G1 X116.546 Y62.490 E3.52032
G1 X116.584 Y64.940 E3.63400
G1 X116.561 Y67.507 E3.75312
G1 X116.483 Y70.149 E3.87572
G1 X116.356 Y72.829 E4.00018
G1 X116.189 Y75.501 E4.12441
G1 X115.989 Y78.123 E4.24640
G1 X115.766 Y80.651 E4.36415
G1 X115.526 Y83.044 E4.47570
G1 X115.277 Y85.254 E4.57885
G1 X115.024 Y87.256 E4.67247
G1 X114.750 Y89.072 E4.75770
G1 X114.436 Y90.740 E4.83644
G1 X114.063 Y92.295 E4.91061
G1 X113.613 Y93.763 E4.98185
G1 X113.060 Y95.205 E5.05347
G1 X112.389 Y96.636 E5.12680
G1 X111.591 Y98.078 E5.20327
G1 X110.641 Y99.578 E5.28564
G1 X109.559 Y101.116 E5.37288
G1 X108.367 Y102.665 E5.46354
G1 X106.755 Y104.584 E5.57981
G1 Z1.000 F6000.000
G1 E3.57981 F1200.00000
G92 E0
G1 X47.563 Y109.290 F6000.000
G1 E2.00000 F1200.00000
G1 F1800
G1 X46.997 Y108.111 E2.03617
G1 X47.022 Y108.478 F6000.000
G1 F1800
