; generated by Slic3r 1.3.1-dev (Build b582df12363b11c5b5e1a4337ffac850e4543f71) on 2020-07-23 at 17:28:55

; external perimeters extrusion width = 0.80mm (5.60mm^3/s)
; perimeters extrusion width = 0.80mm (5.60mm^3/s)
; infill extrusion width = 0.80mm (11.20mm^3/s)
; solid infill extrusion width = 0.80mm (5.60mm^3/s)
; top infill extrusion width = 0.45mm (2.97mm^3/s)

M107
;D3D:START:START
T0
M104 S215 T0

G21
G90
M107
T0
G28
G29
M109 T0 S215 T0
G0 F3000
M107
T0
G92 E0
G0 X0 Y149 Z0.1 F3600
G1 Y49 E6.5 F1200
G0 Z1
G92 E0
; Filament gcode

G21 ; set units to millimeters
G90 ; use absolute coordinates
M82 ; use absolute distances for extrusion
G92 E0
G92 E0
G1 Z0.250 F6000.000
G1 E-2.00000 F1200.00000
G92 E0
G1 X39.477 Y40.010 F6000.000
G1 E2.00000 F1200.00000
G1 F900
G1 X40.909 Y38.661 E2.15263
G1 X42.550 Y37.232 E2.32141
G1 X44.202 Y35.907 E2.48572
G1 X45.845 Y34.697 E2.64402
G1 X47.462 Y33.613 E2.79503
G1 X49.057 Y32.659 E2.93921
G1 X50.680 Y31.820 E3.08095
G1 X51.041 Y31.653 E3.11181
G1 X52.736 Y30.956 E3.25398
G1 X54.093 Y30.500 E3.36504
G1 X56.178 Y29.947 E3.53235
G1 X57.951 Y29.590 E3.67262
G1 X59.658 Y29.313 E3.80679
G1 X61.711 Y29.035 E3.96750
G1 X63.935 Y28.773 E4.14119
G1 X66.410 Y28.517 E4.33425
G1 X68.965 Y28.286 E4.53325
G1 X71.632 Y28.081 E4.74074
G1 X74.369 Y27.908 E4.95348
G1 X77.135 Y27.777 E5.16829
G1 X79.890 Y27.696 E5.38211
G1 X82.589 Y27.674 E5.59150
G1 X85.167 Y27.715 E5.79148
G1 X117.884 Y29.106 E8.33181
G1 X119.914 Y29.590 E8.49368
G1 X121.617 Y30.795 E8.65555
G1 X122.748 Y32.549 E8.81742
G1 X123.142 Y34.594 E8.97894
G1 X123.142 Y115.406 E15.24789
G1 X122.746 Y117.455 E15.40976
G1 X121.614 Y119.208 E15.57163
G1 X119.910 Y120.412 E15.73350
G1 X117.884 Y120.894 E15.89502
G1 X85.167 Y122.285 E18.43535
G1 X82.589 Y122.326 E18.63533
G1 X79.890 Y122.304 E18.84472
G1 X77.135 Y122.223 E19.05854
G1 X74.369 Y122.092 E19.27335
G1 X71.632 Y121.919 E19.48609
G1 X68.965 Y121.714 E19.69358
G1 X66.410 Y121.483 E19.89258
G1 X63.935 Y121.227 E20.08564
G1 X61.711 Y120.965 E20.25933
G1 X59.658 Y120.687 E20.42004
G1 X57.951 Y120.410 E20.55421
G1 X56.178 Y120.053 E20.69449
G1 X54.093 Y119.500 E20.86178
G1 X52.736 Y119.044 E20.97285
G1 X51.041 Y118.347 E21.11502
G1 X50.680 Y118.180 E21.14588
G1 X49.057 Y117.341 E21.28762
G1 X47.462 Y116.387 E21.43180
G1 X45.845 Y115.303 E21.58281
G1 X44.202 Y114.093 E21.74111
G1 X42.550 Y112.768 E21.90542
G1 X40.909 Y111.339 E22.07420
G1 X39.477 Y109.990 E22.22683
G1 X37.939 Y108.414 E22.39764
G1 X36.489 Y106.770 E22.56770
G1 X35.149 Y105.061 E22.73613
G1 X34.925 Y104.751 E22.76583
G1 X33.946 Y103.292 E22.90211
G1 X32.903 Y101.495 E23.06328
G1 X32.017 Y99.691 E23.21924
G1 X31.167 Y97.618 E23.39304
G1 X30.571 Y95.887 E23.53499
G1 X30.063 Y94.188 E23.67260
G1 X29.641 Y92.612 E23.79919
G1 X28.785 Y89.091 E24.08023
G1 X28.375 Y87.259 E24.22588
G1 X27.984 Y85.349 E24.37715
G1 X27.628 Y83.367 E24.53333
G1 X27.348 Y81.511 E24.67894
G1 X27.106 Y79.439 E24.84080
G1 X26.944 Y77.314 E25.00611
G1 X26.882 Y75.143 E25.17458
G1 X26.931 Y72.947 E25.34497
G1 X27.106 Y70.561 E25.53051
G1 X27.348 Y68.489 E25.69238
G1 X27.628 Y66.633 E25.83800
G1 X27.984 Y64.651 E25.99417
G1 X28.375 Y62.741 E26.14544
G1 X28.785 Y60.909 E26.29110
G1 X29.641 Y57.388 E26.57213
G1 X30.063 Y55.812 E26.69872
G1 X30.571 Y54.112 E26.83633
G1 X31.167 Y52.382 E26.97828
G1 X31.877 Y50.622 E27.12552
G1 X32.727 Y48.839 E27.27877
G1 X33.738 Y47.044 E27.43860
G1 X33.946 Y46.708 E27.46923
G1 X35.149 Y44.939 E27.63520
G1 X36.281 Y43.481 E27.77837
G1 X37.751 Y41.790 E27.95217
G1 X39.434 Y40.052 E28.13984
G1 X39.988 Y40.553 F6000.000
G1 F900
G1 X41.421 Y39.204 E28.29247
G1 X43.038 Y37.796 E28.45885
G1 X44.668 Y36.490 E28.62083
G1 X46.286 Y35.299 E28.77674
G1 X47.876 Y34.234 E28.92515
G1 X49.437 Y33.301 E29.06627
G1 X51.331 Y32.341 E29.23094
G1 X52.974 Y31.664 E29.36884
G1 X54.331 Y31.207 E29.47991
G1 X56.328 Y30.679 E29.64012
G1 X58.070 Y30.326 E29.77802
G1 X59.777 Y30.049 E29.91218
G1 X61.810 Y29.774 E30.07132
G1 X64.022 Y29.514 E30.24404
G1 X66.477 Y29.260 E30.43556
G1 X69.022 Y29.030 E30.63380
G1 X71.679 Y28.825 E30.84048
G1 X74.404 Y28.654 E31.05233
G1 X77.157 Y28.523 E31.26611
G1 X79.897 Y28.442 E31.47871
G1 X82.577 Y28.420 E31.68669
G1 X85.138 Y28.461 E31.88531
G1 X117.852 Y29.852 E34.42542
G1 X119.731 Y30.328 E34.57578
G1 X121.263 Y31.516 E34.72615
G1 X122.192 Y33.217 E34.87651
G1 X122.396 Y34.594 E34.98445
G1 X122.396 Y115.406 E41.25340
G1 X122.000 Y117.304 E41.40376
G1 X120.879 Y118.885 E41.55412
G1 X119.219 Y119.886 E41.70449
G1 X117.852 Y120.148 E41.81243
G1 X85.138 Y121.539 E44.35254
G1 X82.577 Y121.580 E44.55116
G1 X79.897 Y121.558 E44.75914
G1 X77.157 Y121.477 E44.97174
G1 X74.404 Y121.346 E45.18552
G1 X71.679 Y121.175 E45.39737
G1 X69.022 Y120.970 E45.60405
G1 X66.477 Y120.740 E45.80229
G1 X64.022 Y120.486 E45.99381
G1 X61.810 Y120.226 E46.16652
G1 X59.777 Y119.951 E46.32567
G1 X58.070 Y119.674 E46.45983
G1 X56.328 Y119.321 E46.59773
G1 X54.331 Y118.793 E46.75794
G1 X52.974 Y118.336 E46.86901
G1 X51.331 Y117.659 E47.00691
G1 X49.437 Y116.699 E47.17157
G1 X47.876 Y115.766 E47.31270
G1 X46.286 Y114.701 E47.46111
G1 X44.668 Y113.510 E47.61701
G1 X43.038 Y112.204 E47.77900
G1 X41.421 Y110.796 E47.94538
G1 X39.988 Y109.447 E48.09801
G1 X38.475 Y107.894 E48.26623
G1 X37.050 Y106.278 E48.43336
G1 X35.544 Y104.335 E48.62401
G1 X34.566 Y102.876 E48.76029
G1 X33.551 Y101.125 E48.91730
G1 X32.689 Y99.366 E49.06928
G1 X31.872 Y97.373 E49.23638
G1 X31.286 Y95.673 E49.37588
G1 X30.784 Y93.995 E49.51172
G1 X30.362 Y92.419 E49.63831
G1 X29.513 Y88.928 E49.91699
G1 X29.106 Y87.109 E50.06159
G1 X28.718 Y85.216 E50.21149
G1 X28.366 Y83.256 E50.36598
G1 X28.086 Y81.400 E50.51159
G1 X27.847 Y79.353 E50.67142
G1 X27.689 Y77.259 E50.83435
G1 X27.628 Y75.123 E51.00007
G1 X27.677 Y72.966 E51.16744
G1 X27.847 Y70.647 E51.34786
G1 X28.086 Y68.600 E51.50770
G1 X28.366 Y66.744 E51.65331
G1 X28.718 Y64.784 E51.80780
G1 X29.106 Y62.891 E51.95769
G1 X29.513 Y61.072 E52.10230
G1 X30.362 Y57.581 E52.38097
G1 X30.784 Y56.005 E52.50757
G1 X31.286 Y54.327 E52.64341
G1 X31.872 Y52.627 E52.78291
G1 X32.689 Y50.634 E52.95001
G1 X33.551 Y48.875 E53.10198
G1 X34.566 Y47.124 E53.25900
G1 X35.544 Y45.665 E53.39528
G1 X37.050 Y43.722 E53.58593
G1 X38.475 Y42.106 E53.75306
G1 X39.946 Y40.595 E53.91663
G1 E51.91663 F1200.00000
G92 E0
G1 X117.649 Y34.844 F6000.000
G1 E2.00000 F1200.00000
G1 F900
G1 X103.163 Y34.844 E2.67208
G1 X101.535 Y34.825 E2.74759
G1 X100.339 Y34.758 E2.80317
G1 X99.602 Y34.697 E2.83747
G1 X93.265 Y34.004 E3.13321
G1 X91.426 Y33.831 E3.21890
G1 X89.419 Y33.674 E3.31230
G1 X87.255 Y33.544 E3.41287
G1 X84.897 Y33.453 E3.52235
G1 X82.503 Y33.416 E3.63344
G1 X79.943 Y33.439 E3.75218
G1 X77.309 Y33.517 E3.87446
G1 X74.642 Y33.645 E3.99831
G1 X71.996 Y33.812 E4.12134
G1 X69.409 Y34.012 E4.24171
G1 X66.929 Y34.236 E4.35722
G1 X64.602 Y34.477 E4.46575
G1 X62.474 Y34.727 E4.56516
G1 X60.574 Y34.982 E4.65409
G1 X58.875 Y35.257 E4.73394
G1 X57.343 Y35.571 E4.80649
G1 X55.924 Y35.943 E4.87453
G1 X54.576 Y36.396 E4.94054
G1 X53.276 Y36.943 E5.00596
G1 X51.971 Y37.607 E5.07389
G1 X50.640 Y38.396 E5.14564
G1 X49.236 Y39.331 E5.22393
G1 X47.782 Y40.398 E5.30758
G1 X46.312 Y41.571 E5.39482
G1 X44.840 Y42.847 E5.48519
G1 X43.419 Y44.186 E5.57580
G1 X42.071 Y45.576 E5.66561
G1 X40.812 Y47.011 E5.75419
G1 X39.686 Y48.461 E5.83936
G1 X38.721 Y49.900 E5.91973
G1 X37.895 Y51.346 E5.99700
G1 X37.190 Y52.807 E6.07224
G1 X36.591 Y54.274 E6.14578
G1 X36.071 Y55.771 E6.21931
G1 X35.611 Y57.301 E6.29341
G1 X35.191 Y58.871 E6.36880
G1 X34.391 Y62.168 E6.52618
G1 X34.004 Y63.895 E6.60829
G1 X33.638 Y65.677 E6.69271
G1 X33.310 Y67.488 E6.77806
G1 X33.031 Y69.342 E6.86505
G1 X32.815 Y71.214 E6.95247
G1 X32.677 Y73.096 E7.04001
G1 X32.627 Y75.000 E7.12839
G1 X32.677 Y76.904 E7.21676
G1 X32.815 Y78.786 E7.30430
G1 X33.031 Y80.658 E7.39173
G1 X33.310 Y82.512 E7.47871
G1 X33.638 Y84.323 E7.56407
G1 X34.004 Y86.107 E7.64856
G1 X34.396 Y87.829 E7.73052
G1 X35.191 Y91.129 E7.88797
G1 X35.611 Y92.699 E7.96337
G1 X36.071 Y94.229 E8.03747
G1 X36.591 Y95.726 E8.11099
G1 X37.190 Y97.193 E8.18453
G1 X37.895 Y98.654 E8.25978
G1 X38.721 Y100.100 E8.33704
G1 X39.686 Y101.539 E8.41741
G1 X40.812 Y102.989 E8.50259
G1 X42.071 Y104.424 E8.59116
G1 X43.419 Y105.814 E8.68098
G1 X44.840 Y107.153 E8.77158
G1 X46.312 Y108.429 E8.86195
G1 X47.782 Y109.602 E8.94919
G1 X49.236 Y110.669 E9.03285
G1 X50.640 Y111.604 E9.11114
G1 X51.971 Y112.393 E9.18288
G1 X53.276 Y113.057 E9.25081
G1 X54.576 Y113.604 E9.31624
G1 X55.924 Y114.057 E9.38224
G1 X57.343 Y114.429 E9.45028
G1 X58.875 Y114.743 E9.52284
G1 X60.574 Y115.018 E9.60268
G1 X62.474 Y115.273 E9.69161
G1 X64.602 Y115.523 E9.79103
G1 X66.929 Y115.764 E9.89955
G1 X69.409 Y115.988 E10.01506
G1 X71.996 Y116.188 E10.13544
G1 X74.642 Y116.355 E10.25847
G1 X77.309 Y116.483 E10.38231
G1 X79.943 Y116.561 E10.50459
G1 X82.503 Y116.584 E10.62333
G1 X84.946 Y116.546 E10.73669
G1 X87.255 Y116.456 E10.84390
G1 X89.419 Y116.326 E10.94447
G1 X91.426 Y116.169 E11.03788
G1 X93.265 Y115.996 E11.12356
G1 X99.601 Y115.304 E11.41925
G1 X101.541 Y115.177 E11.50945
G1 X103.163 Y115.159 E11.58467
G1 X117.649 Y115.156 E12.25676
G1 Z0.500 F6000.000
G1 E10.25676 F1200.00000
G92 E0
G1 X117.649 Y34.844 F6000.000
G1 E2.00000 F1200.00000
G1 F1800
G1 X103.164 Y34.844 E2.67203
G1 X101.535 Y34.825 E2.74759
G1 X100.339 Y34.758 E2.80316
G1 X99.602 Y34.697 E2.83747
G1 X93.265 Y34.004 E3.13321
G1 X91.426 Y33.831 E3.21889
G1 X89.419 Y33.674 E3.31229
G1 X87.256 Y33.544 E3.41285
G1 X84.943 Y33.456 E3.52020
G1 X82.503 Y33.416 E3.63341
G1 X79.944 Y33.439 E3.75213
G1 X77.310 Y33.517 E3.87440
G1 X74.644 Y33.645 E3.99823
G1 X71.998 Y33.812 E4.12124
G1 X69.411 Y34.012 E4.24159
G1 X66.932 Y34.236 E4.35708
G1 X64.606 Y34.477 E4.46557
G1 X62.478 Y34.727 E4.56495
G1 X60.579 Y34.982 E4.65384
G1 X58.881 Y35.258 E4.73364
G1 X57.350 Y35.571 E4.80615
G1 X55.933 Y35.944 E4.87414
G1 X54.585 Y36.397 E4.94010
G1 X53.286 Y36.944 E5.00547
G1 X51.983 Y37.608 E5.07335
G1 X50.653 Y38.396 E5.14505
G1 X49.250 Y39.332 E5.22329
G1 X47.797 Y40.398 E5.30690
G1 X46.329 Y41.571 E5.39409
G1 X44.858 Y42.847 E5.48441
G1 X43.438 Y44.186 E5.57496
G1 X42.091 Y45.575 E5.66473
G1 X40.834 Y47.010 E5.75325
G1 X39.709 Y48.460 E5.83838
G1 X38.746 Y49.899 E5.91870
G1 X37.922 Y51.345 E5.99592
G1 X37.219 Y52.806 E6.07114
G1 X36.622 Y54.274 E6.14464
G1 X36.104 Y55.771 E6.21814
G1 X35.646 Y57.301 E6.29222
G1 X35.228 Y58.871 E6.36760
G1 X34.432 Y62.168 E6.52494
G1 X34.046 Y63.895 E6.60705
G1 X33.681 Y65.677 E6.69145
G1 X33.355 Y67.488 E6.77680
G1 X33.076 Y69.342 E6.86378
G1 X32.861 Y71.214 E6.95120
G1 X32.723 Y73.096 E7.03873
G1 X32.673 Y75.000 E7.12711
G1 X32.723 Y76.904 E7.21548
G1 X32.861 Y78.786 E7.30302
G1 X33.076 Y80.658 E7.39044
G1 X33.355 Y82.512 E7.47742
G1 X33.681 Y84.323 E7.56277
G1 X34.046 Y86.107 E7.64724
G1 X34.437 Y87.829 E7.72919
G1 X35.228 Y91.129 E7.88662
G1 X35.646 Y92.699 E7.96199
G1 X36.104 Y94.229 E8.03607
G1 X36.622 Y95.726 E8.10957
G1 X37.219 Y97.194 E8.18308
G1 X37.922 Y98.655 E8.25829
G1 X38.746 Y100.101 E8.33551
G1 X39.709 Y101.540 E8.41584
G1 X40.834 Y102.990 E8.50096
G1 X42.091 Y104.425 E8.58949
G1 X43.438 Y105.814 E8.67925
G1 X44.858 Y107.153 E8.76981
G1 X46.329 Y108.429 E8.86012
G1 X47.797 Y109.602 E8.94732
G1 X49.250 Y110.668 E9.03092
G1 X50.653 Y111.604 E9.10916
G1 X51.983 Y112.392 E9.18086
G1 X53.286 Y113.056 E9.24875
G1 X54.585 Y113.603 E9.31412
G1 X55.933 Y114.056 E9.38007
G1 X57.350 Y114.429 E9.44806
G1 X58.881 Y114.742 E9.52057
G1 X60.579 Y115.018 E9.60037
G1 X62.478 Y115.273 E9.68926
G1 X64.606 Y115.523 E9.78865
G1 X66.932 Y115.764 E9.89714
G1 X69.411 Y115.988 E10.01262
G1 X71.998 Y116.188 E10.13297
G1 X74.644 Y116.355 E10.25598
G1 X77.310 Y116.483 E10.37981
G1 X79.944 Y116.561 E10.50208
G1 X82.503 Y116.584 E10.62080
G1 X84.946 Y116.546 E10.73415
G1 X87.255 Y116.456 E10.84136
G1 X89.419 Y116.326 E10.94192
G1 X91.426 Y116.169 E11.03533
G1 X93.265 Y115.996 E11.12101
G1 X99.601 Y115.304 E11.41669
G1 X101.541 Y115.177 E11.50689
G1 X103.163 Y115.159 E11.58212
G1 X117.649 Y115.156 E12.25420
G1 Z0.750 F6000.000
G1 E10.25420 F1200.00000
G92 E0
G1 X117.649 Y34.844 F6000.000
G1 E2.00000 F1200.00000
G1 F1800
G1 X103.164 Y34.844 E2.67203
G1 X101.535 Y34.825 E2.74759
G1 X100.339 Y34.758 E2.80316
G1 X99.602 Y34.697 E2.83747
G1 X93.265 Y34.004 E3.13321
G1 X91.426 Y33.831 E3.21888
G1 X89.419 Y33.674 E3.31228
G1 X87.256 Y33.544 E3.41283
G1 X84.944 Y33.457 E3.52018
G1 X82.504 Y33.416 E3.63338
G1 X79.945 Y33.439 E3.75209
G1 X77.311 Y33.517 E3.87435
G1 X74.645 Y33.645 E3.99816
G1 X71.999 Y33.812 E4.12115
G1 X69.413 Y34.012 E4.24148
G1 X66.935 Y34.236 E4.35694
G1 X64.609 Y34.477 E4.46540
G1 X62.482 Y34.727 E4.56475
G1 X60.584 Y34.982 E4.65360
G1 X58.887 Y35.258 E4.73335
G1 X57.357 Y35.571 E4.80582
G1 X55.941 Y35.944 E4.87376
G1 X54.595 Y36.397 E4.93967
G1 X53.297 Y36.944 E5.00499
G1 X51.994 Y37.608 E5.07282
G1 X50.666 Y38.396 E5.14447
G1 X49.264 Y39.332 E5.22267
G1 X47.812 Y40.398 E5.30623
G1 X46.345 Y41.571 E5.39337
G1 X44.876 Y42.846 E5.48364
G1 X43.457 Y44.185 E5.57414
G1 X42.111 Y45.574 E5.66386
G1 X40.855 Y47.009 E5.75233
G1 X39.732 Y48.459 E5.83741
G1 X38.771 Y49.898 E5.91769
G1 X37.949 Y51.344 E5.99487
G1 X37.248 Y52.805 E6.07004
G1 X36.653 Y54.273 E6.14352
G1 X36.137 Y55.771 E6.21699
G1 X35.682 Y57.301 E6.29105
G1 X35.266 Y58.871 E6.36641
G1 X34.473 Y62.168 E6.52373
G1 X34.088 Y63.895 E6.60582
G1 X33.724 Y65.677 E6.69022
G1 X33.399 Y67.488 E6.77556
G1 X33.121 Y69.342 E6.86253
G1 X32.907 Y71.214 E6.94995
G1 X32.769 Y73.096 E7.03748
G1 X32.719 Y75.000 E7.12585
G1 X32.769 Y76.904 E7.21422
G1 X32.907 Y78.786 E7.30176
G1 X33.121 Y80.658 E7.38917
G1 X33.399 Y82.512 E7.47615
G1 X33.724 Y84.323 E7.56149
G1 X34.088 Y86.107 E7.64595
G1 X34.477 Y87.829 E7.72789
G1 X35.266 Y91.129 E7.88529
G1 X35.682 Y92.699 E7.96065
G1 X36.137 Y94.229 E8.03471
G1 X36.653 Y95.727 E8.10818
G1 X37.248 Y97.195 E8.18166
G1 X37.949 Y98.656 E8.25683
G1 X38.771 Y100.102 E8.33401
G1 X39.732 Y101.541 E8.41429
G1 X40.855 Y102.991 E8.49937
G1 X42.111 Y104.426 E8.58785
G1 X43.457 Y105.815 E8.67756
G1 X44.876 Y107.154 E8.76806
G1 X46.345 Y108.429 E8.85833
G1 X47.812 Y109.602 E8.94548
G1 X49.264 Y110.668 E9.02904
G1 X50.666 Y111.604 E9.10723
G1 X51.994 Y112.392 E9.17888
G1 X53.297 Y113.056 E9.24671
G1 X54.595 Y113.603 E9.31203
G1 X55.941 Y114.056 E9.37794
G1 X57.357 Y114.429 E9.44589
G1 X58.887 Y114.742 E9.51835
G1 X60.584 Y115.018 E9.59811
G1 X62.482 Y115.273 E9.68695
G1 X64.609 Y115.523 E9.78630
G1 X66.935 Y115.764 E9.89476
G1 X69.413 Y115.988 E10.01022
G1 X71.999 Y116.188 E10.13055
G1 X74.645 Y116.355 E10.25354
G1 X77.311 Y116.483 E10.37735
G1 X79.945 Y116.561 E10.49961
G1 X82.504 Y116.584 E10.61832
G1 X84.947 Y116.546 E10.73166
G1 X87.256 Y116.456 E10.83886
G1 X89.419 Y116.326 E10.93942
G1 X91.426 Y116.169 E11.03282
G1 X93.265 Y115.996 E11.11850
G1 X99.601 Y115.304 E11.41418
G1 X101.541 Y115.177 E11.50438
G1 X103.163 Y115.159 E11.57961
G1 X117.649 Y115.156 E12.25169
G1 Z1.000 F6000.000
G1 E10.25169 F1200.00000
G92 E0
G1 X117.649 Y34.844 F6000.000
G1 E2.00000 F1200.00000
G1 F1800
G1 X103.164 Y34.844 E2.67203
G1 X101.535 Y34.825 E2.74759
G1 X100.339 Y34.758 E2.80316
G1 X99.602 Y34.697 E2.83747
G1 X93.265 Y34.004 E3.13321
G1 X91.427 Y33.831 E3.21888
G1 X89.419 Y33.674 E3.31228
G1 X87.256 Y33.544 E3.41281
G1 X84.944 Y33.458 E3.52016
G1 X82.504 Y33.416 E3.63336
G1 X79.946 Y33.439 E3.75206
G1 X77.312 Y33.517 E3.87430
G1 X74.647 Y33.645 E3.99810
G1 X72.001 Y33.812 E4.12107
G1 X69.416 Y34.012 E4.24137
G1 X66.938 Y34.236 E4.35680
G1 X64.613 Y34.477 E4.46523
G1 X62.487 Y34.727 E4.56454
G1 X60.590 Y34.983 E4.65335
G1 X58.894 Y35.258 E4.73307
G1 X57.365 Y35.572 E4.80548
G1 X55.949 Y35.945 E4.87338
G1 X54.604 Y36.398 E4.93924
G1 X53.307 Y36.944 E5.00451
G1 X52.006 Y37.609 E5.07230
G1 X50.679 Y38.397 E5.14390
G1 X49.278 Y39.332 E5.22204
G1 X47.827 Y40.398 E5.30555
G1 X46.361 Y41.570 E5.39265
G1 X44.893 Y42.846 E5.48287
G1 X43.476 Y44.184 E5.57332
G1 X42.131 Y45.573 E5.66298
G1 X40.877 Y47.008 E5.75141
G1 X39.756 Y48.458 E5.83644
