; generated by Slic3r 1.3.1-dev (Build (Unknown revision)) on 2020-06-18 at 17:10:24

; external perimeters extrusion width = 0.44mm (2.86mm^3/s)
; perimeters extrusion width = 0.56mm (4.14mm^3/s)
; infill extrusion width = 0.50mm (3.66mm^3/s)
; solid infill extrusion width = 0.56mm (3.10mm^3/s)
; top infill extrusion width = 0.45mm (2.44mm^3/s)

M107
G92 E0
;D3D:START:START
T0
M104 S215 T0

G21
G90
M107
T0
G28
G29
M109 T0 S215 T0
G0 F3000
M107
T0
G92 E0
G0 X0 Y149 Z0.1 F3600
G1 Y49 E6.5 F1200
G0 Z1
G92 E0
; Filament gcode

G21 ; set units to millimeters
G90 ; use absolute coordinates
M82 ; use absolute distances for extrusion
G92 E0
G1 Z0.200 F6000.000
G1 E-2.00000 F1200.00000
G92 E0
G1 Z0.700 F6000.000
G1 X34.334 Y39.401 F6000.000
G1 Z0.200 F6000.000
G1 E2.00000 F1200.00000
G1 F1800.000
G1 X35.364 Y38.540 E2.02585
G1 X36.274 Y37.854 E2.04776
G1 X36.812 Y37.477 E2.06041
G1 X38.073 Y36.672 E2.08918
G1 X39.418 Y35.922 E2.11882
G1 X40.038 Y35.638 E2.13192
G1 X47.023 Y32.858 E2.27657
G1 X47.516 Y32.682 E2.28664
G1 X49.134 Y32.168 E2.31929
G1 X51.800 Y31.371 E2.37284
G1 X55.825 Y30.234 E2.45329
G1 X59.393 Y29.297 E2.52427
G1 X60.854 Y28.948 E2.55316
G1 X62.182 Y28.655 E2.57934
G1 X63.857 Y28.327 E2.61216
G1 X65.405 Y28.065 E2.64238
G1 X66.799 Y27.863 E2.66946
G1 X68.326 Y27.677 E2.69906
G1 X69.835 Y27.526 E2.72823
G1 X71.331 Y27.409 E2.75711
G1 X72.845 Y27.327 E2.78628
G1 X74.350 Y27.280 E2.81524
G1 X75.855 Y27.269 E2.84420
G1 X77.355 Y27.292 E2.87307
G1 X78.853 Y27.352 E2.90190
G1 X80.622 Y27.479 E2.93602
G1 X82.257 Y27.663 E2.96768
G1 X83.630 Y27.871 E2.99440
G1 X85.063 Y28.152 E3.02249
G1 X85.780 Y28.307 E3.03661
G1 X87.556 Y28.759 E3.07186
G1 X94.968 Y30.715 E3.21934
G1 X97.497 Y31.435 E3.26992
G1 X99.623 Y32.090 E3.31271
G1 X101.977 Y32.871 E3.36044
G1 X102.574 Y33.080 E3.37260
G1 X103.111 Y33.295 E3.38374
G1 X110.097 Y36.444 E3.53115
G1 X110.923 Y36.887 E3.54919
G1 X112.238 Y37.766 E3.57962
G1 X113.409 Y38.653 E3.60789
G1 X113.939 Y39.090 E3.62110
G1 X114.550 Y39.632 E3.63681
G1 X115.226 Y40.304 E3.65515
G1 X115.572 Y40.684 E3.66503
G1 X116.255 Y41.532 E3.68599
G1 X116.909 Y42.502 E3.70849
G1 X117.502 Y43.564 E3.73189
G1 X118.022 Y44.697 E3.75588
G1 X118.472 Y45.891 E3.78042
G1 X118.866 Y47.153 E3.80586
G1 X119.220 Y48.512 E3.83288
G1 X119.543 Y49.988 E3.86195
G1 X119.872 Y51.779 E3.89698
G1 X120.145 Y53.537 E3.93121
G1 X120.389 Y55.359 E3.96658
G1 X120.639 Y57.536 E4.00873
G1 X120.875 Y59.938 E4.05517
G1 X121.095 Y62.575 E4.10608
G1 X121.304 Y65.481 E4.16213
G1 X121.490 Y68.449 E4.21933
G1 X121.669 Y71.684 E4.28166
G1 X121.977 Y78.417 E4.41134
G1 X122.118 Y82.110 E4.48245
G1 X122.343 Y89.316 E4.62114
G1 X122.435 Y93.137 E4.69468
G1 X122.509 Y97.587 E4.78030
G1 X122.522 Y102.336 E4.87166
G1 X122.463 Y105.964 E4.94147
G1 X122.387 Y107.844 E4.97767
G1 X122.182 Y110.965 E5.03784
G1 X121.938 Y113.577 E5.08831
G1 X121.575 Y116.768 E5.15010
G1 X120.908 Y118.989 E5.19471
G1 X119.532 Y120.855 E5.23932
G1 X117.606 Y122.148 E5.28394
G1 X114.845 Y122.733 E5.33825
G1 X33.964 Y122.649 E6.89428
G1 X31.680 Y122.249 E6.93889
G1 X29.664 Y121.103 E6.98350
G1 X28.154 Y119.343 E7.02812
G1 X27.235 Y116.564 E7.08443
G1 X27.101 Y115.172 E7.11134
G1 X26.886 Y112.564 E7.16169
G1 X26.664 Y109.220 E7.22615
G1 X26.562 Y107.226 E7.26456
G1 X26.472 Y104.900 E7.30935
G1 X26.413 Y102.438 E7.35673
G1 X26.380 Y99.370 E7.41575
G1 X26.388 Y95.502 E7.49017
G1 X26.464 Y89.960 E7.59680
G1 X26.589 Y84.504 E7.70180
G1 X26.806 Y77.571 E7.83525
G1 X27.080 Y70.985 E7.96205
G1 X27.241 Y67.854 E8.02238
G1 X27.415 Y64.911 E8.07910
G1 X27.606 Y62.146 E8.13242
G1 X27.813 Y59.579 E8.18196
G1 X28.048 Y57.142 E8.22906
G1 X28.292 Y55.008 E8.27038
G1 X28.537 Y53.180 E8.30587
G1 X28.784 Y51.598 E8.33668
G1 X29.109 Y49.834 E8.37118
G1 X29.431 Y48.379 E8.39984
G1 X29.789 Y47.026 E8.42678
G1 X30.148 Y45.883 E8.44982
G1 X30.464 Y45.027 E8.46738
G1 X30.928 Y43.954 E8.48987
G1 X31.463 Y42.927 E8.51215
G1 X31.696 Y42.529 E8.52102
G1 X32.069 Y41.957 E8.53416
G1 X32.732 Y41.068 E8.55551
G1 X33.422 Y40.283 E8.57560
G1 X34.289 Y39.442 E8.59884
G1 X34.502 Y39.596 F6000.000
G1 F1800.000
G1 X35.522 Y38.743 E8.62441
G1 X36.426 Y38.061 E8.64620
G1 X36.959 Y37.688 E8.65872
G1 X38.203 Y36.894 E8.68711
G1 X39.537 Y36.150 E8.71650
G1 X40.133 Y35.877 E8.72910
G1 X47.118 Y33.096 E8.87376
G1 X47.595 Y32.927 E8.88349
G1 X49.211 Y32.413 E8.91610
G1 X51.873 Y31.617 E8.96956
G1 X55.892 Y30.482 E9.04991
G1 X59.456 Y29.547 E9.12080
G1 X60.909 Y29.199 E9.14955
G1 X62.238 Y28.906 E9.17572
G1 X63.900 Y28.580 E9.20830
G1 X65.442 Y28.319 E9.23840
G1 X66.835 Y28.117 E9.26548
G1 X68.357 Y27.932 E9.29497
G1 X69.860 Y27.782 E9.32403
G1 X71.351 Y27.666 E9.35280
G1 X72.859 Y27.583 E9.38185
G1 X74.357 Y27.537 E9.41070
G1 X75.856 Y27.526 E9.43954
G1 X77.351 Y27.549 E9.46829
G1 X78.842 Y27.609 E9.49700
G1 X80.594 Y27.735 E9.53080
G1 X82.219 Y27.917 E9.56225
G1 X83.591 Y28.126 E9.58896
G1 X85.012 Y28.404 E9.61681
G1 X85.717 Y28.556 E9.63069
G1 X87.492 Y29.009 E9.66593
G1 X94.900 Y30.963 E9.81332
G1 X97.424 Y31.681 E9.86380
G1 X99.544 Y32.334 E9.90648
G1 X101.894 Y33.114 E9.95412
G1 X102.488 Y33.322 E9.96624
G1 X103.005 Y33.529 E9.97695
G1 X109.991 Y36.678 E10.12437
G1 X110.786 Y37.105 E10.14172
G1 X112.090 Y37.977 E10.17191
G1 X113.247 Y38.852 E10.19981
G1 X113.770 Y39.284 E10.21287
G1 X114.372 Y39.818 E10.22834
G1 X115.036 Y40.476 E10.24634
G1 X115.382 Y40.857 E10.25623
G1 X116.051 Y41.689 E10.27678
G1 X116.693 Y42.641 E10.29886
G1 X117.275 Y43.685 E10.32186
G1 X117.786 Y44.801 E10.34547
G1 X118.230 Y45.979 E10.36969
G1 X118.620 Y47.227 E10.39486
G1 X118.971 Y48.576 E10.42166
G1 X119.292 Y50.042 E10.45054
G1 X119.618 Y51.819 E10.48529
G1 X119.890 Y53.571 E10.51941
G1 X120.134 Y55.394 E10.55478
G1 X120.384 Y57.565 E10.59684
G1 X120.627 Y60.056 E10.64498
G1 X120.839 Y62.597 E10.69403
G1 X121.047 Y65.497 E10.74998
G1 X121.234 Y68.465 E10.80718
G1 X121.412 Y71.696 E10.86945
G1 X121.720 Y78.428 E10.99909
G1 X121.861 Y82.119 E11.07015
G1 X122.086 Y89.322 E11.20881
G1 X122.178 Y93.143 E11.28233
G1 X122.252 Y97.589 E11.36788
G1 X122.265 Y102.335 E11.45917
G1 X122.206 Y105.954 E11.52881
G1 X122.130 Y107.830 E11.56493
G1 X121.925 Y110.943 E11.62495
G1 X121.683 Y113.550 E11.67533
G1 X121.319 Y116.738 E11.73705
G1 X120.659 Y118.914 E11.78080
G1 X119.290 Y120.730 E11.82455
G1 X117.381 Y121.965 E11.86830
G1 X114.845 Y122.476 E11.91808
G1 X33.964 Y122.392 E13.47411
G1 X31.726 Y121.992 E13.51786
G1 X29.761 Y120.848 E13.56161
G1 X28.309 Y119.098 E13.60536
G1 X27.491 Y116.538 E13.65705
G1 X27.357 Y115.150 E13.68389
G1 X27.142 Y112.545 E13.73416
G1 X26.920 Y109.204 E13.79858
G1 X26.815 Y107.133 E13.83848
G1 X26.729 Y104.894 E13.88159
G1 X26.670 Y102.432 E13.92897
G1 X26.637 Y99.369 E13.98790
G1 X26.645 Y95.504 E14.06226
G1 X26.721 Y89.964 E14.16884
G1 X26.846 Y84.511 E14.27378
G1 X27.063 Y77.579 E14.40720
G1 X27.337 Y70.997 E14.53396
G1 X27.502 Y67.785 E14.59583
G1 X27.672 Y64.928 E14.65089
G1 X27.862 Y62.166 E14.70416
G1 X28.069 Y59.603 E14.75362
G1 X28.303 Y57.171 E14.80062
G1 X28.547 Y55.042 E14.84184
G1 X28.791 Y53.219 E14.87724
G1 X29.038 Y51.637 E14.90803
G1 X29.361 Y49.889 E14.94224
G1 X29.680 Y48.444 E14.97071
G1 X30.034 Y47.102 E14.99742
G1 X30.390 Y45.969 E15.02025
G1 X30.705 Y45.116 E15.03775
G1 X31.163 Y44.059 E15.05991
G1 X31.689 Y43.049 E15.08182
G1 X31.913 Y42.666 E15.09035
G1 X32.284 Y42.097 E15.10342
G1 X32.935 Y41.226 E15.12435
G1 X33.612 Y40.457 E15.14405
G1 X34.458 Y39.636 E15.16673
G1 X34.671 Y39.790 F6000.000
G1 F1800.000
G1 X35.679 Y38.946 E15.19203
G1 X36.578 Y38.268 E15.21368
G1 X37.106 Y37.899 E15.22608
G1 X38.332 Y37.116 E15.25408
G1 X39.656 Y36.378 E15.28323
G1 X40.228 Y36.116 E15.29533
G1 X47.213 Y33.335 E15.43998
G1 X47.674 Y33.171 E15.44939
G1 X49.288 Y32.659 E15.48196
G1 X51.945 Y31.864 E15.53532
G1 X55.960 Y30.730 E15.61558
G1 X59.519 Y29.796 E15.68639
G1 X60.965 Y29.449 E15.71499
G1 X62.293 Y29.157 E15.74114
G1 X63.943 Y28.834 E15.77349
G1 X65.479 Y28.574 E15.80347
G1 X66.872 Y28.372 E15.83055
G1 X68.388 Y28.187 E15.85992
G1 X69.885 Y28.038 E15.88887
G1 X71.371 Y27.922 E15.91753
G1 X72.872 Y27.840 E15.94646
G1 X74.365 Y27.794 E15.97520
G1 X75.858 Y27.783 E16.00392
G1 X77.347 Y27.806 E16.03257
G1 X78.831 Y27.866 E16.06115
G1 X80.567 Y27.991 E16.09463
G1 X82.180 Y28.171 E16.12586
G1 X83.553 Y28.380 E16.15257
G1 X84.961 Y28.656 E16.18018
G1 X85.653 Y28.805 E16.19381
G1 X87.429 Y29.258 E16.22905
G1 X94.832 Y31.211 E16.37635
G1 X97.351 Y31.928 E16.42673
G1 X99.421 Y32.565 E16.46841
G1 X101.811 Y33.357 E16.51684
G1 X102.900 Y33.764 E16.53921
G1 X109.885 Y36.912 E16.68662
G1 X110.649 Y37.322 E16.70329
G1 X111.943 Y38.187 E16.73324
G1 X113.084 Y39.051 E16.76077
G1 X113.601 Y39.478 E16.77368
G1 X114.194 Y40.003 E16.78891
G1 X114.846 Y40.649 E16.80657
G1 X115.192 Y41.030 E16.81646
G1 X115.848 Y41.846 E16.83662
G1 X116.477 Y42.780 E16.85827
G1 X117.048 Y43.806 E16.88086
G1 X117.551 Y44.904 E16.90410
G1 X117.989 Y46.067 E16.92801
G1 X118.374 Y47.302 E16.95290
G1 X118.722 Y48.639 E16.97948
G1 X119.040 Y50.096 E17.00817
G1 X119.364 Y51.859 E17.04264
G1 X119.635 Y53.605 E17.07665
G1 X119.879 Y55.428 E17.11202
G1 X120.128 Y57.594 E17.15398
G1 X120.371 Y60.077 E17.20197
G1 X120.582 Y62.618 E17.25102
G1 X120.791 Y65.513 E17.30687
G1 X120.977 Y68.481 E17.36407
G1 X121.155 Y71.709 E17.42627
G1 X121.464 Y78.439 E17.55589
G1 X121.604 Y82.128 E17.62690
G1 X121.829 Y89.329 E17.76551
G1 X121.921 Y93.148 E17.83902
G1 X121.995 Y97.591 E17.92449
G1 X122.008 Y102.333 E18.01573
G1 X121.949 Y105.944 E18.08520
G1 X121.873 Y107.815 E18.12123
G1 X121.669 Y110.920 E18.18111
G1 X121.427 Y113.522 E18.23138
G1 X121.064 Y116.707 E18.29305
G1 X120.409 Y118.837 E18.33592
G1 X119.049 Y120.602 E18.37879
G1 X117.157 Y121.779 E18.42166
G1 X114.845 Y122.219 E18.46693
G1 X33.965 Y122.135 E20.02296
G1 X31.772 Y121.736 E20.06583
G1 X29.859 Y120.593 E20.10870
G1 X28.467 Y118.853 E20.15158
G1 X27.746 Y116.512 E20.19870
G1 X27.613 Y115.128 E20.22546
G1 X27.399 Y112.527 E20.27566
G1 X27.177 Y109.188 E20.34003
G1 X27.072 Y107.123 E20.37981
G1 X26.986 Y104.888 E20.42286
G1 X26.927 Y102.426 E20.47024
G1 X26.894 Y99.367 E20.52908
G1 X26.902 Y95.506 E20.60336
G1 X26.978 Y89.969 E20.70991
G1 X27.103 Y84.519 E20.81478
G1 X27.319 Y77.588 E20.94818
G1 X27.594 Y71.008 E21.07488
G1 X27.760 Y67.783 E21.13701
G1 X27.928 Y64.945 E21.19171
G1 X28.118 Y62.185 E21.24492
G1 X28.325 Y59.626 E21.29431
G1 X28.559 Y57.200 E21.34121
G1 X28.801 Y55.076 E21.38234
G1 X29.045 Y53.258 E21.41763
G1 X29.292 Y51.677 E21.44841
G1 X29.612 Y49.943 E21.48233
G1 X29.929 Y48.508 E21.51061
G1 X30.252 Y47.271 E21.53520
G1 X30.632 Y46.055 E21.55971
G1 X31.065 Y44.909 E21.58330
G1 X31.611 Y43.732 E21.60825
G1 X32.130 Y42.804 E21.62871
G1 X32.499 Y42.238 E21.64171
G1 X32.804 Y41.812 E21.65179
G1 X33.138 Y41.384 E21.66223
G1 X33.801 Y40.630 E21.68154
G1 X34.626 Y39.830 E21.70365
G1 E19.70365 F1200.00000
G92 E0
G1 Z0.700 F6000.000
G1 X114.755 Y115.951 F6000.000
G1 Z0.200 F6000.000
G1 E2.00000 F1200.00000
G1 F1800.000
G1 X114.986 Y113.956 E2.02376
G1 X115.224 Y111.648 E2.05121
G1 X115.335 Y110.366 E2.06643
G1 X115.529 Y107.450 E2.10102
G1 X115.599 Y105.692 E2.12184
G1 X115.645 Y103.591 E2.14671
G1 X115.661 Y100.986 E2.17753
G1 X115.638 Y97.451 E2.21935
G1 X115.548 Y92.409 E2.27903
G1 X115.365 Y85.806 E2.35718
G1 X115.248 Y82.176 E2.40015
G1 X114.968 Y75.305 E2.48152
G1 X114.803 Y72.017 E2.52048
G1 X114.449 Y65.912 E2.59283
G1 X114.250 Y63.145 E2.62566
G1 X114.039 Y60.605 E2.65581
G1 X113.815 Y58.316 E2.68303
G1 X113.581 Y56.269 E2.70741
G1 X113.337 Y54.449 E2.72914
G1 X113.086 Y52.841 E2.74839
G1 X112.828 Y51.433 E2.76533
G1 X112.564 Y50.208 E2.78016
G1 X112.294 Y49.150 E2.79308
G1 X112.018 Y48.241 E2.80432
G1 X111.734 Y47.461 E2.81414
G1 X111.439 Y46.793 E2.82278
G1 X111.134 Y46.220 E2.83046
G1 X110.814 Y45.724 E2.83745
G1 X110.487 Y45.301 E2.84376
G1 X110.147 Y44.927 E2.84976
G1 X109.795 Y44.589 E2.85552
G1 X109.061 Y43.970 E2.86689
G1 X108.298 Y43.392 E2.87821
G1 X107.314 Y42.731 E2.89224
G1 E0.89224 F1200.00000
G92 E0
G1 Z0.700 F6000.000
G1 X42.542 Y42.039 F6000.000
G1 Z0.200 F6000.000
G1 E2.00000 F1200.00000
G1 F1800.000
G1 X41.546 Y42.601 E2.01366
G1 X40.730 Y43.122 E2.02523
G1 X39.572 Y43.969 E2.04236
G1 X38.838 Y44.587 E2.05383
G1 X38.486 Y44.923 E2.05963
G1 X38.149 Y45.292 E2.06560
G1 X37.817 Y45.717 E2.07204
G1 X37.500 Y46.202 E2.07896
G1 X37.198 Y46.760 E2.08654
G1 X36.905 Y47.414 E2.09511
G1 X36.623 Y48.176 E2.10481
G1 X36.348 Y49.065 E2.11593
G1 X36.081 Y50.096 E2.12864
G1 X35.822 Y51.289 E2.14323
G1 X35.570 Y52.661 E2.15988
G1 X35.325 Y54.225 E2.17880
G1 X35.090 Y55.996 E2.20014
G1 X34.865 Y57.987 E2.22407
G1 X34.652 Y60.211 E2.25076
G1 X34.454 Y62.677 E2.28030
G1 X34.269 Y65.363 E2.31246
G1 X34.098 Y68.243 E2.34692
G1 X33.942 Y71.292 E2.38339
G1 X33.670 Y77.808 E2.46128
G1 X33.455 Y84.702 E2.54366
G1 X33.331 Y90.074 E2.60785
G1 X33.259 Y95.557 E2.67335
G1 X33.248 Y99.329 E2.71839
G1 X33.279 Y102.274 E2.75357
G1 X33.338 Y104.734 E2.78297
G1 X33.524 Y108.795 E2.83152
G1 X33.630 Y110.525 E2.85222
G1 X33.850 Y113.435 E2.88708
G1 X34.068 Y115.868 E2.91625
G1 E0.91625 F1200.00000
G92 E0
G1 Z0.700 F6000.000
G1 X100.329 Y39.571 F6000.000
G1 Z0.200 F6000.000
G1 E2.00000 F1200.00000
G1 F1800.000
G1 X97.513 Y38.630 E2.03367
G1 X94.482 Y37.714 E2.06959
G1 X92.715 Y37.226 E2.09037
G1 X88.696 Y36.196 E2.13743
G1 X86.796 Y35.686 E2.15974
G1 X85.858 Y35.415 E2.17082
G1 X84.086 Y34.963 E2.19156
G1 X82.595 Y34.661 E2.20882
G1 X81.228 Y34.454 E2.22449
G1 X79.893 Y34.309 E2.23973
G1 X78.531 Y34.213 E2.25521
G1 X77.239 Y34.160 E2.26988
G1 X75.933 Y34.138 E2.28469
G1 X74.551 Y34.146 E2.30036
G1 X73.203 Y34.191 E2.31567
G1 X71.859 Y34.262 E2.33093
G1 X70.507 Y34.362 E2.34631
G1 X69.148 Y34.496 E2.36179
G1 X67.780 Y34.661 E2.37742
G1 X66.396 Y34.862 E2.39328
G1 X65.010 Y35.098 E2.40923
G1 X63.658 Y35.363 E2.42486
G1 X62.346 Y35.652 E2.44010
G1 X59.905 Y36.256 E2.46862
G1 X58.720 Y36.569 E2.48252
G1 X56.581 Y37.152 E2.50766
G1 X53.731 Y37.962 E2.54127
G1 X51.189 Y38.722 E2.57136
G1 X49.528 Y39.251 E2.59113
G1 Z0.400 F6000.000
G1 E0.59113 F1200.00000
G92 E0
G1 Z0.900 F6000.000
G1 X114.756 Y115.951 F6000.000
G1 Z0.400 F6000.000
G1 E2.00000 F1200.00000
G1 F2160.000
G1 X114.989 Y113.934 E2.02401
G1 X115.228 Y111.613 E2.05162
G1 X115.339 Y110.328 E2.06688
G1 X115.535 Y107.400 E2.10160
G1 X115.605 Y105.635 E2.12250
G1 X115.650 Y103.525 E2.14747
G1 X115.666 Y100.909 E2.17842
G1 X115.644 Y97.470 E2.21910
G1 X115.550 Y92.259 E2.28077
G1 X115.373 Y85.830 E2.35685
G1 X115.238 Y81.741 E2.40526
G1 X114.972 Y75.322 E2.48126
G1 X114.644 Y68.891 E2.55744
G1 X114.452 Y65.924 E2.59262
G1 X114.260 Y63.154 E2.62547
G1 X114.049 Y60.614 E2.65562
G1 X113.825 Y58.324 E2.68284
G1 X113.592 Y56.277 E2.70722
G1 X113.349 Y54.456 E2.72895
G1 X113.098 Y52.848 E2.74821
G1 X112.840 Y51.440 E2.76515
G1 X112.577 Y50.215 E2.77997
G1 X112.307 Y49.157 E2.79288
G1 X112.032 Y48.249 E2.80410
G1 X111.748 Y47.470 E2.81391
G1 X111.455 Y46.802 E2.82255
G1 X111.150 Y46.230 E2.83022
G1 X110.830 Y45.734 E2.83720
G1 X110.504 Y45.312 E2.84351
G1 X110.164 Y44.937 E2.84950
G1 X109.812 Y44.600 E2.85526
G1 X109.079 Y43.980 E2.86662
G1 X108.317 Y43.403 E2.87793
G1 X107.314 Y42.730 E2.89222
G1 E0.89222 F1200.00000
G92 E0
G1 Z0.900 F6000.000
G1 X42.542 Y42.040 F6000.000
G1 Z0.400 F6000.000
G1 E2.00000 F1200.00000
G1 F2160.000
G1 X41.526 Y42.613 E2.01397
G1 X40.711 Y43.133 E2.02555
G1 X39.570 Y43.967 E2.04246
G1 X38.835 Y44.585 E2.05396
G1 X38.469 Y44.933 E2.06000
G1 X38.132 Y45.302 E2.06598
G1 X37.814 Y45.709 E2.07217
G1 X37.485 Y46.211 E2.07936
G1 X37.183 Y46.769 E2.08696
G1 X36.891 Y47.423 E2.09553
G1 X36.609 Y48.184 E2.10525
G1 X36.335 Y49.072 E2.11637
G1 X36.069 Y50.102 E2.12911
G1 X35.810 Y51.295 E2.14372
G1 X35.558 Y52.666 E2.16041
G1 X35.314 Y54.231 E2.17937
G1 X35.079 Y56.002 E2.20077
G1 X34.854 Y57.993 E2.22475
G1 X34.642 Y60.217 E2.25150
G1 X34.444 Y62.684 E2.28113
G1 X34.090 Y68.251 E2.34791
G1 X33.812 Y74.124 E2.41831
G1 X33.662 Y77.820 E2.46259
G1 X33.451 Y84.625 E2.54411
G1 X33.326 Y90.060 E2.60920
