; generated by Slic3r 1.3.1-dev (Build 54a31ee) on 2020-03-18 at 21:11:57

; external perimeters extrusion width = 0.44mm (2.86mm^3/s)
; perimeters extrusion width = 0.56mm (4.14mm^3/s)
; infill extrusion width = 0.50mm (3.66mm^3/s)
; solid infill extrusion width = 0.56mm (3.10mm^3/s)
; top infill extrusion width = 0.45mm (2.44mm^3/s)

M107
G92 E0
;D3D:START:START
T0
M104 S215 T0

G21
G90
M107
T0
G28
G29
M109 T0 S215 T0
G0 F3000
M107
T0
G92 E0
G0 X0 Y149 Z0.1 F3600
G1 Y49 E6.5 F1200
G0 Z1
G92 E0
; Filament gcode

G21 ; set units to millimeters
G90 ; use absolute coordinates
M82 ; use absolute distances for extrusion
G92 E0
G1 Z0.200 F6000.000
G1 E-2.00000 F1200.00000
G92 E0
G1 Z0.700 F6000.000
G1 X65.391 Y61.309 F6000.000
G1 Z0.200 F6000.000
G1 E2.00000 F1200.00000
G1 F1800.000
G1 X67.535 Y60.421 E2.04464
G1 X85.799 Y60.421 E2.39602
G1 X87.943 Y61.309 E2.44067
G1 X88.831 Y63.453 E2.48531
G1 X88.831 Y75.717 E2.72126
G1 X87.943 Y77.861 E2.76591
G1 X85.799 Y78.750 E2.81055
G1 X67.535 Y78.750 E3.16193
G1 X65.391 Y77.861 E3.20658
G1 X64.502 Y75.717 E3.25122
G1 X64.502 Y63.453 E3.48717
G1 X65.368 Y61.365 E3.53066
G1 X65.587 Y61.506 F6000.000
G1 F1800.000
G1 X67.586 Y60.678 E3.57227
G1 X85.748 Y60.678 E3.92169
G1 X87.746 Y61.506 E3.96330
G1 X88.574 Y63.504 E4.00491
G1 X88.574 Y75.666 E4.23889
G1 X87.746 Y77.665 E4.28051
G1 X85.748 Y78.492 E4.32212
G1 X67.586 Y78.492 E4.67153
G1 X65.587 Y77.665 E4.71314
G1 X64.760 Y75.666 E4.75476
G1 X64.760 Y63.504 E4.98874
G1 X65.564 Y61.561 E5.02920
G1 X65.784 Y61.703 F6000.000
G1 F1800.000
G1 X67.637 Y60.935 E5.06777
G1 X85.696 Y60.935 E5.41522
G1 X87.549 Y61.703 E5.45380
G1 X88.317 Y63.556 E5.49238
G1 X88.317 Y75.615 E5.72439
G1 X87.549 Y77.468 E5.76297
G1 X85.696 Y78.235 E5.80155
G1 X67.637 Y78.235 E6.14900
G1 X65.784 Y77.468 E6.18758
G1 X65.017 Y75.615 E6.22616
G1 X65.017 Y63.556 E6.45817
G1 X65.761 Y61.758 E6.49560
G1 X65.688 Y61.315 F6000.000
G1 E4.49560 F1200.00000
G92 E0
G1 Z0.700 F6000.000
G1 X69.834 Y58.417 F6000.000
G1 Z0.200 F6000.000
G1 E2.00000 F1200.00000
G1 F1800.000
G1 X69.681 Y58.177 E2.00548
G1 X69.560 Y57.919 E2.01095
G1 X69.472 Y57.649 E2.01642
G1 X69.419 Y57.369 E2.02189
G1 X69.401 Y57.085 E2.02737
G1 X69.419 Y56.801 E2.03284
G1 X69.472 Y56.522 E2.03832
G1 X69.560 Y56.251 E2.04379
G1 X69.681 Y55.994 E2.04926
G1 X69.834 Y55.754 E2.05474
G1 X70.015 Y55.534 E2.06021
G1 X70.223 Y55.340 E2.06568
G1 X70.453 Y55.173 E2.07116
G1 X70.702 Y55.035 E2.07663
G1 X70.967 Y54.931 E2.08210
G1 X71.242 Y54.860 E2.08758
G1 X71.524 Y54.824 E2.09305
G1 X71.809 Y54.824 E2.09852
G1 X72.091 Y54.860 E2.10399
G1 X72.367 Y54.931 E2.10947
G1 X72.631 Y55.035 E2.11494
G1 X72.881 Y55.173 E2.12042
G1 X73.111 Y55.340 E2.12589
G1 X73.318 Y55.534 E2.13136
G1 X73.500 Y55.754 E2.13684
G1 X73.652 Y55.994 E2.14231
G1 X73.773 Y56.251 E2.14778
G1 X73.861 Y56.522 E2.15326
G1 X73.914 Y56.802 E2.15873
G1 X73.932 Y57.085 E2.16420
G1 X73.914 Y57.369 E2.16968
G1 X73.861 Y57.649 E2.17515
G1 X73.773 Y57.919 E2.18063
G1 X73.652 Y58.177 E2.18610
G1 X73.500 Y58.417 E2.19157
G1 X73.318 Y58.636 E2.19705
G1 X73.111 Y58.831 E2.20252
G1 X72.881 Y58.998 E2.20799
G1 X72.631 Y59.135 E2.21346
G1 X72.367 Y59.240 E2.21894
G1 X72.091 Y59.311 E2.22441
G1 X71.809 Y59.346 E2.22988
G1 X71.524 Y59.346 E2.23536
G1 X71.242 Y59.311 E2.24083
G1 X70.967 Y59.240 E2.24631
G1 X70.702 Y59.135 E2.25178
G1 X70.453 Y58.998 E2.25725
G1 X70.223 Y58.831 E2.26272
G1 X70.015 Y58.636 E2.26820
G1 X69.872 Y58.463 E2.27252
G1 X70.042 Y58.266 F6000.000
G1 F1800.000
G1 X69.907 Y58.053 E2.27737
G1 X69.800 Y57.824 E2.28222
G1 X69.722 Y57.585 E2.28707
G1 X69.675 Y57.337 E2.29192
G1 X69.659 Y57.085 E2.29677
G1 X69.675 Y56.834 E2.30162
G1 X69.722 Y56.586 E2.30648
G1 X69.800 Y56.346 E2.31133
G1 X69.907 Y56.118 E2.31618
G1 X70.042 Y55.905 E2.32103
G1 X70.203 Y55.711 E2.32588
G1 X70.387 Y55.538 E2.33073
G1 X70.591 Y55.390 E2.33558
G1 X70.812 Y55.269 E2.34043
G1 X71.046 Y55.176 E2.34528
G1 X71.290 Y55.113 E2.35013
G1 X71.541 Y55.081 E2.35499
G1 X71.793 Y55.081 E2.35984
G1 X72.043 Y55.113 E2.36469
G1 X72.287 Y55.176 E2.36954
G1 X72.522 Y55.269 E2.37439
G1 X72.743 Y55.390 E2.37924
G1 X72.947 Y55.538 E2.38409
G1 X73.130 Y55.711 E2.38894
G1 X73.291 Y55.905 E2.39380
G1 X73.426 Y56.118 E2.39864
G1 X73.534 Y56.346 E2.40350
G1 X73.612 Y56.586 E2.40835
G1 X73.659 Y56.834 E2.41320
G1 X73.675 Y57.085 E2.41805
G1 X73.659 Y57.337 E2.42290
G1 X73.612 Y57.585 E2.42775
G1 X73.534 Y57.825 E2.43260
G1 X73.426 Y58.053 E2.43745
G1 X73.291 Y58.266 E2.44230
G1 X73.130 Y58.460 E2.44716
G1 X72.947 Y58.632 E2.45201
G1 X72.743 Y58.781 E2.45686
G1 X72.522 Y58.902 E2.46171
G1 X72.287 Y58.995 E2.46656
G1 X72.043 Y59.058 E2.47141
G1 X71.793 Y59.089 E2.47626
G1 X71.541 Y59.089 E2.48111
G1 X71.290 Y59.058 E2.48596
G1 X71.046 Y58.995 E2.49082
G1 X70.812 Y58.902 E2.49567
G1 X70.591 Y58.781 E2.50052
G1 X70.387 Y58.632 E2.50537
G1 X70.203 Y58.460 E2.51022
G1 X70.081 Y58.312 E2.51392
G1 X70.251 Y58.114 F6000.000
G1 F1800.000
G1 X70.133 Y57.929 E2.51814
G1 X70.039 Y57.730 E2.52237
G1 X69.971 Y57.521 E2.52660
G1 X69.930 Y57.305 E2.53083
G1 X69.916 Y57.085 E2.53506
G1 X69.930 Y56.866 E2.53929
G1 X69.971 Y56.650 E2.54352
G1 X70.039 Y56.441 E2.54775
G1 X70.133 Y56.242 E2.55197
G1 X70.251 Y56.057 E2.55620
G1 X70.391 Y55.887 E2.56043
G1 X70.551 Y55.737 E2.56466
G1 X70.729 Y55.608 E2.56889
G1 X70.921 Y55.502 E2.57312
G1 X71.126 Y55.421 E2.57735
G1 X71.339 Y55.366 E2.58158
G1 X71.557 Y55.339 E2.58581
G1 X71.777 Y55.339 E2.59003
G1 X71.995 Y55.366 E2.59426
G1 X72.208 Y55.421 E2.59849
G1 X72.412 Y55.502 E2.60272
G1 X72.605 Y55.608 E2.60695
G1 X72.782 Y55.737 E2.61118
G1 X72.943 Y55.887 E2.61541
G1 X73.083 Y56.057 E2.61964
G1 X73.200 Y56.242 E2.62386
G1 X73.294 Y56.441 E2.62809
G1 X73.362 Y56.650 E2.63232
G1 X73.403 Y56.866 E2.63655
G1 X73.417 Y57.085 E2.64078
G1 X73.403 Y57.305 E2.64501
G1 X73.362 Y57.521 E2.64923
G1 X73.294 Y57.730 E2.65346
G1 X73.200 Y57.929 E2.65769
G1 X73.083 Y58.114 E2.66192
G1 X72.943 Y58.284 E2.66615
G1 X72.782 Y58.434 E2.67038
G1 X72.605 Y58.563 E2.67461
G1 X72.412 Y58.669 E2.67884
G1 X72.208 Y58.750 E2.68306
G1 X71.995 Y58.805 E2.68730
G1 X71.777 Y58.832 E2.69152
G1 X71.557 Y58.832 E2.69575
G1 X71.339 Y58.805 E2.69998
G1 X71.126 Y58.750 E2.70421
G1 X70.921 Y58.669 E2.70844
G1 X70.729 Y58.563 E2.71267
G1 X70.551 Y58.434 E2.71689
G1 X70.289 Y58.160 E2.72418
G1 X70.032 Y58.137 F6000.000
G1 E0.72418 F1200.00000
G92 E0
G1 Z0.700 F6000.000
G1 X79.419 Y57.369 F6000.000
G1 Z0.200 F6000.000
G1 E2.00000 F1200.00000
G1 F1800.000
G1 X79.401 Y57.085 E2.00547
G1 X79.419 Y56.801 E2.01095
G1 X79.472 Y56.522 E2.01642
G1 X79.560 Y56.251 E2.02189
G1 X79.681 Y55.994 E2.02737
G1 X79.834 Y55.754 E2.03284
G1 X80.015 Y55.534 E2.03832
G1 X80.223 Y55.340 E2.04379
G1 X80.453 Y55.173 E2.04926
G1 X80.702 Y55.035 E2.05474
G1 X80.967 Y54.931 E2.06021
G1 X81.242 Y54.860 E2.06568
G1 X81.524 Y54.824 E2.07116
G1 X81.809 Y54.824 E2.07663
G1 X82.091 Y54.860 E2.08210
G1 X82.367 Y54.931 E2.08758
G1 X82.631 Y55.035 E2.09305
G1 X82.881 Y55.173 E2.09852
G1 X83.111 Y55.340 E2.10400
G1 X83.318 Y55.534 E2.10947
G1 X83.500 Y55.754 E2.11494
G1 X83.652 Y55.994 E2.12042
G1 X83.773 Y56.251 E2.12589
G1 X83.861 Y56.522 E2.13136
G1 X83.914 Y56.802 E2.13684
G1 X83.932 Y57.085 E2.14231
G1 X83.914 Y57.369 E2.14778
G1 X83.861 Y57.649 E2.15325
G1 X83.773 Y57.919 E2.15873
G1 X83.652 Y58.177 E2.16420
G1 X83.500 Y58.417 E2.16968
G1 X83.318 Y58.636 E2.17515
G1 X83.111 Y58.831 E2.18062
G1 X82.881 Y58.998 E2.18610
G1 X82.631 Y59.135 E2.19157
G1 X82.367 Y59.240 E2.19704
G1 X82.091 Y59.311 E2.20252
G1 X81.809 Y59.346 E2.20799
G1 X81.524 Y59.346 E2.21346
G1 X81.242 Y59.311 E2.21894
G1 X80.967 Y59.240 E2.22441
G1 X80.702 Y59.135 E2.22988
G1 X80.453 Y58.998 E2.23536
G1 X80.223 Y58.831 E2.24083
G1 X80.015 Y58.636 E2.24630
G1 X79.834 Y58.417 E2.25178
G1 X79.681 Y58.177 E2.25725
G1 X79.560 Y57.919 E2.26273
G1 X79.472 Y57.649 E2.26820
G1 X79.430 Y57.428 E2.27252
G1 X79.675 Y57.337 F6000.000
G1 F1800.000
G1 X79.659 Y57.085 E2.27737
G1 X79.675 Y56.834 E2.28222
G1 X79.722 Y56.586 E2.28707
G1 X79.800 Y56.346 E2.29192
G1 X79.907 Y56.118 E2.29677
G1 X80.042 Y55.905 E2.30162
G1 X80.203 Y55.711 E2.30648
G1 X80.387 Y55.538 E2.31133
G1 X80.591 Y55.390 E2.31618
G1 X80.812 Y55.269 E2.32103
G1 X81.046 Y55.176 E2.32588
G1 X81.290 Y55.113 E2.33073
G1 X81.541 Y55.081 E2.33558
G1 X81.793 Y55.081 E2.34043
G1 X82.043 Y55.113 E2.34528
G1 X82.287 Y55.176 E2.35013
G1 X82.522 Y55.269 E2.35499
G1 X82.743 Y55.390 E2.35984
G1 X82.947 Y55.538 E2.36469
G1 X83.130 Y55.711 E2.36954
G1 X83.291 Y55.905 E2.37439
G1 X83.426 Y56.118 E2.37924
G1 X83.534 Y56.346 E2.38409
G1 X83.612 Y56.586 E2.38894
G1 X83.659 Y56.834 E2.39379
G1 X83.675 Y57.085 E2.39864
G1 X83.659 Y57.337 E2.40349
G1 X83.612 Y57.585 E2.40835
G1 X83.534 Y57.825 E2.41320
G1 X83.426 Y58.053 E2.41805
G1 X83.291 Y58.266 E2.42290
G1 X83.130 Y58.460 E2.42775
G1 X82.947 Y58.632 E2.43260
G1 X82.743 Y58.781 E2.43745
G1 X82.522 Y58.902 E2.44230
G1 X82.287 Y58.995 E2.44715
G1 X82.043 Y59.058 E2.45201
G1 X81.793 Y59.089 E2.45686
G1 X81.541 Y59.089 E2.46171
G1 X81.290 Y59.058 E2.46656
G1 X81.046 Y58.995 E2.47141
G1 X80.812 Y58.902 E2.47626
G1 X80.591 Y58.781 E2.48111
G1 X80.387 Y58.632 E2.48596
G1 X80.203 Y58.460 E2.49081
G1 X80.042 Y58.266 E2.49566
G1 X79.907 Y58.053 E2.50052
G1 X79.800 Y57.824 E2.50537
G1 X79.722 Y57.585 E2.51022
G1 X79.686 Y57.396 E2.51392
G1 X79.930 Y57.305 F6000.000
G1 F1800.000
G1 X79.916 Y57.085 E2.51814
G1 X79.930 Y56.866 E2.52237
G1 X79.971 Y56.650 E2.52660
G1 X80.039 Y56.441 E2.53083
G1 X80.133 Y56.242 E2.53506
G1 X80.251 Y56.057 E2.53929
G1 X80.391 Y55.887 E2.54352
G1 X80.551 Y55.737 E2.54775
G1 X80.729 Y55.608 E2.55197
G1 X80.921 Y55.502 E2.55620
G1 X81.126 Y55.421 E2.56043
G1 X81.339 Y55.366 E2.56466
G1 X81.557 Y55.339 E2.56889
G1 X81.777 Y55.339 E2.57312
G1 X81.995 Y55.366 E2.57735
G1 X82.208 Y55.421 E2.58158
G1 X82.412 Y55.502 E2.58580
G1 X82.605 Y55.608 E2.59003
G1 X82.782 Y55.737 E2.59426
G1 X82.943 Y55.887 E2.59849
G1 X83.083 Y56.057 E2.60272
G1 X83.200 Y56.242 E2.60695
G1 X83.294 Y56.441 E2.61118
G1 X83.362 Y56.650 E2.61541
G1 X83.403 Y56.866 E2.61963
G1 X83.417 Y57.085 E2.62386
G1 X83.403 Y57.305 E2.62809
G1 X83.362 Y57.521 E2.63232
G1 X83.294 Y57.730 E2.63655
G1 X83.200 Y57.929 E2.64078
G1 X83.083 Y58.114 E2.64501
G1 X82.943 Y58.284 E2.64924
G1 X82.782 Y58.434 E2.65346
G1 X82.605 Y58.563 E2.65769
G1 X82.412 Y58.669 E2.66192
G1 X82.208 Y58.750 E2.66615
G1 X81.995 Y58.805 E2.67038
G1 X81.777 Y58.832 E2.67461
G1 X81.557 Y58.832 E2.67884
G1 X81.339 Y58.805 E2.68307
G1 X81.126 Y58.750 E2.68729
G1 X80.921 Y58.669 E2.69152
G1 X80.729 Y58.563 E2.69575
G1 X80.551 Y58.434 E2.69998
G1 X80.391 Y58.284 E2.70421
G1 X80.251 Y58.114 E2.70844
G1 X80.133 Y57.929 E2.71267
G1 X80.039 Y57.730 E2.71690
G1 X79.941 Y57.364 E2.72418
G1 X79.727 Y57.220 F6000.000
G1 E0.72418 F1200.00000
G92 E0
G1 Z0.700 F6000.000
G1 X89.401 Y57.085 F6000.000
G1 Z0.200 F6000.000
G1 E2.00000 F1200.00000
G1 F1800.000
G1 X89.419 Y56.801 E2.00547
G1 X89.472 Y56.522 E2.01095
G1 X89.560 Y56.251 E2.01642
G1 X89.681 Y55.994 E2.02189
G1 X89.834 Y55.754 E2.02737
G1 X90.015 Y55.534 E2.03284
G1 X90.223 Y55.340 E2.03831
G1 X90.453 Y55.173 E2.04379
G1 X90.702 Y55.035 E2.04926
G1 X90.967 Y54.931 E2.05473
G1 X91.242 Y54.860 E2.06021
G1 X91.524 Y54.824 E2.06568
G1 X91.809 Y54.824 E2.07115
G1 X92.091 Y54.860 E2.07663
G1 X92.367 Y54.931 E2.08210
G1 X92.631 Y55.035 E2.08757
G1 X92.881 Y55.173 E2.09305
G1 X93.111 Y55.340 E2.09852
G1 X93.318 Y55.534 E2.10399
G1 X93.500 Y55.754 E2.10947
G1 X93.652 Y55.994 E2.11494
G1 X93.773 Y56.251 E2.12041
G1 X93.861 Y56.522 E2.12589
G1 X93.914 Y56.802 E2.13136
G1 X93.932 Y57.085 E2.13684
G1 X93.914 Y57.369 E2.14231
G1 X93.861 Y57.649 E2.14778
G1 X93.773 Y57.919 E2.15326
G1 X93.652 Y58.177 E2.15873
G1 X93.500 Y58.417 E2.16420
G1 X93.318 Y58.636 E2.16968
G1 X93.111 Y58.831 E2.17515
G1 X92.881 Y58.998 E2.18062
G1 X92.631 Y59.135 E2.18610
G1 X92.367 Y59.240 E2.19157
G1 X92.091 Y59.311 E2.19704
G1 X91.809 Y59.346 E2.20252
G1 X91.524 Y59.346 E2.20799
G1 X91.242 Y59.311 E2.21346
G1 X90.967 Y59.240 E2.21894
G1 X90.702 Y59.135 E2.22441
G1 X90.453 Y58.998 E2.22988
G1 X90.223 Y58.831 E2.23536
G1 X90.015 Y58.636 E2.24083
G1 X89.834 Y58.417 E2.24630
G1 X89.681 Y58.177 E2.25178
G1 X89.560 Y57.919 E2.25725
G1 X89.472 Y57.649 E2.26272
G1 X89.419 Y57.369 E2.26820
G1 X89.405 Y57.145 E2.27252
G1 X89.659 Y57.085 F6000.000
G1 F1800.000
G1 X89.675 Y56.834 E2.27737
G1 X89.722 Y56.586 E2.28222
G1 X89.800 Y56.346 E2.28707
G1 X89.907 Y56.118 E2.29192
G1 X90.042 Y55.905 E2.29677
G1 X90.203 Y55.711 E2.30162
G1 X90.387 Y55.538 E2.30647
G1 X90.591 Y55.390 E2.31132
G1 X90.812 Y55.269 E2.31618
G1 X91.046 Y55.176 E2.32103
G1 X91.290 Y55.113 E2.32588
G1 X91.541 Y55.081 E2.33073
G1 X91.793 Y55.081 E2.33558
G1 X92.043 Y55.113 E2.34043
G1 X92.287 Y55.176 E2.34528
G1 X92.522 Y55.269 E2.35013
G1 X92.743 Y55.390 E2.35499
G1 X92.947 Y55.538 E2.35984
G1 X93.130 Y55.711 E2.36469
G1 X93.291 Y55.905 E2.36954
G1 X93.426 Y56.118 E2.37439
G1 X93.534 Y56.346 E2.37924
G1 X93.612 Y56.586 E2.38409
G1 X93.659 Y56.834 E2.38894
G1 X93.675 Y57.085 E2.39379
G1 X93.659 Y57.337 E2.39864
G1 X93.612 Y57.585 E2.40349
G1 X93.534 Y57.825 E2.40835
G1 X93.426 Y58.053 E2.41320
G1 X93.291 Y58.266 E2.41805
G1 X93.130 Y58.460 E2.42290
G1 X92.947 Y58.632 E2.42775
G1 X92.743 Y58.781 E2.43260
G1 X92.522 Y58.902 E2.43745
G1 X92.287 Y58.995 E2.44230
G1 X92.043 Y59.058 E2.44716
G1 X91.793 Y59.089 E2.45201
G1 X91.541 Y59.089 E2.45686
G1 X91.290 Y59.058 E2.46171
G1 X91.046 Y58.995 E2.46656
G1 X90.812 Y58.902 E2.47141
G1 X90.591 Y58.781 E2.47626
G1 X90.387 Y58.632 E2.48111
G1 X90.203 Y58.460 E2.48596
G1 X90.042 Y58.266 E2.49081
G1 X89.907 Y58.053 E2.49567
G1 X89.800 Y57.824 E2.50052
G1 X89.722 Y57.585 E2.50537
G1 X89.675 Y57.337 E2.51022
G1 X89.663 Y57.145 E2.51392
G1 X89.916 Y57.085 F6000.000
G1 F1800.000
G1 X89.930 Y56.866 E2.51814
G1 X89.971 Y56.650 E2.52237
G1 X90.039 Y56.441 E2.52660
G1 X90.133 Y56.242 E2.53083
G1 X90.251 Y56.057 E2.53506
G1 X90.391 Y55.887 E2.53929
G1 X90.551 Y55.737 E2.54352
G1 X90.729 Y55.608 E2.54775
G1 X90.921 Y55.502 E2.55197
G1 X91.126 Y55.421 E2.55620
G1 X91.339 Y55.366 E2.56043
G1 X91.557 Y55.339 E2.56466
G1 X91.777 Y55.339 E2.56889
G1 X91.995 Y55.366 E2.57312
G1 X92.208 Y55.421 E2.57735
G1 X92.412 Y55.502 E2.58158
G1 X92.605 Y55.608 E2.58580
G1 X92.782 Y55.737 E2.59003
G1 X92.943 Y55.887 E2.59426
G1 X93.083 Y56.057 E2.59849
G1 X93.200 Y56.242 E2.60272
G1 X93.294 Y56.441 E2.60695
G1 X93.362 Y56.650 E2.61118
G1 X93.403 Y56.866 E2.61541
G1 X93.417 Y57.085 E2.61963
G1 X93.403 Y57.305 E2.62386
G1 X93.362 Y57.521 E2.62809
G1 X93.294 Y57.730 E2.63232
G1 X93.200 Y57.929 E2.63655
G1 X93.083 Y58.114 E2.64078
G1 X92.943 Y58.284 E2.64501
G1 X92.782 Y58.434 E2.64924
G1 X92.605 Y58.563 E2.65346
G1 X92.412 Y58.669 E2.65769
G1 X92.208 Y58.750 E2.66192
G1 X91.995 Y58.805 E2.66615
G1 X91.777 Y58.832 E2.67038
G1 X91.557 Y58.832 E2.67461
G1 X91.339 Y58.805 E2.67884
G1 X91.126 Y58.750 E2.68307
G1 X90.921 Y58.669 E2.68729
G1 X90.729 Y58.563 E2.69152
G1 X90.551 Y58.434 E2.69575
G1 X90.391 Y58.284 E2.69998
G1 X90.251 Y58.114 E2.70421
G1 X90.133 Y57.929 E2.70844
G1 X90.039 Y57.730 E2.71267
G1 X89.971 Y57.521 E2.71689
G1 X89.920 Y57.145 E2.72418
G1 X89.726 Y56.975 F6000.000
G1 E0.72418 F1200.00000
G92 E0
G1 Z0.700 F6000.000
G1 X99.401 Y57.085 F6000.000
G1 Z0.200 F6000.000
G1 E2.00000 F1200.00000
G1 F1800.000
G1 X99.419 Y56.801 E2.00547
G1 X99.472 Y56.522 E2.01095
G1 X99.560 Y56.251 E2.01642
G1 X99.681 Y55.994 E2.02189
G1 X99.834 Y55.754 E2.02737
G1 X100.015 Y55.534 E2.03284
G1 X100.223 Y55.340 E2.03831
G1 X100.453 Y55.173 E2.04379
G1 X100.702 Y55.035 E2.04926
G1 X100.967 Y54.931 E2.05473
G1 X101.242 Y54.860 E2.06021
G1 X101.524 Y54.824 E2.06568
G1 X101.809 Y54.824 E2.07115
G1 X102.091 Y54.860 E2.07663
G1 X102.367 Y54.931 E2.08210
G1 X102.631 Y55.035 E2.08757
G1 X102.881 Y55.173 E2.09305
G1 X103.111 Y55.340 E2.09852
G1 X103.318 Y55.534 E2.10399
G1 X103.500 Y55.754 E2.10947
G1 X103.652 Y55.994 E2.11494
G1 X103.773 Y56.251 E2.12041
G1 X103.861 Y56.522 E2.12589
