; generated by Slic3r 1.3.1-dev (Build 54a31ee) on 2020-03-18 at 21:12:00

; external perimeters extrusion width = 0.44mm (2.86mm^3/s)
; perimeters extrusion width = 0.56mm (4.14mm^3/s)
; infill extrusion width = 0.50mm (3.66mm^3/s)
; solid infill extrusion width = 0.56mm (3.10mm^3/s)
; top infill extrusion width = 0.45mm (2.44mm^3/s)

M107
G92 E0
;D3D:START:START
T0
M104 S215 T0

G21
G90
M107
T0
G28
G29
M109 T0 S215 T0
G0 F3000
M107
T0
G92 E0
G0 X0 Y149 Z0.1 F3600
G1 Y49 E6.5 F1200
G0 Z1
G92 E0
; Filament gcode

G21 ; set units to millimeters
G90 ; use absolute coordinates
M82 ; use absolute distances for extrusion
G92 E0
G1 Z0.200 F6000.000
G1 E-2.00000 F1200.00000
G92 E0
G1 Z0.700 F6000.000
G1 X103.451 Y84.158 F6000.000
G1 Z0.200 F6000.000
G1 E2.00000 F1200.00000
G1 F1800.000
G1 X105.304 Y83.391 E2.03858
G1 X123.363 Y83.391 E2.38602
G1 X125.216 Y84.158 E2.42461
G1 X125.983 Y86.011 E2.46319
G1 X125.983 Y89.071 E2.52205
G1 X125.216 Y90.924 E2.56063
G1 X123.363 Y91.691 E2.59922
G1 X105.304 Y91.691 E2.94666
G1 X103.451 Y90.924 E2.98524
G1 X102.683 Y89.071 E3.02382
G1 X102.683 Y86.011 E3.08269
G1 X103.428 Y84.214 E3.12011
G1 X103.367 Y83.767 F6000.000
G1 E1.12011 F1200.00000
G92 E0
G1 Z0.700 F6000.000
G1 X121.574 Y93.574 F6000.000
G1 Z0.200 F6000.000
G1 E2.00000 F1200.00000
G1 F1800.000
G1 X121.709 Y93.361 E2.00485
G1 X121.870 Y93.167 E2.00970
G1 X122.054 Y92.994 E2.01456
G1 X122.258 Y92.846 E2.01941
G1 X122.479 Y92.724 E2.02426
G1 X122.713 Y92.631 E2.02911
G1 X122.957 Y92.569 E2.03396
G1 X123.207 Y92.537 E2.03881
G1 X123.459 Y92.537 E2.04365
G1 X123.710 Y92.569 E2.04852
G1 X123.954 Y92.632 E2.05336
G1 X124.200 Y92.729 E2.05845
G1 X124.615 Y92.992 E2.06791
G1 X124.951 Y93.350 E2.07734
G1 X125.093 Y93.573 E2.08244
G1 X125.201 Y93.802 E2.08730
G1 X125.283 Y94.054 E2.09241
G1 X125.344 Y94.541 E2.10185
G1 X125.283 Y95.028 E2.11129
G1 X125.201 Y95.281 E2.11640
G1 X125.087 Y95.520 E2.12150
G1 X124.806 Y95.907 E2.13069
G1 X124.604 Y96.097 E2.13603
G1 X124.189 Y96.360 E2.14548
G1 X123.723 Y96.512 E2.15492
G1 X123.459 Y96.545 E2.16003
G1 X123.207 Y96.545 E2.16487
G1 X122.957 Y96.513 E2.16972
G1 X122.713 Y96.451 E2.17458
G1 X122.479 Y96.358 E2.17943
G1 X122.258 Y96.236 E2.18428
G1 X122.054 Y96.088 E2.18913
G1 X121.870 Y95.916 E2.19398
G1 X121.709 Y95.721 E2.19883
G1 X121.574 Y95.508 E2.20368
G1 X121.467 Y95.280 E2.20853
G1 X121.389 Y95.040 E2.21338
G1 X121.341 Y94.793 E2.21823
G1 X121.326 Y94.541 E2.22309
G1 X121.341 Y94.289 E2.22794
G1 X121.389 Y94.042 E2.23279
G1 X121.467 Y93.802 E2.23764
G1 X121.548 Y93.628 E2.24133
G1 X121.800 Y93.698 F6000.000
G1 F1800.000
G1 X121.917 Y93.512 E2.24556
G1 X122.058 Y93.343 E2.24979
G1 X122.218 Y93.192 E2.25402
G1 X122.396 Y93.063 E2.25825
G1 X122.588 Y92.957 E2.26248
G1 X122.793 Y92.876 E2.26671
G1 X123.006 Y92.822 E2.27094
G1 X123.224 Y92.794 E2.27516
G1 X123.443 Y92.794 E2.27938
G1 X123.662 Y92.822 E2.28363
G1 X123.874 Y92.876 E2.28784
G1 X124.083 Y92.959 E2.29217
G1 X124.450 Y93.192 E2.30053
G1 X124.747 Y93.508 E2.30887
G1 X124.867 Y93.698 E2.31319
G1 X124.961 Y93.897 E2.31743
G1 X125.031 Y94.110 E2.32175
G1 X125.085 Y94.541 E2.33010
G1 X125.031 Y94.972 E2.33845
G1 X124.961 Y95.186 E2.34277
G1 X124.865 Y95.389 E2.34710
G1 X124.613 Y95.736 E2.35536
G1 X124.446 Y95.893 E2.35976
G1 X124.079 Y96.126 E2.36812
G1 X123.666 Y96.260 E2.37647
G1 X123.443 Y96.288 E2.38080
G1 X123.224 Y96.288 E2.38502
G1 X123.006 Y96.260 E2.38925
G1 X122.793 Y96.206 E2.39348
G1 X122.588 Y96.125 E2.39771
G1 X122.396 Y96.019 E2.40194
G1 X122.218 Y95.890 E2.40616
G1 X122.058 Y95.739 E2.41039
G1 X121.917 Y95.570 E2.41462
G1 X121.800 Y95.384 E2.41885
G1 X121.706 Y95.185 E2.42308
G1 X121.638 Y94.976 E2.42731
G1 X121.597 Y94.760 E2.43154
G1 X121.583 Y94.541 E2.43577
G1 X121.597 Y94.322 E2.43999
G1 X121.638 Y94.106 E2.44422
G1 X121.774 Y93.752 E2.45151
G1 X121.686 Y93.510 F6000.000
G1 E0.45151 F1200.00000
G92 E0
G1 Z0.700 F6000.000
G1 X105.599 Y94.541 F6000.000
G1 Z0.200 F6000.000
G1 E2.00000 F1200.00000
G1 F1800.000
G1 X105.581 Y94.825 E2.00547
G1 X105.528 Y95.105 E2.01095
G1 X105.440 Y95.375 E2.01642
G1 X105.319 Y95.632 E2.02189
G1 X105.166 Y95.873 E2.02737
G1 X104.985 Y96.092 E2.03284
G1 X104.778 Y96.287 E2.03831
G1 X104.547 Y96.454 E2.04379
G1 X104.298 Y96.591 E2.04926
G1 X104.034 Y96.696 E2.05473
G1 X103.758 Y96.767 E2.06021
G1 X103.476 Y96.802 E2.06568
G1 X103.191 Y96.802 E2.07115
G1 X102.909 Y96.767 E2.07663
G1 X102.633 Y96.696 E2.08210
G1 X102.369 Y96.591 E2.08757
G1 X102.120 Y96.454 E2.09305
G1 X101.890 Y96.287 E2.09852
G1 X101.682 Y96.092 E2.10399
G1 X101.501 Y95.873 E2.10947
G1 X101.348 Y95.632 E2.11494
G1 X101.227 Y95.375 E2.12042
G1 X101.139 Y95.105 E2.12589
G1 X101.086 Y94.825 E2.13136
G1 X101.068 Y94.541 E2.13683
G1 X101.086 Y94.257 E2.14231
G1 X101.139 Y93.978 E2.14778
G1 X101.227 Y93.707 E2.15325
G1 X101.348 Y93.450 E2.15873
G1 X101.501 Y93.210 E2.16420
G1 X101.682 Y92.990 E2.16967
G1 X101.890 Y92.795 E2.17515
G1 X102.120 Y92.628 E2.18062
G1 X102.369 Y92.491 E2.18609
G1 X102.633 Y92.387 E2.19157
G1 X102.909 Y92.316 E2.19704
G1 X103.191 Y92.280 E2.20252
G1 X103.476 Y92.280 E2.20799
G1 X103.758 Y92.316 E2.21346
G1 X104.034 Y92.387 E2.21894
G1 X104.298 Y92.491 E2.22441
G1 X104.547 Y92.628 E2.22988
G1 X104.778 Y92.796 E2.23536
G1 X104.985 Y92.990 E2.24083
G1 X105.166 Y93.209 E2.24630
G1 X105.319 Y93.450 E2.25178
G1 X105.440 Y93.707 E2.25725
G1 X105.528 Y93.978 E2.26272
G1 X105.581 Y94.257 E2.26819
G1 X105.595 Y94.481 E2.27251
G1 X105.341 Y94.541 F6000.000
G1 F1800.000
G1 X105.326 Y94.793 E2.27737
G1 X105.278 Y95.040 E2.28222
G1 X105.200 Y95.280 E2.28707
G1 X105.093 Y95.508 E2.29192
G1 X104.958 Y95.721 E2.29677
G1 X104.797 Y95.916 E2.30162
G1 X104.613 Y96.088 E2.30647
G1 X104.409 Y96.236 E2.31132
G1 X104.188 Y96.358 E2.31617
G1 X103.954 Y96.451 E2.32102
G1 X103.710 Y96.513 E2.32588
G1 X103.460 Y96.545 E2.33073
G1 X103.207 Y96.545 E2.33558
G1 X102.957 Y96.513 E2.34043
G1 X102.713 Y96.451 E2.34528
G1 X102.479 Y96.358 E2.35013
G1 X102.258 Y96.236 E2.35498
G1 X102.054 Y96.088 E2.35983
G1 X101.870 Y95.916 E2.36468
G1 X101.709 Y95.721 E2.36953
G1 X101.574 Y95.508 E2.37439
G1 X101.467 Y95.280 E2.37924
G1 X101.389 Y95.040 E2.38409
G1 X101.341 Y94.793 E2.38894
G1 X101.326 Y94.541 E2.39379
G1 X101.341 Y94.289 E2.39864
G1 X101.389 Y94.042 E2.40349
G1 X101.467 Y93.802 E2.40834
G1 X101.574 Y93.574 E2.41319
G1 X101.709 Y93.361 E2.41805
G1 X101.870 Y93.167 E2.42290
G1 X102.054 Y92.994 E2.42775
G1 X102.258 Y92.846 E2.43260
G1 X102.479 Y92.724 E2.43745
G1 X102.713 Y92.631 E2.44230
G1 X102.957 Y92.569 E2.44715
G1 X103.207 Y92.537 E2.45200
G1 X103.460 Y92.537 E2.45685
G1 X103.710 Y92.569 E2.46170
G1 X103.954 Y92.631 E2.46656
G1 X104.188 Y92.724 E2.47141
G1 X104.409 Y92.846 E2.47626
G1 X104.613 Y92.994 E2.48111
G1 X104.797 Y93.167 E2.48596
G1 X104.958 Y93.361 E2.49081
G1 X105.093 Y93.574 E2.49566
G1 X105.200 Y93.802 E2.50051
G1 X105.278 Y94.042 E2.50536
G1 X105.326 Y94.289 E2.51022
G1 X105.338 Y94.481 E2.51391
G1 X105.084 Y94.541 F6000.000
G1 F1800.000
G1 X105.070 Y94.760 E2.51814
G1 X105.029 Y94.976 E2.52237
G1 X104.961 Y95.185 E2.52660
G1 X104.867 Y95.384 E2.53083
G1 X104.749 Y95.570 E2.53506
G1 X104.609 Y95.739 E2.53929
G1 X104.449 Y95.890 E2.54351
G1 X104.271 Y96.019 E2.54774
G1 X104.079 Y96.125 E2.55197
G1 X103.874 Y96.206 E2.55620
G1 X103.661 Y96.260 E2.56043
G1 X103.443 Y96.288 E2.56466
G1 X103.224 Y96.288 E2.56889
G1 X103.006 Y96.260 E2.57311
G1 X102.793 Y96.206 E2.57734
G1 X102.588 Y96.125 E2.58157
G1 X102.396 Y96.019 E2.58580
G1 X102.218 Y95.890 E2.59003
G1 X102.058 Y95.739 E2.59426
G1 X101.917 Y95.570 E2.59849
G1 X101.800 Y95.384 E2.60272
G1 X101.706 Y95.185 E2.60694
G1 X101.638 Y94.976 E2.61117
G1 X101.597 Y94.760 E2.61540
G1 X101.583 Y94.541 E2.61963
G1 X101.597 Y94.322 E2.62386
G1 X101.638 Y94.106 E2.62809
G1 X101.706 Y93.897 E2.63232
G1 X101.800 Y93.698 E2.63654
G1 X101.917 Y93.512 E2.64077
G1 X102.058 Y93.343 E2.64500
G1 X102.218 Y93.192 E2.64923
G1 X102.396 Y93.063 E2.65346
G1 X102.588 Y92.957 E2.65769
G1 X102.793 Y92.876 E2.66192
G1 X103.006 Y92.822 E2.66615
G1 X103.224 Y92.794 E2.67037
G1 X103.443 Y92.794 E2.67460
G1 X103.661 Y92.822 E2.67883
G1 X103.874 Y92.876 E2.68306
G1 X104.079 Y92.957 E2.68729
G1 X104.271 Y93.063 E2.69152
G1 X104.449 Y93.192 E2.69575
G1 X104.609 Y93.343 E2.69997
G1 X104.749 Y93.512 E2.70420
G1 X104.867 Y93.698 E2.70843
G1 X104.961 Y93.897 E2.71266
G1 X105.029 Y94.106 E2.71689
G1 X105.080 Y94.481 E2.72418
G1 X105.274 Y94.651 F6000.000
G1 E0.72418 F1200.00000
G92 E0
G1 Z0.700 F6000.000
G1 X95.599 Y94.541 F6000.000
G1 Z0.200 F6000.000
G1 E2.00000 F1200.00000
G1 F1800.000
G1 X95.581 Y94.825 E2.00547
G1 X95.528 Y95.105 E2.01095
G1 X95.440 Y95.375 E2.01642
G1 X95.319 Y95.632 E2.02189
G1 X95.166 Y95.873 E2.02737
G1 X94.985 Y96.092 E2.03284
G1 X94.778 Y96.287 E2.03831
G1 X94.547 Y96.454 E2.04379
G1 X94.298 Y96.591 E2.04926
G1 X94.034 Y96.696 E2.05473
G1 X93.758 Y96.767 E2.06021
G1 X93.476 Y96.802 E2.06568
G1 X93.191 Y96.802 E2.07115
G1 X92.909 Y96.767 E2.07663
G1 X92.633 Y96.696 E2.08210
G1 X92.369 Y96.591 E2.08757
G1 X92.120 Y96.454 E2.09305
G1 X91.890 Y96.287 E2.09852
G1 X91.682 Y96.092 E2.10399
G1 X91.501 Y95.873 E2.10947
G1 X91.348 Y95.632 E2.11494
G1 X91.227 Y95.375 E2.12042
G1 X91.139 Y95.105 E2.12589
G1 X91.086 Y94.825 E2.13136
G1 X91.068 Y94.541 E2.13683
G1 X91.086 Y94.257 E2.14231
G1 X91.139 Y93.978 E2.14778
G1 X91.227 Y93.707 E2.15325
G1 X91.348 Y93.450 E2.15873
G1 X91.501 Y93.210 E2.16420
G1 X91.682 Y92.990 E2.16967
G1 X91.890 Y92.795 E2.17515
G1 X92.120 Y92.628 E2.18062
G1 X92.369 Y92.491 E2.18609
G1 X92.633 Y92.387 E2.19157
G1 X92.909 Y92.316 E2.19704
G1 X93.191 Y92.280 E2.20252
G1 X93.476 Y92.280 E2.20799
G1 X93.758 Y92.316 E2.21346
G1 X94.034 Y92.387 E2.21894
G1 X94.298 Y92.491 E2.22441
G1 X94.547 Y92.628 E2.22988
G1 X94.778 Y92.796 E2.23536
G1 X94.985 Y92.990 E2.24083
G1 X95.166 Y93.209 E2.24630
G1 X95.319 Y93.450 E2.25178
G1 X95.440 Y93.707 E2.25725
G1 X95.528 Y93.978 E2.26272
G1 X95.581 Y94.257 E2.26819
G1 X95.595 Y94.481 E2.27251
G1 X95.341 Y94.541 F6000.000
G1 F1800.000
G1 X95.326 Y94.793 E2.27737
G1 X95.278 Y95.040 E2.28222
G1 X95.200 Y95.280 E2.28707
G1 X95.093 Y95.508 E2.29192
G1 X94.958 Y95.721 E2.29677
G1 X94.797 Y95.916 E2.30162
G1 X94.613 Y96.088 E2.30647
G1 X94.409 Y96.236 E2.31132
G1 X94.188 Y96.358 E2.31617
G1 X93.954 Y96.451 E2.32102
G1 X93.710 Y96.513 E2.32588
G1 X93.460 Y96.545 E2.33073
G1 X93.207 Y96.545 E2.33558
G1 X92.957 Y96.513 E2.34043
G1 X92.713 Y96.451 E2.34528
G1 X92.479 Y96.358 E2.35013
G1 X92.258 Y96.236 E2.35498
G1 X92.054 Y96.088 E2.35983
G1 X91.870 Y95.916 E2.36468
G1 X91.709 Y95.721 E2.36953
G1 X91.574 Y95.508 E2.37439
G1 X91.467 Y95.280 E2.37924
G1 X91.389 Y95.040 E2.38409
G1 X91.341 Y94.793 E2.38894
G1 X91.326 Y94.541 E2.39379
G1 X91.341 Y94.289 E2.39864
G1 X91.389 Y94.042 E2.40349
G1 X91.467 Y93.802 E2.40834
G1 X91.574 Y93.574 E2.41319
G1 X91.709 Y93.361 E2.41805
G1 X91.870 Y93.167 E2.42290
G1 X92.054 Y92.994 E2.42775
G1 X92.258 Y92.846 E2.43260
G1 X92.479 Y92.724 E2.43745
G1 X92.713 Y92.631 E2.44230
G1 X92.957 Y92.569 E2.44715
G1 X93.207 Y92.537 E2.45200
G1 X93.460 Y92.537 E2.45685
G1 X93.710 Y92.569 E2.46170
G1 X93.954 Y92.631 E2.46656
G1 X94.188 Y92.724 E2.47141
G1 X94.409 Y92.846 E2.47626
G1 X94.613 Y92.994 E2.48111
G1 X94.797 Y93.167 E2.48596
G1 X94.958 Y93.361 E2.49081
G1 X95.093 Y93.574 E2.49566
G1 X95.200 Y93.802 E2.50051
G1 X95.278 Y94.042 E2.50536
G1 X95.326 Y94.289 E2.51022
G1 X95.338 Y94.481 E2.51391
G1 X95.084 Y94.541 F6000.000
G1 F1800.000
G1 X95.070 Y94.760 E2.51814
G1 X95.029 Y94.976 E2.52237
G1 X94.961 Y95.185 E2.52660
G1 X94.867 Y95.384 E2.53083
G1 X94.749 Y95.570 E2.53506
G1 X94.609 Y95.739 E2.53929
G1 X94.449 Y95.890 E2.54351
G1 X94.271 Y96.019 E2.54774
G1 X94.079 Y96.125 E2.55197
G1 X93.874 Y96.206 E2.55620
G1 X93.661 Y96.260 E2.56043
G1 X93.443 Y96.288 E2.56466
G1 X93.224 Y96.288 E2.56889
G1 X93.006 Y96.260 E2.57311
G1 X92.793 Y96.206 E2.57734
G1 X92.588 Y96.125 E2.58157
G1 X92.396 Y96.019 E2.58580
G1 X92.218 Y95.890 E2.59003
G1 X92.058 Y95.739 E2.59426
G1 X91.917 Y95.570 E2.59849
G1 X91.800 Y95.384 E2.60272
G1 X91.706 Y95.185 E2.60694
G1 X91.638 Y94.976 E2.61117
G1 X91.597 Y94.760 E2.61540
G1 X91.583 Y94.541 E2.61963
G1 X91.597 Y94.322 E2.62386
G1 X91.638 Y94.106 E2.62809
G1 X91.706 Y93.897 E2.63232
G1 X91.800 Y93.698 E2.63654
G1 X91.917 Y93.512 E2.64077
G1 X92.058 Y93.343 E2.64500
G1 X92.218 Y93.192 E2.64923
G1 X92.396 Y93.063 E2.65346
G1 X92.588 Y92.957 E2.65769
G1 X92.793 Y92.876 E2.66192
G1 X93.006 Y92.822 E2.66615
G1 X93.224 Y92.794 E2.67037
G1 X93.443 Y92.794 E2.67460
G1 X93.661 Y92.822 E2.67883
G1 X93.874 Y92.876 E2.68306
G1 X94.079 Y92.957 E2.68729
G1 X94.271 Y93.063 E2.69152
G1 X94.449 Y93.192 E2.69575
G1 X94.609 Y93.343 E2.69997
G1 X94.749 Y93.512 E2.70420
G1 X94.867 Y93.698 E2.70843
G1 X94.961 Y93.897 E2.71266
G1 X95.029 Y94.106 E2.71689
G1 X95.080 Y94.481 E2.72418
G1 X95.274 Y94.651 F6000.000
G1 E0.72418 F1200.00000
G92 E0
G1 Z0.700 F6000.000
G1 X93.476 Y81.802 F6000.000
G1 Z0.200 F6000.000
G1 E2.00000 F1200.00000
G1 F1800.000
G1 X93.191 Y81.802 E2.00547
G1 X92.909 Y81.767 E2.01094
G1 X92.633 Y81.696 E2.01642
G1 X92.369 Y81.591 E2.02189
G1 X92.120 Y81.454 E2.02736
G1 X91.890 Y81.287 E2.03284
G1 X91.682 Y81.092 E2.03831
G1 X91.501 Y80.873 E2.04379
G1 X91.348 Y80.632 E2.04926
G1 X91.227 Y80.375 E2.05473
G1 X91.139 Y80.105 E2.06020
G1 X91.086 Y79.825 E2.06568
G1 X91.068 Y79.541 E2.07115
G1 X91.086 Y79.257 E2.07663
G1 X91.139 Y78.978 E2.08210
G1 X91.227 Y78.707 E2.08757
G1 X91.348 Y78.450 E2.09304
G1 X91.501 Y78.210 E2.09852
G1 X91.682 Y77.990 E2.10399
G1 X91.890 Y77.795 E2.10947
G1 X92.120 Y77.628 E2.11494
G1 X92.369 Y77.491 E2.12041
G1 X92.633 Y77.387 E2.12588
G1 X92.909 Y77.316 E2.13136
G1 X93.191 Y77.280 E2.13683
G1 X93.476 Y77.280 E2.14230
G1 X93.758 Y77.316 E2.14778
G1 X94.034 Y77.387 E2.15325
G1 X94.298 Y77.491 E2.15873
G1 X94.547 Y77.628 E2.16420
G1 X94.778 Y77.796 E2.16967
G1 X94.985 Y77.990 E2.17514
G1 X95.166 Y78.209 E2.18062
G1 X95.319 Y78.450 E2.18609
G1 X95.440 Y78.707 E2.19157
G1 X95.528 Y78.978 E2.19704
G1 X95.581 Y79.257 E2.20251
G1 X95.599 Y79.541 E2.20799
G1 X95.581 Y79.825 E2.21346
G1 X95.528 Y80.105 E2.21894
G1 X95.440 Y80.375 E2.22441
G1 X95.319 Y80.632 E2.22988
G1 X95.166 Y80.873 E2.23536
G1 X94.985 Y81.092 E2.24083
G1 X94.778 Y81.287 E2.24630
G1 X94.547 Y81.454 E2.25177
G1 X94.298 Y81.591 E2.25725
G1 X94.034 Y81.696 E2.26272
G1 X93.758 Y81.767 E2.26820
G1 X93.535 Y81.795 E2.27251
G1 X93.460 Y81.545 F6000.000
G1 F1800.000
G1 X93.207 Y81.545 E2.27736
G1 X92.957 Y81.513 E2.28221
G1 X92.713 Y81.451 E2.28707
G1 X92.479 Y81.358 E2.29192
G1 X92.258 Y81.236 E2.29677
G1 X92.054 Y81.088 E2.30162
G1 X91.870 Y80.916 E2.30647
G1 X91.709 Y80.721 E2.31132
G1 X91.574 Y80.508 E2.31617
G1 X91.467 Y80.280 E2.32102
G1 X91.389 Y80.040 E2.32587
G1 X91.341 Y79.793 E2.33073
G1 X91.326 Y79.541 E2.33558
G1 X91.341 Y79.289 E2.34043
G1 X91.389 Y79.042 E2.34528
G1 X91.467 Y78.802 E2.35013
G1 X91.574 Y78.574 E2.35498
G1 X91.709 Y78.361 E2.35983
G1 X91.870 Y78.167 E2.36468
G1 X92.054 Y77.994 E2.36954
G1 X92.258 Y77.846 E2.37439
G1 X92.479 Y77.724 E2.37924
G1 X92.713 Y77.631 E2.38409
G1 X92.957 Y77.569 E2.38894
G1 X93.207 Y77.537 E2.39379
G1 X93.460 Y77.537 E2.39864
G1 X93.710 Y77.569 E2.40349
G1 X93.954 Y77.631 E2.40834
G1 X94.188 Y77.724 E2.41319
G1 X94.409 Y77.846 E2.41804
G1 X94.613 Y77.994 E2.42290
G1 X94.797 Y78.167 E2.42775
G1 X94.958 Y78.361 E2.43260
G1 X95.093 Y78.574 E2.43745
G1 X95.200 Y78.802 E2.44230
G1 X95.278 Y79.042 E2.44715
G1 X95.326 Y79.289 E2.45200
G1 X95.341 Y79.541 E2.45685
G1 X95.326 Y79.793 E2.46170
G1 X95.278 Y80.040 E2.46656
G1 X95.200 Y80.280 E2.47141
G1 X95.093 Y80.508 E2.47626
G1 X94.958 Y80.721 E2.48111
G1 X94.797 Y80.916 E2.48596
G1 X94.613 Y81.088 E2.49081
G1 X94.409 Y81.236 E2.49566
G1 X94.188 Y81.358 E2.50051
G1 X93.954 Y81.451 E2.50536
G1 X93.710 Y81.513 E2.51022
G1 X93.519 Y81.537 E2.51391
G1 X93.443 Y81.288 F6000.000
G1 F1800.000
G1 X93.224 Y81.288 E2.51814
G1 X93.006 Y81.260 E2.52237
G1 X92.793 Y81.206 E2.52660
G1 X92.588 Y81.125 E2.53083
