; generated by Slic3r 1.3.0 on 2020-03-25 at 00:34:19

; external perimeters extrusion width = 0.55mm (3.65mm^3/s)
; perimeters extrusion width = 0.70mm (5.26mm^3/s)
; infill extrusion width = 0.62mm (4.66mm^3/s)
; solid infill extrusion width = 0.70mm (3.94mm^3/s)
; top infill extrusion width = 0.70mm (3.94mm^3/s)

M107
M104 S200 ; set temperature
G28 ; home all axes
G1 Z5 F5000 ; lift nozzle

; Filament gcode

M109 S200 ; set temperature and wait for it to be reached
G21 ; set units to millimeters
G90 ; use absolute coordinates
M82 ; use absolute distances for extrusion
G92 E0
G1 Z0.200 F7800.000
G1 E-2.00000 F2400.00000
G92 E0
G1 X69.877 Y70.293 F7800.000
G1 E2.00000 F2400.00000
G1 F1800
G1 X71.781 Y69.101 E2.02269
G1 X74.150 Y68.643 E2.04707
G1 X125.850 Y68.643 E2.56941
G1 X128.061 Y69.040 E2.59210
G1 X129.996 Y70.181 E2.61480
G1 X131.493 Y72.073 E2.63918
G1 X135.643 Y80.073 E2.73023
G1 X136.357 Y83.000 E2.76067
G1 X136.357 Y111.667 E3.05030
G1 X135.960 Y113.878 E3.07299
G1 X134.819 Y115.812 E3.09569
G1 X133.149 Y117.189 E3.11755
G1 X115.193 Y127.430 E3.32640
G1 X113.169 Y128.455 E3.34932
G1 X111.727 Y129.079 E3.36519
G1 X109.879 Y129.758 E3.38509
G1 X107.991 Y130.319 E3.40499
G1 X106.110 Y130.753 E3.42450
G1 X105.679 Y130.836 E3.42893
G1 X103.732 Y131.132 E3.44883
G1 X102.168 Y131.280 E3.46470
G1 X100.199 Y131.354 E3.48460
G1 X98.231 Y131.305 E3.50450
G1 X97.832 Y131.280 E3.50853
G1 X96.268 Y131.132 E3.52440
G1 X94.321 Y130.836 E3.54430
G1 X92.396 Y130.419 E3.56420
G1 X92.009 Y130.319 E3.56824
G1 X90.121 Y129.758 E3.58814
G1 X88.272 Y129.079 E3.60804
G1 X86.469 Y128.285 E3.62794
G1 X84.807 Y127.430 E3.64683
G1 X66.851 Y117.189 E3.85568
G1 X65.127 Y115.749 E3.87837
G1 X64.011 Y113.799 E3.90107
G1 X63.643 Y111.667 E3.92293
G1 X63.643 Y83.000 E4.21256
G1 X64.357 Y80.073 E4.24300
G1 X68.507 Y72.073 E4.33405
G1 X69.832 Y70.352 E4.35599
G1 E2.35599 F2400.00000
G92 E0
G1 X95.914 Y121.780 F7800.000
G1 E2.00000 F2400.00000
G1 F1800
G1 X94.310 Y121.313 E2.01688
G1 X93.221 Y120.921 E2.02857
G1 X92.159 Y120.462 E2.04026
G1 X91.129 Y119.937 E2.05195
G1 X90.133 Y119.348 E2.06363
G1 X89.176 Y118.698 E2.07532
G1 X88.262 Y117.989 E2.08701
G1 X87.394 Y117.224 E2.09870
G1 X86.576 Y116.406 E2.11039
G1 X85.811 Y115.538 E2.12207
G1 X85.102 Y114.624 E2.13376
G1 X84.452 Y113.667 E2.14545
G1 X83.863 Y112.671 E2.15714
G1 X83.338 Y111.641 E2.16882
G1 X82.879 Y110.579 E2.18051
G1 X82.487 Y109.490 E2.19220
G1 X82.020 Y107.886 E2.20908
G1 X94.793 Y107.886 E2.33813
G1 X95.914 Y109.007 E2.35415
G1 X95.914 Y121.705 E2.48244
G1 X95.557 Y121.304 F7800.000
G1 F1800
G1 X94.420 Y120.974 E2.49440
G1 X93.353 Y120.589 E2.50586
G1 X92.312 Y120.139 E2.51732
G1 X91.301 Y119.624 E2.52878
G1 X90.324 Y119.046 E2.54024
G1 X89.386 Y118.409 E2.55170
G1 X88.490 Y117.713 E2.56316
G1 X87.639 Y116.963 E2.57463
G1 X86.837 Y116.161 E2.58609
G1 X86.087 Y115.310 E2.59755
G1 X85.391 Y114.414 E2.60901
G1 X84.754 Y113.476 E2.62047
G1 X84.176 Y112.499 E2.63193
G1 X83.661 Y111.488 E2.64339
G1 X83.211 Y110.447 E2.65485
G1 X82.826 Y109.380 E2.66631
G1 X82.496 Y108.243 E2.67828
G1 X94.645 Y108.243 E2.80103
G1 X95.557 Y109.155 E2.81405
G1 X95.557 Y121.229 E2.93604
G1 X95.200 Y120.828 F7800.000
G1 F1800
G1 X94.530 Y120.634 E2.94309
G1 X93.484 Y120.257 E2.95432
G1 X92.464 Y119.816 E2.96556
G1 X91.473 Y119.311 E2.97679
G1 X90.516 Y118.745 E2.98803
G1 X89.596 Y118.120 E2.99926
G1 X88.718 Y117.438 E3.01050
G1 X87.883 Y116.703 E3.02173
G1 X87.097 Y115.917 E3.03296
G1 X86.362 Y115.082 E3.04420
G1 X85.680 Y114.204 E3.05543
G1 X85.055 Y113.284 E3.06667
G1 X84.489 Y112.327 E3.07790
G1 X83.984 Y111.336 E3.08914
G1 X83.543 Y110.316 E3.10037
G1 X83.166 Y109.270 E3.11160
G1 X82.972 Y108.600 E3.11865
G1 X94.497 Y108.600 E3.23510
G1 X95.200 Y109.303 E3.24514
G1 X95.200 Y120.753 E3.36083
G1 X95.116 Y121.321 F7800.000
G1 E1.36083 F2400.00000
G92 E0
G1 X88.688 Y106.020 F7800.000
G1 E2.00000 F2400.00000
G1 F1800
G1 X88.161 Y106.229 E2.00573
G1 X87.817 Y106.296 E2.00927
G1 X87.500 Y106.316 E2.01248
G1 X87.185 Y106.296 E2.01567
G1 X86.874 Y106.237 E2.01886
G1 X86.574 Y106.139 E2.02205
G1 X86.288 Y106.005 E2.02525
G1 X86.021 Y105.835 E2.02844
G1 X85.778 Y105.634 E2.03163
G1 X85.561 Y105.404 E2.03482
G1 X85.376 Y105.148 E2.03802
G1 X85.224 Y104.871 E2.04121
G1 X85.107 Y104.578 E2.04440
G1 X85.029 Y104.271 E2.04759
G1 X84.989 Y103.958 E2.05079
G1 X84.989 Y103.642 E2.05397
G1 X85.029 Y103.329 E2.05717
G1 X85.107 Y103.022 E2.06036
G1 X85.224 Y102.729 E2.06355
G1 X85.376 Y102.452 E2.06674
G1 X85.561 Y102.196 E2.06994
G1 X85.778 Y101.966 E2.07313
G1 X86.021 Y101.765 E2.07632
G1 X86.288 Y101.595 E2.07951
G1 X86.574 Y101.461 E2.08271
G1 X86.876 Y101.363 E2.08591
G1 X87.220 Y101.298 E2.08945
G1 X87.787 Y101.299 E2.09518
G1 X88.126 Y101.363 E2.09867
G1 X88.426 Y101.461 E2.10186
G1 X88.712 Y101.595 E2.10505
G1 X88.979 Y101.765 E2.10824
G1 X89.222 Y101.966 E2.11143
G1 X89.439 Y102.196 E2.11463
G1 X89.624 Y102.452 E2.11782
G1 X89.776 Y102.729 E2.12101
G1 X89.893 Y103.022 E2.12420
G1 X89.971 Y103.329 E2.12740
G1 X90.011 Y103.642 E2.13059
G1 X90.011 Y103.958 E2.13378
G1 X89.971 Y104.271 E2.13697
G1 X89.893 Y104.578 E2.14016
G1 X89.776 Y104.871 E2.14336
G1 X89.624 Y105.148 E2.14655
G1 X89.439 Y105.404 E2.14974
G1 X89.222 Y105.634 E2.15293
G1 X88.979 Y105.835 E2.15612
G1 X88.751 Y105.980 E2.15885
G1 X88.525 Y105.701 F7800.000
G1 F1800
G1 X88.060 Y105.885 E2.16390
G1 X87.771 Y105.941 E2.16687
G1 X87.500 Y105.958 E2.16962
G1 X87.230 Y105.941 E2.17236
G1 X86.963 Y105.890 E2.17510
G1 X86.706 Y105.807 E2.17783
G1 X86.460 Y105.691 E2.18057
G1 X86.231 Y105.546 E2.18331
G1 X86.023 Y105.373 E2.18605
G1 X85.837 Y105.176 E2.18879
G1 X85.678 Y104.956 E2.19153
G1 X85.547 Y104.719 E2.19426
G1 X85.447 Y104.467 E2.19700
G1 X85.380 Y104.204 E2.19974
G1 X85.346 Y103.935 E2.20248
G1 X85.346 Y103.665 E2.20522
G1 X85.380 Y103.396 E2.20795
G1 X85.447 Y103.133 E2.21069
G1 X85.547 Y102.881 E2.21343
G1 X85.678 Y102.644 E2.21617
G1 X85.837 Y102.424 E2.21891
G1 X86.023 Y102.227 E2.22165
G1 X86.231 Y102.054 E2.22438
G1 X86.460 Y101.909 E2.22712
G1 X86.706 Y101.793 E2.22986
G1 X86.964 Y101.709 E2.23261
G1 X87.253 Y101.655 E2.23558
G1 X87.753 Y101.656 E2.24063
G1 X88.037 Y101.710 E2.24355
G1 X88.294 Y101.793 E2.24628
G1 X88.540 Y101.909 E2.24902
G1 X88.769 Y102.054 E2.25176
G1 X88.977 Y102.227 E2.25450
G1 X89.163 Y102.424 E2.25724
G1 X89.322 Y102.644 E2.25998
G1 X89.453 Y102.881 E2.26271
G1 X89.553 Y103.133 E2.26545
G1 X89.620 Y103.396 E2.26819
G1 X89.654 Y103.665 E2.27093
G1 X89.654 Y103.935 E2.27367
G1 X89.620 Y104.204 E2.27641
G1 X89.553 Y104.467 E2.27914
G1 X89.453 Y104.719 E2.28188
G1 X89.322 Y104.956 E2.28462
G1 X89.163 Y105.176 E2.28736
G1 X88.977 Y105.373 E2.29010
G1 X88.769 Y105.546 E2.29283
G1 X88.588 Y105.660 E2.29499
G1 X88.362 Y105.381 F7800.000
G1 F1800
G1 X87.959 Y105.541 E2.29937
G1 X87.726 Y105.586 E2.30177
G1 X87.500 Y105.600 E2.30406
G1 X87.274 Y105.586 E2.30634
G1 X87.052 Y105.544 E2.30863
G1 X86.837 Y105.474 E2.31091
G1 X86.633 Y105.378 E2.31320
G1 X86.442 Y105.257 E2.31548
G1 X86.268 Y105.112 E2.31777
G1 X86.113 Y104.948 E2.32005
G1 X85.980 Y104.765 E2.32233
G1 X85.871 Y104.567 E2.32462
G1 X85.788 Y104.356 E2.32690
G1 X85.731 Y104.137 E2.32919
G1 X85.703 Y103.913 E2.33147
G1 X85.703 Y103.687 E2.33375
G1 X85.731 Y103.463 E2.33604
G1 X85.788 Y103.244 E2.33832
G1 X85.871 Y103.033 E2.34061
G1 X85.980 Y102.835 E2.34289
G1 X86.113 Y102.652 E2.34518
G1 X86.268 Y102.488 E2.34746
G1 X86.442 Y102.343 E2.34974
G1 X86.633 Y102.222 E2.35203
G1 X86.837 Y102.126 E2.35431
G1 X87.053 Y102.056 E2.35660
G1 X87.286 Y102.012 E2.35900
G1 X87.720 Y102.013 E2.36338
G1 X87.948 Y102.056 E2.36573
G1 X88.163 Y102.126 E2.36801
G1 X88.367 Y102.222 E2.37030
G1 X88.558 Y102.343 E2.37258
G1 X88.732 Y102.488 E2.37486
G1 X88.887 Y102.652 E2.37715
G1 X89.020 Y102.835 E2.37943
G1 X89.129 Y103.033 E2.38172
G1 X89.212 Y103.244 E2.38400
G1 X89.269 Y103.463 E2.38629
G1 X89.297 Y103.687 E2.38857
G1 X89.297 Y103.913 E2.39085
G1 X89.269 Y104.137 E2.39314
G1 X89.212 Y104.356 E2.39542
G1 X89.129 Y104.567 E2.39771
G1 X89.020 Y104.765 E2.39999
G1 X88.887 Y104.948 E2.40228
G1 X88.732 Y105.112 E2.40456
G1 X88.425 Y105.341 E2.40843
G1 X88.335 Y105.814 F7800.000
G1 E0.40843 F2400.00000
G92 E0
G1 X96.591 Y104.029 F7800.000
G1 E2.00000 F2400.00000
G1 F1800
G1 X96.591 Y103.585 E2.00448
G1 X96.646 Y103.146 E2.00896
G1 X96.822 Y102.542 E2.01531
G1 X97.114 Y101.968 E2.02181
G1 X97.508 Y101.460 E2.02832
G1 X97.991 Y101.035 E2.03481
G1 X98.545 Y100.707 E2.04131
G1 X99.150 Y100.489 E2.04782
G1 X99.776 Y100.391 E2.05422
G1 X100.215 Y100.391 E2.05865
G1 X100.654 Y100.446 E2.06313
G1 X101.258 Y100.622 E2.06948
G1 X101.832 Y100.914 E2.07598
G1 X102.340 Y101.308 E2.08248
G1 X102.765 Y101.791 E2.08898
G1 X103.093 Y102.345 E2.09548
G1 X103.311 Y102.950 E2.10198
G1 X103.411 Y103.585 E2.10848
G1 X103.391 Y104.228 E2.11498
G1 X103.251 Y104.856 E2.12148
G1 X102.995 Y105.447 E2.12798
G1 X102.634 Y105.979 E2.13448
G1 X102.189 Y106.424 E2.14084
G1 X101.830 Y106.684 E2.14532
G1 X101.442 Y106.898 E2.14980
G1 X100.850 Y107.111 E2.15615
G1 X100.215 Y107.212 E2.16265
G1 X99.572 Y107.191 E2.16915
G1 X98.944 Y107.051 E2.17565
G1 X98.353 Y106.795 E2.18215
G1 X97.821 Y106.434 E2.18865
G1 X97.366 Y105.979 E2.19515
G1 X97.013 Y105.459 E2.20151
G1 X96.824 Y105.057 E2.20599
G1 X96.687 Y104.636 E2.21047
G1 X96.603 Y104.103 E2.21592
G1 X96.948 Y104.001 F7800.000
G1 F1800
G1 X96.948 Y103.608 E2.21989
G1 X96.997 Y103.218 E2.22386
G1 X97.155 Y102.674 E2.22958
G1 X97.417 Y102.161 E2.23540
G1 X97.770 Y101.706 E2.24122
G1 X98.202 Y101.325 E2.24704
G1 X98.697 Y101.032 E2.25286
G1 X99.239 Y100.836 E2.25868
G1 X99.804 Y100.748 E2.26445
G1 X100.192 Y100.748 E2.26837
G1 X100.582 Y100.797 E2.27234
G1 X101.126 Y100.955 E2.27807
G1 X101.639 Y101.217 E2.28389
G1 X102.094 Y101.570 E2.28971
G1 X102.475 Y102.002 E2.29552
G1 X102.768 Y102.497 E2.30134
G1 X102.963 Y103.039 E2.30716
G1 X103.054 Y103.608 E2.31298
G1 X103.035 Y104.183 E2.31880
G1 X102.910 Y104.745 E2.32461
G1 X102.681 Y105.274 E2.33043
G1 X102.357 Y105.750 E2.33625
G1 X101.956 Y106.151 E2.34198
G1 X101.639 Y106.382 E2.34595
G1 X101.294 Y106.571 E2.34992
G1 X100.761 Y106.763 E2.35565
G1 X100.192 Y106.854 E2.36147
G1 X99.616 Y106.835 E2.36728
G1 X99.055 Y106.710 E2.37310
G1 X98.526 Y106.481 E2.37892
G1 X98.050 Y106.157 E2.38474
G1 X97.643 Y105.750 E2.39056
G1 X97.324 Y105.281 E2.39628
G1 X97.157 Y104.926 E2.40025
G1 X97.035 Y104.552 E2.40422
G1 X96.960 Y104.075 E2.40910
G1 X97.305 Y103.973 F7800.000
G1 F1800
G1 X97.305 Y103.630 E2.41256
G1 X97.348 Y103.291 E2.41602
G1 X97.489 Y102.806 E2.42112
G1 X97.720 Y102.353 E2.42626
G1 X98.031 Y101.951 E2.43140
G1 X98.412 Y101.615 E2.43653
G1 X98.850 Y101.356 E2.44167
G1 X99.328 Y101.184 E2.44681
G1 X99.831 Y101.105 E2.45195
G1 X100.170 Y101.105 E2.45537
G1 X100.509 Y101.148 E2.45883
G1 X100.994 Y101.289 E2.46393
G1 X101.447 Y101.520 E2.46907
G1 X101.849 Y101.831 E2.47420
G1 X102.185 Y102.212 E2.47934
G1 X102.444 Y102.650 E2.48447
G1 X102.616 Y103.128 E2.48961
G1 X102.696 Y103.630 E2.49475
G1 X102.680 Y104.138 E2.49988
G1 X102.569 Y104.635 E2.50502
G1 X102.367 Y105.101 E2.51015
G1 X102.081 Y105.522 E2.51529
G1 X101.724 Y105.879 E2.52039
G1 X101.447 Y106.080 E2.52385
G1 X101.147 Y106.245 E2.52731
G1 X100.672 Y106.416 E2.53241
G1 X100.170 Y106.496 E2.53755
G1 X99.661 Y106.480 E2.54269
G1 X99.165 Y106.369 E2.54782
G1 X98.699 Y106.167 E2.55296
G1 X98.278 Y105.881 E2.55809
G1 X97.919 Y105.522 E2.56323
G1 X97.635 Y105.104 E2.56833
G1 X97.489 Y104.794 E2.57179
G1 X97.383 Y104.469 E2.57525
G1 X97.317 Y104.047 E2.57956
G1 X96.997 Y103.824 F7800.000
G1 E0.57956 F2400.00000
G92 E0
G1 X104.086 Y85.821 F7800.000
G1 E2.00000 F2400.00000
G1 F1800
G1 X105.690 Y86.287 E2.01688
G1 X106.779 Y86.679 E2.02857
G1 X107.841 Y87.138 E2.04026
G1 X108.871 Y87.663 E2.05195
G1 X109.867 Y88.252 E2.06363
G1 X110.824 Y88.902 E2.07532
G1 X111.738 Y89.612 E2.08702
G1 X112.626 Y90.396 E2.09898
G1 X113.424 Y91.194 E2.11038
G1 X114.189 Y92.062 E2.12207
G1 X114.898 Y92.976 E2.13376
G1 X115.548 Y93.933 E2.14545
G1 X116.137 Y94.929 E2.15714
G1 X116.662 Y95.959 E2.16882
G1 X117.121 Y97.021 E2.18051
G1 X117.513 Y98.110 E2.19220
G1 X117.980 Y99.714 E2.20908
G1 X105.207 Y99.714 E2.33813
G1 X104.086 Y98.593 E2.35415
G1 X104.086 Y85.896 E2.48243
G1 X104.443 Y86.296 F7800.000
G1 F1800
G1 X105.580 Y86.626 E2.49440
G1 X106.647 Y87.011 E2.50586
G1 X107.688 Y87.461 E2.51732
G1 X108.699 Y87.976 E2.52878
G1 X109.676 Y88.554 E2.54024
G1 X110.614 Y89.191 E2.55170
G1 X111.510 Y89.887 E2.56317
G1 X112.381 Y90.656 E2.57491
G1 X113.163 Y91.439 E2.58608
G1 X113.913 Y92.290 E2.59755
G1 X114.609 Y93.186 E2.60901
G1 X115.246 Y94.124 E2.62047
G1 X115.824 Y95.101 E2.63193
G1 X116.339 Y96.112 E2.64339
G1 X116.789 Y97.153 E2.65485
G1 X117.174 Y98.220 E2.66631
G1 X117.504 Y99.357 E2.67828
G1 X105.355 Y99.357 E2.80102
G1 X104.443 Y98.445 E2.81405
G1 X104.443 Y86.371 E2.93604
G1 X104.800 Y86.772 F7800.000
G1 F1800
G1 X105.470 Y86.966 E2.94309
G1 X106.516 Y87.343 E2.95432
G1 X107.536 Y87.784 E2.96555
G1 X108.527 Y88.289 E2.97679
G1 X109.484 Y88.855 E2.98802
G1 X110.404 Y89.480 E2.99926
G1 X111.283 Y90.162 E3.01049
G1 X112.136 Y90.917 E3.02200
G1 X112.903 Y91.683 E3.03296
G1 X113.638 Y92.518 E3.04419
G1 X114.320 Y93.396 E3.05543
G1 X114.945 Y94.316 E3.06666
G1 X115.511 Y95.273 E3.07790
G1 X116.016 Y96.264 E3.08913
G1 X116.457 Y97.284 E3.10037
G1 X116.834 Y98.330 E3.11160
G1 X117.028 Y99.000 E3.11865
G1 X105.503 Y99.000 E3.23509
G1 X104.800 Y98.297 E3.24513
G1 X104.800 Y86.847 E3.36082
G1 X104.884 Y86.279 F7800.000
G1 E1.36082 F2400.00000
G92 E0
G1 X111.574 Y101.461 F7800.000
G1 E2.00000 F2400.00000
G1 F1800
G1 X111.876 Y101.363 E2.00320
G1 X112.220 Y101.298 E2.00674
G1 X112.787 Y101.299 E2.01248
G1 X113.126 Y101.363 E2.01596
G1 X113.427 Y101.461 E2.01916
G1 X113.744 Y101.611 E2.02270
G1 X114.203 Y101.945 E2.02844
G1 X114.439 Y102.196 E2.03192
G1 X114.624 Y102.452 E2.03511
G1 X114.776 Y102.729 E2.03830
G1 X114.893 Y103.022 E2.04149
G1 X114.971 Y103.329 E2.04469
G1 X115.011 Y103.642 E2.04788
G1 X115.011 Y103.958 E2.05107
G1 X114.971 Y104.271 E2.05426
G1 X114.893 Y104.578 E2.05746
G1 X114.776 Y104.871 E2.06065
G1 X114.624 Y105.148 E2.06384
G1 X114.422 Y105.427 E2.06732
G1 X114.009 Y105.816 E2.07305
G1 X113.713 Y106.004 E2.07659
G1 X113.426 Y106.139 E2.07980
G1 X113.126 Y106.237 E2.08299
G1 X112.815 Y106.296 E2.08618
G1 X112.500 Y106.316 E2.08937
G1 X112.185 Y106.296 E2.09257
G1 X111.846 Y106.232 E2.09605
G1 X111.319 Y106.023 E2.10178
G1 X111.022 Y105.836 E2.10532
G1 X110.778 Y105.634 E2.10852
G1 X110.561 Y105.404 E2.11172
G1 X110.376 Y105.148 E2.11491
G1 X110.224 Y104.871 E2.11810
G1 X110.107 Y104.578 E2.12129
G1 X110.029 Y104.271 E2.12449
G1 X109.989 Y103.958 E2.12768
G1 X109.989 Y103.642 E2.13087
G1 X110.029 Y103.329 E2.13406
G1 X110.107 Y103.022 E2.13725
G1 X110.224 Y102.729 E2.14045
G1 X110.376 Y102.452 E2.14364
G1 X110.561 Y102.196 E2.14683
G1 X110.778 Y101.966 E2.15002
G1 X111.021 Y101.765 E2.15321
G1 X111.288 Y101.595 E2.15641
G1 X111.506 Y101.493 E2.15884
G1 X111.706 Y101.793 F7800.000
G1 F1800
G1 X111.964 Y101.709 E2.16159
G1 X112.253 Y101.655 E2.16456
G1 X112.753 Y101.656 E2.16961
G1 X113.037 Y101.710 E2.17253
G1 X113.295 Y101.794 E2.17527
G1 X113.561 Y101.920 E2.17824
G1 X113.966 Y102.214 E2.18330
G1 X114.163 Y102.424 E2.18621
G1 X114.322 Y102.644 E2.18895
G1 X114.453 Y102.881 E2.19169
G1 X114.553 Y103.133 E2.19443
G1 X114.620 Y103.396 E2.19717
G1 X114.654 Y103.665 E2.19991
G1 X114.654 Y103.935 E2.20264
G1 X114.620 Y104.204 E2.20538
G1 X114.553 Y104.467 E2.20812
G1 X114.453 Y104.719 E2.21086
G1 X114.322 Y104.956 E2.21360
G1 X114.153 Y105.190 E2.21651
G1 X113.788 Y105.533 E2.22157
G1 X113.540 Y105.691 E2.22454
G1 X113.294 Y105.807 E2.22728
G1 X113.037 Y105.890 E2.23002
G1 X112.770 Y105.941 E2.23276
G1 X112.500 Y105.958 E2.23550
G1 X112.230 Y105.941 E2.23824
G1 X111.946 Y105.887 E2.24115
G1 X111.481 Y105.703 E2.24621
G1 X111.232 Y105.546 E2.24918
G1 X111.023 Y105.373 E2.25192
G1 X110.837 Y105.176 E2.25466
G1 X110.678 Y104.956 E2.25740
G1 X110.547 Y104.719 E2.26014
