; generated by Slic3r 1.3.0 on 2020-03-25 at 00:34:16

; external perimeters extrusion width = 0.55mm (3.65mm^3/s)
; perimeters extrusion width = 0.70mm (5.26mm^3/s)
; infill extrusion width = 0.62mm (4.66mm^3/s)
; solid infill extrusion width = 0.70mm (3.94mm^3/s)
; top infill extrusion width = 0.45mm (2.44mm^3/s)

M107
M104 S200 ; set temperature
G28 ; home all axes
G1 Z5 F5000 ; lift nozzle

; Filament gcode

M109 S200 ; set temperature and wait for it to be reached
G21 ; set units to millimeters
G90 ; use absolute coordinates
M82 ; use absolute distances for extrusion
G92 E0
G1 Z0.200 F7800.000
G1 E-2.00000 F2400.00000
G92 E0
G1 X45.257 Y65.978 F7800.000
G1 E2.00000 F2400.00000
G1 F1800
G1 X48.334 Y65.184 E2.03210
G1 X151.666 Y65.184 E3.07610
G1 X153.877 Y65.581 E3.09880
G1 X155.812 Y66.722 E3.12149
G1 X157.230 Y68.465 E3.14419
G1 X158.024 Y71.541 E3.17629
G1 X158.024 Y123.370 E3.69994
G1 X157.627 Y125.581 E3.72263
G1 X156.486 Y127.516 E3.74532
G1 X154.743 Y128.933 E3.76802
G1 X153.110 Y129.561 E3.78570
G1 X134.079 Y133.998 E3.98313
G1 X130.890 Y134.677 E4.01607
G1 X129.568 Y134.816 E4.02950
G1 X48.334 Y134.816 E4.85023
G1 X46.123 Y134.419 E4.87293
G1 X44.188 Y133.278 E4.89562
G1 X42.770 Y131.535 E4.91832
G1 X41.976 Y128.459 E4.95042
G1 X41.976 Y71.541 E5.52548
G1 X42.373 Y69.330 E5.54817
G1 X43.514 Y67.395 E5.57087
G1 X45.199 Y66.025 E5.59280
G1 E3.59280 F2400.00000
G92 E0
G1 X123.553 Y117.455 F7800.000
G1 E2.00000 F2400.00000
G1 F1800
G1 X122.818 Y117.455 E2.00743
G1 X120.533 Y116.509 E2.03242
G1 X119.586 Y114.223 E2.05742
G1 X119.586 Y110.859 E2.09140
G1 X120.533 Y108.574 E2.11639
G1 X122.818 Y107.627 E2.14139
G1 X141.182 Y107.627 E2.32692
G1 X143.468 Y108.574 E2.35192
G1 X144.414 Y110.859 E2.37691
G1 X144.414 Y114.223 E2.41090
G1 X143.468 Y116.509 E2.43589
G1 X141.182 Y117.455 E2.46089
G1 X126.403 Y117.455 E2.61020
G1 X126.809 Y117.790 E2.61552
G1 X127.035 Y118.061 E2.61907
G1 X127.205 Y118.329 E2.62229
G1 X127.339 Y118.615 E2.62548
G1 X127.437 Y118.916 E2.62867
G1 X127.496 Y119.226 E2.63186
G1 X127.516 Y119.541 E2.63506
G1 X127.496 Y119.856 E2.63825
G1 X127.437 Y120.167 E2.64144
G1 X127.339 Y120.467 E2.64463
G1 X127.205 Y120.753 E2.64782
G1 X127.036 Y121.020 E2.65102
G1 X126.834 Y121.264 E2.65421
G1 X126.604 Y121.480 E2.65740
G1 X126.348 Y121.665 E2.66059
G1 X126.071 Y121.818 E2.66378
G1 X125.778 Y121.934 E2.66698
G1 X125.472 Y122.013 E2.67017
G1 X125.158 Y122.052 E2.67336
G1 X124.842 Y122.052 E2.67655
G1 X124.529 Y122.013 E2.67974
G1 X124.223 Y121.934 E2.68294
G1 X123.929 Y121.818 E2.68613
G1 X123.652 Y121.665 E2.68932
G1 X123.396 Y121.480 E2.69251
G1 X123.166 Y121.264 E2.69571
G1 X122.965 Y121.020 E2.69890
G1 X122.795 Y120.753 E2.70209
G1 X122.661 Y120.467 E2.70528
G1 X122.563 Y120.167 E2.70848
G1 X122.504 Y119.856 E2.71167
G1 X122.484 Y119.541 E2.71486
G1 X122.504 Y119.226 E2.71805
G1 X122.563 Y118.916 E2.72124
G1 X122.661 Y118.615 E2.72444
G1 X122.795 Y118.329 E2.72763
G1 X122.965 Y118.062 E2.73082
G1 X123.166 Y117.819 E2.73402
G1 X123.499 Y117.507 E2.73862
G1 X123.844 Y117.719 F7800.000
G1 F1800
G1 X124.081 Y117.588 E2.74136
G1 X124.333 Y117.489 E2.74410
G1 X124.596 Y117.421 E2.74684
G1 X124.865 Y117.387 E2.74958
G1 X125.136 Y117.387 E2.75231
G1 X125.405 Y117.421 E2.75505
G1 X125.667 Y117.489 E2.75779
G1 X125.919 Y117.588 E2.76053
G1 X126.172 Y117.727 E2.76344
G1 X126.556 Y118.045 E2.76848
G1 X126.746 Y118.272 E2.77147
G1 X126.891 Y118.501 E2.77422
G1 X127.007 Y118.747 E2.77695
G1 X127.091 Y119.004 E2.77969
G1 X127.141 Y119.271 E2.78243
G1 X127.158 Y119.541 E2.78517
G1 X127.141 Y119.812 E2.78791
G1 X127.091 Y120.078 E2.79064
G1 X127.007 Y120.336 E2.79338
G1 X126.891 Y120.581 E2.79612
G1 X126.746 Y120.810 E2.79886
G1 X126.573 Y121.019 E2.80160
G1 X126.376 Y121.204 E2.80434
G1 X126.157 Y121.363 E2.80707
G1 X125.919 Y121.494 E2.80981
G1 X125.667 Y121.594 E2.81255
G1 X125.405 Y121.661 E2.81529
G1 X125.136 Y121.695 E2.81803
G1 X124.865 Y121.695 E2.82077
G1 X124.596 Y121.661 E2.82350
G1 X124.333 Y121.594 E2.82624
G1 X124.081 Y121.494 E2.82898
G1 X123.844 Y121.363 E2.83172
G1 X123.625 Y121.204 E2.83446
G1 X123.427 Y121.019 E2.83719
G1 X123.254 Y120.810 E2.83993
G1 X123.109 Y120.581 E2.84267
G1 X122.994 Y120.336 E2.84541
G1 X122.910 Y120.078 E2.84815
G1 X122.859 Y119.811 E2.85089
G1 X122.842 Y119.541 E2.85363
G1 X122.859 Y119.271 E2.85636
G1 X122.910 Y119.004 E2.85910
G1 X122.994 Y118.747 E2.86184
G1 X123.109 Y118.501 E2.86458
G1 X123.254 Y118.273 E2.86732
G1 X123.427 Y118.064 E2.87006
G1 X123.625 Y117.878 E2.87279
G1 X123.783 Y117.763 E2.87477
G1 X124.035 Y118.021 F7800.000
G1 F1800
G1 X124.234 Y117.912 E2.87706
G1 X124.444 Y117.829 E2.87934
G1 X124.663 Y117.773 E2.88163
G1 X124.887 Y117.744 E2.88391
G1 X125.113 Y117.744 E2.88619
G1 X125.338 Y117.773 E2.88848
G1 X125.557 Y117.829 E2.89076
G1 X125.767 Y117.912 E2.89305
G1 X125.970 Y118.024 E2.89540
G1 X126.303 Y118.299 E2.89976
G1 X126.456 Y118.482 E2.90217
G1 X126.578 Y118.674 E2.90446
G1 X126.674 Y118.878 E2.90675
G1 X126.744 Y119.093 E2.90903
G1 X126.786 Y119.315 E2.91132
G1 X126.801 Y119.541 E2.91360
G1 X126.786 Y119.767 E2.91588
G1 X126.744 Y119.989 E2.91817
G1 X126.674 Y120.204 E2.92045
G1 X126.578 Y120.408 E2.92274
G1 X126.457 Y120.599 E2.92502
G1 X126.313 Y120.774 E2.92731
G1 X126.148 Y120.928 E2.92959
G1 X125.965 Y121.061 E2.93187
G1 X125.767 Y121.170 E2.93416
G1 X125.557 Y121.253 E2.93644
G1 X125.338 Y121.310 E2.93873
G1 X125.113 Y121.338 E2.94101
G1 X124.887 Y121.338 E2.94330
G1 X124.663 Y121.310 E2.94558
G1 X124.444 Y121.253 E2.94786
G1 X124.234 Y121.170 E2.95015
G1 X124.035 Y121.061 E2.95243
G1 X123.853 Y120.928 E2.95472
G1 X123.688 Y120.774 E2.95700
G1 X123.544 Y120.599 E2.95929
G1 X123.422 Y120.408 E2.96157
G1 X123.326 Y120.204 E2.96385
G1 X123.256 Y119.989 E2.96614
G1 X123.214 Y119.767 E2.96842
G1 X123.200 Y119.541 E2.97071
G1 X123.214 Y119.316 E2.97299
G1 X123.256 Y119.093 E2.97528
G1 X123.326 Y118.878 E2.97756
G1 X123.422 Y118.674 E2.97984
G1 X123.544 Y118.483 E2.98213
G1 X123.688 Y118.309 E2.98441
G1 X123.975 Y118.065 E2.98822
G1 X124.026 Y117.795 F7800.000
G1 X122.889 Y117.098 F7800.000
G1 F1800
G1 X120.806 Y116.235 E3.01100
G1 X119.943 Y114.152 E3.03378
G1 X119.943 Y110.930 E3.06633
G1 X120.806 Y108.847 E3.08911
G1 X122.889 Y107.984 E3.11190
G1 X141.111 Y107.984 E3.29600
G1 X143.194 Y108.847 E3.31878
G1 X144.057 Y110.930 E3.34156
G1 X144.057 Y114.152 E3.37411
G1 X143.194 Y116.235 E3.39689
G1 X141.111 Y117.098 E3.41967
G1 X122.964 Y117.098 E3.60302
G1 X122.960 Y116.741 F7800.000
G1 F1800
G1 X121.079 Y115.962 E3.62359
G1 X120.300 Y114.081 E3.64416
G1 X120.300 Y111.001 E3.67527
G1 X121.079 Y109.120 E3.69584
G1 X122.960 Y108.341 E3.71641
G1 X141.040 Y108.341 E3.89908
G1 X142.921 Y109.120 E3.91965
G1 X143.700 Y111.001 E3.94022
G1 X143.700 Y114.081 E3.97133
G1 X142.921 Y115.962 E3.99190
G1 X141.040 Y116.741 E4.01247
G1 X123.035 Y116.741 E4.19438
G1 X122.612 Y117.099 F7800.000
G1 E2.19438 F2400.00000
G92 E0
G1 X124.529 Y107.013 F7800.000
G1 E2.00000 F2400.00000
G1 F1800
G1 X124.223 Y106.934 E2.00320
G1 X123.929 Y106.818 E2.00639
G1 X123.652 Y106.665 E2.00958
G1 X123.396 Y106.480 E2.01277
G1 X123.166 Y106.264 E2.01596
G1 X122.965 Y106.020 E2.01916
G1 X122.795 Y105.753 E2.02235
G1 X122.661 Y105.467 E2.02554
G1 X122.563 Y105.167 E2.02873
G1 X122.504 Y104.856 E2.03193
G1 X122.484 Y104.541 E2.03512
G1 X122.504 Y104.226 E2.03831
G1 X122.563 Y103.915 E2.04150
G1 X122.661 Y103.615 E2.04469
G1 X122.795 Y103.329 E2.04788
G1 X122.965 Y103.062 E2.05108
G1 X123.166 Y102.819 E2.05427
G1 X123.417 Y102.583 E2.05775
G1 X123.894 Y102.280 E2.06346
G1 X124.221 Y102.149 E2.06702
G1 X124.529 Y102.070 E2.07023
G1 X124.842 Y102.030 E2.07342
G1 X125.158 Y102.030 E2.07661
G1 X125.472 Y102.070 E2.07980
G1 X125.778 Y102.148 E2.08300
G1 X126.071 Y102.265 E2.08619
G1 X126.373 Y102.430 E2.08967
G1 X126.809 Y102.790 E2.09538
G1 X127.035 Y103.061 E2.09894
G1 X127.205 Y103.329 E2.10215
G1 X127.339 Y103.615 E2.10534
G1 X127.437 Y103.916 E2.10853
G1 X127.496 Y104.226 E2.11172
G1 X127.516 Y104.541 E2.11492
G1 X127.496 Y104.856 E2.11811
G1 X127.437 Y105.167 E2.12130
G1 X127.339 Y105.467 E2.12449
G1 X127.205 Y105.753 E2.12768
G1 X127.036 Y106.020 E2.13088
G1 X126.834 Y106.264 E2.13407
G1 X126.604 Y106.480 E2.13726
G1 X126.348 Y106.665 E2.14045
G1 X126.071 Y106.818 E2.14365
G1 X125.778 Y106.934 E2.14684
G1 X125.472 Y107.013 E2.15003
G1 X125.158 Y107.052 E2.15322
G1 X124.842 Y107.052 E2.15641
G1 X124.603 Y107.022 E2.15885
G1 X124.596 Y106.661 F7800.000
G1 F1800
G1 X124.333 Y106.594 E2.16159
G1 X124.081 Y106.494 E2.16433
G1 X123.844 Y106.363 E2.16706
G1 X123.625 Y106.204 E2.16980
G1 X123.427 Y106.019 E2.17254
G1 X123.254 Y105.810 E2.17528
G1 X123.109 Y105.581 E2.17802
G1 X122.994 Y105.336 E2.18075
G1 X122.910 Y105.078 E2.18349
G1 X122.859 Y104.811 E2.18623
G1 X122.842 Y104.541 E2.18897
G1 X122.859 Y104.271 E2.19171
G1 X122.910 Y104.004 E2.19445
G1 X122.994 Y103.747 E2.19718
G1 X123.109 Y103.501 E2.19992
G1 X123.254 Y103.273 E2.20266
G1 X123.427 Y103.064 E2.20540
G1 X123.637 Y102.866 E2.20831
G1 X124.058 Y102.599 E2.21335
G1 X124.332 Y102.489 E2.21633
G1 X124.596 Y102.421 E2.21909
G1 X124.865 Y102.387 E2.22182
G1 X125.136 Y102.387 E2.22456
G1 X125.405 Y102.421 E2.22730
G1 X125.667 Y102.489 E2.23004
G1 X125.919 Y102.588 E2.23278
G1 X126.172 Y102.727 E2.23569
G1 X126.556 Y103.045 E2.24073
G1 X126.746 Y103.272 E2.24371
G1 X126.891 Y103.501 E2.24646
G1 X127.007 Y103.747 E2.24920
G1 X127.091 Y104.004 E2.25194
G1 X127.141 Y104.271 E2.25468
G1 X127.158 Y104.541 E2.25742
G1 X127.141 Y104.812 E2.26015
G1 X127.091 Y105.078 E2.26289
G1 X127.007 Y105.336 E2.26563
G1 X126.891 Y105.581 E2.26837
G1 X126.746 Y105.810 E2.27111
G1 X126.573 Y106.019 E2.27385
G1 X126.376 Y106.204 E2.27658
G1 X126.157 Y106.363 E2.27932
G1 X125.919 Y106.494 E2.28206
G1 X125.667 Y106.594 E2.28480
G1 X125.405 Y106.661 E2.28754
G1 X125.136 Y106.695 E2.29028
G1 X124.865 Y106.695 E2.29301
G1 X124.670 Y106.670 E2.29499
G1 X124.663 Y106.310 F7800.000
G1 F1800
G1 X124.444 Y106.253 E2.29728
G1 X124.234 Y106.170 E2.29956
G1 X124.035 Y106.061 E2.30185
G1 X123.853 Y105.928 E2.30413
G1 X123.688 Y105.774 E2.30641
G1 X123.544 Y105.599 E2.30870
G1 X123.422 Y105.408 E2.31098
G1 X123.326 Y105.204 E2.31327
G1 X123.256 Y104.989 E2.31555
G1 X123.214 Y104.767 E2.31784
G1 X123.200 Y104.541 E2.32012
G1 X123.214 Y104.316 E2.32240
G1 X123.256 Y104.093 E2.32469
G1 X123.326 Y103.878 E2.32697
G1 X123.422 Y103.674 E2.32926
G1 X123.544 Y103.483 E2.33154
G1 X123.688 Y103.309 E2.33383
G1 X123.857 Y103.150 E2.33617
G1 X124.221 Y102.918 E2.34054
G1 X124.443 Y102.829 E2.34295
G1 X124.663 Y102.773 E2.34524
G1 X124.887 Y102.744 E2.34753
G1 X125.113 Y102.744 E2.34981
G1 X125.338 Y102.773 E2.35209
G1 X125.557 Y102.829 E2.35438
G1 X125.767 Y102.912 E2.35666
G1 X125.970 Y103.024 E2.35901
G1 X126.303 Y103.299 E2.36337
G1 X126.456 Y103.482 E2.36579
G1 X126.578 Y103.674 E2.36808
G1 X126.674 Y103.878 E2.37036
G1 X126.744 Y104.093 E2.37265
G1 X126.786 Y104.315 E2.37493
G1 X126.801 Y104.541 E2.37721
G1 X126.786 Y104.767 E2.37950
G1 X126.744 Y104.989 E2.38178
G1 X126.674 Y105.204 E2.38407
G1 X126.578 Y105.408 E2.38635
G1 X126.457 Y105.599 E2.38864
G1 X126.313 Y105.774 E2.39092
G1 X126.148 Y105.928 E2.39320
G1 X125.965 Y106.061 E2.39549
G1 X125.767 Y106.170 E2.39777
G1 X125.557 Y106.253 E2.40006
G1 X125.338 Y106.310 E2.40234
G1 X125.113 Y106.338 E2.40463
G1 X124.737 Y106.319 E2.40843
G1 X124.515 Y106.481 F7800.000
G1 E0.40843 F2400.00000
G92 E0
G1 X117.496 Y104.856 F7800.000
G1 E2.00000 F2400.00000
G1 F1800
G1 X117.437 Y105.167 E2.00319
G1 X117.339 Y105.467 E2.00638
G1 X117.205 Y105.753 E2.00957
G1 X117.036 Y106.020 E2.01277
G1 X116.834 Y106.264 E2.01596
G1 X116.604 Y106.480 E2.01915
G1 X116.348 Y106.665 E2.02234
G1 X116.071 Y106.818 E2.02554
G1 X115.778 Y106.934 E2.02873
G1 X115.472 Y107.013 E2.03192
G1 X115.158 Y107.052 E2.03512
G1 X114.842 Y107.052 E2.03830
G1 X114.529 Y107.013 E2.04150
G1 X114.223 Y106.934 E2.04469
G1 X113.929 Y106.818 E2.04788
G1 X113.652 Y106.665 E2.05108
G1 X113.396 Y106.480 E2.05427
G1 X113.166 Y106.264 E2.05746
G1 X112.965 Y106.020 E2.06065
G1 X112.795 Y105.753 E2.06384
G1 X112.661 Y105.467 E2.06703
G1 X112.563 Y105.167 E2.07023
G1 X112.504 Y104.856 E2.07342
G1 X112.484 Y104.541 E2.07661
G1 X112.504 Y104.226 E2.07980
G1 X112.563 Y103.916 E2.08300
G1 X112.661 Y103.615 E2.08619
G1 X112.795 Y103.329 E2.08938
G1 X112.965 Y103.062 E2.09257
G1 X113.166 Y102.819 E2.09577
G1 X113.396 Y102.603 E2.09896
G1 X113.652 Y102.417 E2.10215
G1 X113.929 Y102.265 E2.10534
G1 X114.223 Y102.148 E2.10853
G1 X114.529 Y102.070 E2.11173
G1 X114.842 Y102.030 E2.11492
G1 X115.158 Y102.030 E2.11811
G1 X115.472 Y102.070 E2.12130
G1 X115.778 Y102.148 E2.12450
G1 X116.071 Y102.265 E2.12769
G1 X116.373 Y102.430 E2.13117
G1 X116.809 Y102.790 E2.13688
G1 X117.035 Y103.061 E2.14043
G1 X117.205 Y103.329 E2.14365
G1 X117.339 Y103.615 E2.14684
G1 X117.437 Y103.916 E2.15003
G1 X117.496 Y104.226 E2.15322
G1 X117.516 Y104.541 E2.15642
G1 X117.501 Y104.782 E2.15885
G1 X117.141 Y104.812 F7800.000
G1 F1800
G1 X117.091 Y105.078 E2.16159
G1 X117.007 Y105.336 E2.16433
G1 X116.891 Y105.581 E2.16706
G1 X116.746 Y105.810 E2.16980
G1 X116.573 Y106.019 E2.17254
G1 X116.376 Y106.204 E2.17528
G1 X116.157 Y106.363 E2.17802
G1 X115.919 Y106.494 E2.18076
G1 X115.667 Y106.594 E2.18349
G1 X115.405 Y106.661 E2.18623
G1 X115.136 Y106.695 E2.18897
G1 X114.865 Y106.695 E2.19171
G1 X114.596 Y106.661 E2.19445
G1 X114.333 Y106.594 E2.19719
G1 X114.081 Y106.494 E2.19992
G1 X113.844 Y106.363 E2.20266
G1 X113.625 Y106.204 E2.20540
G1 X113.427 Y106.019 E2.20814
G1 X113.254 Y105.810 E2.21088
G1 X113.109 Y105.581 E2.21362
G1 X112.994 Y105.336 E2.21635
G1 X112.910 Y105.078 E2.21909
G1 X112.859 Y104.811 E2.22183
G1 X112.842 Y104.541 E2.22457
G1 X112.859 Y104.271 E2.22730
G1 X112.910 Y104.004 E2.23004
G1 X112.994 Y103.747 E2.23278
G1 X113.109 Y103.501 E2.23552
G1 X113.254 Y103.273 E2.23826
G1 X113.427 Y103.064 E2.24100
G1 X113.625 Y102.878 E2.24374
G1 X113.844 Y102.719 E2.24647
G1 X114.081 Y102.588 E2.24921
G1 X114.333 Y102.489 E2.25195
G1 X114.596 Y102.421 E2.25469
G1 X114.865 Y102.387 E2.25743
G1 X115.136 Y102.387 E2.26016
G1 X115.405 Y102.421 E2.26290
G1 X115.667 Y102.489 E2.26564
G1 X115.919 Y102.588 E2.26838
G1 X116.172 Y102.727 E2.27129
G1 X116.556 Y103.045 E2.27633
G1 X116.746 Y103.272 E2.27932
G1 X116.891 Y103.501 E2.28207
G1 X117.007 Y103.747 E2.28481
G1 X117.091 Y104.004 E2.28754
G1 X117.141 Y104.271 E2.29028
G1 X117.158 Y104.541 E2.29302
G1 X117.146 Y104.737 E2.29500
G1 X116.786 Y104.767 F7800.000
G1 F1800
G1 X116.744 Y104.989 E2.29728
G1 X116.674 Y105.204 E2.29957
G1 X116.578 Y105.408 E2.30185
G1 X116.457 Y105.599 E2.30414
G1 X116.313 Y105.774 E2.30642
G1 X116.148 Y105.928 E2.30871
G1 X115.965 Y106.061 E2.31099
G1 X115.767 Y106.170 E2.31327
G1 X115.557 Y106.253 E2.31556
G1 X115.338 Y106.310 E2.31784
G1 X115.113 Y106.338 E2.32013
G1 X114.887 Y106.338 E2.32241
G1 X114.663 Y106.310 E2.32470
G1 X114.444 Y106.253 E2.32698
G1 X114.234 Y106.170 E2.32927
G1 X114.035 Y106.061 E2.33155
G1 X113.853 Y105.928 E2.33383
G1 X113.688 Y105.774 E2.33612
G1 X113.544 Y105.599 E2.33840
G1 X113.422 Y105.408 E2.34069
G1 X113.326 Y105.204 E2.34297
G1 X113.256 Y104.989 E2.34526
G1 X113.214 Y104.767 E2.34754
G1 X113.200 Y104.541 E2.34982
G1 X113.214 Y104.316 E2.35211
G1 X113.256 Y104.093 E2.35439
G1 X113.326 Y103.878 E2.35668
G1 X113.422 Y103.674 E2.35896
G1 X113.544 Y103.483 E2.36125
G1 X113.688 Y103.309 E2.36353
G1 X113.853 Y103.154 E2.36581
G1 X114.035 Y103.021 E2.36810
G1 X114.234 Y102.912 E2.37038
G1 X114.444 Y102.829 E2.37267
G1 X114.663 Y102.773 E2.37495
G1 X114.887 Y102.744 E2.37724
G1 X115.113 Y102.744 E2.37952
G1 X115.338 Y102.773 E2.38180
G1 X115.557 Y102.829 E2.38409
G1 X115.767 Y102.912 E2.38637
G1 X115.970 Y103.024 E2.38872
G1 X116.303 Y103.299 E2.39308
G1 X116.456 Y103.482 E2.39550
G1 X116.578 Y103.674 E2.39779
G1 X116.674 Y103.878 E2.40007
G1 X116.744 Y104.093 E2.40236
G1 X116.786 Y104.315 E2.40464
G1 X116.791 Y104.692 E2.40844
G1 X116.966 Y104.903 F7800.000
G1 E0.40844 F2400.00000
G92 E0
