; generated by Slic3r 1.3.1-dev (Build 54a31ee) on 2020-03-18 at 12:44:20

; external perimeters extrusion width = 0.44mm (2.86mm^3/s)
; perimeters extrusion width = 0.56mm (4.14mm^3/s)
; infill extrusion width = 0.50mm (3.66mm^3/s)
; solid infill extrusion width = 0.56mm (3.10mm^3/s)
; top infill extrusion width = 0.45mm (2.44mm^3/s)

M107
G92 E0
;D3D:START:START
T0
M104 S215 T0

G21
G90
M107
T0
G28
G29
M109 T0 S215 T0
G0 F3000
M107
T0
G92 E0
G0 X0 Y149 Z0.1 F3600
G1 Y49 E6.5 F1200
G0 Z1
G92 E0
; Filament gcode

G21 ; set units to millimeters
G90 ; use absolute coordinates
M82 ; use absolute distances for extrusion
G92 E0
G1 Z0.200 F6000.000
G1 E-2.00000 F1200.00000
G92 E0
G1 Z0.700 F6000.000
G1 X115.765 Y74.336 F6000.000
G1 Z0.200 F6000.000
G1 E2.00000 F1200.00000
G1 F1800.000
G1 X130.664 Y74.336 E2.28664
G1 X130.664 Y98.164 E2.74507
G1 X115.765 Y98.164 E3.03171
G1 X115.765 Y74.396 E3.48898
G1 X116.022 Y74.593 F6000.000
G1 F1800.000
G1 X130.407 Y74.593 E3.76573
G1 X130.407 Y97.907 E4.21426
G1 X116.022 Y97.907 E4.49101
G1 X116.022 Y74.653 E4.93839
G1 X116.279 Y74.850 F6000.000
G1 F1800.000
G1 X130.150 Y74.850 E5.20525
G1 X130.150 Y97.650 E5.64389
G1 X116.279 Y97.650 E5.91075
G1 X116.279 Y74.910 E6.34824
G1 X116.207 Y74.457 F6000.000
G1 E4.34824 F1200.00000
G92 E0
G1 Z0.700 F6000.000
G1 X113.759 Y74.336 F6000.000
G1 Z0.200 F6000.000
G1 E2.00000 F1200.00000
G1 F1800.000
G1 X113.759 Y98.164 E2.45842
G1 X98.860 Y98.164 E2.74507
G1 X98.860 Y74.336 E3.20349
G1 X113.699 Y74.336 E3.48899
G1 X113.502 Y74.593 F6000.000
G1 F1800.000
G1 X113.502 Y97.907 E3.93752
G1 X99.117 Y97.907 E4.21427
G1 X99.117 Y74.593 E4.66281
G1 X113.442 Y74.593 E4.93841
G1 X113.245 Y74.850 F6000.000
G1 F1800.000
G1 X113.245 Y97.650 E5.37705
G1 X99.374 Y97.650 E5.64391
G1 X99.374 Y74.850 E6.08255
G1 X113.185 Y74.850 E6.34826
G1 X113.622 Y74.716 F6000.000
G1 E4.34826 F1200.00000
G92 E0
G1 Z0.700 F6000.000
G1 X96.855 Y74.336 F6000.000
G1 Z0.200 F6000.000
G1 E2.00000 F1200.00000
G1 F1800.000
G1 X96.855 Y98.164 E2.45842
G1 X81.955 Y98.164 E2.74508
G1 X81.955 Y74.336 E3.20350
G1 X96.795 Y74.336 E3.48900
G1 X96.598 Y74.593 F6000.000
G1 F1800.000
G1 X96.598 Y97.907 E3.93753
G1 X82.212 Y97.907 E4.21429
G1 X82.212 Y74.593 E4.66282
G1 X96.538 Y74.593 E4.93843
G1 X96.340 Y74.850 F6000.000
G1 F1800.000
G1 X96.340 Y97.650 E5.37707
G1 X82.469 Y97.650 E5.64394
G1 X82.469 Y74.850 E6.08258
G1 X96.280 Y74.850 E6.34829
G1 X96.717 Y74.716 F6000.000
G1 E4.34829 F1200.00000
G92 E0
G1 Z0.700 F6000.000
G1 X79.950 Y74.336 F6000.000
G1 Z0.200 F6000.000
G1 E2.00000 F1200.00000
G1 F1800.000
G1 X79.950 Y98.164 E2.45842
G1 X65.050 Y98.164 E2.74507
G1 X65.050 Y74.336 E3.20350
G1 X79.890 Y74.336 E3.48899
G1 X79.693 Y74.593 F6000.000
G1 F1800.000
G1 X79.693 Y97.907 E3.93753
G1 X65.307 Y97.907 E4.21429
G1 X65.307 Y74.593 E4.66282
G1 X79.633 Y74.593 E4.93842
G1 X79.436 Y74.850 F6000.000
G1 F1800.000
G1 X79.436 Y97.650 E5.37706
G1 X65.564 Y97.650 E5.64393
G1 X65.564 Y74.850 E6.08257
G1 X79.376 Y74.850 E6.34828
G1 X79.813 Y74.716 F6000.000
G1 E4.34828 F1200.00000
G92 E0
G1 Z0.700 F6000.000
G1 X63.045 Y74.336 F6000.000
G1 Z0.200 F6000.000
G1 E2.00000 F1200.00000
G1 F1800.000
G1 X63.045 Y98.164 E2.45842
G1 X48.145 Y98.164 E2.74508
G1 X48.145 Y74.336 E3.20350
G1 X62.985 Y74.336 E3.48900
G1 X62.788 Y74.593 F6000.000
G1 F1800.000
G1 X62.788 Y97.907 E3.93753
G1 X48.402 Y97.907 E4.21429
G1 X48.402 Y74.593 E4.66282
G1 X62.728 Y74.593 E4.93843
G1 X62.531 Y74.850 F6000.000
G1 F1800.000
G1 X62.531 Y97.650 E5.37707
G1 X48.660 Y97.650 E5.64394
G1 X48.660 Y74.850 E6.08258
G1 X62.471 Y74.850 E6.34829
G1 X62.908 Y74.716 F6000.000
G1 E4.34829 F1200.00000
G92 E0
G1 Z0.700 F6000.000
G1 X46.140 Y74.336 F6000.000
G1 Z0.200 F6000.000
G1 E2.00000 F1200.00000
G1 F1800.000
G1 X46.140 Y98.164 E2.45842
G1 X31.241 Y98.164 E2.74507
G1 X31.241 Y74.336 E3.20350
G1 X46.080 Y74.336 E3.48899
G1 X45.883 Y74.593 F6000.000
G1 F1800.000
G1 X45.883 Y97.907 E3.93753
G1 X31.498 Y97.907 E4.21429
G1 X31.498 Y74.593 E4.66282
G1 X45.823 Y74.593 E4.93842
G1 X45.626 Y74.850 F6000.000
G1 F1800.000
G1 X45.626 Y97.650 E5.37706
G1 X31.755 Y97.650 E5.64393
G1 X31.755 Y74.850 E6.08257
G1 X45.566 Y74.850 E6.34828
G1 X46.003 Y74.716 F6000.000
G1 E4.34828 F1200.00000
G92 E0
G1 Z0.700 F6000.000
G1 X29.236 Y74.336 F6000.000
G1 Z0.200 F6000.000
G1 E2.00000 F1200.00000
G1 F1800.000
G1 X29.236 Y98.164 E2.45842
G1 X14.336 Y98.164 E2.74507
G1 X14.336 Y74.336 E3.20350
G1 X29.176 Y74.336 E3.48899
G1 X28.978 Y74.593 F6000.000
G1 F1800.000
G1 X28.978 Y97.907 E3.93753
G1 X14.593 Y97.907 E4.21429
G1 X14.593 Y74.593 E4.66282
G1 X28.918 Y74.593 E4.93842
G1 X28.721 Y74.850 F6000.000
G1 F1800.000
G1 X28.721 Y97.650 E5.37706
G1 X14.850 Y97.650 E5.64393
G1 X14.850 Y74.850 E6.08257
G1 X28.661 Y74.850 E6.34828
G1 X29.098 Y74.716 F6000.000
G1 X29.236 Y73.164 F6000.000
G1 F1800.000
G1 X14.336 Y73.164 E6.63493
G1 X14.336 Y49.336 E7.09336
G1 X29.236 Y49.336 E7.38001
G1 X29.236 Y73.104 E7.83728
G1 X28.978 Y72.907 F6000.000
G1 F1800.000
G1 X14.593 Y72.907 E8.11404
G1 X14.593 Y49.593 E8.56257
G1 X28.978 Y49.593 E8.83933
G1 X28.978 Y72.847 E9.28671
G1 X28.721 Y72.650 F6000.000
G1 F1800.000
G1 X14.850 Y72.650 E9.55357
G1 X14.850 Y49.850 E9.99221
G1 X28.721 Y49.850 E10.25908
G1 X28.721 Y72.590 E10.69657
G1 X28.794 Y73.043 F6000.000
G1 E8.69657 F1200.00000
G92 E0
G1 Z0.700 F6000.000
G1 X31.241 Y73.164 F6000.000
G1 Z0.200 F6000.000
G1 E2.00000 F1200.00000
G1 F1800.000
G1 X31.241 Y49.336 E2.45842
G1 X46.140 Y49.336 E2.74507
G1 X46.140 Y73.164 E3.20350
G1 X31.301 Y73.164 E3.48899
G1 X31.498 Y72.907 F6000.000
G1 F1800.000
G1 X31.498 Y49.593 E3.93753
G1 X45.883 Y49.593 E4.21429
G1 X45.883 Y72.907 E4.66282
G1 X31.558 Y72.907 E4.93842
G1 X31.755 Y72.650 F6000.000
G1 F1800.000
G1 X31.755 Y49.850 E5.37706
G1 X45.626 Y49.850 E5.64393
G1 X45.626 Y72.650 E6.08257
G1 X31.815 Y72.650 E6.34828
G1 X31.378 Y72.784 F6000.000
G1 E4.34828 F1200.00000
G92 E0
G1 Z0.700 F6000.000
G1 X48.145 Y73.164 F6000.000
G1 Z0.200 F6000.000
G1 E2.00000 F1200.00000
G1 F1800.000
G1 X48.145 Y49.336 E2.45842
G1 X63.045 Y49.336 E2.74508
G1 X63.045 Y73.164 E3.20350
G1 X48.205 Y73.164 E3.48900
G1 X48.402 Y72.907 F6000.000
G1 F1800.000
G1 X48.402 Y49.593 E3.93753
G1 X62.788 Y49.593 E4.21429
G1 X62.788 Y72.907 E4.66282
G1 X48.462 Y72.907 E4.93843
G1 X48.660 Y72.650 F6000.000
G1 F1800.000
G1 X48.660 Y49.850 E5.37707
G1 X62.531 Y49.850 E5.64394
G1 X62.531 Y72.650 E6.08258
G1 X48.719 Y72.650 E6.34829
G1 X48.283 Y72.784 F6000.000
G1 E4.34829 F1200.00000
G92 E0
G1 Z0.700 F6000.000
G1 X65.050 Y73.164 F6000.000
G1 Z0.200 F6000.000
G1 E2.00000 F1200.00000
G1 F1800.000
G1 X65.050 Y49.336 E2.45842
G1 X79.950 Y49.336 E2.74507
G1 X79.950 Y73.164 E3.20350
G1 X65.110 Y73.164 E3.48899
G1 X65.307 Y72.907 F6000.000
G1 F1800.000
G1 X65.307 Y49.593 E3.93753
G1 X79.693 Y49.593 E4.21429
G1 X79.693 Y72.907 E4.66282
G1 X65.367 Y72.907 E4.93842
G1 X65.564 Y72.650 F6000.000
G1 F1800.000
G1 X65.564 Y49.850 E5.37706
G1 X79.436 Y49.850 E5.64393
G1 X79.436 Y72.650 E6.08257
G1 X65.624 Y72.650 E6.34828
G1 X65.187 Y72.784 F6000.000
G1 E4.34828 F1200.00000
G92 E0
G1 Z0.700 F6000.000
G1 X81.955 Y73.164 F6000.000
G1 Z0.200 F6000.000
G1 E2.00000 F1200.00000
G1 F1800.000
G1 X81.955 Y49.336 E2.45842
G1 X96.855 Y49.336 E2.74508
G1 X96.855 Y73.164 E3.20350
G1 X82.015 Y73.164 E3.48900
G1 X82.212 Y72.907 F6000.000
G1 F1800.000
G1 X82.212 Y49.593 E3.93753
G1 X96.598 Y49.593 E4.21429
G1 X96.598 Y72.907 E4.66282
G1 X82.272 Y72.907 E4.93843
G1 X82.469 Y72.650 F6000.000
G1 F1800.000
G1 X82.469 Y49.850 E5.37707
G1 X96.340 Y49.850 E5.64394
G1 X96.340 Y72.650 E6.08258
G1 X82.529 Y72.650 E6.34829
G1 X82.092 Y72.784 F6000.000
G1 E4.34829 F1200.00000
G92 E0
G1 Z0.700 F6000.000
G1 X98.860 Y73.164 F6000.000
G1 Z0.200 F6000.000
G1 E2.00000 F1200.00000
G1 F1800.000
G1 X98.860 Y49.336 E2.45842
G1 X113.759 Y49.336 E2.74507
G1 X113.759 Y73.164 E3.20349
G1 X98.920 Y73.164 E3.48899
G1 X99.117 Y72.907 F6000.000
G1 F1800.000
G1 X99.117 Y49.593 E3.93752
G1 X113.502 Y49.593 E4.21427
G1 X113.502 Y72.907 E4.66281
G1 X99.177 Y72.907 E4.93841
G1 X99.374 Y72.650 F6000.000
G1 F1800.000
G1 X99.374 Y49.850 E5.37705
G1 X113.245 Y49.850 E5.64391
G1 X113.245 Y72.650 E6.08255
G1 X99.434 Y72.650 E6.34826
G1 X98.997 Y72.784 F6000.000
G1 E4.34826 F1200.00000
G92 E0
G1 Z0.700 F6000.000
G1 X115.765 Y73.164 F6000.000
G1 Z0.200 F6000.000
G1 E2.00000 F1200.00000
G1 F1800.000
G1 X115.765 Y49.336 E2.45842
G1 X130.664 Y49.336 E2.74507
G1 X130.664 Y73.164 E3.20349
G1 X115.825 Y73.164 E3.48898
G1 X116.022 Y72.907 F6000.000
G1 F1800.000
G1 X116.022 Y49.593 E3.93751
G1 X130.407 Y49.593 E4.21426
G1 X130.407 Y72.907 E4.66279
G1 X116.082 Y72.907 E4.93839
G1 X116.279 Y72.650 F6000.000
G1 F1800.000
G1 X116.279 Y49.850 E5.37703
G1 X130.150 Y49.850 E5.64389
G1 X130.150 Y72.650 E6.08253
G1 X116.339 Y72.650 E6.34824
G1 X115.902 Y72.784 F6000.000
G1 E4.34824 F1200.00000
G92 E0
G1 Z0.700 F6000.000
G1 X139.336 Y45.664 F6000.000
G1 Z0.200 F6000.000
G1 E2.00000 F1200.00000
G1 F1800.000
G1 X139.336 Y104.336 E3.12876
G1 X10.664 Y104.336 E5.60423
G1 X10.664 Y45.664 E6.73299
G1 X139.276 Y45.664 E9.20731
G1 X139.593 Y45.407 F6000.000
G1 F1800.000
G1 X139.593 Y104.593 E10.34596
G1 X10.407 Y104.593 E12.83132
G1 X10.407 Y45.407 E13.96997
G1 X139.533 Y45.407 E16.45418
G1 X139.850 Y45.150 F6000.000
G1 F1800.000
G1 X139.850 Y104.850 E17.60273
G1 X10.150 Y104.850 E20.09798
G1 X10.150 Y45.150 E21.24652
G1 X139.790 Y45.150 E23.74062
G1 X139.702 Y45.521 F6000.000
G1 E21.74062 F1200.00000
G92 E0
G1 Z0.700 F6000.000
G1 X115.617 Y49.303 F6000.000
G1 Z0.200 F6000.000
G1 E2.00000 F1200.00000
G1 F1800.000
G1 X115.617 Y49.667 E2.00701
G1 X113.907 Y51.377 E2.05357
G1 X113.907 Y51.741 E2.06057
G1 X115.617 Y50.031 E2.10713
G1 X115.617 Y50.395 E2.11414
G1 X113.907 Y52.104 E2.16070
G1 X113.907 Y52.468 E2.16771
G1 X115.617 Y50.759 E2.21427
G1 X115.617 Y51.123 E2.22127
G1 X113.907 Y52.832 E2.26783
G1 X113.907 Y53.196 E2.27484
G1 X115.617 Y51.486 E2.32140
G1 X115.617 Y51.850 E2.32841
G1 X113.907 Y53.560 E2.37496
G1 X113.907 Y53.924 E2.38197
G1 X115.617 Y52.214 E2.42853
G1 X115.617 Y52.578 E2.43554
G1 X113.907 Y54.288 E2.48210
G1 X113.907 Y54.652 E2.48910
G1 X115.617 Y52.942 E2.53566
G1 X115.617 Y53.306 E2.54267
G1 X113.907 Y55.016 E2.58923
G1 X113.907 Y55.379 E2.59624
G1 X115.617 Y53.670 E2.64280
G1 X115.617 Y54.034 E2.64980
G1 X113.907 Y55.743 E2.69636
G1 X113.907 Y56.107 E2.70337
G1 X115.617 Y54.398 E2.74993
G1 X115.617 Y54.761 E2.75694
G1 X113.907 Y56.471 E2.80350
G1 X113.907 Y56.835 E2.81050
G1 X115.617 Y55.125 E2.85706
G1 X115.617 Y55.489 E2.86407
G1 X113.907 Y57.199 E2.91063
G1 X113.907 Y57.563 E2.91764
G1 X115.617 Y55.853 E2.96419
G1 X115.617 Y56.217 E2.97120
G1 X113.907 Y57.927 E3.01776
G1 X113.907 Y58.291 E3.02477
G1 X115.617 Y56.581 E3.07133
G1 X115.617 Y56.945 E3.07833
G1 X113.907 Y58.655 E3.12489
G1 X113.907 Y59.018 E3.13190
G1 X115.617 Y57.309 E3.17846
G1 X115.617 Y57.673 E3.18547
G1 X113.907 Y59.382 E3.23203
G1 X113.907 Y59.746 E3.23903
G1 X115.617 Y58.037 E3.28559
G1 X115.617 Y58.400 E3.29260
G1 X113.907 Y60.110 E3.33916
G1 X113.907 Y60.474 E3.34617
G1 X115.617 Y58.764 E3.39273
G1 X115.617 Y59.128 E3.39973
G1 X113.907 Y60.838 E3.44629
G1 X113.907 Y61.202 E3.45330
G1 X115.617 Y59.492 E3.49986
G1 X115.617 Y59.856 E3.50687
G1 X113.907 Y61.566 E3.55342
G1 X113.907 Y61.930 E3.56043
G1 X115.617 Y60.220 E3.60699
G1 X115.617 Y60.584 E3.61400
G1 X113.907 Y62.294 E3.66056
G1 X113.907 Y62.657 E3.66756
G1 X115.617 Y60.948 E3.71412
G1 X115.617 Y61.312 E3.72113
G1 X113.907 Y63.021 E3.76769
G1 X113.907 Y63.385 E3.77470
G1 X115.617 Y61.675 E3.82126
G1 X115.617 Y62.039 E3.82826
G1 X113.907 Y63.749 E3.87482
G1 X113.907 Y64.113 E3.88183
G1 X115.617 Y62.403 E3.92839
G1 X115.617 Y62.767 E3.93540
G1 X113.907 Y64.477 E3.98196
G1 X113.907 Y64.841 E3.98896
G1 X115.617 Y63.131 E4.03552
G1 X115.617 Y63.495 E4.04253
G1 X113.907 Y65.205 E4.08909
G1 X113.907 Y65.569 E4.09610
G1 X115.617 Y63.859 E4.14265
G1 X115.617 Y64.223 E4.14966
G1 X113.907 Y65.932 E4.19622
G1 X113.907 Y66.296 E4.20323
G1 X115.617 Y64.587 E4.24979
G1 X115.617 Y64.951 E4.25679
G1 X113.907 Y66.660 E4.30335
G1 X113.907 Y67.024 E4.31036
G1 X115.617 Y65.314 E4.35692
G1 X115.617 Y65.678 E4.36393
G1 X113.907 Y67.388 E4.41049
G1 X113.907 Y67.752 E4.41749
G1 X115.617 Y66.042 E4.46405
G1 X115.617 Y66.406 E4.47106
G1 X113.907 Y68.116 E4.51762
G1 X113.907 Y68.480 E4.52463
G1 X115.617 Y66.770 E4.57119
G1 X115.617 Y67.134 E4.57819
G1 X113.907 Y68.844 E4.62475
G1 X113.907 Y69.208 E4.63176
G1 X115.617 Y67.498 E4.67832
G1 X115.617 Y67.862 E4.68533
G1 X113.907 Y69.571 E4.73188
G1 X113.907 Y69.935 E4.73889
G1 X115.617 Y68.226 E4.78545
G1 X115.617 Y68.590 E4.79246
G1 X113.907 Y70.299 E4.83902
G1 X113.907 Y70.663 E4.84602
G1 X115.617 Y68.953 E4.89258
G1 X115.617 Y69.317 E4.89959
G1 X113.907 Y71.027 E4.94615
G1 X113.907 Y71.391 E4.95316
G1 X115.617 Y69.681 E4.99972
G1 X115.617 Y70.045 E5.00672
G1 X113.907 Y71.755 E5.05328
G1 X113.907 Y72.119 E5.06029
G1 X115.617 Y70.409 E5.10685
G1 X115.617 Y70.773 E5.11386
G1 X113.907 Y72.483 E5.16042
G1 X113.907 Y72.846 E5.16742
G1 X115.617 Y71.137 E5.21398
G1 X115.617 Y71.501 E5.22099
G1 X113.907 Y73.210 E5.26755
G1 E3.26755 F1200.00000
G92 E0
G1 Z0.700 F6000.000
G1 X115.989 Y73.312 F6000.000
G1 Z0.200 F6000.000
G1 E2.00000 F1200.00000
G1 F1800.000
G1 X116.353 Y73.312 E2.00701
G1 X115.477 Y74.188 E2.03085
G1 X115.841 Y74.188 E2.03786
G1 X116.717 Y73.312 E2.06171
G1 X117.080 Y73.312 E2.06872
G1 X116.205 Y74.188 E2.09256
G1 X116.569 Y74.188 E2.09957
G1 X117.444 Y73.312 E2.12342
G1 X117.808 Y73.312 E2.13043
G1 X116.933 Y74.188 E2.15427
G1 X117.296 Y74.188 E2.16128
G1 X118.172 Y73.312 E2.18513
G1 X118.536 Y73.312 E2.19214
G1 X117.660 Y74.188 E2.21598
G1 X118.024 Y74.188 E2.22299
G1 X118.900 Y73.312 E2.24684
G1 X119.264 Y73.312 E2.25384
G1 X118.388 Y74.188 E2.27769
G1 X118.752 Y74.188 E2.28470
G1 X119.628 Y73.312 E2.30855
G1 X119.992 Y73.312 E2.31555
G1 X119.116 Y74.188 E2.33940
G1 X119.480 Y74.188 E2.34641
G1 X120.355 Y73.312 E2.37026
G1 X120.719 Y73.312 E2.37726
G1 X119.844 Y74.188 E2.40111
G1 X120.208 Y74.188 E2.40812
G1 X121.083 Y73.312 E2.43197
G1 X121.447 Y73.312 E2.43897
G1 X120.571 Y74.188 E2.46282
G1 X120.935 Y74.188 E2.46983
G1 X121.811 Y73.312 E2.49368
G1 X122.175 Y73.312 E2.50068
G1 X121.299 Y74.188 E2.52453
G1 X121.663 Y74.188 E2.53154
G1 X122.539 Y73.312 E2.55538
G1 X122.903 Y73.312 E2.56239
G1 X122.027 Y74.188 E2.58624
G1 X122.391 Y74.188 E2.59325
G1 X123.267 Y73.312 E2.61709
G1 X123.631 Y73.312 E2.62410
G1 X122.755 Y74.188 E2.64795
G1 X123.119 Y74.188 E2.65496
G1 X123.994 Y73.312 E2.67880
G1 X124.358 Y73.312 E2.68581
G1 X123.483 Y74.188 E2.70966
G1 X123.847 Y74.188 E2.71667
G1 X124.722 Y73.312 E2.74051
G1 X125.086 Y73.312 E2.74752
G1 X124.210 Y74.188 E2.77137
G1 X124.574 Y74.188 E2.77837
G1 X125.450 Y73.312 E2.80222
G1 X125.814 Y73.312 E2.80923
G1 X124.938 Y74.188 E2.83308
G1 X125.302 Y74.188 E2.84008
G1 X126.178 Y73.312 E2.86393
G1 X126.542 Y73.312 E2.87094
G1 X125.666 Y74.188 E2.89479
G1 X126.030 Y74.188 E2.90179
G1 X126.906 Y73.312 E2.92564
G1 X127.270 Y73.312 E2.93265
G1 X126.394 Y74.188 E2.95650
G1 X126.758 Y74.188 E2.96350
G1 X127.633 Y73.312 E2.98735
G1 X127.997 Y73.312 E2.99436
G1 X127.122 Y74.188 E3.01820
G1 X127.485 Y74.188 E3.02521
G1 X128.361 Y73.312 E3.04906
G1 X128.725 Y73.312 E3.05607
G1 X127.849 Y74.188 E3.07991
G1 X128.213 Y74.188 E3.08692
G1 X129.089 Y73.312 E3.11077
G1 X129.453 Y73.312 E3.11778
G1 X128.577 Y74.188 E3.14162
G1 X128.941 Y74.188 E3.14863
G1 X129.817 Y73.312 E3.17248
G1 X130.181 Y73.312 E3.17949
G1 X129.305 Y74.188 E3.20333
G1 X129.669 Y74.188 E3.21034
G1 X130.545 Y73.312 E3.23419
G1 X130.908 Y73.312 E3.24119
G1 X130.033 Y74.188 E3.26504
G1 E1.26504 F1200.00000
G92 E0
G1 Z0.700 F6000.000
G1 X130.812 Y98.517 F6000.000
G1 Z0.200 F6000.000
G1 E2.00000 F1200.00000
G1 F1800.000
G1 X139.188 Y90.142 E2.22809
G1 X139.188 Y89.778 E2.23510
G1 X130.812 Y98.153 E2.46319
G1 X130.812 Y97.789 E2.47019
G1 X139.188 Y89.414 E2.69828
G1 X139.188 Y89.050 E2.70529
G1 X130.812 Y97.426 E2.93338
G1 X130.812 Y97.062 E2.94039
