; generated by Slic3r 1.3.1-dev (Build b582df12363b11c5b5e1a4337ffac850e4543f71) on 2020-07-24 at 10:03:45

; external perimeters extrusion width = 0.44mm (2.86mm^3/s)
; perimeters extrusion width = 0.56mm (4.14mm^3/s)
; infill extrusion width = 0.50mm (3.66mm^3/s)
; solid infill extrusion width = 0.56mm (3.10mm^3/s)
; top infill extrusion width = 0.45mm (2.44mm^3/s)

M107
;D3D:START:START
T0
M104 S215 T0

G21
G90
M107
T0
G28
G29
M109 T0 S215 T0
G0 F3000
M107
T0
G92 E0
G0 X0 Y149 Z0.1 F3600
G1 Y49 E6.5 F1200
G0 Z1
G92 E0
; Filament gcode

G21 ; set units to millimeters
G90 ; use absolute coordinates
M82 ; use absolute distances for extrusion
G92 E0
G92 E0
G1 Z0.250 F6000.000
G1 E-2.00000 F1200.00000
G92 E0
G1 Z0.750 F6000.000
G1 X68.652 Y45.649 F6000.000
G1 Z0.250 F6000.000
G1 E2.00000 F1200.00000
G1 F1800
G1 X70.443 Y44.248 E2.05240
G1 X73.500 Y43.486 E2.12501
G1 X79.500 Y43.486 E2.26328
G1 X81.739 Y43.883 E2.31568
G1 X83.705 Y45.025 E2.36809
G1 X85.159 Y46.774 E2.42049
G1 X86.014 Y50.000 E2.49740
G1 X86.014 Y100.000 E3.64963
G1 X85.617 Y102.239 E3.70203
G1 X84.475 Y104.205 E3.75444
G1 X82.726 Y105.659 E3.80684
G1 X79.500 Y106.514 E3.88376
G1 X73.500 Y106.514 E4.02202
G1 X71.261 Y106.117 E4.07443
G1 X69.295 Y104.975 E4.12683
G1 X67.452 Y102.419 E4.19944
G1 X64.452 Y94.919 E4.38559
G1 X63.986 Y92.500 E4.44236
G1 X63.986 Y57.500 E5.24892
G1 X64.452 Y55.081 E5.30570
G1 X67.452 Y47.581 E5.49185
G1 X68.620 Y45.700 E5.54287
G1 X68.873 Y45.788 F6000.000
G1 F1800
G1 X70.643 Y44.433 E5.59422
G1 X73.500 Y43.743 E5.66196
G1 X79.500 Y43.743 E5.80022
G1 X81.693 Y44.140 E5.85157
G1 X83.607 Y45.280 E5.90293
G1 X85.001 Y47.019 E5.95428
G1 X85.757 Y50.000 E6.02516
G1 X85.757 Y100.000 E7.17739
G1 X85.360 Y102.193 E7.22874
G1 X84.220 Y104.107 E7.28009
G1 X82.481 Y105.501 E7.33144
G1 X79.500 Y106.257 E7.40232
G1 X73.500 Y106.257 E7.54059
G1 X71.307 Y105.860 E7.59194
G1 X69.393 Y104.720 E7.64329
G1 X67.690 Y102.324 E7.71103
G1 X64.690 Y94.824 E7.89718
G1 X64.243 Y92.500 E7.95171
G1 X64.243 Y57.500 E8.75827
G1 X64.690 Y55.176 E8.81281
G1 X67.690 Y47.676 E8.99896
G1 X68.841 Y45.838 E9.04893
G1 E7.04893 F1200.00000
G92 E0
G1 Z0.750 F6000.000
G1 X74.330 Y91.670 F6000.000
G1 Z0.250 F6000.000
G1 E2.00000 F1200.00000
G1 F1800
G1 X71.330 Y91.670 E2.09018
G1 X71.330 Y83.330 E2.34087
G1 X74.330 Y83.330 E2.43105
G1 X74.330 Y66.670 E2.93187
G1 X71.330 Y66.670 E3.02205
G1 X71.330 Y58.330 E3.27274
G1 X74.330 Y58.330 E3.36292
G1 X74.330 Y50.830 E3.58838
G1 X78.670 Y50.830 E3.71883
G1 X78.670 Y99.170 E5.17193
G1 X74.330 Y99.170 E5.30238
G1 X74.330 Y91.730 E5.52603
G1 X74.009 Y91.991 F6000.000
G1 F1800
G1 X71.009 Y91.991 E5.61621
G1 X71.009 Y83.009 E5.88623
G1 X74.009 Y83.009 E5.97641
G1 X74.009 Y66.991 E6.45790
G1 X71.009 Y66.991 E6.54809
G1 X71.009 Y58.009 E6.81810
G1 X74.009 Y58.009 E6.90828
G1 X74.009 Y50.509 E7.13373
G1 X78.991 Y50.509 E7.28350
G1 X78.991 Y99.491 E8.75593
G1 X74.009 Y99.491 E8.90570
G1 X74.009 Y92.051 E9.12934
G1 X73.688 Y92.312 F6000.000
G1 F1800
G1 X70.688 Y92.312 E9.21953
G1 X70.688 Y82.688 E9.50886
G1 X73.688 Y82.688 E9.59904
G1 X73.688 Y67.312 E10.06122
G1 X70.688 Y67.312 E10.15140
G1 X70.688 Y57.688 E10.44073
G1 X73.688 Y57.688 E10.53091
G1 X73.688 Y50.188 E10.75636
G1 X79.312 Y50.188 E10.92545
G1 X79.312 Y99.812 E12.41720
G1 X73.688 Y99.812 E12.58629
G1 X73.688 Y92.373 E12.80994
G1 X73.602 Y91.922 F6000.000
G1 E10.80994 F1200.00000
G92 E0
G1 Z0.750 F6000.000
G1 X78.212 Y98.985 F6000.000
G1 Z0.250 F6000.000
G1 E2.00000 F1200.00000
G1 F1800
G1 X78.485 Y98.712 E2.01161
G1 X78.485 Y98.257 E2.02529
G1 X77.757 Y98.985 E2.05625
G1 X77.302 Y98.985 E2.06993
G1 X78.485 Y97.802 E2.12023
G1 X78.485 Y97.348 E2.13392
G1 X76.848 Y98.985 E2.20357
G1 X76.393 Y98.985 E2.21726
G1 X78.485 Y96.893 E2.30626
G1 X78.485 Y96.438 E2.31994
G1 X75.938 Y98.985 E2.42830
G1 X75.483 Y98.985 E2.44198
G1 X78.485 Y95.983 E2.56969
G1 X78.485 Y95.528 E2.58337
G1 X75.028 Y98.985 E2.73043
G1 X74.574 Y98.985 E2.74411
G1 X78.485 Y95.074 E2.91051
G1 X78.485 Y94.619 E2.92420
G1 X74.515 Y98.588 E3.09308
G1 X74.515 Y98.134 E3.10676
G1 X78.485 Y94.164 E3.27565
G1 X78.485 Y93.709 E3.28933
G1 X74.515 Y97.679 E3.45822
G1 X74.515 Y97.224 E3.47190
G1 X78.485 Y93.254 E3.64079
G1 X78.485 Y92.799 E3.65447
G1 X74.515 Y96.769 E3.82336
G1 X74.515 Y96.314 E3.83704
G1 X78.485 Y92.345 E4.00593
G1 X78.485 Y91.890 E4.01961
G1 X74.515 Y95.859 E4.18850
G1 X74.515 Y95.405 E4.20218
G1 X78.485 Y91.435 E4.37107
G1 X78.485 Y90.980 E4.38475
G1 X74.515 Y94.950 E4.55363
G1 X74.515 Y94.495 E4.56732
G1 X78.485 Y90.525 E4.73620
G1 X78.485 Y90.071 E4.74989
G1 X74.515 Y94.040 E4.91877
G1 X74.515 Y93.585 E4.93245
G1 X78.485 Y89.616 E5.10134
G1 X78.485 Y89.161 E5.11502
G1 X74.515 Y93.131 E5.28391
G1 X74.515 Y92.676 E5.29759
G1 X78.485 Y88.706 E5.46648
G1 X78.485 Y88.251 E5.48016
G1 X74.515 Y92.221 E5.64905
G1 X74.515 Y91.766 E5.66273
G1 X78.485 Y87.797 E5.83162
G1 X78.485 Y87.342 E5.84530
G1 X74.342 Y91.485 E6.02157
G1 X73.887 Y91.485 E6.03525
G1 X78.485 Y86.887 E6.23086
G1 X78.485 Y86.432 E6.24455
G1 X73.432 Y91.485 E6.45951
G1 X72.977 Y91.485 E6.47319
G1 X78.485 Y85.977 E6.70751
G1 X78.485 Y85.523 E6.72119
G1 X72.523 Y91.485 E6.97485
G1 X72.068 Y91.485 E6.98854
G1 X78.485 Y85.068 E7.26155
G1 X78.485 Y84.613 E7.27523
G1 X71.613 Y91.485 E7.56760
G1 X71.515 Y91.485 E7.57054
G1 X71.515 Y91.128 E7.58128
G1 X78.485 Y84.158 E7.87780
G1 X78.485 Y83.703 E7.89148
G1 X71.515 Y90.673 E8.18800
G1 X71.515 Y90.218 E8.20169
G1 X78.485 Y83.248 E8.49821
G1 X78.485 Y82.794 E8.51189
G1 X71.515 Y89.763 E8.80841
G1 X71.515 Y89.308 E8.82209
G1 X78.485 Y82.339 E9.11861
G1 X78.485 Y81.884 E9.13230
G1 X71.515 Y88.854 E9.42882
G1 X71.515 Y88.399 E9.44250
G1 X78.485 Y81.429 E9.73902
G1 X78.485 Y80.974 E9.75270
G1 X71.515 Y87.944 E10.04922
G1 X71.515 Y87.489 E10.06291
G1 X78.485 Y80.520 E10.35943
G1 X78.485 Y80.065 E10.37311
G1 X71.515 Y87.034 E10.66963
G1 X71.515 Y86.580 E10.68331
G1 X74.580 Y83.515 E10.81369
G1 X74.125 Y83.515 E10.82737
G1 X71.515 Y86.125 E10.93840
G1 X71.515 Y85.670 E10.95208
G1 X73.670 Y83.515 E11.04375
G1 X73.215 Y83.515 E11.05744
G1 X71.515 Y85.215 E11.12976
G1 X71.515 Y84.760 E11.14344
G1 X72.760 Y83.515 E11.19642
G1 X72.306 Y83.515 E11.21010
G1 X71.515 Y84.306 E11.24373
G1 X71.515 Y83.851 E11.25741
G1 X71.851 Y83.515 E11.27169
G1 E9.27169 F1200.00000
G92 E0
G1 Z0.750 F6000.000
G1 X74.515 Y83.580 F6000.000
G1 Z0.250 F6000.000
G1 E2.00000 F1200.00000
G1 F1800
G1 X78.485 Y79.610 E2.16889
G1 X78.485 Y79.155 E2.18257
G1 X74.515 Y83.125 E2.35146
G1 X74.515 Y82.670 E2.36514
G1 X78.485 Y78.700 E2.53402
G1 X78.485 Y78.246 E2.54771
G1 X74.515 Y82.215 E2.71659
G1 X74.515 Y81.760 E2.73028
G1 X78.485 Y77.791 E2.89916
G1 X78.485 Y77.336 E2.91285
G1 X74.515 Y81.306 E3.08173
G1 X74.515 Y80.851 E3.09541
G1 X78.485 Y76.881 E3.26430
G1 X78.485 Y76.426 E3.27798
G1 X74.515 Y80.396 E3.44687
G1 X74.515 Y79.941 E3.46055
G1 X78.485 Y75.972 E3.62944
G1 X78.485 Y75.517 E3.64312
G1 X74.515 Y79.486 E3.81201
G1 X74.515 Y79.032 E3.82569
G1 X78.485 Y75.062 E3.99458
G1 X78.485 Y74.607 E4.00826
G1 X74.515 Y78.577 E4.17715
G1 X74.515 Y78.122 E4.19083
G1 X78.485 Y74.152 E4.35971
G1 X78.485 Y73.697 E4.37340
G1 X74.515 Y77.667 E4.54228
G1 X74.515 Y77.212 E4.55597
G1 X78.485 Y73.243 E4.72485
G1 X78.485 Y72.788 E4.73854
G1 X74.515 Y76.757 E4.90742
G1 X74.515 Y76.303 E4.92110
G1 X78.485 Y72.333 E5.08999
G1 X78.485 Y71.878 E5.10367
G1 X74.515 Y75.848 E5.27256
G1 X74.515 Y75.393 E5.28624
G1 X78.485 Y71.423 E5.45513
G1 X78.485 Y70.969 E5.46881
G1 X74.515 Y74.938 E5.63770
G1 X74.515 Y74.483 E5.65138
G1 X78.485 Y70.514 E5.82027
G1 X78.485 Y70.059 E5.83395
G1 X74.515 Y74.029 E6.00284
G1 X74.515 Y73.574 E6.01652
G1 X78.485 Y69.604 E6.18540
G1 X78.485 Y69.149 E6.19909
G1 X74.515 Y73.119 E6.36797
G1 X74.515 Y72.664 E6.38166
G1 X78.485 Y68.695 E6.55054
G1 X78.485 Y68.240 E6.56422
G1 X74.515 Y72.209 E6.73311
G1 X74.515 Y71.755 E6.74679
G1 X78.485 Y67.785 E6.91568
G1 X78.485 Y67.330 E6.92936
G1 X74.515 Y71.300 E7.09825
G1 X74.515 Y70.845 E7.11193
G1 X78.485 Y66.875 E7.28082
G1 X78.485 Y66.421 E7.29450
G1 X74.515 Y70.390 E7.46339
G1 X74.515 Y69.935 E7.47707
G1 X78.485 Y65.966 E7.64596
G1 X78.485 Y65.511 E7.65964
G1 X74.515 Y69.481 E7.82853
G1 X74.515 Y69.026 E7.84221
G1 X78.485 Y65.056 E8.01109
G1 X78.485 Y64.601 E8.02478
G1 X74.515 Y68.571 E8.19366
G1 X74.515 Y68.116 E8.20735
G1 X78.485 Y64.146 E8.37623
G1 X78.485 Y63.692 E8.38991
G1 X74.515 Y67.661 E8.55880
G1 X74.515 Y67.206 E8.57248
G1 X78.485 Y63.237 E8.74137
G1 X78.485 Y62.782 E8.75505
G1 X74.515 Y66.752 E8.92394
G1 X74.515 Y66.485 E8.93197
G1 X74.327 Y66.485 E8.93762
G1 X78.485 Y62.327 E9.11451
G1 X78.485 Y61.872 E9.12819
G1 X73.872 Y66.485 E9.32442
G1 X73.418 Y66.485 E9.33810
G1 X78.485 Y61.418 E9.55369
G1 X78.485 Y60.963 E9.56737
G1 X72.963 Y66.485 E9.80230
G1 X72.508 Y66.485 E9.81598
G1 X78.485 Y60.508 E10.07027
G1 X78.485 Y60.053 E10.08395
G1 X72.053 Y66.485 E10.35758
G1 X71.598 Y66.485 E10.37126
G1 X78.485 Y59.598 E10.66425
G1 X78.485 Y59.144 E10.67793
G1 X71.515 Y66.113 E10.97445
G1 X71.515 Y65.658 E10.98813
G1 X78.485 Y58.689 E11.28465
G1 X78.485 Y58.234 E11.29833
G1 X71.515 Y65.204 E11.59486
G1 X71.515 Y64.749 E11.60854
G1 X78.485 Y57.779 E11.90506
G1 X78.485 Y57.324 E11.91874
G1 X71.515 Y64.294 E12.21526
G1 X71.515 Y63.839 E12.22894
G1 X78.485 Y56.870 E12.52546
G1 X78.485 Y56.415 E12.53915
G1 X71.515 Y63.384 E12.83567
G1 X71.515 Y62.930 E12.84935
G1 X78.485 Y55.960 E13.14587
G1 X78.485 Y55.505 E13.15955
G1 X71.515 Y62.475 E13.45607
G1 X71.515 Y62.020 E13.46976
G1 X78.485 Y55.050 E13.76628
G1 X78.485 Y54.595 E13.77996
G1 X74.515 Y58.565 E13.94885
G1 X74.515 Y58.110 E13.96253
G1 X78.485 Y54.141 E14.13142
G1 X78.485 Y53.686 E14.14510
G1 X74.515 Y57.655 E14.31398
G1 X74.515 Y57.201 E14.32767
G1 X78.485 Y53.231 E14.49655
G1 X78.485 Y52.776 E14.51024
G1 X74.515 Y56.746 E14.67912
G1 X74.515 Y56.291 E14.69281
G1 X78.485 Y52.321 E14.86169
G1 X78.485 Y51.867 E14.87537
G1 X74.515 Y55.836 E15.04426
G1 X74.515 Y55.381 E15.05794
G1 X78.485 Y51.412 E15.22683
G1 X78.485 Y51.015 E15.23876
G1 X78.427 Y51.015 E15.24051
G1 X74.515 Y54.927 E15.40692
G1 X74.515 Y54.472 E15.42060
G1 X77.972 Y51.015 E15.56767
G1 X77.517 Y51.015 E15.58135
G1 X74.515 Y54.017 E15.70906
G1 X74.515 Y53.562 E15.72274
G1 X77.062 Y51.015 E15.83110
G1 X76.607 Y51.015 E15.84478
G1 X74.515 Y53.107 E15.93380
G1 X74.515 Y52.653 E15.94748
G1 X76.153 Y51.015 E16.01714
G1 X75.698 Y51.015 E16.03082
G1 X74.515 Y52.198 E16.08113
G1 X74.515 Y51.743 E16.09482
G1 X75.243 Y51.015 E16.12578
G1 X74.788 Y51.015 E16.13946
G1 X74.515 Y51.288 E16.15106
G1 E14.15106 F1200.00000
G92 E0
G1 Z0.750 F6000.000
G1 X71.836 Y58.515 F6000.000
G1 Z0.250 F6000.000
G1 E2.00000 F1200.00000
G1 F1800
G1 X71.515 Y58.836 E2.01366
G1 X71.515 Y59.291 E2.02734
G1 X72.291 Y58.515 E2.06035
G1 X72.746 Y58.515 E2.07403
G1 X71.515 Y59.746 E2.12639
G1 X71.515 Y60.201 E2.14007
G1 X73.201 Y58.515 E2.21178
G1 X73.655 Y58.515 E2.22546
G1 X71.515 Y60.655 E2.31652
G1 X71.515 Y61.110 E2.33020
G1 X74.110 Y58.515 E2.44061
G1 X74.565 Y58.515 E2.45429
G1 X71.515 Y61.565 E2.58405
G1 Z0.500 F6000.000
G1 E0.58405 F1200.00000
G92 E0
G1 Z1.000 F6000.000
G1 X74.667 Y91.333 F6000.000
G1 Z0.500 F6000.000
G1 E2.00000 F1200.00000
G1 F2400
G1 X71.667 Y91.333 E2.14106
G1 X71.667 Y83.667 E2.50151
G1 X74.667 Y83.667 E2.64257
G1 X74.667 Y66.333 E3.45763
G1 X71.667 Y66.333 E3.59869
G1 X71.667 Y58.667 E3.95914
G1 X74.667 Y58.667 E4.10020
G1 X74.667 Y51.167 E4.45285
G1 X78.333 Y51.167 E4.62521
G1 X78.333 Y98.833 E6.86648
G1 X74.667 Y98.833 E7.03884
G1 X74.667 Y91.393 E7.38867
G1 X74.165 Y91.835 F6000.000
G1 F2400
G1 X71.165 Y91.835 E7.52973
G1 X71.165 Y83.165 E7.93744
G1 X74.165 Y83.165 E8.07851
G1 X74.165 Y66.835 E8.84630
G1 X71.165 Y66.835 E8.98736
G1 X71.165 Y58.165 E9.39508
G1 X74.165 Y58.165 E9.53614
G1 X74.165 Y50.665 E9.88879
G1 X78.835 Y50.665 E10.10842
G1 X78.835 Y99.335 E12.39695
G1 X74.165 Y99.335 E12.61659
G1 X74.165 Y91.895 E12.96642
G1 X73.720 Y92.280 F6000.000
G1 F2160
G1 X70.720 Y92.280 E13.07484
G1 X70.720 Y82.720 E13.42035
G1 X73.720 Y82.720 E13.52877
G1 X73.720 Y67.280 E14.08678
G1 X70.720 Y67.280 E14.19520
G1 X70.720 Y57.720 E14.54071
G1 X73.720 Y57.720 E14.64913
G1 X73.720 Y50.220 E14.92019
G1 X79.280 Y50.220 E15.12113
G1 X79.280 Y99.780 E16.91226
G1 X73.720 Y99.780 E17.11321
G1 X73.720 Y92.340 E17.38209
G1 X73.636 Y91.889 F6000.000
G1 E15.38209 F1200.00000
G92 E0
G1 Z1.000 F6000.000
G1 X71.957 Y90.113 F6000.000
G1 Z0.500 F6000.000
G1 E2.00000 F1200.00000
G1 F1800
G1 X72.887 Y91.043 E2.06220
G1 X73.602 Y91.043 E2.09599
G1 X71.957 Y89.398 E2.20599
G1 X71.957 Y88.684 E2.23978
G1 X74.316 Y91.043 E2.39757
G1 X75.031 Y91.043 E2.43137
G1 X71.957 Y87.969 E2.63695
G1 X71.957 Y87.254 E2.67074
G1 X78.043 Y93.341 E3.07774
G1 X78.043 Y92.626 E3.11154
G1 X71.957 Y86.539 E3.51854
G1 X71.957 Y85.825 E3.55233
G1 X78.043 Y91.911 E3.95933
G1 X78.043 Y91.197 E3.99313
G1 X71.957 Y85.110 E4.40013
G1 X71.957 Y84.395 E4.43392
G1 X78.043 Y90.482 E4.84092
G1 X78.043 Y89.767 E4.87472
G1 X72.233 Y83.957 E5.26324
G1 X72.948 Y83.957 E5.29703
G1 X78.043 Y89.052 E5.63776
G1 X78.043 Y88.337 E5.67155
G1 X73.663 Y83.957 E5.96448
G1 X74.377 Y83.957 E5.99828
G1 X78.043 Y87.623 E6.24341
G1 X78.043 Y86.908 E6.27721
G1 X74.957 Y83.821 E6.48362
G1 X74.957 Y83.106 E6.51741
G1 X78.043 Y86.193 E6.72382
G1 X78.043 Y85.478 E6.75761
G1 X74.957 Y82.391 E6.96402
G1 X74.957 Y81.677 E6.99781
G1 X78.043 Y84.764 E7.20422
G1 X78.043 Y84.049 E7.23802
G1 X74.957 Y80.962 E7.44442
G1 X74.957 Y80.247 E7.47822
G1 X78.043 Y83.334 E7.68462
G1 X78.043 Y82.619 E7.71842
G1 X74.957 Y79.532 E7.92483
G1 X74.957 Y78.817 E7.95862
G1 X78.043 Y81.904 E8.16503
G1 X78.043 Y81.190 E8.19882
G1 X74.957 Y78.103 E8.40523
G1 X74.957 Y77.388 E8.43903
G1 X78.043 Y80.475 E8.64543
G1 X78.043 Y79.760 E8.67923
G1 X74.957 Y76.673 E8.88563
G1 X74.957 Y75.958 E8.91943
G1 X78.043 Y79.045 E9.12584
G1 X78.043 Y78.330 E9.15963
G1 X74.957 Y75.243 E9.36604
G1 X74.957 Y74.529 E9.39983
G1 X78.043 Y77.616 E9.60624
G1 X78.043 Y76.901 E9.64003
G1 X74.957 Y73.814 E9.84644
G1 X74.957 Y73.099 E9.88024
G1 X78.043 Y76.186 E10.08664
G1 X78.043 Y75.471 E10.12044
G1 X74.957 Y72.384 E10.32684
G1 X74.957 Y71.670 E10.36064
G1 X78.043 Y74.756 E10.56705
G1 X78.043 Y74.042 E10.60084
G1 X74.957 Y70.955 E10.80725
G1 X74.957 Y70.240 E10.84104
G1 X78.043 Y73.327 E11.04745
G1 X78.043 Y72.612 E11.08125
G1 X74.957 Y69.525 E11.28765
G1 X74.957 Y68.810 E11.32145
G1 X78.043 Y71.897 E11.52785
G1 X78.043 Y71.183 E11.56165
G1 X74.957 Y68.096 E11.76805
G1 X74.957 Y67.381 E11.80185
G1 X78.043 Y70.468 E12.00826
G1 X78.043 Y69.753 E12.04205
G1 X74.957 Y66.666 E12.24846
G1 X74.957 Y65.951 E12.28225
G1 X78.043 Y69.038 E12.48866
G1 X78.043 Y68.323 E12.52246
G1 X71.957 Y62.236 E12.92946
G1 X71.957 Y61.522 E12.96325
G1 X78.043 Y67.609 E13.37025
G1 X78.043 Y66.894 E13.40405
G1 X71.957 Y60.807 E13.81105
G1 X71.957 Y60.092 E13.84484
G1 X78.043 Y66.179 E14.25184
G1 X78.043 Y65.464 E14.28564
G1 X71.957 Y59.377 E14.69264
G1 X71.957 Y58.957 E14.71253
G1 X72.251 Y58.957 E14.72643
G1 X78.043 Y64.749 E15.11377
G1 X78.043 Y64.035 E15.14756
G1 X72.965 Y58.957 E15.48711
G1 X73.680 Y58.957 E15.52090
G1 X78.043 Y63.320 E15.81265
G1 X78.043 Y62.605 E15.84645
G1 X74.395 Y58.957 E16.09040
G1 X74.957 Y58.957 E16.11696
G1 X74.957 Y58.803 E16.12420
G1 X78.043 Y61.890 E16.33061
G1 X78.043 Y61.175 E16.36440
G1 X74.957 Y58.089 E16.57081
G1 X74.957 Y57.374 E16.60460
G1 X78.043 Y60.461 E16.81101
G1 X78.043 Y59.746 E16.84481
G1 X74.957 Y56.659 E17.05121
G1 X74.957 Y55.944 E17.08501
G1 X78.043 Y59.031 E17.29141
G1 X78.043 Y58.316 E17.32521
G1 X74.957 Y55.229 E17.53162
G1 X74.957 Y54.515 E17.56541
G1 X78.043 Y57.602 E17.77182
G1 X78.043 Y56.887 E17.80561
G1 X74.957 Y53.800 E18.01202
G1 X74.957 Y53.085 E18.04581
G1 X78.043 Y56.172 E18.25222
G1 X78.043 Y55.457 E18.28602
G1 X74.957 Y52.370 E18.49242
G1 X74.957 Y51.655 E18.52622
G1 X78.043 Y54.742 E18.73262
G1 X78.043 Y54.028 E18.76642
G1 X75.472 Y51.457 E18.93833
G1 X76.187 Y51.457 E18.97213
G1 X78.043 Y53.313 E19.09624
G1 X78.043 Y52.598 E19.13004
G1 X76.902 Y51.457 E19.20636
