; generated by Slic3r 1.3.0 on 2020-03-25 at 00:34:01

; external perimeters extrusion width = 0.55mm (3.65mm^3/s)
; perimeters extrusion width = 0.70mm (5.26mm^3/s)
; infill extrusion width = 0.62mm (4.66mm^3/s)
; solid infill extrusion width = 0.70mm (3.94mm^3/s)
; top infill extrusion width = 0.45mm (2.44mm^3/s)

M107
M104 S200 ; set temperature
G28 ; home all axes
G1 Z5 F5000 ; lift nozzle

; Filament gcode

M109 S200 ; set temperature and wait for it to be reached
G21 ; set units to millimeters
G90 ; use absolute coordinates
M82 ; use absolute distances for extrusion
G92 E0
G1 Z0.200 F7800.000
G1 E-2.00000 F2400.00000
G92 E0
G1 X50.257 Y68.522 F7800.000
G1 E2.00000 F2400.00000
G1 F1800
G1 X53.333 Y67.728 E2.03210
G1 X136.667 Y67.728 E2.87404
G1 X138.878 Y68.125 E2.89674
G1 X140.733 Y69.199 E2.91840
G1 X147.424 Y74.768 E3.00635
G1 X148.082 Y75.400 E3.01557
G1 X149.481 Y76.954 E3.03669
G1 X150.262 Y78.029 E3.05012
G1 X151.308 Y79.840 E3.07124
G1 X151.848 Y81.054 E3.08467
G1 X152.494 Y83.042 E3.10579
G1 X152.770 Y84.342 E3.11922
G1 X152.989 Y86.421 E3.14034
G1 X152.989 Y87.750 E3.15376
G1 X152.770 Y89.829 E3.17489
G1 X152.494 Y91.129 E3.18831
G1 X151.848 Y93.117 E3.20943
G1 X151.308 Y94.331 E3.22286
G1 X150.262 Y96.142 E3.24398
G1 X149.481 Y97.217 E3.25741
G1 X148.082 Y98.771 E3.27854
G1 X147.095 Y99.660 E3.29196
G1 X145.403 Y100.888 E3.31308
G1 X144.937 Y101.197 E3.31873
G1 X119.937 Y116.197 E3.61328
G1 X119.252 Y116.553 E3.62109
G1 X117.343 Y117.403 E3.64221
G1 X116.200 Y117.787 E3.65438
G1 X54.777 Y132.106 E4.29160
G1 X52.533 Y132.221 E4.31430
G1 X50.390 Y131.549 E4.33699
G1 X48.614 Y130.174 E4.35968
G1 X47.427 Y128.267 E4.38238
G1 X46.976 Y125.915 E4.40657
G1 X46.976 Y74.085 E4.93022
G1 X47.373 Y71.874 E4.95292
G1 X48.514 Y69.940 E4.97561
G1 X50.199 Y68.570 E4.99755
G1 E2.99755 F2400.00000
G92 E0
G1 X58.042 Y83.748 F7800.000
G1 E2.00000 F2400.00000
G1 F1800
G1 X57.823 Y83.908 E2.00274
G1 X57.586 Y84.038 E2.00548
G1 X57.334 Y84.138 E2.00821
G1 X57.071 Y84.205 E2.01095
G1 X56.802 Y84.239 E2.01369
G1 X56.531 Y84.239 E2.01643
G1 X56.262 Y84.205 E2.01917
G1 X56.000 Y84.138 E2.02191
G1 X55.748 Y84.038 E2.02464
G1 X55.509 Y83.907 E2.02739
G1 X55.271 Y83.732 E2.03038
G1 X54.930 Y83.369 E2.03542
G1 X54.775 Y83.125 E2.03833
G1 X54.660 Y82.880 E2.04107
G1 X54.576 Y82.622 E2.04381
G1 X54.526 Y82.356 E2.04655
G1 X54.508 Y82.085 E2.04928
G1 X54.526 Y81.815 E2.05202
G1 X54.576 Y81.549 E2.05476
G1 X54.660 Y81.291 E2.05750
G1 X54.775 Y81.046 E2.06024
G1 X54.921 Y80.817 E2.06298
G1 X55.093 Y80.608 E2.06571
G1 X55.291 Y80.422 E2.06845
G1 X55.510 Y80.263 E2.07119
G1 X55.763 Y80.124 E2.07410
G1 X56.237 Y79.970 E2.07914
G1 X56.547 Y79.929 E2.08230
G1 X57.046 Y79.960 E2.08735
G1 X57.333 Y80.032 E2.09034
G1 X57.586 Y80.133 E2.09309
G1 X57.823 Y80.263 E2.09582
G1 X58.042 Y80.422 E2.09856
G1 X58.240 Y80.608 E2.10130
G1 X58.413 Y80.817 E2.10404
G1 X58.558 Y81.046 E2.10678
G1 X58.673 Y81.291 E2.10952
G1 X58.757 Y81.549 E2.11225
G1 X58.808 Y81.815 E2.11499
G1 X58.825 Y82.085 E2.11773
G1 X58.808 Y82.356 E2.12047
G1 X58.757 Y82.622 E2.12321
G1 X58.673 Y82.880 E2.12595
G1 X58.558 Y83.125 E2.12868
G1 X58.413 Y83.354 E2.13142
G1 X58.240 Y83.563 E2.13416
G1 X58.097 Y83.697 E2.13614
G1 X57.814 Y83.473 F7800.000
G1 F1800
G1 X57.631 Y83.605 E2.13842
G1 X57.433 Y83.714 E2.14071
G1 X57.223 Y83.798 E2.14299
G1 X57.004 Y83.854 E2.14528
G1 X56.780 Y83.882 E2.14756
G1 X56.554 Y83.882 E2.14985
G1 X56.329 Y83.854 E2.15213
G1 X56.110 Y83.798 E2.15441
G1 X55.900 Y83.714 E2.15670
G1 X55.702 Y83.605 E2.15899
G1 X55.509 Y83.464 E2.16140
G1 X55.213 Y83.149 E2.16577
G1 X55.089 Y82.953 E2.16811
G1 X54.993 Y82.748 E2.17040
G1 X54.923 Y82.533 E2.17268
G1 X54.880 Y82.311 E2.17497
G1 X54.866 Y82.085 E2.17725
G1 X54.880 Y81.860 E2.17953
G1 X54.923 Y81.638 E2.18182
G1 X54.993 Y81.423 E2.18410
G1 X55.089 Y81.218 E2.18639
G1 X55.210 Y81.027 E2.18867
G1 X55.354 Y80.853 E2.19096
G1 X55.519 Y80.698 E2.19324
G1 X55.702 Y80.565 E2.19553
G1 X55.906 Y80.453 E2.19787
G1 X56.316 Y80.319 E2.20223
G1 X56.559 Y80.288 E2.20471
G1 X56.991 Y80.314 E2.20908
G1 X57.223 Y80.373 E2.21150
G1 X57.433 Y80.456 E2.21379
G1 X57.631 Y80.565 E2.21607
G1 X57.814 Y80.698 E2.21835
G1 X57.979 Y80.853 E2.22064
G1 X58.123 Y81.027 E2.22292
G1 X58.244 Y81.218 E2.22521
G1 X58.341 Y81.423 E2.22749
G1 X58.411 Y81.638 E2.22978
G1 X58.453 Y81.860 E2.23206
G1 X58.467 Y82.085 E2.23434
G1 X58.453 Y82.311 E2.23663
G1 X58.411 Y82.533 E2.23891
G1 X58.341 Y82.748 E2.24120
G1 X58.244 Y82.953 E2.24348
G1 X58.123 Y83.144 E2.24577
G1 X57.869 Y83.421 E2.24957
G1 X57.852 Y83.696 F7800.000
G1 E0.24957 F2400.00000
G92 E0
G1 X89.252 Y88.403 F7800.000
G1 E2.00000 F2400.00000
G1 F1800
G1 X90.199 Y86.118 E2.02499
G1 X92.485 Y85.171 E2.04999
G1 X110.848 Y85.171 E2.23552
G1 X113.134 Y86.118 E2.26052
G1 X114.081 Y88.404 E2.28551
G1 X114.081 Y100.767 E2.41043
G1 X113.134 Y103.053 E2.43542
G1 X110.848 Y104.000 E2.46042
G1 X92.485 Y104.000 E2.64595
G1 X90.199 Y103.053 E2.67094
G1 X89.252 Y100.767 E2.69594
G1 X89.252 Y88.478 E2.82009
G1 X89.610 Y88.475 F7800.000
G1 F1800
G1 X90.473 Y86.391 E2.84288
G1 X92.556 Y85.528 E2.86566
G1 X110.777 Y85.528 E3.04976
G1 X112.861 Y86.391 E3.07254
G1 X113.724 Y88.475 E3.09532
G1 X113.724 Y100.696 E3.21880
G1 X112.861 Y102.780 E3.24158
G1 X110.777 Y103.642 E3.26437
G1 X92.556 Y103.642 E3.44847
G1 X90.473 Y102.780 E3.47125
G1 X89.610 Y100.696 E3.49403
G1 X89.610 Y88.550 E3.61675
G1 X89.967 Y88.546 F7800.000
G1 F1800
G1 X90.746 Y86.665 E3.63732
G1 X92.627 Y85.885 E3.65789
G1 X110.706 Y85.885 E3.84056
G1 X112.588 Y86.665 E3.86113
G1 X113.367 Y88.546 E3.88170
G1 X113.367 Y100.625 E4.00374
G1 X112.588 Y102.506 E4.02431
G1 X110.706 Y103.285 E4.04488
G1 X92.627 Y103.285 E4.22755
G1 X90.746 Y102.506 E4.24811
G1 X89.967 Y100.625 E4.26869
G1 X89.967 Y88.621 E4.38997
G1 X89.607 Y88.199 F7800.000
G1 E2.38997 F2400.00000
G92 E0
G1 X94.806 Y83.781 F7800.000
G1 E2.00000 F2400.00000
G1 F1800
G1 X94.474 Y83.323 E2.00571
G1 X94.327 Y83.011 E2.00919
G1 X94.230 Y82.711 E2.01238
G1 X94.171 Y82.401 E2.01558
G1 X94.151 Y82.085 E2.01877
G1 X94.171 Y81.770 E2.02196
G1 X94.230 Y81.460 E2.02515
G1 X94.327 Y81.159 E2.02834
G1 X94.462 Y80.873 E2.03154
G1 X94.631 Y80.606 E2.03473
G1 X94.833 Y80.363 E2.03792
G1 X95.063 Y80.147 E2.04111
G1 X95.319 Y79.961 E2.04431
G1 X95.595 Y79.809 E2.04750
G1 X95.889 Y79.693 E2.05069
G1 X96.195 Y79.614 E2.05388
G1 X96.509 Y79.574 E2.05708
G1 X96.825 Y79.574 E2.06027
G1 X97.138 Y79.614 E2.06346
G1 X97.444 Y79.693 E2.06665
G1 X97.738 Y79.809 E2.06984
G1 X98.015 Y79.961 E2.07304
G1 X98.270 Y80.147 E2.07623
G1 X98.501 Y80.363 E2.07942
G1 X98.702 Y80.607 E2.08261
G1 X98.871 Y80.873 E2.08581
G1 X99.006 Y81.159 E2.08900
G1 X99.104 Y81.460 E2.09219
G1 X99.163 Y81.770 E2.09538
G1 X99.183 Y82.085 E2.09857
G1 X99.163 Y82.401 E2.10176
G1 X99.103 Y82.713 E2.10498
G1 X98.993 Y83.047 E2.10853
G1 X98.720 Y83.542 E2.11425
G1 X98.501 Y83.808 E2.11773
G1 X98.269 Y84.025 E2.12094
G1 X97.984 Y84.231 E2.12449
G1 X97.472 Y84.471 E2.13020
G1 X97.138 Y84.557 E2.13368
G1 X96.825 Y84.596 E2.13688
G1 X96.509 Y84.596 E2.14007
G1 X96.195 Y84.557 E2.14326
G1 X95.889 Y84.478 E2.14645
G1 X95.595 Y84.362 E2.14964
G1 X95.319 Y84.210 E2.15284
G1 X95.061 Y84.023 E2.15605
G1 X94.860 Y83.832 E2.15884
G1 X95.075 Y83.544 F7800.000
G1 F1800
G1 X94.783 Y83.141 E2.16388
G1 X94.660 Y82.880 E2.16680
G1 X94.576 Y82.622 E2.16953
G1 X94.525 Y82.356 E2.17227
G1 X94.508 Y82.085 E2.17501
G1 X94.525 Y81.815 E2.17775
G1 X94.576 Y81.549 E2.18049
G1 X94.660 Y81.291 E2.18322
G1 X94.775 Y81.046 E2.18596
G1 X94.921 Y80.817 E2.18870
G1 X95.093 Y80.608 E2.19144
G1 X95.291 Y80.422 E2.19418
G1 X95.510 Y80.263 E2.19692
G1 X95.748 Y80.133 E2.19966
G1 X96.000 Y80.033 E2.20239
G1 X96.262 Y79.965 E2.20513
G1 X96.531 Y79.931 E2.20787
G1 X96.802 Y79.931 E2.21061
G1 X97.071 Y79.965 E2.21335
G1 X97.334 Y80.033 E2.21608
G1 X97.586 Y80.133 E2.21882
G1 X97.823 Y80.263 E2.22156
G1 X98.042 Y80.422 E2.22430
G1 X98.240 Y80.608 E2.22704
G1 X98.413 Y80.817 E2.22978
G1 X98.558 Y81.046 E2.23251
G1 X98.673 Y81.291 E2.23525
G1 X98.757 Y81.549 E2.23799
G1 X98.808 Y81.815 E2.24073
G1 X98.825 Y82.085 E2.24347
G1 X98.808 Y82.356 E2.24620
G1 X98.757 Y82.623 E2.24895
G1 X98.664 Y82.904 E2.25194
G1 X98.424 Y83.341 E2.25698
G1 X98.240 Y83.563 E2.25989
G1 X98.042 Y83.749 E2.26264
G1 X97.802 Y83.922 E2.26563
G1 X97.350 Y84.134 E2.27066
G1 X97.071 Y84.205 E2.27358
G1 X96.802 Y84.239 E2.27632
G1 X96.531 Y84.239 E2.27905
G1 X96.262 Y84.205 E2.28179
G1 X96.000 Y84.138 E2.28453
G1 X95.748 Y84.038 E2.28727
G1 X95.510 Y83.908 E2.29001
G1 X95.290 Y83.748 E2.29276
G1 X95.130 Y83.596 E2.29499
G1 X95.345 Y83.308 F7800.000
G1 F1800
G1 X95.092 Y82.958 E2.29935
G1 X94.993 Y82.748 E2.30170
G1 X94.923 Y82.533 E2.30398
G1 X94.880 Y82.311 E2.30626
G1 X94.866 Y82.085 E2.30855
G1 X94.880 Y81.860 E2.31083
G1 X94.923 Y81.638 E2.31312
G1 X94.993 Y81.423 E2.31540
G1 X95.089 Y81.218 E2.31769
G1 X95.210 Y81.027 E2.31997
G1 X95.354 Y80.853 E2.32225
G1 X95.519 Y80.698 E2.32454
G1 X95.702 Y80.565 E2.32682
G1 X95.900 Y80.456 E2.32911
G1 X96.110 Y80.373 E2.33139
G1 X96.329 Y80.317 E2.33368
G1 X96.554 Y80.289 E2.33596
G1 X96.780 Y80.289 E2.33824
G1 X97.004 Y80.317 E2.34053
G1 X97.223 Y80.373 E2.34281
G1 X97.433 Y80.456 E2.34510
G1 X97.631 Y80.565 E2.34738
G1 X97.814 Y80.698 E2.34967
G1 X97.979 Y80.853 E2.35195
G1 X98.123 Y81.027 E2.35423
G1 X98.244 Y81.218 E2.35652
G1 X98.341 Y81.423 E2.35880
G1 X98.411 Y81.638 E2.36109
G1 X98.453 Y81.860 E2.36337
G1 X98.467 Y82.085 E2.36566
G1 X98.453 Y82.311 E2.36794
G1 X98.410 Y82.533 E2.37023
G1 X98.336 Y82.761 E2.37265
G1 X98.127 Y83.139 E2.37701
G1 X97.979 Y83.318 E2.37935
G1 X97.814 Y83.473 E2.38164
G1 X97.620 Y83.613 E2.38406
G1 X97.229 Y83.796 E2.38842
G1 X97.004 Y83.854 E2.39077
G1 X96.780 Y83.882 E2.39305
G1 X96.554 Y83.882 E2.39534
G1 X96.329 Y83.854 E2.39762
G1 X96.110 Y83.798 E2.39991
G1 X95.900 Y83.714 E2.40219
G1 X95.702 Y83.605 E2.40448
G1 X95.400 Y83.359 E2.40841
G1 X94.921 Y83.388 F7800.000
G1 E0.40841 F2400.00000
G92 E0
G1 X104.171 Y82.401 F7800.000
G1 E2.00000 F2400.00000
G1 F1800
G1 X104.151 Y82.085 E2.00319
G1 X104.171 Y81.770 E2.00639
G1 X104.230 Y81.460 E2.00958
G1 X104.327 Y81.159 E2.01277
G1 X104.462 Y80.873 E2.01596
G1 X104.631 Y80.606 E2.01916
G1 X104.833 Y80.363 E2.02235
G1 X105.063 Y80.147 E2.02554
G1 X105.319 Y79.961 E2.02873
G1 X105.595 Y79.809 E2.03192
G1 X105.889 Y79.693 E2.03511
G1 X106.195 Y79.614 E2.03831
G1 X106.509 Y79.574 E2.04150
G1 X106.825 Y79.574 E2.04469
G1 X107.138 Y79.614 E2.04788
G1 X107.444 Y79.693 E2.05108
G1 X107.738 Y79.809 E2.05427
G1 X108.015 Y79.961 E2.05746
G1 X108.270 Y80.147 E2.06065
G1 X108.501 Y80.363 E2.06384
G1 X108.702 Y80.607 E2.06704
G1 X108.871 Y80.873 E2.07023
G1 X109.006 Y81.159 E2.07342
G1 X109.104 Y81.460 E2.07661
G1 X109.163 Y81.770 E2.07981
G1 X109.183 Y82.085 E2.08300
G1 X109.163 Y82.401 E2.08619
G1 X109.103 Y82.713 E2.08940
G1 X108.993 Y83.047 E2.09296
G1 X108.720 Y83.542 E2.09867
G1 X108.501 Y83.808 E2.10215
G1 X108.269 Y84.025 E2.10536
G1 X107.984 Y84.231 E2.10891
G1 X107.472 Y84.471 E2.11463
G1 X107.138 Y84.557 E2.11811
G1 X106.825 Y84.596 E2.12130
G1 X106.509 Y84.596 E2.12449
G1 X106.195 Y84.557 E2.12768
G1 X105.889 Y84.478 E2.13088
G1 X105.595 Y84.362 E2.13407
G1 X105.319 Y84.210 E2.13726
G1 X105.061 Y84.023 E2.14047
G1 X104.806 Y83.781 E2.14403
G1 X104.474 Y83.323 E2.14974
G1 X104.327 Y83.011 E2.15322
G1 X104.230 Y82.711 E2.15641
G1 X104.185 Y82.474 E2.15884
G1 X104.525 Y82.356 F7800.000
G1 F1800
G1 X104.508 Y82.085 E2.16158
G1 X104.525 Y81.815 E2.16432
G1 X104.576 Y81.549 E2.16706
G1 X104.660 Y81.291 E2.16980
G1 X104.775 Y81.046 E2.17254
G1 X104.921 Y80.817 E2.17528
G1 X105.093 Y80.608 E2.17801
G1 X105.291 Y80.422 E2.18075
G1 X105.510 Y80.263 E2.18349
G1 X105.748 Y80.133 E2.18623
G1 X106.000 Y80.033 E2.18897
G1 X106.262 Y79.965 E2.19170
G1 X106.531 Y79.931 E2.19444
G1 X106.802 Y79.931 E2.19718
G1 X107.071 Y79.965 E2.19992
G1 X107.334 Y80.033 E2.20266
G1 X107.586 Y80.133 E2.20540
G1 X107.823 Y80.263 E2.20813
G1 X108.042 Y80.422 E2.21087
G1 X108.240 Y80.608 E2.21361
G1 X108.413 Y80.817 E2.21635
G1 X108.558 Y81.046 E2.21909
G1 X108.673 Y81.291 E2.22182
G1 X108.757 Y81.549 E2.22456
G1 X108.808 Y81.815 E2.22730
G1 X108.825 Y82.085 E2.23004
G1 X108.808 Y82.356 E2.23278
G1 X108.757 Y82.623 E2.23553
G1 X108.664 Y82.904 E2.23851
G1 X108.424 Y83.341 E2.24355
G1 X108.240 Y83.563 E2.24647
G1 X108.042 Y83.749 E2.24921
G1 X107.802 Y83.922 E2.25220
G1 X107.350 Y84.134 E2.25724
G1 X107.071 Y84.205 E2.26015
G1 X106.802 Y84.239 E2.26289
G1 X106.531 Y84.239 E2.26563
G1 X106.262 Y84.205 E2.26837
G1 X106.000 Y84.138 E2.27110
G1 X105.748 Y84.038 E2.27384
G1 X105.510 Y83.908 E2.27658
G1 X105.290 Y83.748 E2.27933
G1 X105.075 Y83.544 E2.28232
G1 X104.783 Y83.141 E2.28735
G1 X104.660 Y82.880 E2.29027
G1 X104.576 Y82.622 E2.29300
G1 X104.540 Y82.430 E2.29499
G1 X104.880 Y82.311 F7800.000
G1 F1800
G1 X104.866 Y82.085 E2.29727
G1 X104.880 Y81.860 E2.29955
G1 X104.923 Y81.638 E2.30184
G1 X104.993 Y81.423 E2.30412
G1 X105.089 Y81.218 E2.30641
G1 X105.210 Y81.027 E2.30869
G1 X105.354 Y80.853 E2.31098
G1 X105.519 Y80.698 E2.31326
G1 X105.702 Y80.565 E2.31554
G1 X105.900 Y80.456 E2.31783
G1 X106.110 Y80.373 E2.32011
G1 X106.329 Y80.317 E2.32240
G1 X106.554 Y80.289 E2.32468
G1 X106.780 Y80.289 E2.32697
G1 X107.004 Y80.317 E2.32925
G1 X107.223 Y80.373 E2.33153
G1 X107.433 Y80.456 E2.33382
G1 X107.631 Y80.565 E2.33610
G1 X107.814 Y80.698 E2.33839
G1 X107.979 Y80.853 E2.34067
G1 X108.123 Y81.027 E2.34296
G1 X108.244 Y81.218 E2.34524
G1 X108.341 Y81.423 E2.34752
G1 X108.411 Y81.638 E2.34981
G1 X108.453 Y81.860 E2.35209
G1 X108.467 Y82.085 E2.35438
G1 X108.453 Y82.311 E2.35666
G1 X108.410 Y82.533 E2.35895
G1 X108.336 Y82.761 E2.36137
G1 X108.127 Y83.139 E2.36573
G1 X107.979 Y83.318 E2.36808
G1 X107.814 Y83.473 E2.37036
G1 X107.620 Y83.613 E2.37278
G1 X107.229 Y83.796 E2.37714
G1 X107.004 Y83.854 E2.37949
G1 X106.780 Y83.882 E2.38178
G1 X106.554 Y83.882 E2.38406
G1 X106.329 Y83.854 E2.38634
G1 X106.110 Y83.798 E2.38863
G1 X105.900 Y83.714 E2.39091
G1 X105.702 Y83.605 E2.39320
G1 X105.519 Y83.472 E2.39548
G1 X105.345 Y83.308 E2.39790
G1 X105.092 Y82.958 E2.40226
G1 X104.993 Y82.748 E2.40461
G1 X104.895 Y82.385 E2.40841
G1 X104.672 Y82.223 F7800.000
G1 E0.40841 F2400.00000
G92 E0
G1 X114.151 Y82.085 F7800.000
G1 E2.00000 F2400.00000
G1 F1800
G1 X114.171 Y81.770 E2.00319
G1 X114.230 Y81.460 E2.00639
G1 X114.327 Y81.159 E2.00958
G1 X114.462 Y80.873 E2.01277
G1 X114.631 Y80.606 E2.01596
G1 X114.833 Y80.363 E2.01915
G1 X115.063 Y80.147 E2.02235
G1 X115.319 Y79.961 E2.02554
G1 X115.595 Y79.809 E2.02873
G1 X115.889 Y79.693 E2.03192
G1 X116.195 Y79.614 E2.03511
G1 X116.509 Y79.574 E2.03831
G1 X116.825 Y79.574 E2.04150
G1 X117.138 Y79.614 E2.04469
G1 X117.444 Y79.693 E2.04788
G1 X117.738 Y79.809 E2.05108
G1 X118.015 Y79.961 E2.05427
G1 X118.270 Y80.147 E2.05746
G1 X118.501 Y80.363 E2.06065
G1 X118.702 Y80.607 E2.06385
G1 X118.871 Y80.873 E2.06704
G1 X119.006 Y81.159 E2.07023
G1 X119.104 Y81.460 E2.07342
G1 X119.163 Y81.770 E2.07661
G1 X119.183 Y82.085 E2.07981
G1 X119.163 Y82.401 E2.08300
G1 X119.104 Y82.711 E2.08619
G1 X119.006 Y83.012 E2.08938
G1 X118.871 Y83.299 E2.09259
G1 X118.681 Y83.595 E2.09615
G1 X118.293 Y84.007 E2.10186
G1 X118.015 Y84.210 E2.10534
G1 X117.736 Y84.363 E2.10855
G1 X117.409 Y84.491 E2.11211
G1 X116.853 Y84.596 E2.11782
G1 X116.509 Y84.596 E2.12130
G1 X116.195 Y84.557 E2.12449
G1 X115.889 Y84.478 E2.12768
G1 X115.595 Y84.362 E2.13088
G1 X115.319 Y84.210 E2.13407
G1 X115.061 Y84.023 E2.13728
G1 X114.806 Y83.781 E2.14083
G1 X114.474 Y83.323 E2.14655
G1 X114.327 Y83.011 E2.15003
G1 X114.230 Y82.711 E2.15322
G1 X114.171 Y82.401 E2.15641
G1 X114.155 Y82.160 E2.15884
G1 X114.508 Y82.085 F7800.000
G1 F1800
G1 X114.525 Y81.815 E2.16158
G1 X114.576 Y81.549 E2.16432
G1 X114.660 Y81.291 E2.16706
G1 X114.775 Y81.046 E2.16980
G1 X114.921 Y80.817 E2.17254
G1 X115.093 Y80.608 E2.17527
G1 X115.291 Y80.422 E2.17801
G1 X115.510 Y80.263 E2.18075
G1 X115.748 Y80.133 E2.18349
G1 X116.000 Y80.033 E2.18623
