; generated by Slic3r 1.3.1-dev (Build 54a31ee) on 2020-03-18 at 21:12:02

; external perimeters extrusion width = 0.44mm (2.86mm^3/s)
; perimeters extrusion width = 0.56mm (4.14mm^3/s)
; infill extrusion width = 0.50mm (3.66mm^3/s)
; solid infill extrusion width = 0.56mm (3.10mm^3/s)
; top infill extrusion width = 0.45mm (2.44mm^3/s)

M107
G92 E0
;D3D:START:START
T0
M104 S215 T0

G21
G90
M107
T0
G28
G29
M109 T0 S215 T0
G0 F3000
M107
T0
G92 E0
G0 X0 Y149 Z0.1 F3600
G1 Y49 E6.5 F1200
G0 Z1
G92 E0
; Filament gcode

G21 ; set units to millimeters
G90 ; use absolute coordinates
M82 ; use absolute distances for extrusion
G92 E0
G1 Z0.200 F6000.000
G1 E-2.00000 F1200.00000
G92 E0
G1 Z0.700 F6000.000
G1 X99.463 Y92.205 F6000.000
G1 Z0.200 F6000.000
G1 E2.00000 F1200.00000
G1 F1800.000
G1 X97.868 Y92.205 E2.03069
G1 X95.724 Y91.317 E2.07534
G1 X94.836 Y89.173 E2.11998
G1 X94.836 Y85.909 E2.18278
G1 X95.724 Y83.765 E2.22743
G1 X97.868 Y82.877 E2.27208
G1 X116.132 Y82.877 E2.62345
G1 X118.276 Y83.765 E2.66810
G1 X119.164 Y85.909 E2.71275
G1 X119.164 Y89.173 E2.77554
G1 X118.276 Y91.317 E2.82019
G1 X116.132 Y92.205 E2.86484
G1 X100.537 Y92.205 E3.16487
G1 X100.520 Y92.340 E3.16749
G1 X100.700 Y92.387 E3.17107
G1 X100.965 Y92.491 E3.17654
G1 X101.214 Y92.628 E3.18202
G1 X101.444 Y92.796 E3.18749
G1 X101.652 Y92.990 E3.19296
G1 X101.833 Y93.209 E3.19843
G1 X101.985 Y93.450 E3.20391
G1 X102.107 Y93.707 E3.20938
G1 X102.194 Y93.978 E3.21486
G1 X102.248 Y94.257 E3.22033
G1 X102.266 Y94.541 E3.22580
G1 X102.248 Y94.825 E3.23128
G1 X102.194 Y95.104 E3.23675
G1 X102.107 Y95.375 E3.24222
G1 X101.985 Y95.632 E3.24769
G1 X101.833 Y95.873 E3.25317
G1 X101.652 Y96.092 E3.25865
G1 X101.444 Y96.287 E3.26412
G1 X101.214 Y96.454 E3.26959
G1 X100.965 Y96.591 E3.27506
G1 X100.700 Y96.696 E3.28053
G1 X100.425 Y96.767 E3.28601
G1 X100.142 Y96.802 E3.29149
G1 X99.858 Y96.802 E3.29695
G1 X99.576 Y96.767 E3.30243
G1 X99.300 Y96.696 E3.30791
G1 X99.036 Y96.591 E3.31338
G1 X98.786 Y96.454 E3.31885
G1 X98.556 Y96.287 E3.32432
G1 X98.349 Y96.092 E3.32979
G1 X98.167 Y95.873 E3.33527
G1 X98.015 Y95.632 E3.34074
G1 X97.894 Y95.375 E3.34622
G1 X97.806 Y95.104 E3.35169
G1 X97.753 Y94.825 E3.35717
G1 X97.735 Y94.541 E3.36264
G1 X97.753 Y94.257 E3.36811
G1 X97.806 Y93.978 E3.37358
G1 X97.894 Y93.707 E3.37906
G1 X98.015 Y93.450 E3.38453
G1 X98.167 Y93.210 E3.39000
G1 X98.349 Y92.990 E3.39548
G1 X98.556 Y92.796 E3.40095
G1 X98.786 Y92.628 E3.40642
G1 X99.036 Y92.491 E3.41190
G1 X99.300 Y92.387 E3.41737
G1 X99.480 Y92.340 E3.42095
G1 X99.471 Y92.265 E3.42242
G1 X99.624 Y92.569 F6000.000
G1 F1800.000
G1 X99.874 Y92.537 E3.42727
G1 X100.126 Y92.537 E3.43211
G1 X100.376 Y92.569 E3.43697
G1 X100.621 Y92.631 E3.44182
G1 X100.855 Y92.724 E3.44667
G1 X101.076 Y92.846 E3.45152
G1 X101.280 Y92.994 E3.45637
G1 X101.464 Y93.167 E3.46122
G1 X101.625 Y93.361 E3.46607
G1 X101.760 Y93.574 E3.47093
G1 X101.867 Y93.802 E3.47578
G1 X101.945 Y94.042 E3.48063
G1 X101.992 Y94.289 E3.48548
G1 X102.008 Y94.541 E3.49033
G1 X101.992 Y94.793 E3.49518
G1 X101.945 Y95.040 E3.50003
G1 X101.867 Y95.280 E3.50488
G1 X101.760 Y95.508 E3.50973
G1 X101.625 Y95.721 E3.51459
G1 X101.464 Y95.916 E3.51944
G1 X101.280 Y96.088 E3.52429
G1 X101.076 Y96.236 E3.52914
G1 X100.855 Y96.358 E3.53399
G1 X100.621 Y96.451 E3.53884
G1 X100.376 Y96.513 E3.54369
G1 X100.126 Y96.545 E3.54854
G1 X99.874 Y96.545 E3.55339
G1 X99.624 Y96.513 E3.55824
G1 X99.380 Y96.451 E3.56310
G1 X99.145 Y96.358 E3.56795
G1 X98.924 Y96.236 E3.57280
G1 X98.720 Y96.088 E3.57765
G1 X98.537 Y95.916 E3.58250
G1 X98.376 Y95.721 E3.58735
G1 X98.241 Y95.508 E3.59220
G1 X98.133 Y95.280 E3.59705
G1 X98.055 Y95.040 E3.60190
G1 X98.008 Y94.793 E3.60676
G1 X97.992 Y94.541 E3.61161
G1 X98.008 Y94.290 E3.61645
G1 X98.055 Y94.042 E3.62131
G1 X98.133 Y93.802 E3.62616
G1 X98.241 Y93.574 E3.63101
G1 X98.376 Y93.361 E3.63586
G1 X98.537 Y93.167 E3.64071
G1 X98.720 Y92.994 E3.64556
G1 X98.924 Y92.846 E3.65041
G1 X99.145 Y92.724 E3.65526
G1 X99.380 Y92.631 E3.66011
G1 X99.566 Y92.584 E3.66382
G1 X99.672 Y92.822 F6000.000
G1 F1800.000
G1 X99.890 Y92.794 E3.66804
G1 X100.110 Y92.794 E3.67227
G1 X100.328 Y92.822 E3.67650
G1 X100.541 Y92.876 E3.68073
G1 X100.745 Y92.957 E3.68496
G1 X100.938 Y93.063 E3.68919
G1 X101.116 Y93.192 E3.69341
G1 X101.276 Y93.343 E3.69764
G1 X101.416 Y93.512 E3.70187
G1 X101.534 Y93.698 E3.70610
G1 X101.628 Y93.897 E3.71033
G1 X101.695 Y94.106 E3.71456
G1 X101.737 Y94.322 E3.71879
G1 X101.751 Y94.541 E3.72302
G1 X101.737 Y94.760 E3.72724
G1 X101.695 Y94.976 E3.73147
G1 X101.628 Y95.185 E3.73570
G1 X101.534 Y95.384 E3.73993
G1 X101.416 Y95.570 E3.74416
G1 X101.276 Y95.739 E3.74839
G1 X101.116 Y95.890 E3.75262
G1 X100.938 Y96.019 E3.75684
G1 X100.745 Y96.125 E3.76107
G1 X100.541 Y96.206 E3.76530
G1 X100.328 Y96.260 E3.76953
G1 X100.110 Y96.288 E3.77376
G1 X99.890 Y96.288 E3.77799
G1 X99.672 Y96.260 E3.78222
G1 X99.459 Y96.206 E3.78645
G1 X99.255 Y96.125 E3.79068
G1 X99.062 Y96.019 E3.79491
G1 X98.885 Y95.890 E3.79913
G1 X98.724 Y95.739 E3.80336
G1 X98.584 Y95.570 E3.80759
G1 X98.466 Y95.384 E3.81182
G1 X98.373 Y95.185 E3.81605
G1 X98.305 Y94.976 E3.82028
G1 X98.264 Y94.760 E3.82451
G1 X98.250 Y94.541 E3.82873
G1 X98.264 Y94.322 E3.83296
G1 X98.305 Y94.106 E3.83719
G1 X98.373 Y93.897 E3.84142
G1 X98.466 Y93.698 E3.84565
G1 X98.584 Y93.512 E3.84988
G1 X98.724 Y93.343 E3.85411
G1 X98.885 Y93.192 E3.85834
G1 X99.062 Y93.063 E3.86256
G1 X99.255 Y92.957 E3.86679
G1 X99.614 Y92.837 E3.87408
G1 X99.745 Y92.614 F6000.000
G1 X97.919 Y91.948 F6000.000
G1 F1800.000
G1 X95.921 Y91.120 E3.91570
G1 X95.093 Y89.122 E3.95731
G1 X95.093 Y85.960 E4.01814
G1 X95.921 Y83.962 E4.05976
G1 X97.919 Y83.134 E4.10137
G1 X116.081 Y83.134 E4.45078
G1 X118.079 Y83.962 E4.49239
G1 X118.907 Y85.960 E4.53401
G1 X118.907 Y89.122 E4.59484
G1 X118.079 Y91.120 E4.63645
G1 X116.081 Y91.948 E4.67806
G1 X97.979 Y91.948 E5.02632
G1 X97.970 Y91.691 F6000.000
G1 F1800.000
G1 X96.118 Y90.924 E5.06490
G1 X95.350 Y89.071 E5.10348
G1 X95.350 Y86.011 E5.16235
G1 X96.118 Y84.158 E5.20093
G1 X97.970 Y83.391 E5.23951
G1 X116.030 Y83.391 E5.58695
G1 X117.883 Y84.158 E5.62553
G1 X118.650 Y86.011 E5.66411
G1 X118.650 Y89.071 E5.72298
G1 X117.883 Y90.924 E5.76156
G1 X116.030 Y91.691 E5.80014
G1 X98.030 Y91.691 E6.14643
G1 X97.691 Y91.978 F6000.000
G1 E4.14643 F1200.00000
G92 E0
G1 Z0.700 F6000.000
G1 X99.576 Y81.767 F6000.000
G1 Z0.200 F6000.000
G1 E2.00000 F1200.00000
G1 F1800.000
G1 X99.300 Y81.696 E2.00548
G1 X99.036 Y81.591 E2.01095
G1 X98.786 Y81.454 E2.01642
G1 X98.556 Y81.287 E2.02190
G1 X98.349 Y81.092 E2.02737
G1 X98.167 Y80.873 E2.03284
G1 X98.015 Y80.632 E2.03832
G1 X97.894 Y80.375 E2.04379
G1 X97.806 Y80.104 E2.04927
G1 X97.753 Y79.825 E2.05474
G1 X97.735 Y79.541 E2.06021
G1 X97.753 Y79.257 E2.06568
G1 X97.806 Y78.978 E2.07116
G1 X97.894 Y78.707 E2.07663
G1 X98.015 Y78.450 E2.08210
G1 X98.167 Y78.210 E2.08758
G1 X98.349 Y77.990 E2.09305
G1 X98.556 Y77.796 E2.09853
G1 X98.786 Y77.628 E2.10400
G1 X99.036 Y77.491 E2.10947
G1 X99.300 Y77.387 E2.11494
G1 X99.576 Y77.316 E2.12042
G1 X99.858 Y77.280 E2.12589
G1 X100.142 Y77.280 E2.13136
G1 X100.425 Y77.316 E2.13684
G1 X100.700 Y77.387 E2.14231
G1 X100.965 Y77.491 E2.14779
G1 X101.214 Y77.628 E2.15326
G1 X101.444 Y77.796 E2.15873
G1 X101.652 Y77.990 E2.16420
G1 X101.833 Y78.209 E2.16968
G1 X101.985 Y78.450 E2.17515
G1 X102.107 Y78.707 E2.18063
G1 X102.194 Y78.978 E2.18610
G1 X102.248 Y79.257 E2.19157
G1 X102.266 Y79.541 E2.19705
G1 X102.248 Y79.825 E2.20252
G1 X102.194 Y80.104 E2.20799
G1 X102.107 Y80.375 E2.21346
G1 X101.985 Y80.632 E2.21894
G1 X101.833 Y80.873 E2.22441
G1 X101.652 Y81.092 E2.22989
G1 X101.444 Y81.287 E2.23536
G1 X101.214 Y81.454 E2.24083
G1 X100.965 Y81.591 E2.24630
G1 X100.700 Y81.696 E2.25178
G1 X100.425 Y81.767 E2.25725
G1 X100.142 Y81.802 E2.26273
G1 X99.858 Y81.802 E2.26820
G1 X99.635 Y81.774 E2.27252
G1 X99.624 Y81.513 F6000.000
G1 F1800.000
G1 X99.380 Y81.451 E2.27737
G1 X99.145 Y81.358 E2.28222
G1 X98.924 Y81.236 E2.28707
G1 X98.720 Y81.088 E2.29192
G1 X98.537 Y80.916 E2.29677
G1 X98.376 Y80.721 E2.30163
G1 X98.241 Y80.508 E2.30648
G1 X98.133 Y80.280 E2.31133
G1 X98.055 Y80.040 E2.31618
G1 X98.008 Y79.793 E2.32103
G1 X97.992 Y79.541 E2.32588
G1 X98.008 Y79.290 E2.33073
G1 X98.055 Y79.042 E2.33558
G1 X98.133 Y78.802 E2.34043
G1 X98.241 Y78.574 E2.34528
G1 X98.376 Y78.361 E2.35013
G1 X98.537 Y78.167 E2.35499
G1 X98.720 Y77.994 E2.35984
G1 X98.924 Y77.846 E2.36469
G1 X99.145 Y77.724 E2.36954
G1 X99.380 Y77.631 E2.37439
G1 X99.624 Y77.569 E2.37924
G1 X99.874 Y77.537 E2.38409
G1 X100.126 Y77.537 E2.38894
G1 X100.376 Y77.569 E2.39379
G1 X100.621 Y77.631 E2.39865
G1 X100.855 Y77.724 E2.40350
G1 X101.076 Y77.846 E2.40835
G1 X101.280 Y77.994 E2.41320
G1 X101.464 Y78.167 E2.41805
G1 X101.625 Y78.361 E2.42290
G1 X101.760 Y78.574 E2.42775
G1 X101.867 Y78.802 E2.43260
G1 X101.945 Y79.042 E2.43745
G1 X101.992 Y79.289 E2.44230
G1 X102.008 Y79.541 E2.44716
G1 X101.992 Y79.793 E2.45201
G1 X101.945 Y80.040 E2.45686
G1 X101.867 Y80.280 E2.46171
G1 X101.760 Y80.508 E2.46656
G1 X101.625 Y80.721 E2.47141
G1 X101.464 Y80.916 E2.47626
G1 X101.280 Y81.088 E2.48111
G1 X101.076 Y81.236 E2.48596
G1 X100.855 Y81.358 E2.49081
G1 X100.621 Y81.451 E2.49567
G1 X100.376 Y81.513 E2.50052
G1 X100.126 Y81.545 E2.50537
G1 X99.874 Y81.545 E2.51022
G1 X99.684 Y81.521 E2.51391
G1 X99.672 Y81.260 F6000.000
G1 F1800.000
G1 X99.459 Y81.206 E2.51815
G1 X99.255 Y81.125 E2.52237
G1 X99.062 Y81.019 E2.52660
G1 X98.885 Y80.890 E2.53083
G1 X98.724 Y80.739 E2.53506
G1 X98.584 Y80.570 E2.53929
G1 X98.466 Y80.384 E2.54352
G1 X98.373 Y80.185 E2.54775
G1 X98.305 Y79.976 E2.55198
G1 X98.264 Y79.760 E2.55620
G1 X98.250 Y79.541 E2.56043
G1 X98.264 Y79.322 E2.56466
G1 X98.305 Y79.106 E2.56889
G1 X98.373 Y78.897 E2.57312
G1 X98.466 Y78.698 E2.57735
G1 X98.584 Y78.512 E2.58158
G1 X98.724 Y78.343 E2.58581
G1 X98.885 Y78.192 E2.59003
G1 X99.062 Y78.063 E2.59426
G1 X99.255 Y77.957 E2.59849
G1 X99.459 Y77.876 E2.60272
G1 X99.672 Y77.822 E2.60695
G1 X99.890 Y77.794 E2.61118
G1 X100.110 Y77.794 E2.61540
G1 X100.328 Y77.822 E2.61963
G1 X100.541 Y77.876 E2.62386
G1 X100.745 Y77.957 E2.62809
G1 X100.938 Y78.063 E2.63232
G1 X101.116 Y78.192 E2.63655
G1 X101.276 Y78.343 E2.64078
G1 X101.416 Y78.512 E2.64501
G1 X101.534 Y78.698 E2.64924
G1 X101.628 Y78.897 E2.65346
G1 X101.695 Y79.106 E2.65769
G1 X101.737 Y79.322 E2.66192
G1 X101.751 Y79.541 E2.66615
G1 X101.737 Y79.760 E2.67038
G1 X101.695 Y79.976 E2.67461
G1 X101.628 Y80.185 E2.67884
G1 X101.534 Y80.384 E2.68306
G1 X101.416 Y80.570 E2.68729
G1 X101.276 Y80.739 E2.69152
G1 X101.116 Y80.890 E2.69575
G1 X100.938 Y81.019 E2.69998
G1 X100.745 Y81.125 E2.70421
G1 X100.541 Y81.206 E2.70844
G1 X100.328 Y81.260 E2.71267
G1 X100.110 Y81.288 E2.71690
G1 X99.732 Y81.268 E2.72418
G1 X99.529 Y81.427 F6000.000
G1 E0.72418 F1200.00000
G92 E0
G1 Z0.700 F6000.000
G1 X92.248 Y79.825 F6000.000
G1 Z0.200 F6000.000
G1 E2.00000 F1200.00000
G1 F1800.000
G1 X92.194 Y80.104 E2.00547
G1 X92.107 Y80.375 E2.01095
G1 X91.985 Y80.632 E2.01642
G1 X91.833 Y80.873 E2.02189
G1 X91.652 Y81.092 E2.02737
G1 X91.444 Y81.287 E2.03284
G1 X91.214 Y81.454 E2.03831
G1 X90.965 Y81.591 E2.04379
G1 X90.700 Y81.696 E2.04926
G1 X90.425 Y81.767 E2.05473
G1 X90.142 Y81.802 E2.06021
G1 X89.858 Y81.802 E2.06568
G1 X89.576 Y81.767 E2.07115
G1 X89.300 Y81.696 E2.07663
G1 X89.036 Y81.591 E2.08210
G1 X88.786 Y81.454 E2.08758
G1 X88.556 Y81.287 E2.09305
G1 X88.349 Y81.092 E2.09852
G1 X88.167 Y80.873 E2.10400
G1 X88.015 Y80.632 E2.10947
G1 X87.894 Y80.375 E2.11494
G1 X87.806 Y80.104 E2.12042
G1 X87.753 Y79.825 E2.12589
G1 X87.735 Y79.541 E2.13136
G1 X87.753 Y79.257 E2.13683
G1 X87.806 Y78.978 E2.14231
G1 X87.894 Y78.707 E2.14778
G1 X88.015 Y78.450 E2.15325
G1 X88.167 Y78.210 E2.15873
G1 X88.349 Y77.990 E2.16420
G1 X88.556 Y77.796 E2.16968
G1 X88.786 Y77.628 E2.17515
G1 X89.036 Y77.491 E2.18062
G1 X89.300 Y77.387 E2.18609
G1 X89.576 Y77.316 E2.19157
G1 X89.858 Y77.280 E2.19704
G1 X90.142 Y77.280 E2.20251
G1 X90.425 Y77.316 E2.20799
G1 X90.700 Y77.387 E2.21346
G1 X90.965 Y77.491 E2.21894
G1 X91.214 Y77.628 E2.22441
G1 X91.444 Y77.796 E2.22988
G1 X91.652 Y77.990 E2.23535
G1 X91.833 Y78.209 E2.24083
G1 X91.985 Y78.450 E2.24630
G1 X92.107 Y78.707 E2.25178
G1 X92.194 Y78.978 E2.25725
G1 X92.248 Y79.257 E2.26272
G1 X92.266 Y79.541 E2.26820
G1 X92.251 Y79.765 E2.27252
G1 X91.992 Y79.793 F6000.000
G1 F1800.000
G1 X91.945 Y80.040 E2.27737
G1 X91.867 Y80.280 E2.28222
G1 X91.760 Y80.508 E2.28707
G1 X91.625 Y80.721 E2.29192
G1 X91.464 Y80.916 E2.29677
G1 X91.280 Y81.088 E2.30162
G1 X91.076 Y81.236 E2.30647
G1 X90.855 Y81.358 E2.31132
G1 X90.621 Y81.451 E2.31617
G1 X90.376 Y81.513 E2.32103
G1 X90.126 Y81.545 E2.32588
G1 X89.874 Y81.545 E2.33073
G1 X89.624 Y81.513 E2.33558
G1 X89.380 Y81.451 E2.34043
G1 X89.145 Y81.358 E2.34528
G1 X88.924 Y81.236 E2.35013
G1 X88.720 Y81.088 E2.35498
G1 X88.537 Y80.916 E2.35983
G1 X88.376 Y80.721 E2.36469
G1 X88.241 Y80.508 E2.36954
G1 X88.133 Y80.280 E2.37439
G1 X88.055 Y80.040 E2.37924
G1 X88.008 Y79.793 E2.38409
G1 X87.992 Y79.541 E2.38894
G1 X88.008 Y79.290 E2.39379
G1 X88.055 Y79.042 E2.39864
G1 X88.133 Y78.802 E2.40350
G1 X88.241 Y78.574 E2.40834
G1 X88.376 Y78.361 E2.41320
G1 X88.537 Y78.167 E2.41805
G1 X88.720 Y77.994 E2.42290
G1 X88.924 Y77.846 E2.42775
G1 X89.145 Y77.724 E2.43260
G1 X89.380 Y77.631 E2.43745
G1 X89.624 Y77.569 E2.44230
G1 X89.874 Y77.537 E2.44716
G1 X90.126 Y77.537 E2.45200
G1 X90.376 Y77.569 E2.45685
G1 X90.621 Y77.631 E2.46171
G1 X90.855 Y77.724 E2.46656
G1 X91.076 Y77.846 E2.47141
G1 X91.280 Y77.994 E2.47626
G1 X91.464 Y78.167 E2.48111
G1 X91.625 Y78.361 E2.48596
G1 X91.760 Y78.574 E2.49081
G1 X91.867 Y78.802 E2.49566
G1 X91.945 Y79.042 E2.50052
G1 X91.992 Y79.289 E2.50537
G1 X92.008 Y79.541 E2.51022
G1 X91.996 Y79.733 E2.51391
G1 X91.737 Y79.760 F6000.000
G1 F1800.000
G1 X91.695 Y79.976 E2.51814
G1 X91.628 Y80.185 E2.52237
G1 X91.534 Y80.384 E2.52660
G1 X91.416 Y80.570 E2.53083
G1 X91.276 Y80.739 E2.53506
G1 X91.116 Y80.890 E2.53929
G1 X90.938 Y81.019 E2.54352
G1 X90.745 Y81.125 E2.54774
G1 X90.541 Y81.206 E2.55197
G1 X90.328 Y81.260 E2.55620
G1 X90.110 Y81.288 E2.56043
G1 X89.890 Y81.288 E2.56466
G1 X89.672 Y81.260 E2.56889
G1 X89.459 Y81.206 E2.57312
G1 X89.255 Y81.125 E2.57735
G1 X89.062 Y81.019 E2.58158
G1 X88.885 Y80.890 E2.58580
G1 X88.724 Y80.739 E2.59003
G1 X88.584 Y80.570 E2.59426
G1 X88.466 Y80.384 E2.59849
G1 X88.373 Y80.185 E2.60272
G1 X88.305 Y79.976 E2.60695
G1 X88.264 Y79.760 E2.61118
G1 X88.250 Y79.541 E2.61540
G1 X88.264 Y79.322 E2.61963
G1 X88.305 Y79.106 E2.62386
G1 X88.373 Y78.897 E2.62809
G1 X88.466 Y78.698 E2.63232
G1 X88.584 Y78.512 E2.63655
G1 X88.724 Y78.343 E2.64078
G1 X88.885 Y78.192 E2.64501
G1 X89.062 Y78.063 E2.64923
G1 X89.255 Y77.957 E2.65346
G1 X89.459 Y77.876 E2.65769
G1 X89.672 Y77.822 E2.66192
G1 X89.890 Y77.794 E2.66615
G1 X90.110 Y77.794 E2.67038
G1 X90.328 Y77.822 E2.67461
G1 X90.541 Y77.876 E2.67884
G1 X90.745 Y77.957 E2.68306
G1 X90.938 Y78.063 E2.68729
G1 X91.116 Y78.192 E2.69152
G1 X91.276 Y78.343 E2.69575
G1 X91.416 Y78.512 E2.69998
G1 X91.534 Y78.698 E2.70421
G1 X91.628 Y78.897 E2.70844
G1 X91.695 Y79.106 E2.71267
G1 X91.737 Y79.322 E2.71689
G1 X91.740 Y79.701 E2.72418
G1 X91.912 Y79.893 F6000.000
G1 E0.72418 F1200.00000
G92 E0
G1 Z0.700 F6000.000
G1 X82.266 Y79.541 F6000.000
G1 Z0.200 F6000.000
G1 E2.00000 F1200.00000
G1 F1800.000
G1 X82.248 Y79.825 E2.00547
G1 X82.194 Y80.104 E2.01095
G1 X82.107 Y80.375 E2.01642
G1 X81.985 Y80.632 E2.02189
G1 X81.833 Y80.873 E2.02737
G1 X81.652 Y81.092 E2.03284
G1 X81.444 Y81.287 E2.03831
G1 X81.214 Y81.454 E2.04379
G1 X80.965 Y81.591 E2.04926
G1 X80.700 Y81.696 E2.05473
G1 X80.425 Y81.767 E2.06021
G1 X80.142 Y81.802 E2.06568
G1 X79.858 Y81.802 E2.07115
G1 X79.576 Y81.767 E2.07662
G1 X79.300 Y81.696 E2.08210
G1 X79.036 Y81.591 E2.08758
G1 X78.786 Y81.454 E2.09305
G1 X78.556 Y81.287 E2.09852
G1 X78.349 Y81.092 E2.10399
G1 X78.167 Y80.873 E2.10947
G1 X78.015 Y80.632 E2.11494
G1 X77.894 Y80.375 E2.12041
G1 X77.806 Y80.104 E2.12589
