; generated by Slic3r 1.3.1-dev (Build 54a31ee) on 2020-03-17 at 13:21:53

; external perimeters extrusion width = 0.44mm (2.86mm^3/s)
; perimeters extrusion width = 0.56mm (4.14mm^3/s)
; infill extrusion width = 0.50mm (3.66mm^3/s)
; solid infill extrusion width = 0.56mm (3.10mm^3/s)
; top infill extrusion width = 0.56mm (3.10mm^3/s)

M107
G92 E0
;D3D:START:START
T0
M104 S215 T0

G21
G90
M107
T0
G28
G29
M109 T0 S215 T0
G0 F3000
M107
T0
G92 E0
G0 X0 Y149 Z0.1 F3600
G1 Y49 E6.5 F1200
G0 Z1
G92 E0
; Filament gcode

G21 ; set units to millimeters
G90 ; use absolute coordinates
M82 ; use absolute distances for extrusion
G92 E0
G1 Z0.200 F6000.000
G1 E-2.00000 F1200.00000
G92 E0
G1 Z0.700 F6000.000
G1 X57.353 Y83.136 F6000.000
G1 Z0.200 F6000.000
G1 E2.00000 F1200.00000
G1 F1800.000
G1 X69.690 Y83.136 E2.24261
G1 X70.664 Y84.110 E2.26971
G1 X70.664 Y96.447 E2.51232
G1 X69.387 Y96.075 E2.53848
G1 X68.313 Y95.689 E2.56092
G1 X67.266 Y95.236 E2.58336
G1 X66.249 Y94.718 E2.60580
G1 X65.267 Y94.137 E2.62824
G1 X64.323 Y93.495 E2.65068
G1 X63.422 Y92.796 E2.67312
G1 X62.566 Y92.041 E2.69557
G1 X61.759 Y91.234 E2.71801
G1 X61.004 Y90.378 E2.74045
G1 X60.305 Y89.477 E2.76289
G1 X59.663 Y88.533 E2.78533
G1 X59.082 Y87.551 E2.80777
G1 X58.564 Y86.534 E2.83022
G1 X58.111 Y85.487 E2.85266
G1 X57.725 Y84.413 E2.87510
G1 X57.370 Y83.193 E2.90008
G1 X57.696 Y83.393 F6000.000
G1 F1800.000
G1 X69.583 Y83.393 E3.13385
G1 X70.407 Y84.217 E3.15677
G1 X70.407 Y96.104 E3.39055
G1 X69.466 Y95.831 E3.40981
G1 X68.408 Y95.450 E3.43194
G1 X67.375 Y95.003 E3.45406
G1 X66.373 Y94.492 E3.47619
G1 X65.405 Y93.920 E3.49831
G1 X64.474 Y93.287 E3.52043
G1 X63.585 Y92.598 E3.54256
G1 X62.742 Y91.854 E3.56468
G1 X61.946 Y91.058 E3.58680
G1 X61.202 Y90.214 E3.60893
G1 X60.513 Y89.326 E3.63105
G1 X59.880 Y88.395 E3.65317
G1 X59.308 Y87.427 E3.67530
G1 X58.797 Y86.425 E3.69742
G1 X58.350 Y85.392 E3.71955
G1 X57.969 Y84.334 E3.74167
G1 X57.713 Y83.451 E3.75976
G1 X58.038 Y83.650 F6000.000
G1 F1800.000
G1 X69.477 Y83.650 E3.98471
G1 X70.150 Y84.323 E4.00343
G1 X70.150 Y95.762 E4.22838
G1 X69.546 Y95.586 E4.24076
G1 X68.503 Y95.211 E4.26256
G1 X67.485 Y94.770 E4.28437
G1 X66.497 Y94.267 E4.30617
G1 X65.543 Y93.702 E4.32798
G1 X64.626 Y93.079 E4.34979
G1 X63.749 Y92.400 E4.37159
G1 X62.918 Y91.666 E4.39340
G1 X62.134 Y90.882 E4.41520
G1 X61.400 Y90.051 E4.43701
G1 X60.721 Y89.174 E4.45882
G1 X60.098 Y88.257 E4.48062
G1 X59.533 Y87.303 E4.50243
G1 X59.030 Y86.315 E4.52423
G1 X58.589 Y85.297 E4.54604
G1 X58.214 Y84.254 E4.56785
G1 X58.055 Y83.708 E4.57904
G1 X57.995 Y83.252 F6000.000
G1 E2.57904 F1200.00000
G92 E0
G1 Z0.700 F6000.000
G1 X60.949 Y80.451 F6000.000
G1 Z0.200 F6000.000
G1 E2.00000 F1200.00000
G1 F1800.000
G1 X60.754 Y80.244 E2.00559
G1 X60.587 Y80.014 E2.01119
G1 X60.450 Y79.765 E2.01678
G1 X60.345 Y79.500 E2.02238
G1 X60.275 Y79.224 E2.02798
G1 X60.239 Y78.942 E2.03357
G1 X60.239 Y78.658 E2.03916
G1 X60.275 Y78.376 E2.04476
G1 X60.345 Y78.100 E2.05036
G1 X60.450 Y77.835 E2.05595
G1 X60.587 Y77.586 E2.06154
G1 X60.754 Y77.356 E2.06714
G1 X60.949 Y77.148 E2.07273
G1 X61.168 Y76.967 E2.07833
G1 X61.409 Y76.815 E2.08393
G1 X61.666 Y76.694 E2.08952
G1 X61.937 Y76.606 E2.09511
G1 X62.216 Y76.552 E2.10071
G1 X62.500 Y76.535 E2.10630
G1 X62.784 Y76.552 E2.11190
G1 X63.063 Y76.606 E2.11750
G1 X63.334 Y76.694 E2.12309
G1 X63.591 Y76.815 E2.12868
G1 X63.832 Y76.967 E2.13428
G1 X64.051 Y77.148 E2.13987
G1 X64.246 Y77.356 E2.14547
G1 X64.413 Y77.586 E2.15107
G1 X64.550 Y77.835 E2.15666
G1 X64.655 Y78.100 E2.16225
G1 X64.725 Y78.376 E2.16785
G1 X64.761 Y78.658 E2.17345
G1 X64.761 Y78.942 E2.17904
G1 X64.725 Y79.224 E2.18463
G1 X64.655 Y79.500 E2.19023
G1 X64.550 Y79.765 E2.19582
G1 X64.413 Y80.014 E2.20142
G1 X64.246 Y80.244 E2.20701
G1 X64.051 Y80.451 E2.21261
G1 X63.832 Y80.633 E2.21820
G1 X63.591 Y80.785 E2.22380
G1 X63.334 Y80.906 E2.22939
G1 X63.063 Y80.994 E2.23499
G1 X62.784 Y81.048 E2.24058
G1 X62.500 Y81.065 E2.24618
G1 X62.216 Y81.048 E2.25177
G1 X61.937 Y80.994 E2.25737
G1 X61.666 Y80.906 E2.26296
G1 X61.409 Y80.785 E2.26856
G1 X61.168 Y80.633 E2.27416
G1 X60.995 Y80.490 E2.27857
G1 X61.125 Y80.264 F6000.000
G1 F1800.000
G1 X60.953 Y80.080 E2.28353
G1 X60.805 Y79.876 E2.28849
G1 X60.683 Y79.655 E2.29345
G1 X60.590 Y79.421 E2.29840
G1 X60.528 Y79.176 E2.30336
G1 X60.496 Y78.926 E2.30832
G1 X60.496 Y78.674 E2.31328
G1 X60.528 Y78.424 E2.31824
G1 X60.590 Y78.179 E2.32320
G1 X60.683 Y77.945 E2.32816
G1 X60.805 Y77.724 E2.33312
G1 X60.953 Y77.520 E2.33807
G1 X61.125 Y77.336 E2.34303
G1 X61.320 Y77.176 E2.34799
G1 X61.533 Y77.040 E2.35295
G1 X61.761 Y76.933 E2.35791
G1 X62.001 Y76.855 E2.36287
G1 X62.248 Y76.808 E2.36783
G1 X62.500 Y76.792 E2.37279
G1 X62.752 Y76.808 E2.37775
G1 X62.999 Y76.855 E2.38271
G1 X63.239 Y76.933 E2.38766
G1 X63.467 Y77.040 E2.39262
G1 X63.680 Y77.176 E2.39758
G1 X63.875 Y77.336 E2.40254
G1 X64.047 Y77.520 E2.40750
G1 X64.195 Y77.724 E2.41246
G1 X64.317 Y77.945 E2.41742
G1 X64.410 Y78.179 E2.42237
G1 X64.472 Y78.424 E2.42734
G1 X64.504 Y78.674 E2.43229
G1 X64.504 Y78.926 E2.43725
G1 X64.472 Y79.176 E2.44221
G1 X64.410 Y79.421 E2.44717
G1 X64.317 Y79.655 E2.45213
G1 X64.195 Y79.876 E2.45709
G1 X64.047 Y80.080 E2.46205
G1 X63.875 Y80.264 E2.46700
G1 X63.680 Y80.424 E2.47196
G1 X63.467 Y80.560 E2.47692
G1 X63.239 Y80.667 E2.48188
G1 X62.999 Y80.745 E2.48684
G1 X62.752 Y80.792 E2.49180
G1 X62.500 Y80.808 E2.49676
G1 X62.248 Y80.792 E2.50172
G1 X62.001 Y80.745 E2.50668
G1 X61.761 Y80.667 E2.51163
G1 X61.533 Y80.560 E2.51659
G1 X61.320 Y80.424 E2.52155
G1 X61.172 Y80.302 E2.52533
G1 X61.302 Y80.076 F6000.000
G1 F1800.000
G1 X61.151 Y79.916 E2.52965
G1 X61.022 Y79.738 E2.53398
G1 X60.916 Y79.545 E2.53830
G1 X60.835 Y79.341 E2.54262
G1 X60.781 Y79.128 E2.54695
G1 X60.753 Y78.910 E2.55127
G1 X60.753 Y78.690 E2.55559
G1 X60.781 Y78.472 E2.55991
G1 X60.835 Y78.259 E2.56424
G1 X60.916 Y78.055 E2.56856
G1 X61.022 Y77.862 E2.57288
G1 X61.151 Y77.684 E2.57720
G1 X61.302 Y77.524 E2.58153
G1 X61.471 Y77.384 E2.58585
G1 X61.657 Y77.266 E2.59017
G1 X61.856 Y77.173 E2.59449
G1 X62.065 Y77.105 E2.59882
G1 X62.281 Y77.063 E2.60314
G1 X62.500 Y77.050 E2.60746
G1 X62.719 Y77.063 E2.61178
G1 X62.935 Y77.105 E2.61611
G1 X63.144 Y77.173 E2.62043
G1 X63.343 Y77.266 E2.62475
G1 X63.529 Y77.384 E2.62908
G1 X63.698 Y77.524 E2.63340
G1 X63.849 Y77.684 E2.63772
G1 X63.978 Y77.862 E2.64204
G1 X64.084 Y78.055 E2.64637
G1 X64.165 Y78.259 E2.65069
G1 X64.219 Y78.472 E2.65501
G1 X64.247 Y78.690 E2.65933
G1 X64.247 Y78.910 E2.66366
G1 X64.219 Y79.128 E2.66798
G1 X64.165 Y79.341 E2.67230
G1 X64.084 Y79.545 E2.67662
G1 X63.978 Y79.738 E2.68095
G1 X63.849 Y79.916 E2.68527
G1 X63.698 Y80.076 E2.68959
G1 X63.529 Y80.216 E2.69391
G1 X63.343 Y80.334 E2.69824
G1 X63.144 Y80.427 E2.70256
G1 X62.935 Y80.495 E2.70688
G1 X62.719 Y80.537 E2.71121
G1 X62.500 Y80.550 E2.71553
G1 X62.281 Y80.537 E2.71985
G1 X62.065 Y80.495 E2.72418
G1 X61.856 Y80.427 E2.72850
G1 X61.657 Y80.334 E2.73282
G1 X61.348 Y80.114 E2.74027
G1 X61.091 Y80.139 F6000.000
G1 E0.74027 F1200.00000
G92 E0
G1 Z0.700 F6000.000
G1 X71.839 Y78.999 F6000.000
G1 Z0.200 F6000.000
G1 E2.00000 F1200.00000
G1 F1800.000
G1 X71.858 Y78.403 E2.01172
G1 X71.988 Y77.821 E2.02345
G1 X72.225 Y77.274 E2.03517
G1 X72.560 Y76.781 E2.04689
G1 X72.974 Y76.367 E2.05841
G1 X73.304 Y76.127 E2.06643
G1 X73.661 Y75.931 E2.07446
G1 X74.212 Y75.732 E2.08597
G1 X74.801 Y75.639 E2.09770
G1 X75.397 Y75.658 E2.10942
G1 X75.979 Y75.788 E2.12114
G1 X76.526 Y76.025 E2.13287
G1 X77.019 Y76.360 E2.14459
G1 X77.440 Y76.781 E2.15631
G1 X77.769 Y77.266 E2.16783
G1 X77.943 Y77.635 E2.17585
G1 X78.069 Y78.023 E2.18388
G1 X78.161 Y78.601 E2.19539
G1 X78.142 Y79.197 E2.20712
G1 X78.012 Y79.779 E2.21884
G1 X77.775 Y80.326 E2.23056
G1 X77.440 Y80.819 E2.24229
G1 X77.026 Y81.233 E2.25380
G1 X76.696 Y81.473 E2.26183
G1 X76.339 Y81.669 E2.26985
G1 X75.788 Y81.868 E2.28137
G1 X75.199 Y81.961 E2.29309
G1 X74.603 Y81.942 E2.30481
G1 X74.021 Y81.812 E2.31654
G1 X73.474 Y81.575 E2.32826
G1 X72.981 Y81.240 E2.33998
G1 X72.560 Y80.819 E2.35170
G1 X72.231 Y80.334 E2.36322
G1 X72.057 Y79.965 E2.37125
G1 X71.931 Y79.577 E2.37927
G1 X71.849 Y79.058 E2.38961
G1 X72.097 Y78.983 F6000.000
G1 F1800.000
G1 X72.114 Y78.435 E2.40037
G1 X72.233 Y77.901 E2.41114
G1 X72.451 Y77.399 E2.42191
G1 X72.759 Y76.946 E2.43268
G1 X73.141 Y76.563 E2.44332
G1 X73.442 Y76.345 E2.45062
G1 X73.767 Y76.166 E2.45793
G1 X74.277 Y75.982 E2.46857
G1 X74.817 Y75.897 E2.47934
G1 X75.365 Y75.914 E2.49011
G1 X75.899 Y76.034 E2.50087
G1 X76.401 Y76.251 E2.51164
G1 X76.854 Y76.559 E2.52241
G1 X77.241 Y76.946 E2.53318
G1 X77.545 Y77.393 E2.54382
G1 X77.704 Y77.730 E2.55113
G1 X77.819 Y78.083 E2.55843
G1 X77.903 Y78.617 E2.56907
G1 X77.886 Y79.165 E2.57984
G1 X77.767 Y79.699 E2.59061
G1 X77.549 Y80.201 E2.60138
G1 X77.241 Y80.654 E2.61214
G1 X76.859 Y81.037 E2.62278
G1 X76.558 Y81.255 E2.63009
G1 X76.233 Y81.434 E2.63740
G1 X75.723 Y81.618 E2.64804
G1 X75.183 Y81.703 E2.65881
G1 X74.635 Y81.686 E2.66958
G1 X74.101 Y81.566 E2.68034
G1 X73.599 Y81.349 E2.69111
G1 X73.146 Y81.041 E2.70188
G1 X72.759 Y80.654 E2.71264
G1 X72.455 Y80.207 E2.72328
G1 X72.296 Y79.870 E2.73059
G1 X72.181 Y79.517 E2.73790
G1 X72.106 Y79.042 E2.74736
G1 X72.355 Y78.966 F6000.000
G1 F1800.000
G1 X72.370 Y78.468 E2.75717
G1 X72.479 Y77.981 E2.76698
G1 X72.677 Y77.523 E2.77680
G1 X72.958 Y77.110 E2.78661
G1 X73.309 Y76.759 E2.79637
G1 X73.580 Y76.562 E2.80296
G1 X73.874 Y76.401 E2.80956
G1 X74.341 Y76.233 E2.81932
G1 X74.834 Y76.155 E2.82913
G1 X75.332 Y76.170 E2.83894
G1 X75.819 Y76.279 E2.84876
G1 X76.277 Y76.477 E2.85857
G1 X76.690 Y76.758 E2.86838
G1 X77.042 Y77.110 E2.87819
G1 X77.321 Y77.521 E2.88795
G1 X77.464 Y77.824 E2.89455
G1 X77.568 Y78.143 E2.90114
G1 X77.645 Y78.634 E2.91090
G1 X77.630 Y79.132 E2.92071
G1 X77.521 Y79.619 E2.93052
G1 X77.323 Y80.077 E2.94034
G1 X77.042 Y80.490 E2.95015
G1 X76.691 Y80.841 E2.95991
G1 X76.420 Y81.038 E2.96651
G1 X76.126 Y81.199 E2.97310
G1 X75.659 Y81.367 E2.98286
G1 X75.166 Y81.445 E2.99267
G1 X74.668 Y81.430 E3.00249
G1 X74.181 Y81.321 E3.01230
G1 X73.723 Y81.123 E3.02211
G1 X73.310 Y80.842 E3.03192
G1 X72.958 Y80.490 E3.04173
G1 X72.679 Y80.079 E3.05150
G1 X72.536 Y79.776 E3.05809
G1 X72.432 Y79.457 E3.06468
G1 X72.364 Y79.026 E3.07326
G1 X71.998 Y78.785 F6000.000
G1 E1.07326 F1200.00000
G92 E0
G1 Z0.700 F6000.000
G1 X79.336 Y61.153 F6000.000
G1 Z0.200 F6000.000
G1 E2.00000 F1200.00000
G1 F1800.000
G1 X80.613 Y61.525 E2.02616
G1 X81.687 Y61.911 E2.04860
G1 X82.734 Y62.364 E2.07104
G1 X83.751 Y62.882 E2.09348
G1 X84.733 Y63.463 E2.11592
G1 X85.677 Y64.105 E2.13836
G1 X86.578 Y64.804 E2.16081
G1 X87.434 Y65.559 E2.18325
G1 X88.241 Y66.366 E2.20569
G1 X88.996 Y67.222 E2.22813
G1 X89.695 Y68.123 E2.25057
G1 X90.337 Y69.067 E2.27301
G1 X90.918 Y70.049 E2.29546
G1 X91.436 Y71.066 E2.31790
G1 X91.889 Y72.113 E2.34034
G1 X92.275 Y73.187 E2.36278
G1 X92.647 Y74.464 E2.38894
G1 X80.310 Y74.464 E2.63154
G1 X79.336 Y73.490 E2.65865
G1 X79.336 Y61.213 E2.90007
G1 X79.593 Y61.496 F6000.000
G1 F1800.000
G1 X80.534 Y61.769 E2.91934
G1 X81.592 Y62.150 E2.94146
G1 X82.625 Y62.597 E2.96359
G1 X83.627 Y63.108 E2.98571
G1 X84.595 Y63.680 E3.00783
G1 X85.526 Y64.313 E3.02996
G1 X86.414 Y65.002 E3.05208
G1 X87.258 Y65.746 E3.07420
G1 X88.054 Y66.542 E3.09633
G1 X88.798 Y67.386 E3.11845
G1 X89.487 Y68.274 E3.14058
G1 X90.120 Y69.205 E3.16270
G1 X90.692 Y70.173 E3.18482
G1 X91.203 Y71.175 E3.20695
G1 X91.650 Y72.208 E3.22907
G1 X92.031 Y73.266 E3.25119
G1 X92.304 Y74.207 E3.27046
G1 X80.417 Y74.207 E3.50424
G1 X79.593 Y73.383 E3.52715
G1 X79.593 Y61.556 E3.75975
G1 X79.850 Y61.838 F6000.000
G1 F1800.000
G1 X80.454 Y62.014 E3.77212
G1 X81.497 Y62.389 E3.79393
G1 X82.515 Y62.830 E3.81574
G1 X83.503 Y63.333 E3.83754
G1 X84.457 Y63.898 E3.85935
G1 X85.374 Y64.521 E3.88115
G1 X86.251 Y65.200 E3.90296
G1 X87.082 Y65.934 E3.92477
G1 X87.866 Y66.718 E3.94657
G1 X88.600 Y67.549 E3.96838
G1 X89.279 Y68.426 E3.99018
G1 X89.902 Y69.343 E4.01199
G1 X90.467 Y70.297 E4.03380
G1 X90.970 Y71.285 E4.05560
G1 X91.411 Y72.303 E4.07741
G1 X91.786 Y73.346 E4.09921
G1 X91.962 Y73.950 E4.11159
G1 X80.523 Y73.950 E4.33654
G1 X79.850 Y73.277 E4.35526
G1 X79.850 Y61.898 E4.57903
G1 X79.918 Y61.444 F6000.000
G1 E2.57903 F1200.00000
G92 E0
G1 Z0.700 F6000.000
G1 X86.666 Y76.694 F6000.000
G1 Z0.200 F6000.000
G1 E2.00000 F1200.00000
G1 F1800.000
G1 X86.937 Y76.606 E2.00559
G1 X87.216 Y76.552 E2.01119
G1 X87.500 Y76.535 E2.01678
G1 X87.784 Y76.552 E2.02238
G1 X88.063 Y76.606 E2.02798
G1 X88.334 Y76.694 E2.03357
G1 X88.591 Y76.815 E2.03916
G1 X88.832 Y76.967 E2.04476
G1 X89.051 Y77.148 E2.05035
G1 X89.246 Y77.356 E2.05595
G1 X89.413 Y77.586 E2.06155
G1 X89.550 Y77.835 E2.06714
G1 X89.655 Y78.100 E2.07273
G1 X89.725 Y78.376 E2.07833
G1 X89.761 Y78.658 E2.08393
G1 X89.761 Y78.942 E2.08952
G1 X89.725 Y79.224 E2.09511
G1 X89.655 Y79.500 E2.10071
G1 X89.550 Y79.765 E2.10630
G1 X89.413 Y80.014 E2.11190
G1 X89.246 Y80.244 E2.11749
G1 X89.051 Y80.451 E2.12309
G1 X88.832 Y80.633 E2.12868
G1 X88.591 Y80.785 E2.13428
G1 X88.334 Y80.906 E2.13988
G1 X88.063 Y80.994 E2.14547
G1 X87.784 Y81.048 E2.15106
G1 X87.500 Y81.065 E2.15666
G1 X87.216 Y81.048 E2.16225
G1 X86.937 Y80.994 E2.16785
G1 X86.666 Y80.906 E2.17344
G1 X86.409 Y80.785 E2.17904
G1 X86.168 Y80.633 E2.18464
G1 X85.949 Y80.451 E2.19023
G1 X85.754 Y80.244 E2.19582
G1 X85.587 Y80.014 E2.20142
G1 X85.450 Y79.765 E2.20701
G1 X85.345 Y79.500 E2.21261
G1 X85.275 Y79.224 E2.21821
G1 X85.239 Y78.942 E2.22380
G1 X85.239 Y78.658 E2.22939
G1 X85.275 Y78.376 E2.23499
G1 X85.345 Y78.100 E2.24059
G1 X85.450 Y77.835 E2.24618
G1 X85.587 Y77.586 E2.25177
G1 X85.754 Y77.356 E2.25737
G1 X85.949 Y77.148 E2.26296
G1 X86.168 Y76.967 E2.26856
G1 X86.409 Y76.815 E2.27416
G1 X86.612 Y76.719 E2.27857
G1 X86.761 Y76.933 F6000.000
G1 F1800.000
G1 X87.001 Y76.855 E2.28353
G1 X87.248 Y76.808 E2.28849
G1 X87.500 Y76.792 E2.29345
G1 X87.752 Y76.808 E2.29841
G1 X87.999 Y76.855 E2.30337
G1 X88.239 Y76.933 E2.30832
G1 X88.467 Y77.040 E2.31328
G1 X88.680 Y77.176 E2.31824
G1 X88.875 Y77.336 E2.32320
G1 X89.047 Y77.520 E2.32816
G1 X89.195 Y77.724 E2.33312
G1 X89.317 Y77.945 E2.33808
G1 X89.410 Y78.179 E2.34303
G1 X89.472 Y78.424 E2.34799
G1 X89.504 Y78.674 E2.35295
G1 X89.504 Y78.926 E2.35791
G1 X89.472 Y79.176 E2.36287
G1 X89.410 Y79.421 E2.36783
G1 X89.317 Y79.655 E2.37279
G1 X89.195 Y79.876 E2.37775
G1 X89.047 Y80.080 E2.38271
G1 X88.875 Y80.264 E2.38766
G1 X88.680 Y80.424 E2.39262
G1 X88.467 Y80.560 E2.39758
G1 X88.239 Y80.667 E2.40254
G1 X87.999 Y80.745 E2.40750
G1 X87.752 Y80.792 E2.41246
G1 X87.500 Y80.808 E2.41742
G1 X87.248 Y80.792 E2.42238
G1 X87.001 Y80.745 E2.42734
G1 X86.761 Y80.667 E2.43229
G1 X86.533 Y80.560 E2.43725
G1 X86.320 Y80.424 E2.44221
G1 X86.125 Y80.264 E2.44717
G1 X85.953 Y80.080 E2.45213
G1 X85.805 Y79.876 E2.45709
G1 X85.683 Y79.655 E2.46205
G1 X85.590 Y79.421 E2.46700
G1 X85.528 Y79.176 E2.47197
G1 X85.496 Y78.926 E2.47692
G1 X85.496 Y78.674 E2.48188
G1 X85.528 Y78.424 E2.48684
G1 X85.590 Y78.179 E2.49180
G1 X85.683 Y77.945 E2.49676
G1 X85.805 Y77.724 E2.50172
G1 X85.953 Y77.520 E2.50668
G1 X86.125 Y77.336 E2.51164
G1 X86.320 Y77.176 E2.51659
G1 X86.533 Y77.040 E2.52155
G1 X86.707 Y76.959 E2.52533
G1 X86.856 Y77.173 F6000.000
G1 F1800.000
G1 X87.065 Y77.105 E2.52965
G1 X87.281 Y77.063 E2.53398
G1 X87.500 Y77.050 E2.53830
G1 X87.719 Y77.063 E2.54262
G1 X87.935 Y77.105 E2.54695
G1 X88.144 Y77.173 E2.55127
G1 X88.343 Y77.266 E2.55559
G1 X88.529 Y77.384 E2.55991
G1 X88.698 Y77.524 E2.56424
G1 X88.849 Y77.684 E2.56856
G1 X88.978 Y77.862 E2.57288
G1 X89.084 Y78.055 E2.57720
G1 X89.165 Y78.259 E2.58153
G1 X89.219 Y78.472 E2.58585
G1 X89.247 Y78.690 E2.59017
G1 X89.247 Y78.910 E2.59450
G1 X89.219 Y79.128 E2.59882
G1 X89.165 Y79.341 E2.60314
G1 X89.084 Y79.545 E2.60746
G1 X88.978 Y79.738 E2.61179
G1 X88.849 Y79.916 E2.61611
G1 X88.698 Y80.076 E2.62043
G1 X88.529 Y80.216 E2.62475
G1 X88.343 Y80.334 E2.62908
G1 X88.144 Y80.427 E2.63340
G1 X87.935 Y80.495 E2.63772
G1 X87.719 Y80.537 E2.64205
