; generated by Slic3r 1.3.0 on 2020-03-25 at 00:34:12

; external perimeters extrusion width = 0.55mm (3.65mm^3/s)
; perimeters extrusion width = 0.70mm (5.26mm^3/s)
; infill extrusion width = 0.62mm (4.66mm^3/s)
; solid infill extrusion width = 0.70mm (3.94mm^3/s)
; top infill extrusion width = 0.70mm (3.94mm^3/s)

M107
M104 S200 ; set temperature
G28 ; home all axes
G1 Z5 F5000 ; lift nozzle

; Filament gcode

M109 S200 ; set temperature and wait for it to be reached
G21 ; set units to millimeters
G90 ; use absolute coordinates
M82 ; use absolute distances for extrusion
G92 E0
G1 Z0.300 F7800.000
G1 E-2.00000 F2400.00000
G92 E0
G1 X46.565 Y69.400 F7800.000
G1 E2.00000 F2400.00000
G1 F1800
G1 X47.995 Y68.613 E2.03711
G1 X55.922 Y65.467 E2.23099
G1 X58.333 Y65.005 E2.28680
G1 X151.666 Y65.005 E4.40848
G1 X153.909 Y65.402 E4.46026
G1 X155.880 Y66.545 E4.51204
G1 X157.339 Y68.294 E4.56382
G1 X158.202 Y71.541 E4.64019
G1 X158.202 Y128.459 E5.93407
G1 X157.805 Y130.702 E5.98585
G1 X156.663 Y132.672 E6.03763
G1 X154.913 Y134.131 E6.08941
G1 X151.666 Y134.995 E6.16578
G1 X109.766 Y134.995 E7.11829
G1 X108.407 Y134.852 E7.14935
G1 X105.339 Y134.200 E7.22063
G1 X104.193 Y133.843 E7.24792
G1 X73.418 Y121.072 E8.00535
G1 X72.349 Y120.507 E8.03285
G1 X70.695 Y119.427 E8.07775
G1 X69.715 Y118.642 E8.10630
G1 X44.351 Y93.991 E8.91032
G1 X42.691 Y91.324 E8.98174
G1 X42.118 Y89.561 E9.02389
G1 X41.798 Y87.541 E9.07038
G1 X41.798 Y77.541 E9.29770
G1 X42.118 Y75.521 E9.34418
G1 X42.691 Y73.758 E9.38633
G1 X43.761 Y71.748 E9.43811
G1 X45.065 Y70.490 E9.47928
G1 X46.504 Y69.445 E9.51973
G1 E7.51973 F2400.00000
G92 E0
G1 X146.566 Y120.241 F7800.000
G1 E2.00000 F2400.00000
G1 F1800
G1 X146.493 Y120.014 E2.00542
G1 X146.448 Y119.779 E2.01085
G1 X146.433 Y119.541 E2.01628
G1 X146.448 Y119.303 E2.02170
G1 X146.493 Y119.068 E2.02713
G1 X146.566 Y118.841 E2.03255
G1 X146.668 Y118.626 E2.03798
G1 X146.796 Y118.424 E2.04341
G1 X146.948 Y118.240 E2.04883
G1 X147.122 Y118.077 E2.05426
G1 X147.315 Y117.936 E2.05968
G1 X147.524 Y117.821 E2.06511
G1 X147.746 Y117.734 E2.07053
G1 X147.977 Y117.674 E2.07596
G1 X148.214 Y117.644 E2.08139
G1 X148.452 Y117.644 E2.08680
G1 X148.690 Y117.674 E2.09224
G1 X148.920 Y117.734 E2.09766
G1 X149.151 Y117.825 E2.10330
G1 X149.546 Y118.075 E2.11393
G1 X149.866 Y118.416 E2.12454
G1 X149.999 Y118.625 E2.13018
G1 X150.101 Y118.841 E2.13561
G1 X150.178 Y119.078 E2.14126
G1 X150.236 Y119.541 E2.15188
G1 X150.178 Y120.005 E2.16250
G1 X150.101 Y120.241 E2.16815
G1 X149.995 Y120.466 E2.17380
G1 X149.726 Y120.836 E2.18420
G1 X149.538 Y121.012 E2.19005
G1 X149.143 Y121.262 E2.20068
G1 X148.699 Y121.407 E2.21130
G1 X148.452 Y121.438 E2.21695
G1 X148.214 Y121.438 E2.22237
G1 X147.977 Y121.408 E2.22781
G1 X147.727 Y121.342 E2.23369
G1 X147.323 Y121.151 E2.24384
G1 X147.122 Y121.006 E2.24948
G1 X146.948 Y120.842 E2.25491
G1 X146.796 Y120.658 E2.26033
G1 X146.598 Y120.309 E2.26946
G1 E0.26946 F2400.00000
G92 E0
G1 X140.219 Y119.779 F7800.000
G1 E2.00000 F2400.00000
G1 F1800
G1 X140.174 Y120.014 E2.00543
G1 X140.101 Y120.241 E2.01085
G1 X139.999 Y120.457 E2.01628
G1 X139.871 Y120.658 E2.02170
G1 X139.719 Y120.842 E2.02713
G1 X139.545 Y121.006 E2.03255
G1 X139.352 Y121.146 E2.03798
G1 X139.143 Y121.261 E2.04341
G1 X138.921 Y121.349 E2.04883
G1 X138.690 Y121.408 E2.05426
G1 X138.453 Y121.438 E2.05968
G1 X138.214 Y121.438 E2.06511
G1 X137.977 Y121.408 E2.07053
G1 X137.746 Y121.349 E2.07596
G1 X137.524 Y121.261 E2.08139
G1 X137.315 Y121.146 E2.08681
G1 X137.122 Y121.006 E2.09224
G1 X136.948 Y120.842 E2.09766
G1 X136.796 Y120.658 E2.10309
G1 X136.668 Y120.457 E2.10852
G1 X136.566 Y120.241 E2.11394
G1 X136.492 Y120.013 E2.11939
G1 X136.445 Y119.759 E2.12526
G1 X136.446 Y119.312 E2.13542
G1 X136.493 Y119.068 E2.14105
G1 X136.566 Y118.841 E2.14648
G1 X136.668 Y118.626 E2.15190
G1 X136.796 Y118.424 E2.15733
G1 X136.948 Y118.240 E2.16276
G1 X137.122 Y118.077 E2.16818
G1 X137.315 Y117.936 E2.17361
G1 X137.524 Y117.821 E2.17903
G1 X137.746 Y117.734 E2.18446
G1 X137.977 Y117.674 E2.18989
G1 X138.214 Y117.644 E2.19531
G1 X138.453 Y117.644 E2.20074
G1 X138.690 Y117.674 E2.20616
G1 X138.921 Y117.734 E2.21159
G1 X139.143 Y117.821 E2.21701
G1 X139.352 Y117.936 E2.22244
G1 X139.545 Y118.077 E2.22787
G1 X139.719 Y118.240 E2.23329
G1 X139.871 Y118.424 E2.23871
G1 X140.004 Y118.633 E2.24435
G1 X140.169 Y119.048 E2.25451
G1 X140.219 Y119.302 E2.26038
G1 X140.224 Y119.704 E2.26953
G1 E0.26953 F2400.00000
G92 E0
G1 X130.234 Y119.541 F7800.000
G1 E2.00000 F2400.00000
G1 F1800
G1 X130.219 Y119.779 E2.00543
G1 X130.174 Y120.014 E2.01085
G1 X130.101 Y120.241 E2.01628
G1 X129.999 Y120.457 E2.02170
G1 X129.871 Y120.658 E2.02713
G1 X129.719 Y120.842 E2.03256
G1 X129.545 Y121.006 E2.03798
G1 X129.352 Y121.146 E2.04341
G1 X129.143 Y121.261 E2.04883
G1 X128.921 Y121.349 E2.05426
G1 X128.690 Y121.408 E2.05968
G1 X128.453 Y121.438 E2.06511
G1 X128.214 Y121.438 E2.07053
G1 X127.977 Y121.408 E2.07596
G1 X127.746 Y121.349 E2.08139
G1 X127.524 Y121.261 E2.08681
G1 X127.315 Y121.146 E2.09224
G1 X127.122 Y121.006 E2.09766
G1 X126.948 Y120.842 E2.10309
G1 X126.796 Y120.658 E2.10851
G1 X126.668 Y120.457 E2.11394
G1 X126.566 Y120.241 E2.11937
G1 X126.492 Y120.013 E2.12481
G1 X126.445 Y119.759 E2.13068
G1 X126.446 Y119.312 E2.14084
G1 X126.493 Y119.068 E2.14648
G1 X126.566 Y118.841 E2.15190
G1 X126.668 Y118.626 E2.15733
G1 X126.796 Y118.424 E2.16276
G1 X126.948 Y118.240 E2.16818
G1 X127.122 Y118.077 E2.17361
G1 X127.315 Y117.936 E2.17903
G1 X127.524 Y117.821 E2.18446
G1 X127.746 Y117.734 E2.18988
G1 X127.977 Y117.674 E2.19531
G1 X128.214 Y117.644 E2.20074
G1 X128.453 Y117.644 E2.20616
G1 X128.690 Y117.674 E2.21159
G1 X128.921 Y117.734 E2.21701
G1 X129.143 Y117.821 E2.22244
G1 X129.352 Y117.936 E2.22786
G1 X129.545 Y118.077 E2.23329
G1 X129.719 Y118.240 E2.23871
G1 X129.871 Y118.424 E2.24414
G1 X130.004 Y118.633 E2.24978
G1 X130.169 Y119.048 E2.25993
G1 X130.219 Y119.302 E2.26581
G1 X130.229 Y119.466 E2.26955
G1 E0.26955 F2400.00000
G92 E0
G1 X120.234 Y119.541 F7800.000
G1 E2.00000 F2400.00000
G1 F1800
G1 X120.219 Y119.779 E2.00543
G1 X120.174 Y120.014 E2.01085
G1 X120.101 Y120.241 E2.01628
G1 X119.999 Y120.457 E2.02170
G1 X119.871 Y120.658 E2.02713
G1 X119.719 Y120.842 E2.03256
G1 X119.545 Y121.006 E2.03798
G1 X119.352 Y121.146 E2.04341
G1 X119.143 Y121.261 E2.04883
G1 X118.921 Y121.349 E2.05426
G1 X118.690 Y121.408 E2.05968
G1 X118.453 Y121.438 E2.06511
G1 X118.214 Y121.438 E2.07053
G1 X117.977 Y121.408 E2.07596
G1 X117.746 Y121.349 E2.08139
G1 X117.524 Y121.261 E2.08681
G1 X117.315 Y121.146 E2.09224
G1 X117.122 Y121.006 E2.09766
G1 X116.948 Y120.842 E2.10309
G1 X116.796 Y120.658 E2.10851
G1 X116.668 Y120.457 E2.11394
G1 X116.566 Y120.241 E2.11937
G1 X116.492 Y120.013 E2.12481
G1 X116.445 Y119.759 E2.13068
G1 X116.446 Y119.312 E2.14084
G1 X116.493 Y119.068 E2.14648
G1 X116.566 Y118.841 E2.15190
G1 X116.668 Y118.626 E2.15733
G1 X116.796 Y118.424 E2.16276
G1 X116.948 Y118.240 E2.16818
G1 X117.122 Y118.077 E2.17361
G1 X117.315 Y117.936 E2.17903
G1 X117.524 Y117.821 E2.18446
G1 X117.746 Y117.734 E2.18988
G1 X117.977 Y117.674 E2.19531
G1 X118.214 Y117.644 E2.20074
G1 X118.453 Y117.644 E2.20616
G1 X118.690 Y117.674 E2.21159
G1 X118.921 Y117.734 E2.21701
G1 X119.143 Y117.821 E2.22244
G1 X119.352 Y117.936 E2.22786
G1 X119.545 Y118.077 E2.23329
G1 X119.719 Y118.240 E2.23871
G1 X119.871 Y118.424 E2.24414
G1 X120.004 Y118.633 E2.24978
G1 X120.169 Y119.048 E2.25993
G1 X120.219 Y119.302 E2.26581
G1 X120.229 Y119.466 E2.26955
G1 E0.26955 F2400.00000
G92 E0
G1 X110.234 Y119.541 F7800.000
G1 E2.00000 F2400.00000
G1 F1800
G1 X110.219 Y119.779 E2.00543
G1 X110.174 Y120.014 E2.01085
G1 X110.101 Y120.241 E2.01628
G1 X109.999 Y120.458 E2.02172
G1 X109.859 Y120.675 E2.02760
G1 X109.552 Y121.000 E2.03775
G1 X109.352 Y121.146 E2.04339
G1 X109.143 Y121.261 E2.04882
G1 X108.921 Y121.349 E2.05424
G1 X108.690 Y121.408 E2.05967
G1 X108.453 Y121.438 E2.06509
G1 X108.214 Y121.438 E2.07052
G1 X107.977 Y121.408 E2.07594
G1 X107.746 Y121.349 E2.08137
G1 X107.524 Y121.261 E2.08680
G1 X107.315 Y121.146 E2.09222
G1 X107.122 Y121.006 E2.09765
G1 X106.948 Y120.842 E2.10307
G1 X106.796 Y120.658 E2.10850
G1 X106.668 Y120.457 E2.11393
G1 X106.566 Y120.241 E2.11935
G1 X106.492 Y120.013 E2.12480
G1 X106.445 Y119.759 E2.13067
G1 X106.446 Y119.312 E2.14083
G1 X106.493 Y119.068 E2.14646
G1 X106.566 Y118.841 E2.15189
G1 X106.668 Y118.626 E2.15731
G1 X106.796 Y118.424 E2.16274
G1 X106.954 Y118.233 E2.16838
G1 X107.298 Y117.948 E2.17854
G1 X107.523 Y117.822 E2.18441
G1 X107.746 Y117.734 E2.18985
G1 X107.977 Y117.674 E2.19528
G1 X108.214 Y117.644 E2.20071
G1 X108.453 Y117.644 E2.20613
G1 X108.690 Y117.674 E2.21156
G1 X108.921 Y117.734 E2.21698
G1 X109.143 Y117.821 E2.22241
G1 X109.352 Y117.936 E2.22783
G1 X109.545 Y118.077 E2.23326
G1 X109.719 Y118.240 E2.23868
G1 X109.871 Y118.424 E2.24411
G1 X109.999 Y118.626 E2.24954
G1 X110.101 Y118.841 E2.25496
G1 X110.174 Y119.068 E2.26039
G1 X110.229 Y119.466 E2.26952
G1 E0.26952 F2400.00000
G92 E0
G1 X116.393 Y116.841 F7800.000
G1 E2.00000 F2400.00000
G1 F1800
G1 X98.274 Y116.841 E2.41190
G1 X96.336 Y116.039 E2.45957
G1 X95.533 Y114.101 E2.50725
G1 X95.533 Y110.981 E2.57816
G1 X96.336 Y109.044 E2.62584
G1 X98.274 Y108.241 E2.67352
G1 X116.393 Y108.241 E3.08542
G1 X118.331 Y109.044 E3.13309
G1 X119.133 Y110.981 E3.18077
G1 X119.133 Y114.101 E3.25168
G1 X118.331 Y116.039 E3.29936
G1 X116.462 Y116.812 E3.34533
G1 E1.34533 F2400.00000
G92 E0
G1 X99.871 Y105.658 F7800.000
G1 E2.00000 F2400.00000
G1 F1800
G1 X99.719 Y105.842 E2.00543
G1 X99.544 Y106.006 E2.01087
G1 X99.334 Y106.157 E2.01674
G1 X98.930 Y106.346 E2.02690
G1 X98.690 Y106.408 E2.03254
G1 X98.453 Y106.438 E2.03796
G1 X98.214 Y106.438 E2.04339
G1 X97.977 Y106.408 E2.04881
G1 X97.746 Y106.349 E2.05424
G1 X97.524 Y106.261 E2.05967
G1 X97.315 Y106.146 E2.06509
G1 X97.122 Y106.006 E2.07052
G1 X96.948 Y105.842 E2.07594
G1 X96.796 Y105.658 E2.08137
G1 X96.668 Y105.457 E2.08680
G1 X96.566 Y105.241 E2.09222
G1 X96.492 Y105.013 E2.09767
G1 X96.445 Y104.759 E2.10354
G1 X96.446 Y104.312 E2.11370
G1 X96.493 Y104.068 E2.11933
G1 X96.566 Y103.841 E2.12476
G1 X96.668 Y103.626 E2.13018
G1 X96.796 Y103.424 E2.13561
G1 X96.954 Y103.233 E2.14125
G1 X97.298 Y102.948 E2.15141
G1 X97.523 Y102.822 E2.15728
G1 X97.746 Y102.734 E2.16272
G1 X97.977 Y102.674 E2.16815
G1 X98.214 Y102.644 E2.17358
G1 X98.453 Y102.644 E2.17900
G1 X98.690 Y102.674 E2.18443
G1 X98.921 Y102.734 E2.18985
G1 X99.143 Y102.821 E2.19528
G1 X99.352 Y102.936 E2.20070
G1 X99.545 Y103.077 E2.20613
G1 X99.719 Y103.240 E2.21155
G1 X99.871 Y103.424 E2.21698
G1 X99.999 Y103.626 E2.22241
G1 X100.101 Y103.841 E2.22783
G1 X100.174 Y104.068 E2.23326
G1 X100.219 Y104.303 E2.23868
G1 X100.234 Y104.541 E2.24411
G1 X100.219 Y104.779 E2.24954
G1 X100.174 Y105.014 E2.25496
G1 X100.101 Y105.241 E2.26039
G1 X99.911 Y105.595 E2.26952
G1 E0.26952 F2400.00000
G92 E0
G1 X90.219 Y104.779 F7800.000
G1 E2.00000 F2400.00000
G1 F1800
G1 X90.174 Y105.014 E2.00543
G1 X90.101 Y105.241 E2.01085
G1 X89.999 Y105.457 E2.01628
G1 X89.871 Y105.658 E2.02170
G1 X89.719 Y105.842 E2.02713
G1 X89.544 Y106.006 E2.03257
G1 X89.334 Y106.157 E2.03845
G1 X88.930 Y106.346 E2.04861
G1 X88.690 Y106.408 E2.05424
G1 X88.453 Y106.438 E2.05967
G1 X88.214 Y106.438 E2.06509
G1 X87.977 Y106.408 E2.07052
G1 X87.746 Y106.349 E2.07595
G1 X87.524 Y106.261 E2.08137
G1 X87.315 Y106.146 E2.08680
G1 X87.122 Y106.006 E2.09222
G1 X86.948 Y105.842 E2.09765
G1 X86.796 Y105.658 E2.10307
G1 X86.668 Y105.457 E2.10850
G1 X86.566 Y105.241 E2.11393
G1 X86.492 Y105.013 E2.11937
G1 X86.445 Y104.759 E2.12524
G1 X86.446 Y104.312 E2.13540
G1 X86.493 Y104.068 E2.14104
G1 X86.566 Y103.841 E2.14646
G1 X86.668 Y103.626 E2.15189
G1 X86.796 Y103.424 E2.15732
G1 X86.954 Y103.233 E2.16295
G1 X87.298 Y102.948 E2.17311
G1 X87.523 Y102.822 E2.17898
G1 X87.746 Y102.734 E2.18443
G1 X87.977 Y102.674 E2.18986
G1 X88.214 Y102.644 E2.19528
G1 X88.453 Y102.644 E2.20071
G1 X88.690 Y102.674 E2.20613
G1 X88.921 Y102.734 E2.21156
G1 X89.143 Y102.821 E2.21698
G1 X89.352 Y102.936 E2.22241
G1 X89.545 Y103.077 E2.22783
G1 X89.719 Y103.240 E2.23326
G1 X89.871 Y103.424 E2.23868
G1 X89.999 Y103.626 E2.24411
G1 X90.101 Y103.841 E2.24954
G1 X90.174 Y104.068 E2.25496
G1 X90.219 Y104.303 E2.26039
G1 X90.224 Y104.704 E2.26952
G1 E0.26952 F2400.00000
G92 E0
G1 X88.930 Y101.346 F7800.000
G1 E2.00000 F2400.00000
G1 F1800
G1 X88.690 Y101.408 E2.00564
G1 X88.453 Y101.438 E2.01106
G1 X88.214 Y101.438 E2.01649
G1 X87.977 Y101.408 E2.02191
G1 X87.746 Y101.349 E2.02734
G1 X87.524 Y101.261 E2.03276
G1 X87.315 Y101.146 E2.03819
G1 X87.122 Y101.006 E2.04362
G1 X86.948 Y100.842 E2.04904
G1 X86.796 Y100.658 E2.05447
G1 X86.668 Y100.457 E2.05989
G1 X86.566 Y100.241 E2.06532
G1 X86.492 Y100.013 E2.07076
G1 X86.445 Y99.759 E2.07664
G1 X86.446 Y99.312 E2.08680
G1 X86.493 Y99.068 E2.09243
G1 X86.566 Y98.841 E2.09786
G1 X86.668 Y98.626 E2.10328
G1 X86.796 Y98.424 E2.10871
G1 X86.954 Y98.233 E2.11434
G1 X87.298 Y97.948 E2.12450
G1 X87.523 Y97.822 E2.13038
G1 X87.746 Y97.734 E2.13582
G1 X87.977 Y97.674 E2.14125
G1 X88.214 Y97.644 E2.14667
G1 X88.453 Y97.644 E2.15210
G1 X88.690 Y97.674 E2.15752
G1 X88.921 Y97.734 E2.16295
G1 X89.143 Y97.821 E2.16838
G1 X89.352 Y97.936 E2.17380
G1 X89.545 Y98.077 E2.17923
G1 X89.719 Y98.240 E2.18465
G1 X89.871 Y98.424 E2.19008
G1 X90.004 Y98.633 E2.19572
G1 X90.169 Y99.048 E2.20587
G1 X90.219 Y99.302 E2.21175
G1 X90.234 Y99.541 E2.21719
G1 X90.219 Y99.779 E2.22262
G1 X90.174 Y100.014 E2.22805
G1 X90.101 Y100.241 E2.23347
G1 X89.999 Y100.457 E2.23890
G1 X89.871 Y100.658 E2.24432
G1 X89.719 Y100.842 E2.24975
G1 X89.544 Y101.006 E2.25519
G1 X89.334 Y101.157 E2.26107
G1 X88.998 Y101.315 E2.26952
G1 E0.26952 F2400.00000
G92 E0
G1 X80.219 Y99.779 F7800.000
G1 E2.00000 F2400.00000
G1 F1800
G1 X80.174 Y100.014 E2.00543
G1 X80.101 Y100.241 E2.01085
G1 X79.999 Y100.457 E2.01628
G1 X79.871 Y100.658 E2.02170
G1 X79.719 Y100.842 E2.02713
G1 X79.544 Y101.006 E2.03257
G1 X79.334 Y101.157 E2.03845
G1 X78.930 Y101.346 E2.04861
G1 X78.690 Y101.408 E2.05424
G1 X78.453 Y101.438 E2.05967
G1 X78.214 Y101.438 E2.06509
G1 X77.977 Y101.408 E2.07052
G1 X77.746 Y101.349 E2.07595
G1 X77.524 Y101.261 E2.08137
G1 X77.315 Y101.146 E2.08680
G1 X77.122 Y101.006 E2.09222
G1 X76.948 Y100.842 E2.09765
G1 X76.796 Y100.658 E2.10307
G1 X76.668 Y100.457 E2.10850
G1 X76.566 Y100.241 E2.11393
G1 X76.492 Y100.013 E2.11937
G1 X76.445 Y99.759 E2.12524
G1 X76.446 Y99.312 E2.13540
G1 X76.493 Y99.068 E2.14104
G1 X76.566 Y98.841 E2.14646
G1 X76.668 Y98.626 E2.15189
G1 X76.796 Y98.424 E2.15732
G1 X76.948 Y98.240 E2.16274
G1 X77.122 Y98.077 E2.16817
G1 X77.315 Y97.936 E2.17359
G1 X77.524 Y97.821 E2.17902
G1 X77.746 Y97.734 E2.18444
G1 X77.977 Y97.674 E2.18987
G1 X78.214 Y97.644 E2.19530
G1 X78.453 Y97.644 E2.20072
G1 X78.690 Y97.674 E2.20615
G1 X78.930 Y97.736 E2.21178
G1 X79.334 Y97.925 E2.22194
G1 X79.544 Y98.076 E2.22781
G1 X79.719 Y98.240 E2.23326
G1 X79.871 Y98.424 E2.23868
G1 X79.999 Y98.626 E2.24411
G1 X80.101 Y98.841 E2.24954
G1 X80.174 Y99.068 E2.25496
G1 X80.219 Y99.303 E2.26039
G1 X80.224 Y99.704 E2.26952
G1 E0.26952 F2400.00000
G92 E0
G1 X78.921 Y102.734 F7800.000
G1 E2.00000 F2400.00000
G1 F1800
G1 X79.143 Y102.821 E2.00542
G1 X79.352 Y102.936 E2.01085
G1 X79.545 Y103.077 E2.01628
G1 X79.719 Y103.240 E2.02170
G1 X79.871 Y103.424 E2.02713
G1 X79.999 Y103.626 E2.03255
G1 X80.101 Y103.841 E2.03798
G1 X80.174 Y104.068 E2.04340
G1 X80.219 Y104.303 E2.04883
G1 X80.234 Y104.541 E2.05426
G1 X80.219 Y104.779 E2.05968
G1 X80.174 Y105.014 E2.06511
G1 X80.101 Y105.241 E2.07053
G1 X79.999 Y105.457 E2.07596
G1 X79.871 Y105.658 E2.08139
G1 X79.719 Y105.842 E2.08681
G1 X79.544 Y106.006 E2.09226
G1 X79.334 Y106.157 E2.09813
G1 X78.930 Y106.346 E2.10829
G1 X78.690 Y106.408 E2.11392
G1 X78.453 Y106.438 E2.11935
G1 X78.214 Y106.438 E2.12477
G1 X77.977 Y106.408 E2.13020
G1 X77.746 Y106.349 E2.13563
G1 X77.524 Y106.261 E2.14105
G1 X77.315 Y106.146 E2.14648
G1 X77.122 Y106.006 E2.15190
G1 X76.948 Y105.842 E2.15733
