; generated by Slic3r 1.3.0 on 2020-03-25 at 00:33:59

; external perimeters extrusion width = 0.55mm (3.65mm^3/s)
; perimeters extrusion width = 0.70mm (5.26mm^3/s)
; infill extrusion width = 0.62mm (4.66mm^3/s)
; solid infill extrusion width = 0.70mm (3.94mm^3/s)
; top infill extrusion width = 0.45mm (2.44mm^3/s)

M107
M104 S200 ; set temperature
G28 ; home all axes
G1 Z5 F5000 ; lift nozzle

; Filament gcode

M109 S200 ; set temperature and wait for it to be reached
G21 ; set units to millimeters
G90 ; use absolute coordinates
M82 ; use absolute distances for extrusion
G92 E0
G1 Z0.200 F7800.000
G1 E-2.00000 F2400.00000
G92 E0
G1 X31.923 Y64.437 F7800.000
G1 E2.00000 F2400.00000
G1 F1800
G1 X35.000 Y63.643 E2.03210
G1 X165.000 Y63.643 E3.34553
G1 X167.211 Y64.040 E3.36822
G1 X169.146 Y65.181 E3.39092
G1 X170.563 Y66.923 E3.41361
G1 X171.357 Y70.000 E3.44571
G1 X171.357 Y130.000 E4.05191
G1 X170.960 Y132.211 E4.07461
G1 X169.819 Y134.146 E4.09730
G1 X168.077 Y135.563 E4.11999
G1 X165.000 Y136.357 E4.15210
G1 X35.000 Y136.357 E5.46552
G1 X32.789 Y135.960 E5.48822
G1 X30.854 Y134.819 E5.51091
G1 X29.437 Y133.077 E5.53361
G1 X28.643 Y130.000 E5.56571
G1 X28.643 Y70.000 E6.17191
G1 X29.040 Y67.789 E6.19460
G1 X30.181 Y65.854 E6.21729
G1 X31.865 Y64.484 E6.23923
G1 E4.23923 F2400.00000
G92 E0
G1 X140.515 Y123.414 F7800.000
G1 E2.00000 F2400.00000
G1 F1800
G1 X140.515 Y99.086 E2.24580
G1 X155.914 Y99.086 E2.40138
G1 X155.914 Y123.414 E2.64718
G1 X140.590 Y123.414 E2.80200
G1 X140.872 Y123.057 F7800.000
G1 F1800
G1 X140.872 Y99.443 E3.04058
G1 X155.557 Y99.443 E3.18895
G1 X155.557 Y123.057 E3.42753
G1 X140.947 Y123.057 E3.57514
G1 X141.229 Y122.700 F7800.000
G1 F1800
G1 X141.229 Y99.800 E3.80651
G1 X155.200 Y99.800 E3.94766
G1 X155.200 Y122.700 E4.17903
G1 X141.304 Y122.700 E4.31942
G1 X140.758 Y122.867 F7800.000
G1 E2.31942 F2400.00000
G92 E0
G1 X139.009 Y123.414 F7800.000
G1 E2.00000 F2400.00000
G1 F1800
G1 X123.610 Y123.414 E2.15559
G1 X123.610 Y99.086 E2.40138
G1 X139.009 Y99.086 E2.55697
G1 X139.009 Y123.339 E2.80201
G1 X138.652 Y123.057 F7800.000
G1 F1800
G1 X123.967 Y123.057 E2.95038
G1 X123.967 Y99.443 E3.18896
G1 X138.652 Y99.443 E3.33733
G1 X138.652 Y122.982 E3.57515
G1 X138.295 Y122.700 F7800.000
G1 F1800
G1 X124.324 Y122.700 E3.71631
G1 X124.324 Y99.800 E3.94767
G1 X138.295 Y99.800 E4.08883
G1 X138.295 Y122.625 E4.31943
G1 X138.386 Y123.192 F7800.000
G1 E2.31943 F2400.00000
G92 E0
G1 X122.105 Y123.414 F7800.000
G1 E2.00000 F2400.00000
G1 F1800
G1 X106.705 Y123.414 E2.15559
G1 X106.705 Y99.086 E2.40138
G1 X122.105 Y99.086 E2.55697
G1 X122.105 Y123.339 E2.80201
G1 X121.748 Y123.057 F7800.000
G1 F1800
G1 X107.062 Y123.057 E2.95039
G1 X107.062 Y99.443 E3.18897
G1 X121.748 Y99.443 E3.33734
G1 X121.748 Y122.982 E3.57516
G1 X121.390 Y122.700 F7800.000
G1 F1800
G1 X107.419 Y122.700 E3.71632
G1 X107.419 Y99.800 E3.94769
G1 X121.390 Y99.800 E4.08884
G1 X121.390 Y122.625 E4.31945
G1 X121.481 Y123.192 F7800.000
G1 E2.31945 F2400.00000
G92 E0
G1 X105.200 Y123.414 F7800.000
G1 E2.00000 F2400.00000
G1 F1800
G1 X89.800 Y123.414 E2.15559
G1 X89.800 Y99.086 E2.40138
G1 X105.200 Y99.086 E2.55697
G1 X105.200 Y123.339 E2.80201
G1 X104.843 Y123.057 F7800.000
G1 F1800
G1 X90.157 Y123.057 E2.95038
G1 X90.157 Y99.443 E3.18896
G1 X104.843 Y99.443 E3.33734
G1 X104.843 Y122.982 E3.57516
G1 X104.486 Y122.700 F7800.000
G1 F1800
G1 X90.514 Y122.700 E3.71631
G1 X90.514 Y99.800 E3.94768
G1 X104.486 Y99.800 E4.08884
G1 X104.486 Y122.625 E4.31944
G1 X104.576 Y123.192 F7800.000
G1 E2.31944 F2400.00000
G92 E0
G1 X88.295 Y123.414 F7800.000
G1 E2.00000 F2400.00000
G1 F1800
G1 X72.895 Y123.414 E2.15559
G1 X72.895 Y99.086 E2.40138
G1 X88.295 Y99.086 E2.55697
G1 X88.295 Y123.339 E2.80201
G1 X87.938 Y123.057 F7800.000
G1 F1800
G1 X73.252 Y123.057 E2.95039
G1 X73.252 Y99.443 E3.18897
G1 X87.938 Y99.443 E3.33734
G1 X87.938 Y122.982 E3.57516
G1 X87.581 Y122.700 F7800.000
G1 F1800
G1 X73.609 Y122.700 E3.71632
G1 X73.609 Y99.800 E3.94769
G1 X87.581 Y99.800 E4.08884
G1 X87.581 Y122.625 E4.31945
G1 X87.672 Y123.192 F7800.000
G1 E2.31945 F2400.00000
G92 E0
G1 X71.390 Y123.414 F7800.000
G1 E2.00000 F2400.00000
G1 F1800
G1 X55.991 Y123.414 E2.15559
G1 X55.991 Y99.086 E2.40138
G1 X71.390 Y99.086 E2.55697
G1 X71.390 Y123.339 E2.80201
G1 X71.033 Y123.057 F7800.000
G1 F1800
G1 X56.348 Y123.057 E2.95038
G1 X56.348 Y99.443 E3.18896
G1 X71.033 Y99.443 E3.33734
G1 X71.033 Y122.982 E3.57516
G1 X70.676 Y122.700 F7800.000
G1 F1800
G1 X56.705 Y122.700 E3.71632
G1 X56.705 Y99.800 E3.94768
G1 X70.676 Y99.800 E4.08884
G1 X70.676 Y122.625 E4.31945
G1 X70.767 Y123.192 F7800.000
G1 E2.31945 F2400.00000
G92 E0
G1 X54.486 Y123.414 F7800.000
G1 E2.00000 F2400.00000
G1 F1800
G1 X39.086 Y123.414 E2.15559
G1 X39.086 Y99.086 E2.40138
G1 X54.486 Y99.086 E2.55697
G1 X54.486 Y123.339 E2.80201
G1 X54.128 Y123.057 F7800.000
G1 F1800
G1 X39.443 Y123.057 E2.95038
G1 X39.443 Y99.443 E3.18896
G1 X54.128 Y99.443 E3.33734
G1 X54.128 Y122.982 E3.57516
G1 X53.771 Y122.700 F7800.000
G1 F1800
G1 X39.800 Y122.700 E3.71632
G1 X39.800 Y99.800 E3.94768
G1 X53.771 Y99.800 E4.08884
G1 X53.771 Y122.625 E4.31945
G1 X53.862 Y123.192 F7800.000
G1 E2.31945 F2400.00000
G92 E0
G1 X54.486 Y98.414 F7800.000
G1 E2.00000 F2400.00000
G1 F1800
G1 X39.086 Y98.414 E2.15559
G1 X39.086 Y74.086 E2.40138
G1 X54.486 Y74.086 E2.55697
G1 X54.486 Y98.339 E2.80201
G1 X54.128 Y98.057 F7800.000
G1 F1800
G1 X39.443 Y98.057 E2.95038
G1 X39.443 Y74.443 E3.18896
G1 X54.128 Y74.443 E3.33734
G1 X54.128 Y97.982 E3.57516
G1 X53.771 Y97.700 F7800.000
G1 F1800
G1 X39.800 Y97.700 E3.71632
G1 X39.800 Y74.800 E3.94768
G1 X53.771 Y74.800 E4.08884
G1 X53.771 Y97.625 E4.31945
G1 X53.862 Y98.192 F7800.000
G1 E2.31945 F2400.00000
G92 E0
G1 X55.991 Y98.414 F7800.000
G1 E2.00000 F2400.00000
G1 F1800
G1 X55.991 Y74.086 E2.24580
G1 X71.390 Y74.086 E2.40138
G1 X71.390 Y98.414 E2.64718
G1 X56.066 Y98.414 E2.80201
G1 X56.348 Y98.057 F7800.000
G1 F1800
G1 X56.348 Y74.443 E3.04059
G1 X71.033 Y74.443 E3.18896
G1 X71.033 Y98.057 E3.42754
G1 X56.423 Y98.057 E3.57516
G1 X56.705 Y97.700 F7800.000
G1 F1800
G1 X56.705 Y74.800 E3.80652
G1 X70.676 Y74.800 E3.94768
G1 X70.676 Y97.700 E4.17905
G1 X56.780 Y97.700 E4.31945
G1 X56.234 Y97.867 F7800.000
G1 E2.31945 F2400.00000
G92 E0
G1 X72.895 Y98.414 F7800.000
G1 E2.00000 F2400.00000
G1 F1800
G1 X72.895 Y74.086 E2.24580
G1 X88.295 Y74.086 E2.40138
G1 X88.295 Y98.414 E2.64718
G1 X72.970 Y98.414 E2.80201
G1 X73.252 Y98.057 F7800.000
G1 F1800
G1 X73.252 Y74.443 E3.04059
G1 X87.938 Y74.443 E3.18897
G1 X87.938 Y98.057 E3.42755
G1 X73.327 Y98.057 E3.57516
G1 X73.609 Y97.700 F7800.000
G1 F1800
G1 X73.609 Y74.800 E3.80653
G1 X87.581 Y74.800 E3.94769
G1 X87.581 Y97.700 E4.17905
G1 X73.684 Y97.700 E4.31945
G1 X73.138 Y97.867 F7800.000
G1 E2.31945 F2400.00000
G92 E0
G1 X89.800 Y98.414 F7800.000
G1 E2.00000 F2400.00000
G1 F1800
G1 X89.800 Y74.086 E2.24580
G1 X105.200 Y74.086 E2.40138
G1 X105.200 Y98.414 E2.64718
G1 X89.875 Y98.414 E2.80201
G1 X90.157 Y98.057 F7800.000
G1 F1800
G1 X90.157 Y74.443 E3.04059
G1 X104.843 Y74.443 E3.18896
G1 X104.843 Y98.057 E3.42754
G1 X90.232 Y98.057 E3.57516
G1 X90.514 Y97.700 F7800.000
G1 F1800
G1 X90.514 Y74.800 E3.80652
G1 X104.486 Y74.800 E3.94768
G1 X104.486 Y97.700 E4.17905
G1 X90.589 Y97.700 E4.31944
G1 X90.043 Y97.867 F7800.000
G1 E2.31944 F2400.00000
G92 E0
G1 X106.705 Y98.414 F7800.000
G1 E2.00000 F2400.00000
G1 F1800
G1 X106.705 Y74.086 E2.24580
G1 X122.105 Y74.086 E2.40138
G1 X122.105 Y98.414 E2.64718
G1 X106.780 Y98.414 E2.80201
G1 X107.062 Y98.057 F7800.000
G1 F1800
G1 X107.062 Y74.443 E3.04059
G1 X121.748 Y74.443 E3.18897
G1 X121.748 Y98.057 E3.42755
G1 X107.137 Y98.057 E3.57516
G1 X107.419 Y97.700 F7800.000
G1 F1800
G1 X107.419 Y74.800 E3.80653
G1 X121.390 Y74.800 E3.94769
G1 X121.390 Y97.700 E4.17905
G1 X107.494 Y97.700 E4.31945
G1 X106.948 Y97.867 F7800.000
G1 E2.31945 F2400.00000
G92 E0
G1 X123.610 Y98.414 F7800.000
G1 E2.00000 F2400.00000
G1 F1800
G1 X123.610 Y74.086 E2.24580
G1 X139.009 Y74.086 E2.40138
G1 X139.009 Y98.414 E2.64718
G1 X123.685 Y98.414 E2.80201
G1 X123.967 Y98.057 F7800.000
G1 F1800
G1 X123.967 Y74.443 E3.04059
G1 X138.652 Y74.443 E3.18896
G1 X138.652 Y98.057 E3.42754
G1 X124.042 Y98.057 E3.57515
G1 X124.324 Y97.700 F7800.000
G1 F1800
G1 X124.324 Y74.800 E3.80652
G1 X138.295 Y74.800 E3.94767
G1 X138.295 Y97.700 E4.17904
G1 X124.399 Y97.700 E4.31943
G1 X123.853 Y97.867 F7800.000
G1 E2.31943 F2400.00000
G92 E0
G1 X140.515 Y98.414 F7800.000
G1 E2.00000 F2400.00000
G1 F1800
G1 X140.515 Y74.086 E2.24580
G1 X155.914 Y74.086 E2.40138
G1 X155.914 Y98.414 E2.64718
G1 X140.590 Y98.414 E2.80200
G1 X140.872 Y98.057 F7800.000
G1 F1800
G1 X140.872 Y74.443 E3.04058
G1 X155.557 Y74.443 E3.18895
G1 X155.557 Y98.057 E3.42753
G1 X140.947 Y98.057 E3.57514
G1 X141.229 Y97.700 F7800.000
G1 F1800
G1 X141.229 Y74.800 E3.80651
G1 X155.200 Y74.800 E3.94766
G1 X155.200 Y97.700 E4.17903
G1 X141.304 Y97.700 E4.31942
G1 X140.758 Y97.867 F7800.000
G1 E2.31942 F2400.00000
G92 E0
G1 X164.086 Y70.914 F7800.000
G1 E2.00000 F2400.00000
G1 F1800
G1 X164.086 Y129.086 E2.58773
G1 X35.914 Y129.086 E3.88268
G1 X35.914 Y70.914 E4.47041
G1 X164.011 Y70.914 E5.76460
G1 X164.443 Y70.557 F7800.000
G1 F1800
G1 X164.443 Y129.443 E6.35954
G1 X35.557 Y129.443 E7.66171
G1 X35.557 Y70.557 E8.25666
G1 X164.368 Y70.557 E9.55807
G1 X164.800 Y70.200 F7800.000
G1 F1800
G1 X164.800 Y129.800 E10.16022
G1 X35.200 Y129.800 E11.46961
G1 X35.200 Y70.200 E12.07177
G1 X164.725 Y70.200 E13.38039
G1 X164.615 Y70.664 F7800.000
G1 E11.38039 F2400.00000
G92 E0
G1 X156.093 Y98.750 F7800.000
G1 E2.00000 F2400.00000
G1 F1800
G1 X140.336 Y98.750 E2.12112
G1 X139.188 Y98.750 F7800.000
G1 F1800
G1 X123.431 Y98.750 E2.24224
G1 X122.283 Y98.750 F7800.000
G1 F1800
G1 X106.526 Y98.750 E2.36337
G1 X105.378 Y98.750 F7800.000
G1 F1800
G1 X89.622 Y98.750 E2.48449
G1 X88.474 Y98.750 F7800.000
G1 F1800
G1 X72.717 Y98.750 E2.60562
G1 X71.569 Y98.750 F7800.000
G1 F1800
G1 X55.812 Y98.750 E2.72674
G1 X54.664 Y98.750 F7800.000
G1 F1800
G1 X38.907 Y98.750 E2.84787
G1 X38.459 Y98.387 F7800.000
G1 F1800
G1 X38.880 Y97.966 E2.85389
G1 X38.880 Y97.461 E2.85899
G1 X36.120 Y100.221 E2.89846
G1 X36.120 Y99.716 E2.90356
G1 X38.880 Y96.956 E2.94303
G1 X38.880 Y96.450 E2.94813
G1 X36.120 Y99.211 E2.98759
G1 X36.120 Y98.706 E2.99270
G1 X38.880 Y95.945 E3.03216
G1 X38.880 Y95.440 E3.03727
G1 X36.120 Y98.201 E3.07673
G1 X36.120 Y97.695 E3.08184
G1 X38.880 Y94.935 E3.12130
G1 X38.880 Y94.429 E3.12641
G1 X36.120 Y97.190 E3.16587
G1 X36.120 Y96.685 E3.17098
G1 X38.880 Y93.924 E3.21044
G1 X38.880 Y93.419 E3.21555
G1 X36.120 Y96.180 E3.25501
G1 X36.120 Y95.674 E3.26012
G1 X38.880 Y92.914 E3.29958
G1 X38.880 Y92.409 E3.30469
G1 X36.120 Y95.169 E3.34415
G1 X36.120 Y94.664 E3.34926
G1 X38.880 Y91.903 E3.38872
G1 X38.880 Y91.398 E3.39383
G1 X36.120 Y94.159 E3.43329
G1 X36.120 Y93.653 E3.43840
G1 X38.880 Y90.893 E3.47786
G1 X38.880 Y90.388 E3.48297
G1 X36.120 Y93.148 E3.52243
G1 X36.120 Y92.643 E3.52753
G1 X38.880 Y89.882 E3.56700
G1 X38.880 Y89.377 E3.57210
G1 X36.120 Y92.138 E3.61157
G1 X36.120 Y91.633 E3.61667
G1 X38.880 Y88.872 E3.65614
G1 X38.880 Y88.367 E3.66124
G1 X36.120 Y91.127 E3.70071
G1 X36.120 Y90.622 E3.70581
G1 X38.880 Y87.861 E3.74528
G1 X38.880 Y87.356 E3.75038
G1 X36.120 Y90.117 E3.78984
G1 X36.120 Y89.612 E3.79495
G1 X38.880 Y86.851 E3.83441
G1 X38.880 Y86.346 E3.83952
G1 X36.120 Y89.106 E3.87898
G1 X36.120 Y88.601 E3.88409
G1 X38.880 Y85.841 E3.92355
G1 X38.880 Y85.335 E3.92866
G1 X36.120 Y88.096 E3.96812
G1 X36.120 Y87.591 E3.97323
G1 X38.880 Y84.830 E4.01269
G1 X38.880 Y84.325 E4.01780
G1 X36.120 Y87.085 E4.05726
G1 X36.120 Y86.580 E4.06237
G1 X38.880 Y83.820 E4.10183
G1 X38.880 Y83.314 E4.10694
G1 X36.120 Y86.075 E4.14640
G1 X36.120 Y85.570 E4.15151
G1 X38.880 Y82.809 E4.19097
G1 X38.880 Y82.304 E4.19608
G1 X36.120 Y85.065 E4.23554
G1 X36.120 Y84.559 E4.24065
G1 X38.880 Y81.799 E4.28011
G1 X38.880 Y81.293 E4.28522
G1 X36.120 Y84.054 E4.32468
G1 X36.120 Y83.549 E4.32978
G1 X38.880 Y80.788 E4.36925
G1 X38.880 Y80.283 E4.37435
G1 X36.120 Y83.044 E4.41382
G1 X36.120 Y82.538 E4.41892
G1 X38.880 Y79.778 E4.45839
G1 X38.880 Y79.273 E4.46349
G1 X36.120 Y82.033 E4.50296
G1 X36.120 Y81.528 E4.50806
G1 X38.880 Y78.767 E4.54752
G1 X38.880 Y78.262 E4.55263
G1 X36.120 Y81.023 E4.59209
G1 X36.120 Y80.517 E4.59720
G1 X38.880 Y77.757 E4.63666
G1 X38.880 Y77.252 E4.64177
G1 X36.120 Y80.012 E4.68123
G1 X36.120 Y79.507 E4.68634
G1 X38.880 Y76.746 E4.72580
G1 X38.880 Y76.241 E4.73091
G1 X36.120 Y79.002 E4.77037
G1 X36.120 Y78.497 E4.77548
G1 X38.880 Y75.736 E4.81494
G1 X38.880 Y75.231 E4.82005
G1 X36.120 Y77.991 E4.85951
G1 X36.120 Y77.486 E4.86462
G1 X38.880 Y74.725 E4.90408
G1 X38.880 Y74.220 E4.90919
G1 X36.120 Y76.981 E4.94865
G1 X36.120 Y76.476 E4.95376
G1 X38.880 Y73.715 E4.99322
G1 E2.99322 F2400.00000
G92 E0
G1 X36.423 Y71.120 F7800.000
G1 E2.00000 F2400.00000
G1 F1800
G1 X36.120 Y71.423 E2.00434
G1 X36.120 Y71.929 E2.00945
G1 X36.929 Y71.120 E2.02101
G1 X37.434 Y71.120 E2.02612
G1 X36.120 Y72.434 E2.04490
G1 X36.120 Y72.939 E2.05001
G1 X37.939 Y71.120 E2.07601
G1 X38.444 Y71.120 E2.08112
G1 X36.120 Y73.444 E2.11435
G1 X36.120 Y73.949 E2.11946
G1 X38.949 Y71.120 E2.15991
G1 X39.455 Y71.120 E2.16501
G1 X36.120 Y74.455 E2.21269
G1 X36.120 Y74.960 E2.21779
G1 X39.960 Y71.120 E2.27269
G1 X40.465 Y71.120 E2.27780
G1 X36.120 Y75.465 E2.33991
G1 X36.120 Y75.970 E2.34502
G1 X40.970 Y71.120 E2.41436
G1 X41.476 Y71.120 E2.41947
G1 X38.715 Y73.880 E2.45893
G1 X39.220 Y73.880 E2.46404
G1 X41.981 Y71.120 E2.50350
G1 X42.486 Y71.120 E2.50861
G1 X39.725 Y73.880 E2.54807
G1 X40.231 Y73.880 E2.55318
G1 X42.991 Y71.120 E2.59264
G1 X43.497 Y71.120 E2.59775
G1 X40.736 Y73.880 E2.63721
G1 X41.241 Y73.880 E2.64232
G1 X44.002 Y71.120 E2.68178
G1 X44.507 Y71.120 E2.68689
G1 X41.746 Y73.880 E2.72635
G1 X42.252 Y73.880 E2.73146
G1 X45.012 Y71.120 E2.77092
G1 X45.517 Y71.120 E2.77602
G1 X42.757 Y73.880 E2.81549
G1 X43.262 Y73.880 E2.82059
G1 X46.023 Y71.120 E2.86006
G1 X46.528 Y71.120 E2.86516
G1 X43.767 Y73.880 E2.90463
G1 X44.273 Y73.880 E2.90973
G1 X47.033 Y71.120 E2.94920
G1 X47.538 Y71.120 E2.95430
G1 X44.778 Y73.880 E2.99376
G1 X45.283 Y73.880 E2.99887
G1 X48.044 Y71.120 E3.03833
G1 X48.549 Y71.120 E3.04344
G1 X45.788 Y73.880 E3.08290
G1 X46.293 Y73.880 E3.08801
G1 X49.054 Y71.120 E3.12747
G1 X49.559 Y71.120 E3.13258
G1 X46.799 Y73.880 E3.17204
G1 X47.304 Y73.880 E3.17715
G1 X50.065 Y71.120 E3.21661
G1 X50.570 Y71.120 E3.22172
G1 X47.809 Y73.880 E3.26118
G1 X48.314 Y73.880 E3.26629
G1 X51.075 Y71.120 E3.30575
G1 X51.580 Y71.120 E3.31086
G1 X48.820 Y73.880 E3.35032
G1 X49.325 Y73.880 E3.35543
G1 X52.085 Y71.120 E3.39489
G1 X52.591 Y71.120 E3.40000
G1 X49.830 Y73.880 E3.43946
G1 X50.335 Y73.880 E3.44457
G1 X53.096 Y71.120 E3.48403
G1 X53.601 Y71.120 E3.48914
G1 X50.841 Y73.880 E3.52860
G1 X51.346 Y73.880 E3.53371
G1 X54.106 Y71.120 E3.57317
G1 X54.612 Y71.120 E3.57827
G1 X51.851 Y73.880 E3.61774
G1 X52.356 Y73.880 E3.62284
G1 X55.117 Y71.120 E3.66231
G1 X55.622 Y71.120 E3.66741
G1 X52.861 Y73.880 E3.70688
G1 X53.367 Y73.880 E3.71198
G1 X56.127 Y71.120 E3.75145
G1 X56.633 Y71.120 E3.75655
G1 X53.872 Y73.880 E3.79601
G1 X54.377 Y73.880 E3.80112
G1 X57.138 Y71.120 E3.84058
G1 X57.643 Y71.120 E3.84569
G1 X54.691 Y74.072 E3.88789
G1 X54.691 Y74.577 E3.89300
G1 X58.148 Y71.120 E3.94241
G1 X58.653 Y71.120 E3.94752
G1 X55.893 Y73.880 E3.98698
G1 X56.398 Y73.880 E3.99209
G1 X59.159 Y71.120 E4.03155
G1 X59.664 Y71.120 E4.03666
G1 X56.903 Y73.880 E4.07612
G1 X57.409 Y73.880 E4.08123
G1 X60.169 Y71.120 E4.12069
G1 X60.674 Y71.120 E4.12580
G1 X57.914 Y73.880 E4.16526
G1 X58.419 Y73.880 E4.17037
G1 X61.180 Y71.120 E4.20983
G1 X61.685 Y71.120 E4.21494
G1 X58.924 Y73.880 E4.25440
G1 X59.429 Y73.880 E4.25951
G1 X62.190 Y71.120 E4.29897
G1 X62.695 Y71.120 E4.30408
G1 X59.935 Y73.880 E4.34354
G1 X60.440 Y73.880 E4.34865
G1 X63.201 Y71.120 E4.38811
G1 X63.706 Y71.120 E4.39322
G1 X60.945 Y73.880 E4.43268
G1 X61.450 Y73.880 E4.43779
G1 X64.211 Y71.120 E4.47725
