; generated by Slic3r 1.3.1-dev (Build (Unknown revision)) on 2020-12-03 at 16:06:16

; external perimeters extrusion width = 0.44mm (2.86mm^3/s)
; perimeters extrusion width = 0.56mm (4.14mm^3/s)
; infill extrusion width = 0.50mm (3.66mm^3/s)
; solid infill extrusion width = 0.56mm (3.10mm^3/s)
; top infill extrusion width = 0.45mm (2.44mm^3/s)

M107
G92 E0
;D3D:START:START
T0
M104 S215 T0

G21
G90
M107
T0
G28
G29
M109 T0 S215 T0
G0 F3000
M107
T0
G92 E0
G0 X0 Y149 Z0.1 F3600
G1 Y49 E6.5 F1200
G0 Z1
G92 E0
; Filament gcode

G21 ; set units to millimeters
G90 ; use absolute coordinates
M82 ; use absolute distances for extrusion
G92 E0
G1 Z0.300 F6000.000
G1 E-2.00000 F1200.00000
G92 E0
G1 Z0.800 F6000.000
G1 X34.770 Y35.699 F6000.000
G1 Z0.300 F6000.000
G1 E2.00000 F1200.00000
G1 F1800.000
G1 X36.528 Y34.187 E2.10372
G1 X38.693 Y33.356 E2.20744
G1 X40.000 Y33.229 E2.26617
G1 X110.000 Y33.229 E5.39726
G1 X112.285 Y33.626 E5.50098
G1 X114.301 Y34.770 E5.60470
G1 X115.813 Y36.528 E5.70842
G1 X116.644 Y38.693 E5.81214
G1 X116.771 Y40.000 E5.87087
G1 X116.771 Y110.000 E9.00195
G1 X116.374 Y112.285 E9.10567
G1 X115.230 Y114.301 E9.20940
G1 X113.472 Y115.813 E9.31312
G1 X111.307 Y116.644 E9.41684
G1 X110.000 Y116.771 E9.47556
G1 X40.000 Y116.771 E12.60665
G1 X37.715 Y116.374 E12.71037
G1 X35.699 Y115.230 E12.81409
G1 X34.187 Y113.472 E12.91781
G1 X33.356 Y111.307 E13.02153
G1 X33.229 Y110.000 E13.08026
G1 X33.229 Y40.000 E16.21135
G1 X33.626 Y37.715 E16.31507
G1 X34.741 Y35.751 E16.41611
G1 X35.153 Y35.843 F6000.000
G1 F1800.000
G1 X36.896 Y34.419 E16.51681
G1 X40.000 Y33.614 E16.66023
G1 X110.000 Y33.614 E19.79132
G1 X112.216 Y34.011 E19.89202
G1 X114.157 Y35.153 E19.99272
G1 X115.581 Y36.896 E20.09342
G1 X116.386 Y40.000 E20.23684
G1 X116.386 Y110.000 E23.36793
G1 X115.989 Y112.216 E23.46863
G1 X114.847 Y114.157 E23.56933
G1 X113.104 Y115.581 E23.67003
G1 X110.000 Y116.386 E23.81345
G1 X40.000 Y116.386 E26.94454
G1 X37.784 Y115.989 E27.04524
G1 X35.843 Y114.847 E27.14594
G1 X34.419 Y113.104 E27.24665
G1 X33.614 Y110.000 E27.39006
G1 X33.614 Y40.000 E30.52115
G1 X34.011 Y37.784 E30.62185
G1 X35.122 Y35.895 E30.71987
G1 E28.71987 F1200.00000
G92 E0
G1 Z0.800 F6000.000
G1 X47.260 Y103.467 F6000.000
G1 Z0.300 F6000.000
G1 E2.00000 F1200.00000
G1 F1800.000
G1 X47.742 Y104.409 E2.04734
G1 X47.909 Y105.456 E2.09477
G1 X47.743 Y106.506 E2.14232
G1 X47.261 Y107.456 E2.18996
G1 X46.511 Y108.213 E2.23764
G1 X45.566 Y108.704 E2.28529
G1 X44.517 Y108.881 E2.33284
G1 X43.468 Y108.725 E2.38028
G1 X42.521 Y108.252 E2.42762
G1 X41.770 Y107.508 E2.47492
G1 X41.288 Y106.566 E2.52225
G1 X41.121 Y105.519 E2.56968
G1 X41.287 Y104.469 E2.61723
G1 X41.769 Y103.519 E2.66488
G1 X42.519 Y102.761 E2.71256
G1 X43.464 Y102.270 E2.76021
G1 X44.513 Y102.094 E2.80776
G1 X45.562 Y102.250 E2.85519
G1 X46.509 Y102.723 E2.90253
G1 X47.217 Y103.424 E2.94715
G1 X47.658 Y103.423 F6000.000
G1 E0.94715 F1200.00000
G92 E0
G1 Z0.800 F6000.000
G1 X42.184 Y109.004 F6000.000
G1 Z0.300 F6000.000
G1 E2.00000 F1200.00000
G1 F1800.000
G1 X40.996 Y109.004 E2.05314
G1 X40.996 Y107.827 E2.10576
G1 X42.142 Y108.962 E2.17787
G1 X40.611 Y109.389 F6000.000
G1 F1800.000
G1 X40.611 Y106.121 E2.32408
G1 X40.824 Y106.104 E2.33364
G1 X40.916 Y106.687 E2.36007
G1 X41.455 Y107.739 E2.41291
G1 X42.294 Y108.570 E2.46573
G1 X43.351 Y109.098 E2.51857
G1 X43.872 Y109.175 E2.54216
G1 X43.857 Y109.389 E2.55177
G1 X40.671 Y109.389 E2.69427
G1 E0.69427 F1200.00000
G92 E0
G1 Z0.800 F6000.000
G1 X102.091 Y105.456 F6000.000
G1 Z0.300 F6000.000
G1 E2.00000 F1200.00000
G1 F1800.000
G1 X102.258 Y104.409 E2.04743
G1 X102.740 Y103.467 E2.09477
G1 X103.491 Y102.723 E2.14207
G1 X104.438 Y102.250 E2.18941
G1 X105.487 Y102.094 E2.23684
G1 X106.536 Y102.270 E2.28440
G1 X107.481 Y102.761 E2.33204
G1 X108.231 Y103.519 E2.37972
G1 X108.713 Y104.469 E2.42737
G1 X108.878 Y105.519 E2.47492
G1 X108.712 Y106.566 E2.52235
G1 X108.230 Y107.508 E2.56968
G1 X107.479 Y108.252 E2.61698
G1 X106.532 Y108.725 E2.66432
G1 X105.483 Y108.881 E2.71176
G1 X104.434 Y108.704 E2.75931
G1 X103.489 Y108.213 E2.80696
G1 X102.739 Y107.456 E2.85464
G1 X102.257 Y106.506 E2.90228
G1 X102.101 Y105.515 E2.94715
G1 X101.745 Y105.256 F6000.000
G1 E0.94715 F1200.00000
G92 E0
G1 Z0.800 F6000.000
G1 X107.816 Y109.004 F6000.000
G1 Z0.300 F6000.000
G1 E2.00000 F1200.00000
G1 F1800.000
G1 X109.004 Y107.827 E2.07479
G1 X109.004 Y109.004 E2.12741
G1 X107.876 Y109.004 E2.17787
G1 X109.389 Y109.389 F6000.000
G1 F1800.000
G1 X106.143 Y109.389 E2.32305
G1 X106.128 Y109.175 E2.33267
G1 X106.649 Y109.098 E2.35625
G1 X107.706 Y108.570 E2.40910
G1 X108.545 Y107.739 E2.46191
G1 X109.084 Y106.687 E2.51475
G1 X109.176 Y106.104 E2.54118
G1 X109.389 Y106.121 E2.55075
G1 X109.389 Y109.329 E2.69428
G1 E0.69428 F1200.00000
G92 E0
G1 Z0.800 F6000.000
G1 X109.004 Y42.173 F6000.000
G1 Z0.300 F6000.000
G1 E2.00000 F1200.00000
G1 F1800.000
G1 X107.816 Y40.996 E2.07479
G1 X109.004 Y40.996 E2.12793
G1 X109.004 Y42.113 E2.17787
G1 X109.389 Y40.611 F6000.000
G1 F1800.000
G1 X109.389 Y43.879 E2.32408
G1 X109.176 Y43.896 E2.33364
G1 X109.084 Y43.313 E2.36007
G1 X108.545 Y42.261 E2.41292
G1 X107.706 Y41.430 E2.46573
G1 X106.649 Y40.902 E2.51858
G1 X106.128 Y40.825 E2.54216
G1 X106.144 Y40.611 E2.55177
G1 X109.329 Y40.611 E2.69427
G1 E0.69427 F1200.00000
G92 E0
G1 Z0.800 F6000.000
G1 X98.882 Y45.556 F6000.000
G1 Z0.300 F6000.000
G1 E2.00000 F1200.00000
G1 F1800.000
G1 X99.437 Y46.644 E2.05465
G1 X99.699 Y47.451 E2.09257
G1 X100.269 Y48.438 E2.14355
G1 X101.031 Y49.284 E2.19453
G1 X102.152 Y50.098 E2.25647
G1 X103.193 Y50.562 E2.30746
G1 X103.309 Y50.587 E2.31276
G1 X104.444 Y51.165 E2.36976
G1 X105.364 Y52.085 E2.42796
G1 X105.955 Y53.245 E2.48616
G1 X106.146 Y54.451 E2.54081
G1 X106.146 Y95.549 E4.37909
G1 X105.955 Y96.755 E4.43374
G1 X105.364 Y97.915 E4.49193
G1 X104.444 Y98.835 E4.55013
G1 X103.309 Y99.413 E4.60713
G1 X103.193 Y99.438 E4.61244
G1 X102.152 Y99.902 E4.66342
G1 X101.031 Y100.716 E4.72537
G1 X100.269 Y101.562 E4.77635
G1 X99.699 Y102.549 E4.82732
G1 X99.437 Y103.356 E4.86525
G1 X98.882 Y104.444 E4.91990
G1 X97.962 Y105.364 E4.97809
G1 X96.803 Y105.955 E5.03630
G1 X95.596 Y106.146 E5.09094
G1 X54.404 Y106.146 E6.93346
G1 X53.197 Y105.955 E6.98811
G1 X52.038 Y105.364 E7.04631
G1 X51.118 Y104.444 E7.10451
G1 X50.563 Y103.356 E7.15916
G1 X50.301 Y102.549 E7.19708
G1 X49.731 Y101.562 E7.24806
G1 X48.969 Y100.716 E7.29903
G1 X47.848 Y99.902 E7.36098
G1 X46.807 Y99.438 E7.41196
G1 X46.691 Y99.413 E7.41727
G1 X45.556 Y98.835 E7.47427
G1 X44.636 Y97.915 E7.53247
G1 X44.045 Y96.755 E7.59067
G1 X43.854 Y95.549 E7.64532
G1 X43.854 Y54.451 E9.48360
G1 X44.045 Y53.245 E9.53825
G1 X44.636 Y52.085 E9.59644
G1 X45.556 Y51.165 E9.65464
G1 X46.691 Y50.587 E9.71164
G1 X46.807 Y50.562 E9.71695
G1 X47.848 Y50.098 E9.76793
G1 X48.969 Y49.284 E9.82988
G1 X49.731 Y48.438 E9.88086
G1 X50.301 Y47.451 E9.93183
G1 X50.563 Y46.644 E9.96976
G1 X51.118 Y45.556 E10.02441
G1 X52.038 Y44.636 E10.08260
G1 X53.197 Y44.045 E10.14080
G1 X54.404 Y43.854 E10.19545
G1 X95.596 Y43.854 E12.03797
G1 X96.803 Y44.045 E12.09262
G1 X97.962 Y44.636 E12.15082
G1 X98.840 Y45.513 E12.20633
G1 X98.566 Y45.785 F6000.000
G1 F1800.000
G1 X99.079 Y46.792 E12.25689
G1 X99.345 Y47.608 E12.29527
G1 X99.955 Y48.665 E12.34987
G1 X100.772 Y49.573 E12.40448
G1 X101.958 Y50.434 E12.47005
G1 X103.073 Y50.931 E12.52466
G1 X103.179 Y50.953 E12.52951
G1 X104.215 Y51.481 E12.58150
G1 X105.049 Y52.315 E12.63424
G1 X105.584 Y53.365 E12.68697
G1 X105.761 Y54.482 E12.73753
G1 X105.761 Y95.518 E14.57310
G1 X105.584 Y96.635 E14.62366
G1 X105.049 Y97.685 E14.67639
G1 X104.215 Y98.519 E14.72913
G1 X103.179 Y99.047 E14.78113
G1 X103.073 Y99.069 E14.78598
G1 X101.958 Y99.566 E14.84058
G1 X100.772 Y100.427 E14.90615
G1 X99.955 Y101.335 E14.96076
G1 X99.345 Y102.392 E15.01536
G1 X99.079 Y103.208 E15.05374
G1 X98.566 Y104.215 E15.10430
G1 X97.733 Y105.049 E15.15703
G1 X96.682 Y105.584 E15.20977
G1 X95.566 Y105.761 E15.26033
G1 X54.434 Y105.761 E17.10013
G1 X53.318 Y105.584 E17.15069
G1 X52.267 Y105.049 E17.20343
G1 X51.434 Y104.215 E17.25616
G1 X50.921 Y103.208 E17.30672
G1 X50.655 Y102.392 E17.34510
G1 X50.045 Y101.335 E17.39970
G1 X49.228 Y100.427 E17.45430
G1 X48.042 Y99.566 E17.51988
G1 X46.927 Y99.069 E17.57448
G1 X46.821 Y99.047 E17.57933
G1 X45.785 Y98.519 E17.63133
G1 X44.951 Y97.685 E17.68407
G1 X44.416 Y96.635 E17.73680
G1 X44.239 Y95.518 E17.78736
G1 X44.239 Y54.482 E19.62293
G1 X44.416 Y53.365 E19.67348
G1 X44.951 Y52.315 E19.72622
G1 X45.785 Y51.481 E19.77895
G1 X46.821 Y50.953 E19.83095
G1 X46.927 Y50.931 E19.83580
G1 X48.042 Y50.434 E19.89041
G1 X49.228 Y49.573 E19.95598
G1 X50.045 Y48.665 E20.01058
G1 X50.655 Y47.608 E20.06518
G1 X50.921 Y46.792 E20.10357
G1 X51.434 Y45.785 E20.15412
G1 X52.267 Y44.951 E20.20686
G1 X53.318 Y44.416 E20.25960
G1 X54.434 Y44.239 E20.31015
G1 X95.566 Y44.239 E22.14996
G1 X96.682 Y44.416 E22.20052
G1 X97.733 Y44.951 E22.25325
G1 X98.524 Y45.743 E22.30330
G1 X98.250 Y46.015 F6000.000
G1 F1800.000
G1 X98.722 Y46.940 E22.34977
G1 X98.990 Y47.766 E22.38861
G1 X99.641 Y48.893 E22.44684
G1 X100.512 Y49.861 E22.50507
G1 X101.764 Y50.770 E22.57427
G1 X102.953 Y51.300 E22.63249
G1 X103.049 Y51.320 E22.63688
G1 X103.985 Y51.797 E22.68388
G1 X104.733 Y52.544 E22.73116
G1 X105.212 Y53.486 E22.77843
G1 X105.375 Y54.512 E22.82489
G1 X105.375 Y95.488 E24.65775
G1 X105.212 Y96.514 E24.70421
G1 X104.733 Y97.456 E24.75148
G1 X103.985 Y98.203 E24.79876
G1 X103.049 Y98.680 E24.84576
G1 X102.953 Y98.700 E24.85015
G1 X101.764 Y99.230 E24.90838
G1 X100.512 Y100.139 E24.97758
G1 X99.641 Y101.107 E25.03580
G1 X98.990 Y102.234 E25.09403
G1 X98.722 Y103.060 E25.13287
G1 X98.250 Y103.985 E25.17934
G1 X97.503 Y104.733 E25.22661
G1 X96.561 Y105.212 E25.27388
G1 X95.535 Y105.375 E25.32035
G1 X54.465 Y105.375 E27.15744
G1 X53.439 Y105.212 E27.20391
G1 X52.497 Y104.733 E27.25118
G1 X51.750 Y103.985 E27.29845
G1 X51.278 Y103.060 E27.34492
G1 X51.010 Y102.234 E27.38376
G1 X50.359 Y101.107 E27.44198
G1 X49.488 Y100.139 E27.50021
G1 X48.236 Y99.230 E27.56941
G1 X47.047 Y98.700 E27.62764
G1 X46.951 Y98.680 E27.63203
G1 X46.015 Y98.203 E27.67903
G1 X45.267 Y97.456 E27.72630
G1 X44.788 Y96.514 E27.77357
G1 X44.625 Y95.488 E27.82004
G1 X44.625 Y54.512 E29.65289
G1 X44.788 Y53.486 E29.69936
G1 X45.267 Y52.544 E29.74663
G1 X46.015 Y51.797 E29.79390
G1 X46.951 Y51.320 E29.84090
G1 X47.047 Y51.300 E29.84529
G1 X48.236 Y50.770 E29.90352
G1 X49.488 Y49.861 E29.97272
G1 X50.359 Y48.893 E30.03095
G1 X51.010 Y47.766 E30.08918
G1 X51.278 Y46.940 E30.12801
G1 X51.750 Y46.015 E30.17448
G1 X52.497 Y45.267 E30.22175
G1 X53.439 Y44.788 E30.26903
G1 X54.465 Y44.625 E30.31549
G1 X95.535 Y44.625 E32.15258
G1 X96.561 Y44.788 E32.19905
G1 X97.503 Y45.267 E32.24633
G1 X98.208 Y45.972 E32.29091
G1 X98.648 Y45.973 F6000.000
G1 E30.29091 F1200.00000
G92 E0
G1 Z0.800 F6000.000
G1 X103.186 Y40.996 F6000.000
G1 Z0.300 F6000.000
G1 E2.00000 F1200.00000
G1 F1800.000
G1 X102.106 Y42.087 E2.06868
G1 X101.515 Y43.254 E2.12717
G1 X101.311 Y44.544 E2.18562
G1 X101.515 Y45.834 E2.24401
G1 X102.110 Y46.995 E2.30236
G1 X103.036 Y47.912 E2.36069
G1 X104.203 Y48.495 E2.41904
G1 X105.495 Y48.687 E2.47744
G1 X106.783 Y48.470 E2.53588
G1 X107.944 Y47.867 E2.59437
G1 X109.004 Y46.797 E2.66176
G1 X109.004 Y103.203 E5.18483
G1 X107.944 Y102.133 E5.25222
G1 X106.783 Y101.530 E5.31071
G1 X105.495 Y101.313 E5.36916
G1 X104.203 Y101.505 E5.42755
G1 X103.036 Y102.088 E5.48590
G1 X102.110 Y103.005 E5.54423
G1 X101.515 Y104.166 E5.60258
G1 X101.311 Y105.456 E5.66097
G1 X101.515 Y106.746 E5.71942
G1 X102.106 Y107.913 E5.77791
G1 X103.186 Y109.004 E5.84659
G1 X46.814 Y109.004 E8.36813
G1 X47.894 Y107.913 E8.43682
G1 X48.485 Y106.746 E8.49531
G1 X48.689 Y105.456 E8.55375
G1 X48.485 Y104.166 E8.61214
G1 X47.890 Y103.005 E8.67049
G1 X46.964 Y102.088 E8.72882
G1 X45.797 Y101.505 E8.78717
G1 X44.505 Y101.313 E8.84557
G1 X43.217 Y101.530 E8.90402
G1 X42.056 Y102.133 E8.96251
G1 X40.996 Y103.203 E9.02989
G1 X40.996 Y46.797 E11.55296
G1 X42.060 Y47.871 E11.62060
G1 X43.217 Y48.470 E11.67888
G1 X44.505 Y48.687 E11.73730
G1 X45.797 Y48.495 E11.79569
G1 X46.964 Y47.912 E11.85404
G1 X47.890 Y46.995 E11.91237
G1 X48.485 Y45.834 E11.97072
G1 X48.689 Y44.544 E12.02911
G1 X48.485 Y43.254 E12.08756
G1 X47.894 Y42.087 E12.14605
G1 X46.814 Y40.996 E12.21473
G1 X103.126 Y40.996 E14.73359
G1 X104.920 Y40.823 F6000.000
G1 F1800.000
G1 X104.311 Y40.925 E14.76125
G1 X103.258 Y41.472 E14.81432
G1 X102.423 Y42.316 E14.86741
G1 X101.886 Y43.374 E14.92048
G1 X101.701 Y44.544 E14.97348
G1 X101.886 Y45.713 E15.02639
G1 X102.425 Y46.764 E15.07923
G1 X103.264 Y47.595 E15.13204
G1 X104.321 Y48.123 E15.18489
G1 X105.491 Y48.296 E15.23780
G1 X106.659 Y48.100 E15.29081
G1 X107.712 Y47.553 E15.34387
G1 X108.547 Y46.709 E15.39696
G1 X109.084 Y45.651 E15.45003
G1 X109.176 Y45.068 E15.47645
G1 X109.389 Y45.085 E15.48602
G1 X109.389 Y104.915 E18.16224
G1 X109.176 Y104.932 E18.17181
G1 X109.084 Y104.349 E18.19822
G1 X108.547 Y103.291 E18.25129
G1 X107.712 Y102.447 E18.30438
G1 X106.659 Y101.900 E18.35745
G1 X105.491 Y101.704 E18.41045
G1 X104.321 Y101.877 E18.46337
G1 X103.264 Y102.405 E18.51621
G1 X102.425 Y103.236 E18.56903
G1 X101.886 Y104.287 E18.62187
G1 X101.701 Y105.456 E18.67478
G1 X101.886 Y106.626 E18.72778
G1 X102.423 Y107.684 E18.78085
G1 X103.258 Y108.528 E18.83394
G1 X104.311 Y109.075 E18.88701
G1 X104.920 Y109.177 E18.91467
G1 X104.903 Y109.389 E18.92419
G1 X45.097 Y109.389 E21.59927
G1 X45.080 Y109.177 E21.60879
G1 X45.689 Y109.075 E21.63645
G1 X46.742 Y108.528 E21.68952
G1 X47.577 Y107.684 E21.74261
G1 X48.114 Y106.626 E21.79568
G1 X48.299 Y105.456 E21.84868
G1 X48.114 Y104.287 E21.90159
G1 X47.575 Y103.236 E21.95443
G1 X46.736 Y102.405 E22.00725
G1 X45.679 Y101.877 E22.06009
G1 X44.509 Y101.704 E22.11301
G1 X43.341 Y101.900 E22.16601
G1 X42.288 Y102.447 E22.21907
G1 X41.453 Y103.291 E22.27217
G1 X40.916 Y104.349 E22.32524
G1 X40.824 Y104.932 E22.35165
G1 X40.611 Y104.915 E22.36122
G1 X40.611 Y45.085 E25.03744
G1 X40.824 Y45.068 E25.04701
G1 X40.916 Y45.651 E25.07342
G1 X41.453 Y46.709 E25.12649
G1 X42.291 Y47.557 E25.17982
G1 X43.341 Y48.100 E25.23268
G1 X44.509 Y48.296 E25.28566
G1 X45.679 Y48.123 E25.33858
G1 X46.736 Y47.595 E25.39142
G1 X47.575 Y46.764 E25.44424
G1 X48.114 Y45.713 E25.49708
G1 X48.299 Y44.544 E25.54999
G1 X48.114 Y43.374 E25.60299
G1 X47.577 Y42.316 E25.65606
G1 X46.742 Y41.472 E25.70915
G1 X45.689 Y40.925 E25.76221
G1 X45.080 Y40.823 E25.78988
G1 X45.097 Y40.611 E25.79940
G1 X104.903 Y40.611 E28.47448
G1 X104.915 Y40.763 E28.48131
G1 X105.483 Y41.119 F6000.000
G1 F1800.000
G1 X106.532 Y41.275 E28.52875
G1 X107.479 Y41.748 E28.57609
G1 X108.230 Y42.492 E28.62339
G1 X108.712 Y43.434 E28.67073
G1 X108.878 Y44.481 E28.71816
G1 X108.713 Y45.531 E28.76571
G1 X108.231 Y46.481 E28.81335
G1 X107.481 Y47.239 E28.86103
G1 X106.536 Y47.730 E28.90868
G1 X105.487 Y47.906 E28.95623
G1 X104.438 Y47.750 E29.00367
G1 X103.491 Y47.277 E29.05101
G1 X102.740 Y46.533 E29.09831
G1 X102.258 Y45.591 E29.14564
G1 X102.091 Y44.544 E29.19307
G1 X102.257 Y43.494 E29.24062
G1 X102.739 Y42.544 E29.28827
G1 X103.489 Y41.787 E29.33595
G1 X104.434 Y41.296 E29.38359
G1 X105.424 Y41.129 E29.42846
G1 X105.679 Y40.771 F6000.000
G1 E27.42846 F1200.00000
G92 E0
G1 Z0.800 F6000.000
G1 X42.184 Y40.996 F6000.000
G1 Z0.300 F6000.000
G1 E2.00000 F1200.00000
G1 F1800.000
G1 X40.996 Y42.173 E2.07479
G1 X40.996 Y40.996 E2.12741
G1 X42.124 Y40.996 E2.17787
G1 X40.611 Y40.611 F6000.000
G1 F1800.000
G1 X43.856 Y40.611 E2.32305
G1 X43.872 Y40.825 E2.33267
G1 X43.351 Y40.902 E2.35625
G1 X42.294 Y41.430 E2.40909
G1 X41.455 Y42.261 E2.46191
G1 X40.916 Y43.313 E2.51475
G1 X40.824 Y43.896 E2.54118
G1 X40.611 Y43.879 E2.55074
G1 X40.611 Y40.671 E2.69427
G1 E0.69427 F1200.00000
G92 E0
G1 Z0.800 F6000.000
G1 X41.770 Y42.492 F6000.000
G1 Z0.300 F6000.000
G1 E2.00000 F1200.00000
G1 F1800.000
G1 X42.521 Y41.748 E2.04730
G1 X43.468 Y41.275 E2.09464
G1 X44.517 Y41.119 E2.14207
G1 X45.566 Y41.296 E2.18963
G1 X46.511 Y41.787 E2.23727
