; generated by Slic3r 1.3.1-dev (Build (Unknown revision)) on 2020-10-02 at 12:14:30

; external perimeters extrusion width = 0.44mm (2.86mm^3/s)
; perimeters extrusion width = 0.56mm (4.14mm^3/s)
; infill extrusion width = 0.50mm (3.66mm^3/s)
; solid infill extrusion width = 0.56mm (3.10mm^3/s)
; top infill extrusion width = 0.45mm (2.44mm^3/s)

M107
G92 E0
;D3D:START:START
T0
M104 S215 T0

G21
G90
M107
T0
G28
G29
M109 T0 S215 T0
G0 F3000
M107
T0
G92 E0
G0 X0 Y149 Z0.1 F3600
G1 Y49 E6.5 F1200
G0 Z1
G92 E0
; Filament gcode

G21 ; set units to millimeters
G90 ; use absolute coordinates
M82 ; use absolute distances for extrusion
G92 E0
G1 Z0.300 F6000.000
G1 E-2.00000 F1200.00000
G92 E0
G1 Z0.800 F6000.000
G1 X48.770 Y55.699 F6000.000
G1 Z0.300 F6000.000
G1 E2.00000 F1200.00000
G1 F1800.000
G1 X50.528 Y54.187 E2.10372
G1 X52.693 Y53.356 E2.20744
G1 X54.000 Y53.229 E2.26617
G1 X79.072 Y53.229 E3.38765
G1 X98.357 Y54.238 E4.25144
G1 X100.618 Y54.755 E4.35516
G1 X102.571 Y56.005 E4.45888
G1 X103.989 Y57.840 E4.56260
G1 X104.771 Y61.000 E4.70823
G1 X104.771 Y89.000 E5.96066
G1 X104.374 Y91.285 E6.06439
G1 X103.230 Y93.301 E6.16811
G1 X101.472 Y94.813 E6.27183
G1 X98.357 Y95.762 E6.41745
G1 X79.430 Y96.762 E7.26526
G1 X54.000 Y96.771 E8.40273
G1 X51.715 Y96.374 E8.50645
G1 X49.699 Y95.230 E8.61017
G1 X48.187 Y93.472 E8.71389
G1 X47.356 Y91.307 E8.81761
G1 X47.229 Y90.000 E8.87634
G1 X47.229 Y60.000 E10.21823
G1 X47.626 Y57.715 E10.32195
G1 X48.741 Y55.751 E10.42299
G1 X49.153 Y55.843 F6000.000
G1 F1800.000
G1 X50.896 Y54.419 E10.52369
G1 X54.000 Y53.614 E10.66711
G1 X79.072 Y53.614 E11.78860
G1 X98.337 Y54.623 E12.65147
G1 X100.529 Y55.137 E12.75217
G1 X102.407 Y56.379 E12.85288
G1 X103.737 Y58.195 E12.95358
G1 X104.386 Y61.000 E13.08236
G1 X104.386 Y89.000 E14.33479
G1 X103.989 Y91.216 E14.43549
G1 X102.847 Y93.157 E14.53619
G1 X101.104 Y94.581 E14.63690
G1 X98.337 Y95.377 E14.76567
G1 X79.409 Y96.377 E15.61348
G1 X54.000 Y96.386 E16.75004
G1 X51.784 Y95.989 E16.85074
G1 X49.843 Y94.847 E16.95144
G1 X48.419 Y93.104 E17.05214
G1 X47.614 Y90.000 E17.19556
G1 X47.614 Y60.000 E18.53745
G1 X48.011 Y57.784 E18.63816
G1 X49.122 Y55.895 E18.73617
G1 E16.73617 F1200.00000
G92 E0
G1 Z0.800 F6000.000
G1 X78.462 Y89.389 F6000.000
G1 Z0.300 F6000.000
G1 E2.00000 F1200.00000
G1 F1800.000
G1 X54.611 Y89.389 E3.06686
G1 X54.611 Y88.611 E3.10169
G1 X78.462 Y88.611 E4.16856
G1 X78.462 Y89.329 E4.20071
G1 X78.847 Y89.775 F6000.000
G1 F1800.000
G1 X54.225 Y89.775 E5.30206
G1 X54.225 Y88.225 E5.37140
G1 X78.847 Y88.225 E6.47275
G1 X78.847 Y89.715 E6.53940
G1 X78.448 Y89.767 F6000.000
G1 X79.000 Y88.225 F6000.000
G1 F1800.000
G1 X79.000 Y61.775 E6.78653
G1 X78.462 Y61.389 F6000.000
G1 F1800.000
G1 X54.611 Y61.389 E7.85339
G1 X54.611 Y60.611 E7.88822
G1 X78.462 Y60.611 E8.95508
G1 X78.462 Y61.329 E8.98723
G1 X78.847 Y61.775 F6000.000
G1 F1800.000
G1 X54.225 Y61.775 E10.08859
G1 X54.225 Y60.225 E10.15792
G1 X78.847 Y60.225 E11.25928
G1 X78.847 Y61.715 E11.32593
G1 X78.448 Y61.767 F6000.000
G1 X78.269 Y61.000 F6000.000
G1 F1800.000
G1 X54.803 Y61.000 E12.22078
G1 E10.22078 F1200.00000
G92 E0
G1 Z0.800 F6000.000
G1 X54.803 Y89.000 F6000.000
G1 Z0.300 F6000.000
G1 E2.00000 F1200.00000
G1 F1800.000
G1 X78.269 Y89.000 E2.89486
G1 E0.89486 F1200.00000
G92 E0
G1 Z0.800 F6000.000
G1 X83.225 Y61.775 F6000.000
G1 Z0.300 F6000.000
G1 E2.00000 F1200.00000
G1 F1800.000
G1 X83.225 Y61.225 E2.02460
G1 X97.775 Y61.225 E2.67542
G1 X97.775 Y61.775 E2.70002
G1 X83.285 Y61.775 E3.34816
G1 X83.421 Y61.426 F6000.000
G1 X83.418 Y61.500 F6000.000
G1 F1800.000
G1 X97.582 Y61.500 E3.51246
G1 E1.51246 F1200.00000
G92 E0
G1 Z0.800 F6000.000
G1 X83.225 Y88.225 F6000.000
G1 Z0.300 F6000.000
G1 E2.00000 F1200.00000
G1 F1800.000
G1 X97.775 Y88.225 E2.65082
G1 X97.775 Y88.775 E2.67542
G1 X83.225 Y88.775 E3.32624
G1 X83.225 Y88.285 E3.34816
G1 X83.625 Y88.230 F6000.000
G1 X83.418 Y88.500 F6000.000
G1 F1800.000
G1 X97.582 Y88.500 E3.51246
G1 Z0.500 F6000.000
G1 E1.51246 F1200.00000
G92 E0
G1 Z1.000 F6000.000
G1 X78.515 Y88.677 F6000.000
G1 Z0.500 F6000.000
G1 E2.00000 F1200.00000
G1 F2400.000
G1 X78.515 Y89.323 E2.02582
G1 X54.677 Y89.323 E2.97900
G1 X54.677 Y88.677 E3.00483
G1 X78.455 Y88.677 E3.95561
G1 X78.972 Y88.220 F6000.000
G1 F2160.000
G1 X78.972 Y89.780 E4.00351
G1 X54.220 Y89.780 E4.76355
G1 X54.220 Y88.220 E4.81146
G1 X78.912 Y88.220 E5.56966
G1 X78.779 Y88.571 F6000.000
G1 X79.000 Y88.220 F6000.000
G1 F2160.000
G1 X79.000 Y61.780 E6.26779
G1 X78.515 Y61.323 F6000.000
G1 F2400.000
G1 X54.677 Y61.323 E7.22097
G1 X54.677 Y60.677 E7.24679
G1 X78.515 Y60.677 E8.19997
G1 X78.515 Y61.263 E8.22340
G1 X78.972 Y61.780 F6000.000
G1 F2160.000
G1 X54.220 Y61.780 E8.98344
G1 X54.220 Y60.220 E9.03134
G1 X78.972 Y60.220 E9.79138
G1 X78.972 Y61.720 E9.83744
G1 X78.572 Y61.772 F6000.000
G1 E7.83744 F1200.00000
G92 E0
G1 Z1.000 F6000.000
G1 X54.096 Y61.780 F6000.000
G1 Z0.500 F6000.000
G1 E2.00000 F1200.00000
G1 F2160.000
G1 X54.096 Y88.220 E2.30519
G1 X54.936 Y89.000 F6000.000
G1 F1200.000
G1 X78.257 Y89.000 E2.46000
G1 E0.46000 F1200.00000
G92 E0
G1 Z1.000 F6000.000
G1 X78.257 Y61.000 F6000.000
G1 Z0.500 F6000.000
G1 E2.00000 F1200.00000
G1 F1200.000
G1 X54.936 Y61.000 E2.15481
G1 E0.15481 F1200.00000
G92 E0
G1 Z1.000 F6000.000
G1 X83.220 Y61.780 F6000.000
G1 Z0.500 F6000.000
G1 E2.00000 F1200.00000
G1 F1800.000
G1 X83.220 Y61.220 E2.01720
G1 X97.780 Y61.220 E2.46428
G1 X97.780 Y61.780 E2.48147
G1 X83.280 Y61.780 E2.92671
G1 X83.416 Y61.431 F6000.000
G1 X83.449 Y61.500 F6000.000
G1 F1200.000
G1 X97.551 Y61.500 E2.99215
G1 E0.99215 F1200.00000
G92 E0
G1 Z1.000 F6000.000
G1 X83.220 Y88.220 F6000.000
G1 Z0.500 F6000.000
G1 E2.00000 F1200.00000
G1 F1800.000
G1 X97.780 Y88.220 E2.44708
G1 X97.780 Y88.780 E2.46428
G1 X83.220 Y88.780 E2.91136
G1 X83.220 Y88.280 E2.92671
G1 X83.620 Y88.225 F6000.000
G1 X83.449 Y88.500 F6000.000
G1 F1200.000
G1 X97.551 Y88.500 E2.99215
G1 Z0.700 F6000.000
G1 E0.99215 F1200.00000
G92 E0
G1 Z1.200 F6000.000
G1 X78.611 Y88.677 F6000.000
G1 Z0.700 F6000.000
G1 E2.00000 F1200.00000
G1 F2400.000
G1 X78.611 Y89.323 E2.02582
G1 X54.677 Y89.323 E2.98283
G1 X54.677 Y88.677 E3.00865
G1 X78.551 Y88.677 E3.96326
G1 X79.068 Y88.220 F6000.000
G1 F2160.000
G1 X79.068 Y89.780 E4.01116
G1 X54.220 Y89.780 E4.77414
G1 X54.220 Y88.220 E4.82204
G1 X79.008 Y88.220 E5.58318
G1 X78.875 Y88.571 F6000.000
G1 X79.000 Y88.220 F6000.000
G1 F2160.000
G1 X79.000 Y61.780 E6.67255
G1 X78.611 Y61.323 F6000.000
G1 F2400.000
G1 X54.677 Y61.323 E7.62956
G1 X54.677 Y60.677 E7.65538
G1 X78.611 Y60.677 E8.61239
G1 X78.611 Y61.263 E8.63581
G1 X79.068 Y61.780 F6000.000
G1 F2160.000
G1 X54.220 Y61.780 E9.39879
G1 X54.220 Y60.220 E9.44670
G1 X79.068 Y60.220 E10.20968
G1 X79.068 Y61.720 E10.25574
G1 X78.668 Y61.772 F6000.000
G1 E8.25574 F1200.00000
G92 E0
G1 Z1.200 F6000.000
G1 X54.144 Y61.780 F6000.000
G1 Z0.700 F6000.000
G1 E2.00000 F1200.00000
G1 F2160.000
G1 X54.144 Y88.220 E2.50081
G1 X54.936 Y89.000 F6000.000
G1 F1200.000
G1 X78.352 Y89.000 E2.65626
G1 E0.65626 F1200.00000
G92 E0
G1 Z1.200 F6000.000
G1 X78.352 Y61.000 F6000.000
G1 Z0.700 F6000.000
G1 E2.00000 F1200.00000
G1 F1200.000
G1 X54.936 Y61.000 E2.15545
G1 E0.15545 F1200.00000
G92 E0
G1 Z1.200 F6000.000
G1 X83.220 Y61.780 F6000.000
G1 Z0.700 F6000.000
G1 E2.00000 F1200.00000
G1 F1800.000
G1 X83.220 Y61.220 E2.01720
G1 X97.780 Y61.220 E2.46428
G1 X97.780 Y61.780 E2.48147
G1 X83.280 Y61.780 E2.92671
G1 X83.416 Y61.431 F6000.000
G1 X83.449 Y61.500 F6000.000
G1 F1200.000
G1 X97.551 Y61.500 E2.99215
G1 E0.99215 F1200.00000
G92 E0
G1 Z1.200 F6000.000
G1 X83.220 Y88.220 F6000.000
G1 Z0.700 F6000.000
G1 E2.00000 F1200.00000
G1 F1800.000
G1 X97.780 Y88.220 E2.44708
G1 X97.780 Y88.780 E2.46428
G1 X83.220 Y88.780 E2.91136
G1 X83.220 Y88.280 E2.92671
G1 X83.620 Y88.225 F6000.000
G1 X83.449 Y88.500 F6000.000
G1 F1200.000
G1 X97.551 Y88.500 E2.99215
G1 Z0.900 F6000.000
G1 E0.99215 F1200.00000
G92 E0
G1 Z1.400 F6000.000
G1 X78.706 Y88.677 F6000.000
G1 Z0.900 F6000.000
G1 E2.00000 F1200.00000
G1 F2400.000
G1 X78.706 Y89.323 E2.02582
G1 X54.677 Y89.323 E2.98662
G1 X54.677 Y88.677 E3.01245
G1 X78.646 Y88.677 E3.97084
G1 E1.97084 F1200.00000
G92 E0
G1 Z1.400 F6000.000
G1 X78.706 Y61.323 F6000.000
G1 Z0.900 F6000.000
G1 E2.00000 F1200.00000
G1 F2400.000
G1 X54.677 Y61.323 E2.96080
G1 X54.677 Y60.677 E2.98662
G1 X78.706 Y60.677 E3.94742
G1 X78.706 Y61.263 E3.97084
G1 X78.837 Y61.780 F6000.000
G1 F2160.000
G1 X54.220 Y61.780 E4.72674
G1 X54.220 Y60.220 E4.77465
G1 X79.163 Y60.220 E5.54054
G1 X79.163 Y89.780 E6.44821
G1 X54.220 Y89.780 E7.21410
G1 X54.220 Y88.220 E7.26200
G1 X78.837 Y88.220 E8.01791
G1 X78.837 Y61.840 E8.82793
G1 X78.936 Y61.392 F6000.000
G1 E6.82793 F1200.00000
G92 E0
G1 Z1.400 F6000.000
G1 X54.191 Y88.220 F6000.000
G1 Z0.900 F6000.000
G1 E2.00000 F1200.00000
G1 F2160.000
G1 X54.191 Y61.780 E2.69464
G1 X54.936 Y61.000 F6000.000
G1 F1200.000
G1 X78.447 Y61.000 E2.85072
G1 E0.85072 F1200.00000
G92 E0
G1 Z1.400 F6000.000
G1 X78.447 Y89.000 F6000.000
G1 Z0.900 F6000.000
G1 E2.00000 F1200.00000
G1 F1200.000
G1 X54.936 Y89.000 E2.15608
G1 E0.15608 F1200.00000
G92 E0
G1 Z1.400 F6000.000
G1 X83.220 Y61.780 F6000.000
G1 Z0.900 F6000.000
G1 E2.00000 F1200.00000
G1 F1800.000
G1 X83.220 Y61.220 E2.01720
G1 X97.780 Y61.220 E2.46428
G1 X97.780 Y61.780 E2.48147
G1 X83.280 Y61.780 E2.92671
G1 X83.416 Y61.431 F6000.000
G1 X83.449 Y61.500 F6000.000
G1 F1200.000
G1 X97.551 Y61.500 E2.99215
G1 E0.99215 F1200.00000
G92 E0
G1 Z1.400 F6000.000
G1 X83.220 Y88.220 F6000.000
G1 Z0.900 F6000.000
G1 E2.00000 F1200.00000
G1 F1800.000
G1 X97.780 Y88.220 E2.44708
G1 X97.780 Y88.780 E2.46428
G1 X83.220 Y88.780 E2.91136
G1 X83.220 Y88.280 E2.92671
G1 X83.620 Y88.225 F6000.000
G1 X83.449 Y88.500 F6000.000
G1 F1200.000
G1 X97.551 Y88.500 E2.99215
M106 S255
G1 Z1.100 F6000.000
G1 E0.99215 F1200.00000
G92 E0
G1 Z1.600 F6000.000
G1 X78.799 Y88.677 F6000.000
G1 Z1.100 F6000.000
G1 E2.00000 F1200.00000
G1 F2400.000
G1 X78.799 Y89.323 E2.02582
G1 X54.677 Y89.323 E2.99037
G1 X54.677 Y88.677 E3.01620
G1 X78.739 Y88.677 E3.97834
G1 E1.97834 F1200.00000
G92 E0
G1 Z1.600 F6000.000
G1 X78.799 Y61.323 F6000.000
G1 Z1.100 F6000.000
G1 E2.00000 F1200.00000
G1 F2400.000
G1 X54.677 Y61.323 E2.96455
G1 X54.677 Y60.677 E2.99037
G1 X78.799 Y60.677 E3.95492
G1 X78.799 Y61.263 E3.97834
G1 X78.744 Y61.780 F6000.000
G1 F2160.000
G1 X54.220 Y61.780 E4.73137
G1 X54.220 Y60.220 E4.77927
G1 X79.256 Y60.220 E5.54804
G1 X79.256 Y89.780 E6.45571
G1 X54.220 Y89.780 E7.22448
G1 X54.220 Y88.220 E7.27239
G1 X78.744 Y88.220 E8.02541
G1 X78.744 Y61.840 E8.83543
G1 X78.842 Y61.392 F6000.000
G1 E6.83543 F1200.00000
G92 E0
G1 Z1.600 F6000.000
G1 X54.238 Y88.220 F6000.000
G1 Z1.100 F6000.000
G1 E2.00000 F1200.00000
G1 F2160.000
G1 X54.238 Y61.780 E2.88643
G1 X54.936 Y61.000 F6000.000
G1 F1200.000
G1 X78.541 Y61.000 E3.04313
G1 E1.04313 F1200.00000
G92 E0
G1 Z1.600 F6000.000
G1 X78.541 Y89.000 F6000.000
G1 Z1.100 F6000.000
G1 E2.00000 F1200.00000
G1 F1200.000
G1 X54.936 Y89.000 E2.15670
G1 E0.15670 F1200.00000
G92 E0
G1 Z1.600 F6000.000
G1 X83.220 Y61.780 F6000.000
G1 Z1.100 F6000.000
G1 E2.00000 F1200.00000
G1 F1800.000
G1 X83.220 Y61.220 E2.01720
G1 X97.780 Y61.220 E2.46428
G1 X97.780 Y61.780 E2.48147
G1 X83.280 Y61.780 E2.92671
G1 X83.416 Y61.431 F6000.000
G1 X83.449 Y61.500 F6000.000
G1 F1200.000
G1 X97.551 Y61.500 E2.99215
G1 E0.99215 F1200.00000
G92 E0
G1 Z1.600 F6000.000
G1 X83.220 Y88.220 F6000.000
G1 Z1.100 F6000.000
G1 E2.00000 F1200.00000
G1 F1800.000
G1 X97.780 Y88.220 E2.44708
G1 X97.780 Y88.780 E2.46428
G1 X83.220 Y88.780 E2.91136
G1 X83.220 Y88.280 E2.92671
G1 X83.620 Y88.225 F6000.000
G1 X83.449 Y88.500 F6000.000
G1 F1200.000
G1 X97.551 Y88.500 E2.99215
G1 Z1.300 F6000.000
G1 E0.99215 F1200.00000
G92 E0
G1 Z1.800 F6000.000
G1 X78.893 Y88.677 F6000.000
G1 Z1.300 F6000.000
G1 E2.00000 F1200.00000
G1 F2400.000
G1 X78.893 Y89.323 E2.02582
G1 X54.677 Y89.323 E2.99412
G1 X54.677 Y88.677 E3.01995
G1 X78.833 Y88.677 E3.98585
G1 E1.98585 F1200.00000
G92 E0
G1 Z1.800 F6000.000
G1 X78.893 Y61.323 F6000.000
G1 Z1.300 F6000.000
G1 E2.00000 F1200.00000
G1 F2400.000
G1 X54.677 Y61.323 E2.96830
G1 X54.677 Y60.677 E2.99412
G1 X78.893 Y60.677 E3.96242
G1 X78.893 Y61.263 E3.98585
G1 X78.650 Y61.780 F6000.000
G1 F2160.000
G1 X54.220 Y61.780 E4.73599
G1 X54.220 Y60.220 E4.78389
G1 X79.350 Y60.220 E5.55554
G1 X79.350 Y89.780 E6.46321
G1 X54.220 Y89.780 E7.23487
G1 X54.220 Y88.220 E7.28277
G1 X78.650 Y88.220 E8.03291
G1 X78.650 Y61.840 E8.84294
G1 X78.748 Y61.392 F6000.000
G1 E6.84294 F1200.00000
G92 E0
G1 Z1.800 F6000.000
G1 X54.285 Y88.220 F6000.000
G1 Z1.300 F6000.000
G1 E2.00000 F1200.00000
G1 F2160.000
G1 X54.285 Y61.780 E3.07822
G1 X54.936 Y61.000 F6000.000
G1 F1200.000
G1 X78.635 Y61.000 E3.23555
G1 X79.000 Y61.551 F6000.000
G1 F1200.000
G1 X79.000 Y88.449 E3.65267
G1 X78.635 Y89.000 F6000.000
G1 F1200.000
G1 X54.936 Y89.000 E3.81000
G1 E1.81000 F1200.00000
G92 E0
G1 Z1.800 F6000.000
G1 X83.220 Y61.780 F6000.000
G1 Z1.300 F6000.000
G1 E2.00000 F1200.00000
G1 F1800.000
G1 X83.220 Y61.220 E2.01720
G1 X97.780 Y61.220 E2.46428
G1 X97.780 Y61.780 E2.48147
G1 X83.280 Y61.780 E2.92671
G1 X83.416 Y61.431 F6000.000
G1 X83.449 Y61.500 F6000.000
G1 F1200.000
G1 X97.551 Y61.500 E2.99215
G1 E0.99215 F1200.00000
G92 E0
G1 Z1.800 F6000.000
G1 X83.220 Y88.220 F6000.000
G1 Z1.300 F6000.000
G1 E2.00000 F1200.00000
G1 F1800.000
G1 X97.780 Y88.220 E2.44708
G1 X97.780 Y88.780 E2.46428
G1 X83.220 Y88.780 E2.91136
G1 X83.220 Y88.280 E2.92671
G1 X83.620 Y88.225 F6000.000
G1 X83.449 Y88.500 F6000.000
G1 F1200.000
G1 X97.551 Y88.500 E2.99215
G1 Z1.500 F6000.000
G1 E0.99215 F1200.00000
G92 E0
G1 Z2.000 F6000.000
G1 X78.987 Y88.677 F6000.000
G1 Z1.500 F6000.000
G1 E2.00000 F1200.00000
G1 F2400.000
G1 X78.987 Y89.323 E2.02582
G1 X54.677 Y89.323 E2.99787
G1 X54.677 Y88.677 E3.02370
G1 X78.927 Y88.677 E3.99335
G1 E1.99335 F1200.00000
G92 E0
G1 Z2.000 F6000.000
G1 X78.987 Y61.323 F6000.000
G1 Z1.500 F6000.000
G1 E2.00000 F1200.00000
G1 F2400.000
G1 X54.677 Y61.323 E2.97205
G1 X54.677 Y60.677 E2.99787
G1 X78.987 Y60.677 E3.96992
G1 X78.987 Y61.263 E3.99335
G1 X78.556 Y61.780 F6000.000
G1 F2160.000
G1 X54.220 Y61.780 E4.74061
G1 X54.220 Y60.220 E4.78851
G1 X79.444 Y60.220 E5.56304
G1 X79.444 Y89.780 E6.47071
G1 X54.220 Y89.780 E7.24525
G1 X54.220 Y88.220 E7.29315
G1 X78.556 Y88.220 E8.04041
G1 X78.556 Y61.840 E8.85044
G1 X78.654 Y61.392 F6000.000
G1 E6.85044 F1200.00000
G92 E0
G1 Z2.000 F6000.000
G1 X54.332 Y88.220 F6000.000
G1 Z1.500 F6000.000
G1 E2.00000 F1200.00000
G1 F2160.000
G1 X54.332 Y61.780 E3.27001
G1 X54.936 Y61.000 F6000.000
G1 F1200.000
G1 X78.728 Y61.000 E3.42796
G1 X79.000 Y61.551 F6000.000
G1 F1200.000
G1 X79.000 Y88.449 E4.23530
G1 X78.728 Y89.000 F6000.000
G1 F1200.000
G1 X54.936 Y89.000 E4.39325
G1 E2.39325 F1200.00000
G92 E0
G1 Z2.000 F6000.000
G1 X83.220 Y61.780 F6000.000
G1 Z1.500 F6000.000
G1 E2.00000 F1200.00000
G1 F1800.000
G1 X83.220 Y61.220 E2.01720
G1 X97.780 Y61.220 E2.46428
G1 X97.780 Y61.780 E2.48147
G1 X83.280 Y61.780 E2.92671
G1 X83.416 Y61.431 F6000.000
G1 X83.449 Y61.500 F6000.000
G1 F1200.000
G1 X97.551 Y61.500 E2.99215
G1 E0.99215 F1200.00000
G92 E0
G1 Z2.000 F6000.000
G1 X83.220 Y88.220 F6000.000
G1 Z1.500 F6000.000
G1 E2.00000 F1200.00000
G1 F1800.000
G1 X97.780 Y88.220 E2.44708
G1 X97.780 Y88.780 E2.46428
G1 X83.220 Y88.780 E2.91136
G1 X83.220 Y88.280 E2.92671
G1 X83.620 Y88.225 F6000.000
G1 X83.449 Y88.500 F6000.000
G1 F1200.000
G1 X97.551 Y88.500 E2.99215
G1 Z1.700 F6000.000
G1 E0.99215 F1200.00000
G92 E0
G1 Z2.200 F6000.000
G1 X78.462 Y88.220 F6000.000
G1 Z1.700 F6000.000
G1 E2.00000 F1200.00000
G1 F2160.000
G1 X54.538 Y88.220 E2.73464
G1 X54.538 Y61.780 E3.54651
G1 X78.462 Y61.780 E4.28114
G1 X78.462 Y88.160 E5.09117
G1 X78.559 Y88.608 F6000.000
G1 E3.09117 F1200.00000
G92 E0
G1 Z2.200 F6000.000
G1 X79.081 Y61.323 F6000.000
G1 Z1.700 F6000.000
G1 E2.00000 F1200.00000
G1 F2400.000
G1 X54.677 Y61.323 E2.97579
G1 X54.677 Y60.677 E3.00161
G1 X79.081 Y60.677 E3.97740
