; generated by Slic3r 1.3.0 on 2020-04-16 at 20:40:44

; external perimeters extrusion width = 0.44mm (2.86mm^3/s)
; perimeters extrusion width = 0.56mm (4.14mm^3/s)
; infill extrusion width = 0.50mm (3.66mm^3/s)
; solid infill extrusion width = 0.56mm (3.10mm^3/s)
; top infill extrusion width = 0.45mm (2.44mm^3/s)

M107
;D3D:START:START
T0
M104 S215 T0

G21
G90
M107
T0
G28
G29
M109 T0 S215 T0
G0 F3000
M107
T0
G92 E0
G0 X0 Y149 Z0.1 F3600
G1 Y49 E6.5 F1200
G0 Z1
G92 E0
; Filament gcode

G21 ; set units to millimeters
G90 ; use absolute coordinates
M82 ; use absolute distances for extrusion
G92 E0
G1 Z0.200 F6000.000
G1 E-2.00000 F1200.00000
G92 E0
G1 Z0.700 F6000.000
G1 X130.679 Y83.651 F6000.000
G1 Z0.200 F6000.000
G1 E2.00000 F1200.00000
G1 F1800
G1 X131.053 Y83.251 E2.01053
G1 X131.534 Y82.947 E2.02148
G1 X132.054 Y82.777 E2.03201
G1 X132.358 Y82.739 E2.03790
G1 X142.642 Y82.739 E2.23574
G1 X142.946 Y82.777 E2.24163
G1 X143.466 Y82.947 E2.25216
G1 X143.929 Y83.240 E2.26271
G1 X144.167 Y83.464 E2.26899
G1 X144.476 Y83.889 E2.27910
G1 X144.607 Y84.166 E2.28498
G1 X144.701 Y84.457 E2.29088
G1 X144.764 Y84.958 E2.30060
G1 X144.764 Y95.042 E2.49459
G1 X144.701 Y95.543 E2.50431
G1 X144.607 Y95.834 E2.51021
G1 X144.485 Y96.092 E2.51569
G1 X144.321 Y96.349 E2.52156
G1 X143.947 Y96.749 E2.53208
G1 X143.484 Y97.042 E2.54263
G1 X143.200 Y97.154 E2.54850
G1 X142.925 Y97.225 E2.55397
G1 X142.642 Y97.261 E2.55946
G1 X132.358 Y97.261 E2.75729
G1 X132.055 Y97.223 E2.76319
G1 X131.534 Y97.053 E2.77372
G1 X131.071 Y96.760 E2.78427
G1 X130.833 Y96.536 E2.79054
G1 X130.524 Y96.111 E2.80066
G1 X130.393 Y95.834 E2.80654
G1 X130.299 Y95.543 E2.81244
G1 X130.236 Y95.042 E2.82216
G1 X130.236 Y84.978 E3.01576
G1 X130.253 Y84.716 E3.02081
G1 X130.305 Y84.438 E3.02627
G1 X130.392 Y84.171 E3.03166
G1 X130.515 Y83.908 E3.03724
G1 X130.647 Y83.701 E3.04197
G1 X130.883 Y83.809 F6000.000
G1 F1800
G1 X131.218 Y83.451 E3.05140
G1 X131.644 Y83.181 E3.06111
G1 X132.111 Y83.029 E3.07054
G1 X132.374 Y82.996 E3.07566
G1 X142.626 Y82.996 E3.27287
G1 X142.889 Y83.029 E3.27799
G1 X143.356 Y83.181 E3.28742
G1 X143.771 Y83.444 E3.29688
G1 X143.973 Y83.635 E3.30222
G1 X144.254 Y84.021 E3.31140
G1 X144.367 Y84.261 E3.31651
G1 X144.449 Y84.513 E3.32162
G1 X144.507 Y84.975 E3.33057
G1 X144.507 Y95.025 E3.52393
G1 X144.449 Y95.487 E3.53288
G1 X144.367 Y95.739 E3.53799
G1 X144.259 Y95.968 E3.54285
G1 X144.117 Y96.191 E3.54794
G1 X143.782 Y96.549 E3.55737
G1 X143.366 Y96.812 E3.56683
G1 X143.120 Y96.910 E3.57193
G1 X142.876 Y96.972 E3.57677
G1 X142.625 Y97.004 E3.58164
G1 X132.375 Y97.004 E3.77885
G1 X132.111 Y96.971 E3.78396
G1 X131.644 Y96.819 E3.79340
G1 X131.229 Y96.556 E3.80286
G1 X131.027 Y96.366 E3.80820
G1 X130.746 Y95.979 E3.81738
G1 X130.633 Y95.739 E3.82249
G1 X130.551 Y95.487 E3.82760
G1 X130.493 Y95.025 E3.83654
G1 X130.493 Y84.987 E4.02967
G1 X130.508 Y84.749 E4.03427
G1 X130.555 Y84.501 E4.03911
G1 X130.631 Y84.266 E4.04387
G1 X130.741 Y84.033 E4.04883
G1 X130.851 Y83.860 E4.05277
G1 X131.087 Y83.967 F6000.000
G1 F1800
G1 X131.384 Y83.651 E4.06112
G1 X131.755 Y83.415 E4.06957
G1 X132.167 Y83.281 E4.07792
G1 X132.391 Y83.253 E4.08225
G1 X142.609 Y83.253 E4.27884
G1 X142.833 Y83.281 E4.28318
G1 X143.245 Y83.415 E4.29152
G1 X143.612 Y83.648 E4.29988
G1 X143.779 Y83.805 E4.30429
G1 X144.032 Y84.152 E4.31255
G1 X144.128 Y84.356 E4.31687
G1 X144.197 Y84.569 E4.32120
G1 X144.250 Y84.991 E4.32936
G1 X144.250 Y95.009 E4.52211
G1 X144.197 Y95.431 E4.53028
G1 X144.128 Y95.644 E4.53460
G1 X144.034 Y95.843 E4.53884
G1 X143.913 Y96.033 E4.54316
G1 X143.616 Y96.349 E4.55150
G1 X143.249 Y96.582 E4.55986
G1 X143.040 Y96.665 E4.56419
G1 X142.828 Y96.719 E4.56840
G1 X142.609 Y96.747 E4.57265
G1 X132.391 Y96.747 E4.76924
G1 X132.167 Y96.719 E4.77357
G1 X131.755 Y96.584 E4.78192
G1 X131.388 Y96.352 E4.79028
G1 X131.221 Y96.195 E4.79469
G1 X130.968 Y95.848 E4.80294
G1 X130.872 Y95.644 E4.80727
G1 X130.803 Y95.431 E4.81159
G1 X130.750 Y95.009 E4.81976
G1 X130.750 Y84.995 E5.01242
G1 X130.764 Y84.781 E5.01656
G1 X130.804 Y84.565 E5.02078
G1 X130.871 Y84.361 E5.02491
G1 X131.055 Y84.018 E5.03240
G1 X130.939 Y83.595 F6000.000
G1 E3.03240 F1200.00000
G92 E0
G1 Z0.700 F6000.000
G1 X132.075 Y77.225 F6000.000
G1 Z0.200 F6000.000
G1 E2.00000 F1200.00000
G1 F1800
G1 X131.800 Y77.155 E2.00546
G1 X131.516 Y77.042 E2.01134
G1 X131.053 Y76.749 E2.02189
G1 X130.679 Y76.349 E2.03241
G1 X130.515 Y76.092 E2.03827
G1 X130.393 Y75.834 E2.04376
G1 X130.299 Y75.543 E2.04966
G1 X130.231 Y75.000 E2.06019
G1 X130.299 Y74.457 E2.07072
G1 X130.393 Y74.165 E2.07661
G1 X130.524 Y73.889 E2.08250
G1 X130.833 Y73.464 E2.09261
G1 X131.071 Y73.240 E2.09888
G1 X131.534 Y72.947 E2.10944
G1 X132.054 Y72.777 E2.11997
G1 X132.358 Y72.739 E2.12586
G1 X132.642 Y72.739 E2.13131
G1 X132.925 Y72.775 E2.13680
G1 X133.200 Y72.845 E2.14226
G1 X133.484 Y72.958 E2.14813
G1 X133.947 Y73.251 E2.15869
G1 X134.321 Y73.651 E2.16921
G1 X134.485 Y73.908 E2.17507
G1 X134.607 Y74.165 E2.18056
G1 X134.701 Y74.457 E2.18646
G1 X134.769 Y75.000 E2.19699
G1 X134.701 Y75.543 E2.20752
G1 X134.606 Y75.835 E2.21343
G1 X134.472 Y76.116 E2.21942
G1 X134.166 Y76.536 E2.22941
G1 X133.929 Y76.760 E2.23568
G1 X133.466 Y77.053 E2.24623
G1 X132.946 Y77.223 E2.25676
G1 X132.642 Y77.261 E2.26266
G1 X132.358 Y77.261 E2.26811
G1 X132.135 Y77.233 E2.27244
G1 X132.123 Y76.972 F6000.000
G1 F1800
G1 X131.880 Y76.910 E2.27728
G1 X131.634 Y76.812 E2.28238
G1 X131.218 Y76.549 E2.29184
G1 X130.883 Y76.191 E2.30127
G1 X130.741 Y75.968 E2.30636
G1 X130.633 Y75.739 E2.31122
G1 X130.551 Y75.487 E2.31633
G1 X130.490 Y75.000 E2.32577
G1 X130.551 Y74.513 E2.33521
G1 X130.633 Y74.261 E2.34032
G1 X130.746 Y74.021 E2.34543
G1 X131.027 Y73.635 E2.35461
G1 X131.229 Y73.444 E2.35995
G1 X131.644 Y73.181 E2.36941
G1 X132.111 Y73.029 E2.37885
G1 X132.374 Y72.996 E2.38396
G1 X132.626 Y72.996 E2.38879
G1 X132.877 Y73.028 E2.39365
G1 X133.120 Y73.090 E2.39849
G1 X133.366 Y73.188 E2.40359
G1 X133.782 Y73.451 E2.41305
G1 X134.117 Y73.809 E2.42248
G1 X134.259 Y74.032 E2.42757
G1 X134.367 Y74.261 E2.43244
G1 X134.449 Y74.513 E2.43754
G1 X134.510 Y75.000 E2.44699
G1 X134.449 Y75.487 E2.45643
G1 X134.367 Y75.740 E2.46155
G1 X134.251 Y75.984 E2.46675
G1 X133.973 Y76.366 E2.47583
G1 X133.771 Y76.556 E2.48116
G1 X133.356 Y76.819 E2.49062
G1 X132.889 Y76.971 E2.50006
G1 X132.626 Y77.004 E2.50517
G1 X132.374 Y77.004 E2.51000
G1 X132.183 Y76.980 E2.51371
G1 X132.172 Y76.719 F6000.000
G1 F1800
G1 X131.960 Y76.665 E2.51793
G1 X131.751 Y76.582 E2.52225
G1 X131.384 Y76.349 E2.53061
G1 X131.087 Y76.033 E2.53896
G1 X130.966 Y75.843 E2.54328
G1 X130.872 Y75.644 E2.54751
G1 X130.803 Y75.431 E2.55184
G1 X130.749 Y75.000 E2.56019
G1 X130.803 Y74.569 E2.56854
G1 X130.872 Y74.356 E2.57286
G1 X130.968 Y74.152 E2.57719
G1 X131.221 Y73.805 E2.58544
G1 X131.388 Y73.648 E2.58985
G1 X131.755 Y73.415 E2.59821
G1 X132.167 Y73.281 E2.60656
G1 X132.391 Y73.253 E2.61089
G1 X132.609 Y73.253 E2.61510
G1 X132.828 Y73.281 E2.61934
G1 X133.040 Y73.335 E2.62356
G1 X133.249 Y73.418 E2.62788
G1 X133.616 Y73.651 E2.63624
G1 X133.913 Y73.967 E2.64459
G1 X134.034 Y74.157 E2.64890
G1 X134.128 Y74.356 E2.65314
G1 X134.197 Y74.569 E2.65746
G1 X134.251 Y75.000 E2.66581
G1 X134.197 Y75.431 E2.67417
G1 X134.128 Y75.645 E2.67849
G1 X134.029 Y75.852 E2.68292
G1 X133.779 Y76.195 E2.69107
G1 X133.612 Y76.352 E2.69548
G1 X133.245 Y76.585 E2.70384
G1 X132.833 Y76.719 E2.71218
G1 X132.609 Y76.747 E2.71652
G1 X132.231 Y76.727 E2.72380
G1 X132.028 Y76.885 F6000.000
G1 E0.72380 F1200.00000
G92 E0
G1 Z0.700 F6000.000
G1 X124.701 Y75.543 F6000.000
G1 Z0.200 F6000.000
G1 E2.00000 F1200.00000
G1 F1800
G1 X124.607 Y75.834 E2.00589
G1 X124.476 Y76.111 E2.01178
G1 X124.167 Y76.536 E2.02189
G1 X123.929 Y76.760 E2.02817
G1 X123.466 Y77.053 E2.03872
G1 X122.946 Y77.223 E2.04925
G1 X122.642 Y77.261 E2.05514
G1 X122.358 Y77.261 E2.06059
G1 X122.075 Y77.225 E2.06608
G1 X121.800 Y77.155 E2.07154
G1 X121.516 Y77.042 E2.07742
G1 X121.053 Y76.749 E2.08797
G1 X120.679 Y76.349 E2.09849
G1 X120.515 Y76.092 E2.10435
G1 X120.393 Y75.834 E2.10984
G1 X120.299 Y75.543 E2.11574
G1 X120.231 Y75.000 E2.12627
G1 X120.299 Y74.457 E2.13680
G1 X120.393 Y74.166 E2.14269
G1 X120.524 Y73.889 E2.14858
G1 X120.833 Y73.464 E2.15869
G1 X121.071 Y73.240 E2.16496
G1 X121.534 Y72.947 E2.17552
G1 X122.054 Y72.777 E2.18605
G1 X122.358 Y72.739 E2.19194
G1 X122.642 Y72.739 E2.19739
G1 X122.925 Y72.775 E2.20288
G1 X123.200 Y72.845 E2.20834
G1 X123.484 Y72.958 E2.21421
G1 X123.947 Y73.251 E2.22477
G1 X124.321 Y73.651 E2.23529
G1 X124.485 Y73.908 E2.24115
G1 X124.607 Y74.166 E2.24664
G1 X124.701 Y74.457 E2.25254
G1 X124.769 Y75.000 E2.26307
G1 X124.709 Y75.484 E2.27244
G1 X124.449 Y75.487 F6000.000
G1 F1800
G1 X124.367 Y75.739 E2.27755
G1 X124.254 Y75.979 E2.28266
G1 X123.973 Y76.365 E2.29184
G1 X123.771 Y76.556 E2.29718
G1 X123.356 Y76.819 E2.30664
G1 X122.889 Y76.971 E2.31608
G1 X122.626 Y77.004 E2.32119
G1 X122.374 Y77.004 E2.32602
G1 X122.123 Y76.972 E2.33088
G1 X121.880 Y76.910 E2.33572
G1 X121.634 Y76.812 E2.34082
G1 X121.218 Y76.549 E2.35028
G1 X120.883 Y76.191 E2.35971
G1 X120.741 Y75.968 E2.36480
G1 X120.633 Y75.739 E2.36967
G1 X120.551 Y75.487 E2.37477
G1 X120.490 Y75.000 E2.38421
G1 X120.551 Y74.513 E2.39366
G1 X120.633 Y74.261 E2.39876
G1 X120.746 Y74.021 E2.40387
G1 X121.027 Y73.635 E2.41305
G1 X121.229 Y73.444 E2.41839
G1 X121.644 Y73.181 E2.42785
G1 X122.111 Y73.029 E2.43729
G1 X122.374 Y72.996 E2.44240
G1 X122.626 Y72.996 E2.44723
G1 X122.876 Y73.028 E2.45210
G1 X123.120 Y73.090 E2.45694
G1 X123.366 Y73.188 E2.46203
G1 X123.782 Y73.451 E2.47149
G1 X124.117 Y73.809 E2.48093
G1 X124.259 Y74.032 E2.48602
G1 X124.367 Y74.261 E2.49088
G1 X124.449 Y74.513 E2.49599
G1 X124.510 Y75.000 E2.50543
G1 X124.457 Y75.427 E2.51371
G1 X124.197 Y75.431 F6000.000
G1 F1800
G1 X124.128 Y75.644 E2.51804
G1 X124.032 Y75.848 E2.52236
G1 X123.779 Y76.195 E2.53062
G1 X123.612 Y76.352 E2.53503
G1 X123.245 Y76.585 E2.54339
G1 X122.833 Y76.719 E2.55173
G1 X122.609 Y76.747 E2.55607
G1 X122.391 Y76.747 E2.56027
G1 X122.172 Y76.719 E2.56452
G1 X121.960 Y76.665 E2.56873
G1 X121.751 Y76.582 E2.57306
G1 X121.384 Y76.349 E2.58142
G1 X121.087 Y76.033 E2.58976
G1 X120.966 Y75.843 E2.59408
G1 X120.872 Y75.644 E2.59832
G1 X120.803 Y75.431 E2.60264
G1 X120.749 Y75.000 E2.61099
G1 X120.803 Y74.569 E2.61934
G1 X120.872 Y74.356 E2.62366
G1 X120.968 Y74.152 E2.62799
G1 X121.221 Y73.805 E2.63625
G1 X121.388 Y73.648 E2.64065
G1 X121.755 Y73.415 E2.64901
G1 X122.167 Y73.281 E2.65736
G1 X122.391 Y73.253 E2.66169
G1 X122.609 Y73.253 E2.66590
G1 X122.828 Y73.281 E2.67014
G1 X123.040 Y73.335 E2.67436
G1 X123.249 Y73.418 E2.67868
G1 X123.616 Y73.651 E2.68704
G1 X123.913 Y73.967 E2.69539
G1 X124.034 Y74.157 E2.69971
G1 X124.128 Y74.356 E2.70394
G1 X124.197 Y74.569 E2.70827
G1 X124.251 Y75.000 E2.71662
G1 X124.205 Y75.371 E2.72381
G1 X124.364 Y75.581 F6000.000
G1 E0.72381 F1200.00000
G92 E0
G1 Z0.700 F6000.000
G1 X114.769 Y75.000 F6000.000
G1 Z0.200 F6000.000
G1 E2.00000 F1200.00000
G1 F1800
G1 X114.701 Y75.543 E2.01053
G1 X114.607 Y75.834 E2.01642
G1 X114.476 Y76.111 E2.02231
G1 X114.167 Y76.536 E2.03242
G1 X113.929 Y76.760 E2.03870
G1 X113.466 Y77.053 E2.04925
G1 X112.946 Y77.223 E2.05978
G1 X112.642 Y77.261 E2.06567
G1 X112.358 Y77.261 E2.07112
G1 X112.075 Y77.225 E2.07661
G1 X111.800 Y77.155 E2.08207
G1 X111.516 Y77.042 E2.08795
G1 X111.053 Y76.749 E2.09850
G1 X110.679 Y76.349 E2.10902
G1 X110.515 Y76.092 E2.11489
G1 X110.393 Y75.834 E2.12037
G1 X110.299 Y75.543 E2.12627
G1 X110.231 Y75.000 E2.13680
G1 X110.299 Y74.457 E2.14733
G1 X110.393 Y74.166 E2.15322
G1 X110.524 Y73.889 E2.15911
G1 X110.833 Y73.464 E2.16922
G1 X111.071 Y73.240 E2.17550
G1 X111.534 Y72.947 E2.18605
G1 X112.054 Y72.777 E2.19658
G1 X112.358 Y72.739 E2.20247
G1 X112.642 Y72.739 E2.20792
G1 X112.925 Y72.775 E2.21341
G1 X113.200 Y72.845 E2.21887
G1 X113.484 Y72.958 E2.22474
G1 X113.947 Y73.251 E2.23530
G1 X114.321 Y73.651 E2.24582
G1 X114.485 Y73.908 E2.25168
G1 X114.607 Y74.166 E2.25717
G1 X114.701 Y74.457 E2.26307
G1 X114.762 Y74.940 E2.27244
G1 X114.510 Y75.000 F6000.000
G1 F1800
G1 X114.449 Y75.487 E2.28188
G1 X114.367 Y75.739 E2.28699
G1 X114.254 Y75.979 E2.29210
G1 X113.973 Y76.365 E2.30128
G1 X113.771 Y76.556 E2.30662
G1 X113.356 Y76.819 E2.31608
G1 X112.889 Y76.971 E2.32552
G1 X112.626 Y77.004 E2.33063
G1 X112.374 Y77.004 E2.33546
G1 X112.123 Y76.972 E2.34033
G1 X111.880 Y76.910 E2.34517
G1 X111.634 Y76.812 E2.35026
G1 X111.218 Y76.549 E2.35972
G1 X110.883 Y76.191 E2.36915
G1 X110.741 Y75.968 E2.37424
G1 X110.633 Y75.739 E2.37911
G1 X110.551 Y75.487 E2.38421
G1 X110.490 Y75.000 E2.39366
G1 X110.551 Y74.513 E2.40310
G1 X110.633 Y74.261 E2.40820
G1 X110.746 Y74.021 E2.41331
G1 X111.027 Y73.635 E2.42250
G1 X111.229 Y73.444 E2.42784
G1 X111.644 Y73.181 E2.43729
G1 X112.111 Y73.029 E2.44673
G1 X112.374 Y72.996 E2.45184
G1 X112.626 Y72.996 E2.45667
G1 X112.876 Y73.028 E2.46154
G1 X113.120 Y73.090 E2.46638
G1 X113.366 Y73.188 E2.47148
G1 X113.782 Y73.451 E2.48093
G1 X114.117 Y73.809 E2.49037
G1 X114.259 Y74.032 E2.49546
G1 X114.367 Y74.261 E2.50032
G1 X114.449 Y74.513 E2.50543
G1 X114.503 Y74.940 E2.51371
G1 X114.251 Y75.000 F6000.000
G1 F1800
G1 X114.197 Y75.431 E2.52206
G1 X114.128 Y75.644 E2.52639
G1 X114.032 Y75.848 E2.53071
G1 X113.779 Y76.195 E2.53897
G1 X113.612 Y76.352 E2.54338
G1 X113.245 Y76.585 E2.55174
G1 X112.833 Y76.719 E2.56008
G1 X112.609 Y76.747 E2.56442
G1 X112.391 Y76.747 E2.56863
G1 X112.172 Y76.719 E2.57287
G1 X111.960 Y76.665 E2.57709
G1 X111.751 Y76.582 E2.58141
G1 X111.384 Y76.349 E2.58977
G1 X111.087 Y76.033 E2.59811
G1 X110.966 Y75.843 E2.60243
G1 X110.872 Y75.644 E2.60667
G1 X110.803 Y75.431 E2.61099
G1 X110.749 Y75.000 E2.61934
G1 X110.803 Y74.569 E2.62769
G1 X110.872 Y74.356 E2.63202
G1 X110.968 Y74.152 E2.63634
G1 X111.221 Y73.805 E2.64460
G1 X111.388 Y73.648 E2.64900
G1 X111.755 Y73.415 E2.65737
G1 X112.167 Y73.281 E2.66571
G1 X112.391 Y73.253 E2.67004
G1 X112.609 Y73.253 E2.67425
G1 X112.828 Y73.281 E2.67850
G1 X113.040 Y73.335 E2.68271
G1 X113.249 Y73.418 E2.68703
G1 X113.616 Y73.651 E2.69540
G1 X113.913 Y73.967 E2.70374
G1 X114.034 Y74.157 E2.70806
G1 X114.128 Y74.356 E2.71229
G1 X114.197 Y74.569 E2.71662
G1 X114.244 Y74.940 E2.72381
G1 X114.593 Y75.207 F6000.000
G1 E0.72381 F1200.00000
G92 E0
G1 Z0.700 F6000.000
G1 X112.358 Y82.739 F6000.000
G1 Z0.200 F6000.000
G1 E2.00000 F1200.00000
G1 F1800
G1 X122.642 Y82.739 E2.19784
G1 X122.946 Y82.777 E2.20373
G1 X123.466 Y82.947 E2.21426
G1 X123.929 Y83.240 E2.22481
G1 X124.167 Y83.464 E2.23108
G1 X124.476 Y83.889 E2.24120
G1 X124.607 Y84.166 E2.24708
G1 X124.701 Y84.457 E2.25298
G1 X124.764 Y84.958 E2.26270
G1 X124.764 Y95.042 E2.45669
G1 X124.701 Y95.543 E2.46641
G1 X124.607 Y95.834 E2.47231
G1 X124.485 Y96.092 E2.47779
G1 X124.321 Y96.349 E2.48366
G1 X123.947 Y96.749 E2.49418
G1 X123.484 Y97.042 E2.50473
G1 X123.200 Y97.154 E2.51060
G1 X122.925 Y97.225 E2.51607
G1 X122.642 Y97.261 E2.52156
G1 X112.358 Y97.261 E2.71939
G1 X112.055 Y97.223 E2.72529
G1 X111.534 Y97.053 E2.73582
G1 X111.071 Y96.760 E2.74637
G1 X110.833 Y96.536 E2.75264
G1 X110.524 Y96.111 E2.76275
G1 X110.393 Y95.834 E2.76864
G1 X110.299 Y95.543 E2.77454
G1 X110.236 Y95.042 E2.78426
G1 X110.236 Y84.978 E2.97786
G1 X110.253 Y84.716 E2.98291
G1 X110.305 Y84.438 E2.98837
G1 X110.393 Y84.166 E2.99387
G1 X110.524 Y83.889 E2.99976
G1 X110.833 Y83.464 E3.00987
G1 X111.071 Y83.240 E3.01615
G1 X111.534 Y82.947 E3.02670
G1 X112.054 Y82.777 E3.03723
G1 X112.299 Y82.746 E3.04196
G1 X112.374 Y82.996 F6000.000
G1 F1800
G1 X122.626 Y82.996 E3.23918
G1 X122.889 Y83.029 E3.24429
G1 X123.356 Y83.181 E3.25373
G1 X123.771 Y83.444 E3.26319
G1 X123.973 Y83.635 E3.26853
G1 X124.254 Y84.021 E3.27771
G1 X124.367 Y84.261 E3.28282
G1 X124.449 Y84.513 E3.28793
G1 X124.507 Y84.975 E3.29687
G1 X124.507 Y95.025 E3.49024
G1 X124.449 Y95.487 E3.49919
G1 X124.367 Y95.739 E3.50430
G1 X124.259 Y95.968 E3.50916
G1 X124.117 Y96.191 E3.51425
G1 X123.782 Y96.549 E3.52368
G1 X123.367 Y96.812 E3.53314
