; generated by Slic3r 1.3.0 on 2021-03-05 at 22:45:17

; external perimeters extrusion width = 0.44mm (2.86mm^3/s)
; perimeters extrusion width = 0.56mm (4.14mm^3/s)
; infill extrusion width = 0.50mm (3.66mm^3/s)
; solid infill extrusion width = 0.56mm (3.10mm^3/s)
; top infill extrusion width = 0.45mm (2.44mm^3/s)

M107
;D3D:START:START
T0
M104 S215 T0

G21
G90
M107
T0
G28
G29
M109 T0 S215 T0
G0 F3000
M107
T0
G92 E0
G0 X0 Y149 Z0.1 F3600
G1 Y49 E6.5 F1200
G0 Z1
G92 E0
; Filament gcode

G21 ; set units to millimeters
G90 ; use absolute coordinates
M82 ; use absolute distances for extrusion
G92 E0
G1 Z0.300 F6000.000
G1 E-2.00000 F1200.00000
G92 E0
G1 Z0.800 F6000.000
G1 X3.500 Y33.229 F6000.000
G1 Z0.300 F6000.000
G1 E2.00000 F1200.00000
G1 F1800
G1 X146.500 Y33.229 E8.39636
G1 X148.785 Y33.626 E8.50009
G1 X150.801 Y34.770 E8.60381
G1 X152.313 Y36.528 E8.70753
G1 X153.144 Y38.693 E8.81125
G1 X153.271 Y40.000 E8.86997
G1 X153.271 Y110.000 E12.00106
G1 X152.874 Y112.285 E12.10478
G1 X151.730 Y114.301 E12.20850
G1 X149.972 Y115.813 E12.31223
G1 X147.807 Y116.644 E12.41595
G1 X146.500 Y116.771 E12.47467
G1 X3.500 Y116.771 E18.87104
G1 X1.215 Y116.374 E18.97476
G1 X-0.801 Y115.230 E19.07848
G1 X-2.313 Y113.472 E19.18220
G1 X-3.144 Y111.307 E19.28592
G1 X-3.271 Y110.000 E19.34465
G1 X-3.271 Y40.000 E22.47573
G1 X-2.874 Y37.715 E22.57946
G1 X-1.730 Y35.699 E22.68318
G1 X0.028 Y34.187 E22.78690
G1 X2.193 Y33.356 E22.89062
G1 X3.440 Y33.235 E22.94666
G1 X3.500 Y33.614 F6000.000
G1 F1800
G1 X146.500 Y33.614 E29.34303
G1 X148.716 Y34.011 E29.44373
G1 X150.657 Y35.153 E29.54443
G1 X152.081 Y36.896 E29.64513
G1 X152.886 Y40.000 E29.78855
G1 X152.886 Y110.000 E32.91964
G1 X152.489 Y112.216 E33.02034
G1 X151.347 Y114.157 E33.12104
G1 X149.604 Y115.581 E33.22174
G1 X146.500 Y116.386 E33.36516
G1 X3.500 Y116.386 E39.76153
G1 X1.284 Y115.989 E39.86223
G1 X-0.657 Y114.847 E39.96293
G1 X-2.081 Y113.104 E40.06363
G1 X-2.886 Y110.000 E40.20705
G1 X-2.886 Y40.000 E43.33814
G1 X-2.489 Y37.784 E43.43884
G1 X-1.347 Y35.843 E43.53954
G1 X0.396 Y34.419 E43.64024
G1 X3.442 Y33.629 E43.78098
G1 E41.78098 F1200.00000
G92 E0
G1 Z0.800 F6000.000
G1 X116.136 Y80.750 F6000.000
G1 Z0.300 F6000.000
G1 E2.00000 F1200.00000
G1 F1800
G1 X116.289 Y80.726 E2.00695
G1 X116.289 Y79.962 E2.04112
G1 X116.351 Y79.469 E2.06335
G1 X116.443 Y79.185 E2.07668
G1 X116.571 Y78.916 E2.08998
G1 X116.874 Y78.499 E2.11305
G1 X117.104 Y78.283 E2.12718
G1 X117.557 Y77.995 E2.15118
G1 X118.066 Y77.830 E2.17514
G1 X118.362 Y77.793 E2.18846
G1 X128.638 Y77.793 E2.64813
G1 X128.934 Y77.830 E2.66145
G1 X129.443 Y77.995 E2.68540
G1 X129.912 Y78.293 E2.71026
G1 X130.279 Y78.684 E2.73421
G1 X130.438 Y78.934 E2.74746
G1 X130.557 Y79.185 E2.75992
G1 X130.649 Y79.469 E2.77324
G1 X130.711 Y79.962 E2.79547
G1 X130.711 Y100.038 E3.69349
G1 X130.649 Y100.531 E3.71572
G1 X130.557 Y100.815 E3.72905
G1 X130.438 Y101.066 E3.74150
G1 X130.279 Y101.316 E3.75476
G1 X129.912 Y101.707 E3.77870
G1 X129.443 Y102.005 E3.80356
G1 X128.934 Y102.170 E3.82752
G1 X128.638 Y102.207 E3.84084
G1 X118.362 Y102.207 E4.30050
G1 X118.084 Y102.172 E4.31305
G1 X117.787 Y102.094 E4.32679
G1 X117.331 Y101.879 E4.34934
G1 X117.074 Y101.693 E4.36349
G1 X116.721 Y101.316 E4.38658
G1 X116.562 Y101.066 E4.39984
G1 X116.443 Y100.815 E4.41229
G1 X116.351 Y100.531 E4.42562
G1 X116.289 Y100.038 E4.44785
G1 X116.289 Y80.774 E5.30952
G1 X116.195 Y80.759 E5.31379
G1 X116.675 Y79.986 F6000.000
G1 F1800
G1 X116.729 Y79.553 E5.33331
G1 X116.802 Y79.328 E5.34389
G1 X116.904 Y79.114 E5.35448
G1 X117.164 Y78.755 E5.37431
G1 X117.341 Y78.589 E5.38518
G1 X117.722 Y78.347 E5.40536
G1 X118.151 Y78.208 E5.42551
G1 X118.386 Y78.178 E5.43611
G1 X128.614 Y78.178 E5.89362
G1 X128.849 Y78.208 E5.90422
G1 X129.278 Y78.347 E5.92436
G1 X129.665 Y78.592 E5.94486
G1 X129.973 Y78.921 E5.96500
G1 X130.099 Y79.120 E5.97557
G1 X130.198 Y79.328 E5.98584
G1 X130.271 Y79.553 E5.99642
G1 X130.325 Y79.986 E6.01595
G1 X130.325 Y100.014 E6.91180
G1 X130.271 Y100.447 E6.93132
G1 X130.198 Y100.672 E6.94191
G1 X130.099 Y100.880 E6.95218
G1 X129.973 Y101.079 E6.96274
G1 X129.665 Y101.408 E6.98288
G1 X129.278 Y101.653 E7.00338
G1 X128.849 Y101.792 E7.02353
G1 X128.614 Y101.822 E7.03413
G1 X118.386 Y101.822 E7.49163
G1 X118.157 Y101.793 E7.50195
G1 X117.919 Y101.730 E7.51296
G1 X117.528 Y101.545 E7.53231
G1 X117.331 Y101.402 E7.54321
G1 X117.027 Y101.079 E7.56304
G1 X116.901 Y100.880 E7.57361
G1 X116.802 Y100.672 E7.58388
G1 X116.729 Y100.447 E7.59446
G1 X116.675 Y100.014 E7.61398
G1 X116.675 Y80.046 E8.50715
G1 X116.346 Y79.758 F6000.000
G1 X116.092 Y80.750 F6000.000
G1 F1800
G1 X115.711 Y81.921 E8.56223
G1 X114.715 Y82.645 E8.61729
G1 X113.485 Y82.645 E8.67235
G1 X112.489 Y81.921 E8.72741
G1 X112.108 Y80.750 E8.78249
G1 X112.489 Y79.579 E8.83756
G1 X113.485 Y78.855 E8.89263
G1 X114.715 Y78.855 E8.94768
G1 X115.711 Y79.579 E9.00275
G1 X116.074 Y80.693 E9.05514
G1 X115.687 Y80.750 F6000.000
G1 F1800
G1 X115.383 Y81.683 E9.09900
G1 X114.590 Y82.259 E9.14286
G1 X113.610 Y82.259 E9.18671
G1 X112.817 Y81.683 E9.23057
G1 X112.513 Y80.750 E9.27443
G1 X112.817 Y79.817 E9.31829
G1 X113.610 Y79.241 E9.36215
G1 X114.590 Y79.241 E9.40600
G1 X115.383 Y79.817 E9.44986
G1 X115.668 Y80.693 E9.49104
G1 X116.033 Y80.950 F6000.000
G1 E7.49104 F1200.00000
G92 E0
G1 Z0.800 F6000.000
G1 X131.351 Y84.469 F6000.000
G1 Z0.300 F6000.000
G1 E2.00000 F1200.00000
G1 F1800
G1 X131.443 Y84.185 E2.01332
G1 X131.571 Y83.916 E2.02663
G1 X131.874 Y83.499 E2.04969
G1 X132.104 Y83.283 E2.06383
G1 X132.557 Y82.995 E2.08783
G1 X133.066 Y82.830 E2.11178
G1 X133.362 Y82.793 E2.12511
G1 X133.638 Y82.793 E2.13748
G1 X133.915 Y82.827 E2.14994
G1 X134.183 Y82.896 E2.16234
G1 X134.459 Y83.006 E2.17562
G1 X134.912 Y83.293 E2.19962
G1 X135.279 Y83.684 E2.22357
G1 X135.438 Y83.934 E2.23682
G1 X135.557 Y84.185 E2.24928
G1 X135.649 Y84.469 E2.26260
G1 X135.715 Y85.000 E2.28656
G1 X135.649 Y85.531 E2.31051
G1 X135.557 Y85.815 E2.32383
G1 X135.429 Y86.084 E2.33714
G1 X135.126 Y86.501 E2.36020
G1 X134.896 Y86.717 E2.37434
G1 X134.443 Y87.005 E2.39834
G1 X133.934 Y87.170 E2.42230
G1 X133.638 Y87.207 E2.43562
G1 X133.362 Y87.207 E2.44798
G1 X133.085 Y87.173 E2.46045
G1 X132.817 Y87.103 E2.47285
G1 X132.541 Y86.994 E2.48613
G1 X132.088 Y86.707 E2.51013
G1 X131.721 Y86.316 E2.53407
G1 X131.562 Y86.066 E2.54733
G1 X131.443 Y85.815 E2.55979
G1 X131.351 Y85.531 E2.57311
G1 X131.285 Y85.000 E2.59707
G1 X131.344 Y84.528 E2.61834
G1 X131.729 Y84.553 F6000.000
G1 F1800
G1 X131.802 Y84.328 E2.62892
G1 X131.904 Y84.114 E2.63951
G1 X132.164 Y83.755 E2.65934
G1 X132.341 Y83.589 E2.67021
G1 X132.722 Y83.347 E2.69039
G1 X133.151 Y83.208 E2.71054
G1 X133.386 Y83.178 E2.72114
G1 X133.614 Y83.178 E2.73135
G1 X133.842 Y83.207 E2.74164
G1 X134.064 Y83.264 E2.75186
G1 X134.284 Y83.351 E2.76244
G1 X134.665 Y83.592 E2.78262
G1 X134.973 Y83.921 E2.80276
G1 X135.099 Y84.120 E2.81333
G1 X135.198 Y84.328 E2.82360
G1 X135.271 Y84.553 E2.83418
G1 X135.327 Y85.000 E2.85434
G1 X135.271 Y85.447 E2.87449
G1 X135.198 Y85.672 E2.88508
G1 X135.096 Y85.886 E2.89566
G1 X134.836 Y86.245 E2.91549
G1 X134.659 Y86.411 E2.92637
G1 X134.278 Y86.653 E2.94655
G1 X133.849 Y86.792 E2.96670
G1 X133.614 Y86.822 E2.97730
G1 X133.386 Y86.822 E2.98750
G1 X133.158 Y86.793 E2.99779
G1 X132.936 Y86.736 E3.00802
G1 X132.716 Y86.649 E3.01859
G1 X132.335 Y86.408 E3.03878
G1 X132.027 Y86.079 E3.05892
G1 X131.901 Y85.880 E3.06948
G1 X131.802 Y85.672 E3.07975
G1 X131.729 Y85.447 E3.09034
G1 X131.673 Y85.000 E3.11049
G1 X131.722 Y84.612 E3.12796
G1 X131.554 Y84.395 F6000.000
G1 E1.12796 F1200.00000
G92 E0
G1 Z0.800 F6000.000
G1 X133.362 Y67.207 F6000.000
G1 Z0.300 F6000.000
G1 E2.00000 F1200.00000
G1 F1800
G1 X133.085 Y67.173 E2.01246
G1 X132.817 Y67.104 E2.02486
G1 X132.541 Y66.994 E2.03814
G1 X132.088 Y66.707 E2.06214
G1 X131.721 Y66.316 E2.08609
G1 X131.562 Y66.066 E2.09934
G1 X131.443 Y65.815 E2.11180
G1 X131.351 Y65.531 E2.12512
G1 X131.285 Y65.000 E2.14908
G1 X131.351 Y64.469 E2.17303
G1 X131.443 Y64.185 E2.18636
G1 X131.571 Y63.916 E2.19967
G1 X131.874 Y63.499 E2.22273
G1 X132.104 Y63.283 E2.23686
G1 X132.557 Y62.995 E2.26086
G1 X133.066 Y62.830 E2.28482
G1 X133.362 Y62.793 E2.29814
G1 X133.638 Y62.793 E2.31050
G1 X133.915 Y62.827 E2.32297
G1 X134.183 Y62.897 E2.33538
G1 X134.459 Y63.006 E2.34865
G1 X134.912 Y63.293 E2.37265
G1 X135.279 Y63.684 E2.39660
G1 X135.438 Y63.934 E2.40985
G1 X135.557 Y64.185 E2.42231
G1 X135.649 Y64.469 E2.43563
G1 X135.715 Y65.000 E2.45959
G1 X135.649 Y65.531 E2.48354
G1 X135.557 Y65.815 E2.49687
G1 X135.429 Y66.084 E2.51018
G1 X135.126 Y66.501 E2.53324
G1 X134.896 Y66.717 E2.54737
G1 X134.443 Y67.005 E2.57137
G1 X133.934 Y67.170 E2.59533
G1 X133.638 Y67.207 E2.60865
G1 X133.422 Y67.207 E2.61834
G1 X133.386 Y66.822 F6000.000
G1 F1800
G1 X133.158 Y66.793 E2.62862
G1 X132.936 Y66.736 E2.63885
G1 X132.716 Y66.649 E2.64942
G1 X132.335 Y66.408 E2.66961
G1 X132.027 Y66.079 E2.68975
G1 X131.901 Y65.880 E2.70031
G1 X131.802 Y65.672 E2.71058
G1 X131.729 Y65.447 E2.72117
G1 X131.673 Y65.000 E2.74132
G1 X131.729 Y64.553 E2.76148
G1 X131.802 Y64.328 E2.77206
G1 X131.904 Y64.114 E2.78265
G1 X132.164 Y63.755 E2.80248
G1 X132.341 Y63.589 E2.81335
G1 X132.722 Y63.347 E2.83354
G1 X133.151 Y63.208 E2.85368
G1 X133.386 Y63.178 E2.86428
G1 X133.614 Y63.178 E2.87449
G1 X133.842 Y63.207 E2.88478
G1 X134.064 Y63.264 E2.89501
G1 X134.284 Y63.351 E2.90558
G1 X134.665 Y63.592 E2.92576
G1 X134.973 Y63.921 E2.94590
G1 X135.099 Y64.120 E2.95647
G1 X135.198 Y64.328 E2.96674
G1 X135.271 Y64.553 E2.97732
G1 X135.327 Y65.000 E2.99748
G1 X135.271 Y65.447 E3.01763
G1 X135.198 Y65.672 E3.02822
G1 X135.096 Y65.886 E3.03881
G1 X134.836 Y66.245 E3.05864
G1 X134.659 Y66.411 E3.06951
G1 X134.278 Y66.653 E3.08969
G1 X133.849 Y66.792 E3.10984
G1 X133.446 Y66.822 E3.12793
G1 X133.259 Y67.013 F6000.000
G1 E1.12793 F1200.00000
G92 E0
G1 Z0.800 F6000.000
G1 X95.904 Y83.637 F6000.000
G1 Z0.300 F6000.000
G1 E2.00000 F1200.00000
G1 F1800
G1 X95.904 Y79.969 E2.16408
G1 X95.922 Y79.674 E2.17728
G1 X95.983 Y79.354 E2.19188
G1 X96.084 Y79.044 E2.20646
G1 X96.223 Y78.748 E2.22106
G1 X96.398 Y78.473 E2.23565
G1 X96.606 Y78.221 E2.25024
G1 X96.844 Y77.998 E2.26485
G1 X97.108 Y77.806 E2.27944
G1 X97.394 Y77.649 E2.29403
G1 X97.697 Y77.529 E2.30863
G1 X98.013 Y77.448 E2.32322
G1 X98.337 Y77.407 E2.33781
G1 X108.662 Y77.407 E2.79968
G1 X109.018 Y77.452 E2.81572
G1 X109.608 Y77.644 E2.84348
G1 X110.160 Y77.994 E2.87271
G1 X110.584 Y78.446 E2.90045
G1 X110.776 Y78.747 E2.91639
G1 X110.916 Y79.043 E2.93104
G1 X111.027 Y79.384 E2.94710
G1 X111.096 Y79.938 E2.97205
G1 X111.096 Y100.062 E3.87222
G1 X111.027 Y100.616 E3.89716
G1 X110.916 Y100.957 E3.91323
G1 X110.776 Y101.253 E3.92787
G1 X110.584 Y101.554 E3.94382
G1 X110.160 Y102.006 E3.97156
G1 X109.609 Y102.356 E4.00078
G1 X109.018 Y102.548 E4.02855
G1 X108.662 Y102.593 E4.04460
G1 X98.337 Y102.593 E4.50644
G1 X98.010 Y102.552 E4.52117
G1 X97.654 Y102.458 E4.53767
G1 X97.133 Y102.212 E4.56344
G1 X96.844 Y102.002 E4.57940
G1 X96.606 Y101.779 E4.59401
G1 X96.398 Y101.527 E4.60860
G1 X96.223 Y101.252 E4.62320
G1 X96.084 Y100.956 E4.63779
G1 X95.983 Y100.646 E4.65238
G1 X95.922 Y100.326 E4.66698
G1 X95.904 Y100.031 E4.68017
G1 X95.904 Y86.363 E5.29155
G1 X95.737 Y86.315 E5.29932
G1 X95.602 Y86.527 E5.31059
G1 X95.394 Y86.779 E5.32519
G1 X95.156 Y87.002 E5.33978
G1 X94.892 Y87.194 E5.35438
G1 X94.606 Y87.351 E5.36896
G1 X94.303 Y87.471 E5.38355
G1 X93.987 Y87.552 E5.39816
G1 X93.663 Y87.593 E5.41276
G1 X93.337 Y87.593 E5.42734
G1 X93.013 Y87.552 E5.44193
G1 X92.697 Y87.471 E5.45654
G1 X92.394 Y87.351 E5.47113
G1 X92.108 Y87.194 E5.48572
G1 X91.844 Y87.002 E5.50031
G1 X91.606 Y86.779 E5.51491
G1 X91.398 Y86.527 E5.52951
G1 X91.263 Y86.315 E5.54077
G1 X91.096 Y86.363 E5.54854
G1 X91.096 Y100.031 E6.15992
G1 X91.078 Y100.329 E6.17325
G1 X91.006 Y100.690 E6.18974
G1 X90.793 Y101.226 E6.21551
G1 X90.602 Y101.527 E6.23149
G1 X90.394 Y101.779 E6.24608
G1 X90.156 Y102.002 E6.26067
G1 X89.892 Y102.194 E6.27527
G1 X89.606 Y102.351 E6.28986
G1 X89.303 Y102.471 E6.30445
G1 X88.987 Y102.552 E6.31905
G1 X88.663 Y102.593 E6.33365
G1 X78.337 Y102.593 E6.79553
G1 X78.010 Y102.552 E6.81026
G1 X77.654 Y102.458 E6.82676
G1 X77.133 Y102.212 E6.85253
G1 X76.844 Y102.002 E6.86849
G1 X76.606 Y101.779 E6.88309
G1 X76.398 Y101.527 E6.89769
G1 X76.223 Y101.252 E6.91229
G1 X76.084 Y100.956 E6.92688
G1 X75.983 Y100.646 E6.94147
G1 X75.922 Y100.326 E6.95607
G1 X75.904 Y100.031 E6.96926
G1 X75.904 Y86.363 E7.58064
G1 X75.737 Y86.315 E7.58841
G1 X75.602 Y86.527 E7.59968
G1 X75.394 Y86.779 E7.61427
G1 X75.156 Y87.002 E7.62887
G1 X74.892 Y87.194 E7.64346
G1 X74.606 Y87.351 E7.65805
G1 X74.303 Y87.471 E7.67264
G1 X73.987 Y87.552 E7.68725
G1 X73.663 Y87.593 E7.70184
G1 X73.337 Y87.593 E7.71643
G1 X73.013 Y87.552 E7.73102
G1 X72.697 Y87.471 E7.74563
G1 X72.394 Y87.351 E7.76022
G1 X72.108 Y87.194 E7.77481
G1 X71.844 Y87.002 E7.78940
G1 X71.606 Y86.779 E7.80400
G1 X71.398 Y86.527 E7.81860
G1 X71.263 Y86.315 E7.82986
G1 X71.096 Y86.363 E7.83763
G1 X71.096 Y100.031 E8.44901
G1 X71.078 Y100.326 E8.46220
G1 X71.017 Y100.646 E8.47680
G1 X70.916 Y100.956 E8.49139
G1 X70.777 Y101.252 E8.50598
G1 X70.602 Y101.527 E8.52059
G1 X70.394 Y101.779 E8.53518
G1 X70.156 Y102.002 E8.54977
G1 X69.892 Y102.194 E8.56437
G1 X69.606 Y102.351 E8.57896
G1 X69.303 Y102.471 E8.59355
G1 X68.987 Y102.552 E8.60815
G1 X68.663 Y102.593 E8.62275
G1 X58.337 Y102.593 E9.08463
G1 X58.013 Y102.552 E9.09923
G1 X57.697 Y102.471 E9.11383
G1 X57.394 Y102.351 E9.12842
G1 X57.108 Y102.194 E9.14301
G1 X56.844 Y102.002 E9.15760
G1 X56.606 Y101.779 E9.17220
G1 X56.398 Y101.527 E9.18680
G1 X56.223 Y101.252 E9.20140
G1 X56.084 Y100.956 E9.21599
G1 X55.983 Y100.646 E9.23058
G1 X55.922 Y100.326 E9.24518
G1 X55.904 Y100.031 E9.25837
G1 X55.904 Y86.362 E9.86978
G1 X55.738 Y86.313 E9.87753
G1 X55.576 Y86.564 E9.89088
G1 X55.181 Y86.984 E9.91666
G1 X54.892 Y87.194 E9.93263
G1 X54.606 Y87.351 E9.94722
G1 X54.303 Y87.471 E9.96181
G1 X53.987 Y87.552 E9.97642
G1 X53.663 Y87.593 E9.99101
G1 X53.337 Y87.593 E10.00559
G1 X53.013 Y87.552 E10.02019
G1 X52.697 Y87.471 E10.03480
G1 X52.394 Y87.351 E10.04938
G1 X52.108 Y87.194 E10.06397
G1 X51.844 Y87.002 E10.07856
G1 X51.606 Y86.779 E10.09317
G1 X51.398 Y86.527 E10.10777
G1 X51.263 Y86.315 E10.11903
G1 X51.096 Y86.363 E10.12680
G1 X51.096 Y100.031 E10.73818
G1 X51.078 Y100.329 E10.75150
G1 X51.006 Y100.690 E10.76799
G1 X50.793 Y101.226 E10.79377
G1 X50.602 Y101.527 E10.80974
G1 X50.394 Y101.779 E10.82434
G1 X50.156 Y102.002 E10.83893
G1 X49.892 Y102.194 E10.85353
G1 X49.606 Y102.351 E10.86811
G1 X49.303 Y102.471 E10.88270
G1 X48.987 Y102.552 E10.89731
G1 X48.663 Y102.593 E10.91191
G1 X38.337 Y102.593 E11.37379
G1 X38.013 Y102.552 E11.38838
G1 X37.697 Y102.471 E11.40299
G1 X37.394 Y102.351 E11.41758
G1 X37.108 Y102.194 E11.43217
G1 X36.844 Y102.002 E11.44676
G1 X36.606 Y101.779 E11.46136
G1 X36.398 Y101.527 E11.47596
G1 X36.223 Y101.252 E11.49055
G1 X36.084 Y100.956 E11.50515
G1 X35.983 Y100.646 E11.51973
G1 X35.922 Y100.326 E11.53433
G1 X35.904 Y100.031 E11.54753
G1 X35.904 Y86.363 E12.15891
G1 X35.737 Y86.315 E12.16668
G1 X35.602 Y86.527 E12.17795
G1 X35.394 Y86.779 E12.19254
G1 X35.154 Y87.004 E12.20726
G1 X34.854 Y87.219 E12.22375
G1 X34.333 Y87.463 E12.24953
G1 X33.987 Y87.552 E12.26550
G1 X33.663 Y87.593 E12.28010
G1 X33.337 Y87.593 E12.29468
G1 X33.013 Y87.552 E12.30928
G1 X32.697 Y87.471 E12.32388
G1 X32.394 Y87.351 E12.33847
G1 X32.108 Y87.194 E12.35306
G1 X31.844 Y87.002 E12.36765
G1 X31.606 Y86.779 E12.38226
G1 X31.398 Y86.527 E12.39685
G1 X31.223 Y86.252 E12.41145
G1 X31.084 Y85.956 E12.42604
G1 X30.983 Y85.643 E12.44076
G1 X30.916 Y85.281 E12.45725
G1 X30.917 Y84.704 E12.48304
G1 X30.983 Y84.354 E12.49901
G1 X31.084 Y84.044 E12.51359
G1 X31.223 Y83.748 E12.52819
G1 X31.398 Y83.473 E12.54278
G1 X31.625 Y83.198 E12.55875
G1 X32.069 Y82.830 E12.58454
G1 X32.391 Y82.650 E12.60102
G1 X32.697 Y82.529 E12.61575
G1 X33.013 Y82.448 E12.63034
G1 X33.337 Y82.407 E12.64493
