; generated by Slic3r 1.3.0 on 2020-05-05 at 09:29:53

; external perimeters extrusion width = 0.44mm (3.57mm^3/s)
; perimeters extrusion width = 0.56mm (5.17mm^3/s)
; infill extrusion width = 0.50mm (5.48mm^3/s)
; solid infill extrusion width = 0.56mm (3.62mm^3/s)
; top infill extrusion width = 0.56mm (2.07mm^3/s)

M107
;D3D:START:START
T0
M104 S215 T0

G21
G90
M107
T0
G28
G29
M109 T0 S215 T0
G0 F3000
M107
T0
G92 E0
G0 X0 Y149 Z0.1 F3600
G1 Y49 E6.5 F1200
G0 Z1
G92 E0
; Filament gcode

G21 ; set units to millimeters
G90 ; use absolute coordinates
M82 ; use absolute distances for extrusion
G92 E0
G1 E-1.00000 F1200.00000
G92 E0
G1 Z0.200 F6000.000
G1 X-24.000 Y58.486 F6000.000
G1 E1.00000 F1200.00000
G1 F1800
G1 X174.000 Y58.486 E4.89390
G1 X176.239 Y58.883 E4.93862
G1 X178.205 Y60.025 E4.98334
G1 X179.659 Y61.774 E5.02807
G1 X180.514 Y65.000 E5.09370
G1 X180.514 Y85.000 E5.48702
G1 X180.117 Y87.239 E5.53175
G1 X178.975 Y89.205 E5.57647
G1 X177.226 Y90.659 E5.62119
G1 X174.000 Y91.514 E5.68683
G1 X-24.000 Y91.514 E9.58073
G1 X-26.239 Y91.117 E9.62545
G1 X-28.205 Y89.975 E9.67017
G1 X-29.659 Y88.226 E9.71489
G1 X-30.514 Y85.000 E9.78053
G1 X-30.514 Y65.000 E10.17385
G1 X-30.117 Y62.761 E10.21857
G1 X-28.975 Y60.795 E10.26329
G1 X-27.226 Y59.341 E10.30802
G1 X-24.058 Y58.501 E10.37247
G1 X-24.000 Y58.743 F6000.000
G1 F1800
G1 X174.000 Y58.743 E14.26637
G1 X176.193 Y59.140 E14.31019
G1 X178.107 Y60.280 E14.35402
G1 X179.501 Y62.019 E14.39784
G1 X180.257 Y65.000 E14.45833
G1 X180.257 Y85.000 E14.85165
G1 X179.860 Y87.193 E14.89548
G1 X178.720 Y89.107 E14.93930
G1 X176.981 Y90.501 E14.98312
G1 X174.000 Y91.257 E15.04361
G1 X-24.000 Y91.257 E18.93751
G1 X-26.193 Y90.860 E18.98134
G1 X-28.107 Y89.720 E19.02516
G1 X-29.501 Y87.981 E19.06898
G1 X-30.257 Y85.000 E19.12947
G1 X-30.257 Y65.000 E19.52280
G1 X-29.860 Y62.807 E19.56662
G1 X-28.720 Y60.893 E19.61044
G1 X-26.981 Y59.499 E19.65427
G1 X-24.058 Y58.758 E19.71358
G1 E18.71358 F1200.00000
G92 E0
G1 X116.000 Y76.402 F6000.000
G1 E1.00000 F1200.00000
G1 F1800
G1 X115.567 Y76.333 E1.00862
G1 X115.176 Y76.134 E1.01726
G1 X114.866 Y75.824 E1.02587
G1 X114.667 Y75.433 E1.03450
G1 X114.598 Y75.000 E1.04313
G1 X114.667 Y74.567 E1.05175
G1 X114.866 Y74.176 E1.06038
G1 X115.176 Y73.866 E1.06900
G1 X115.567 Y73.667 E1.07764
G1 X116.000 Y73.598 E1.08626
G1 X116.433 Y73.667 E1.09488
G1 X116.824 Y73.866 E1.10351
G1 X117.134 Y74.176 E1.11213
G1 X117.333 Y74.567 E1.12076
G1 X117.402 Y75.000 E1.12938
G1 X117.333 Y75.433 E1.13801
G1 X117.134 Y75.824 E1.14664
G1 X116.824 Y76.134 E1.15526
G1 X116.433 Y76.333 E1.16389
G1 X116.059 Y76.392 E1.17133
G1 E0.17133 F1200.00000
G92 E0
G1 X-23.850 Y84.850 F6000.000
G1 E1.00000 F1200.00000
G1 F1800
G1 X-23.850 Y65.150 E1.38742
G1 X173.850 Y65.150 E5.27542
G1 X173.850 Y84.850 E5.66285
G1 X-23.790 Y84.850 E9.54967
G1 E8.54967 F1200.00000
G92 E0
G1 X-23.592 Y65.561 F6000.000
G1 E1.00000 F1200.00000
G1 F1800
G1 X-23.593 Y84.747 E1.37732
G1 X-23.592 Y65.253 E1.76071
G1 X-23.335 Y65.253 E1.76577
G1 X-23.335 Y84.747 E2.14916
G1 X-23.078 Y84.747 E2.15421
G1 X-23.078 Y65.253 E2.53760
G1 X-22.821 Y65.253 E2.54266
G1 X-22.821 Y84.747 E2.92605
G1 X-22.564 Y84.747 E2.93110
G1 X-22.564 Y65.253 E3.31449
G1 X-22.307 Y65.253 E3.31955
G1 X-22.307 Y84.747 E3.70294
G1 X-22.050 Y84.747 E3.70799
G1 X-22.050 Y65.253 E4.09138
G1 X-21.793 Y65.253 E4.09644
G1 X-21.793 Y84.747 E4.47983
G1 X-21.535 Y84.747 E4.48488
G1 X-21.535 Y65.253 E4.86827
G1 X-21.278 Y65.253 E4.87333
G1 X-21.278 Y84.747 E5.25672
G1 X-21.021 Y84.747 E5.26177
G1 X-21.021 Y65.253 E5.64516
G1 X-20.764 Y65.253 E5.65022
G1 X-20.764 Y84.747 E6.03361
G1 X-20.507 Y84.747 E6.03866
G1 X-20.507 Y65.253 E6.42205
G1 X-20.250 Y65.253 E6.42711
G1 X-20.250 Y84.747 E6.81050
G1 X-19.993 Y84.747 E6.81555
G1 X-19.993 Y65.253 E7.19894
G1 X-19.736 Y65.253 E7.20400
G1 X-19.736 Y84.747 E7.58739
G1 X-19.479 Y84.747 E7.59244
G1 X-19.479 Y65.253 E7.97583
G1 X-19.222 Y65.253 E7.98089
G1 X-19.222 Y84.747 E8.36428
G1 X-18.965 Y84.747 E8.36933
G1 X-18.965 Y65.253 E8.75272
G1 X-18.707 Y65.253 E8.75778
G1 X-18.707 Y84.747 E9.14117
G1 X-18.450 Y84.747 E9.14622
G1 X-18.450 Y65.253 E9.52961
G1 X-18.193 Y65.253 E9.53467
G1 X-18.193 Y84.747 E9.91806
G1 X-17.936 Y84.747 E9.92311
G1 X-17.936 Y65.253 E10.30650
G1 X-17.679 Y65.253 E10.31156
G1 X-17.679 Y84.747 E10.69495
G1 X-17.422 Y84.747 E10.70000
G1 X-17.422 Y65.253 E11.08339
G1 X-17.165 Y65.253 E11.08845
G1 X-17.165 Y84.747 E11.47184
G1 X-16.908 Y84.747 E11.47689
G1 X-16.908 Y65.253 E11.86028
G1 X-16.651 Y65.253 E11.86534
G1 X-16.651 Y84.747 E12.24873
G1 X-16.394 Y84.747 E12.25378
G1 X-16.394 Y65.253 E12.63717
G1 X-16.137 Y65.253 E12.64223
G1 X-16.137 Y84.747 E13.02562
G1 X-15.880 Y84.747 E13.03067
G1 X-15.880 Y65.253 E13.41406
G1 X-15.622 Y65.253 E13.41912
G1 X-15.622 Y84.747 E13.80251
G1 X-15.365 Y84.747 E13.80756
G1 X-15.365 Y65.253 E14.19095
G1 X-15.108 Y65.253 E14.19601
G1 X-15.108 Y84.747 E14.57940
G1 X-14.851 Y84.747 E14.58446
G1 X-14.851 Y65.253 E14.96784
G1 X-14.594 Y65.253 E14.97290
G1 X-14.594 Y84.747 E15.35629
G1 X-14.337 Y84.747 E15.36135
G1 X-14.337 Y65.253 E15.74473
G1 X-14.080 Y65.253 E15.74979
G1 X-14.080 Y84.747 E16.13318
G1 X-13.823 Y84.747 E16.13824
G1 X-13.823 Y65.253 E16.52162
G1 X-13.566 Y65.253 E16.52668
G1 X-13.566 Y84.747 E16.91007
G1 X-13.309 Y84.747 E16.91513
G1 X-13.309 Y65.253 E17.29851
G1 X-13.052 Y65.253 E17.30357
G1 X-13.052 Y84.747 E17.68696
G1 X-12.795 Y84.747 E17.69202
G1 X-12.795 Y65.253 E18.07540
G1 X-12.537 Y65.253 E18.08046
G1 X-12.537 Y84.747 E18.46385
G1 X-12.280 Y84.747 E18.46891
G1 X-12.280 Y65.253 E18.85230
G1 X-12.023 Y65.253 E18.85735
G1 X-12.023 Y84.747 E19.24074
G1 X-11.766 Y84.747 E19.24580
G1 X-11.766 Y65.253 E19.62919
G1 X-11.509 Y65.253 E19.63424
G1 X-11.509 Y84.747 E20.01763
G1 X-11.252 Y84.747 E20.02269
G1 X-11.252 Y65.253 E20.40608
G1 X-10.995 Y65.253 E20.41113
G1 X-10.995 Y84.747 E20.79452
G1 X-10.738 Y84.747 E20.79958
G1 X-10.738 Y65.253 E21.18297
G1 X-10.481 Y65.253 E21.18802
G1 X-10.481 Y84.747 E21.57141
G1 X-10.224 Y84.747 E21.57647
G1 X-10.224 Y65.253 E21.95986
G1 X-9.967 Y65.253 E21.96491
G1 X-9.967 Y84.747 E22.34830
G1 X-9.709 Y84.747 E22.35336
G1 X-9.709 Y65.253 E22.73675
G1 X-9.452 Y65.253 E22.74180
G1 X-9.452 Y84.747 E23.12519
G1 X-9.195 Y84.747 E23.13025
G1 X-9.195 Y65.253 E23.51364
G1 X-8.938 Y65.253 E23.51869
G1 X-8.938 Y84.747 E23.90208
G1 X-8.681 Y84.747 E23.90714
G1 X-8.681 Y65.253 E24.29053
G1 X-8.424 Y65.253 E24.29558
G1 X-8.424 Y84.747 E24.67897
G1 X-8.167 Y84.747 E24.68403
G1 X-8.167 Y65.253 E25.06742
G1 X-7.910 Y65.253 E25.07247
G1 X-7.910 Y84.747 E25.45586
G1 X-7.653 Y84.747 E25.46092
G1 X-7.653 Y65.253 E25.84431
G1 X-7.396 Y65.253 E25.84936
G1 X-7.396 Y84.747 E26.23275
G1 X-7.139 Y84.747 E26.23781
G1 X-7.139 Y65.253 E26.62120
G1 X-6.882 Y65.253 E26.62625
G1 X-6.882 Y84.747 E27.00964
G1 X-6.624 Y84.747 E27.01470
G1 X-6.624 Y65.253 E27.39809
G1 X-6.367 Y65.253 E27.40314
G1 X-6.367 Y84.747 E27.78653
G1 X-6.110 Y84.747 E27.79159
G1 X-6.110 Y65.253 E28.17498
G1 X-5.853 Y65.253 E28.18003
G1 X-5.853 Y84.747 E28.56342
G1 X-5.596 Y84.747 E28.56848
G1 X-5.596 Y65.253 E28.95187
G1 X-5.339 Y65.253 E28.95692
G1 X-5.339 Y84.747 E29.34031
G1 X-5.082 Y84.747 E29.34537
G1 X-5.082 Y65.253 E29.72876
G1 X-4.825 Y65.253 E29.73381
G1 X-4.825 Y84.747 E30.11720
G1 X-4.568 Y84.747 E30.12226
G1 X-4.568 Y65.253 E30.50565
G1 X-4.311 Y65.253 E30.51070
G1 X-4.311 Y84.747 E30.89409
G1 X-4.054 Y84.747 E30.89915
G1 X-4.054 Y65.253 E31.28254
G1 X-3.796 Y65.253 E31.28759
G1 X-3.796 Y84.747 E31.67098
G1 X-3.539 Y84.747 E31.67604
G1 X-3.539 Y65.253 E32.05943
G1 X-3.282 Y65.253 E32.06448
G1 X-3.282 Y84.747 E32.44787
G1 X-3.025 Y84.747 E32.45293
G1 X-3.025 Y65.253 E32.83632
G1 X-2.768 Y65.253 E32.84138
G1 X-2.768 Y84.747 E33.22476
G1 X-2.511 Y84.747 E33.22982
G1 X-2.511 Y65.253 E33.61321
G1 X-2.254 Y65.253 E33.61827
G1 X-2.254 Y84.747 E34.00165
G1 X-1.997 Y84.747 E34.00671
G1 X-1.997 Y65.253 E34.39010
G1 X-1.740 Y65.253 E34.39516
G1 X-1.740 Y84.747 E34.77854
G1 X-1.483 Y84.747 E34.78360
G1 X-1.483 Y65.253 E35.16699
G1 X-1.226 Y65.253 E35.17205
G1 X-1.226 Y84.747 E35.55543
G1 X-0.969 Y84.747 E35.56049
G1 X-0.969 Y65.253 E35.94388
G1 X-0.711 Y65.253 E35.94894
G1 X-0.711 Y84.747 E36.33233
G1 X-0.454 Y84.747 E36.33738
G1 X-0.454 Y65.253 E36.72077
G1 X-0.197 Y65.253 E36.72583
G1 X-0.197 Y84.747 E37.10922
G1 X0.060 Y84.747 E37.11427
G1 X0.060 Y65.253 E37.49766
G1 X0.317 Y65.253 E37.50272
G1 X0.317 Y84.747 E37.88611
G1 X0.574 Y84.747 E37.89116
G1 X0.574 Y65.253 E38.27455
G1 X0.831 Y65.253 E38.27961
G1 X0.831 Y84.747 E38.66300
G1 X1.088 Y84.747 E38.66805
G1 X1.088 Y65.253 E39.05144
G1 X1.345 Y65.253 E39.05650
G1 X1.345 Y84.747 E39.43989
G1 X1.602 Y84.747 E39.44494
G1 X1.602 Y65.253 E39.82833
G1 X1.859 Y65.253 E39.83339
G1 X1.859 Y84.747 E40.21678
G1 X2.116 Y84.747 E40.22183
G1 X2.116 Y65.253 E40.60522
G1 X2.374 Y65.253 E40.61028
G1 X2.374 Y84.747 E40.99367
G1 X2.631 Y84.747 E40.99872
G1 X2.631 Y65.253 E41.38211
G1 X2.888 Y65.253 E41.38717
G1 X2.888 Y84.747 E41.77056
G1 X3.145 Y84.747 E41.77561
G1 X3.145 Y65.253 E42.15900
G1 X3.402 Y65.253 E42.16406
G1 X3.402 Y84.747 E42.54745
G1 X3.659 Y84.747 E42.55250
G1 X3.659 Y65.253 E42.93589
G1 X3.916 Y65.253 E42.94095
G1 X3.916 Y84.747 E43.32434
G1 X4.173 Y84.747 E43.32939
G1 X4.173 Y65.253 E43.71278
G1 X4.430 Y65.253 E43.71784
G1 X4.430 Y84.747 E44.10123
G1 X4.687 Y84.747 E44.10628
G1 X4.687 Y65.253 E44.48967
G1 X4.944 Y65.253 E44.49473
G1 X4.944 Y84.747 E44.87812
G1 X5.202 Y84.747 E44.88317
G1 X5.202 Y65.253 E45.26656
G1 X5.459 Y65.253 E45.27162
G1 X5.459 Y84.747 E45.65501
G1 X5.716 Y84.747 E45.66006
G1 X5.716 Y65.253 E46.04345
G1 X5.973 Y65.253 E46.04851
G1 X5.973 Y84.747 E46.43190
G1 X6.230 Y84.747 E46.43695
G1 X6.230 Y65.253 E46.82034
G1 X6.487 Y65.253 E46.82540
G1 X6.487 Y84.747 E47.20879
G1 X6.744 Y84.747 E47.21384
G1 X6.744 Y65.253 E47.59723
G1 X7.001 Y65.253 E47.60229
G1 X7.001 Y84.747 E47.98568
G1 X7.258 Y84.747 E47.99073
G1 X7.258 Y65.253 E48.37412
G1 X7.515 Y65.253 E48.37918
G1 X7.515 Y84.747 E48.76257
G1 X7.772 Y84.747 E48.76763
G1 X7.772 Y65.253 E49.15101
G1 X8.029 Y65.253 E49.15607
G1 X8.029 Y84.747 E49.53946
G1 X8.287 Y84.747 E49.54452
G1 X8.287 Y65.253 E49.92790
G1 X8.544 Y65.253 E49.93296
G1 X8.544 Y84.747 E50.31635
G1 X8.801 Y84.747 E50.32141
G1 X8.801 Y65.253 E50.70479
G1 X9.058 Y65.253 E50.70985
G1 X9.058 Y84.747 E51.09324
G1 X9.315 Y84.747 E51.09830
G1 X9.315 Y65.253 E51.48169
G1 X9.572 Y65.253 E51.48674
G1 X9.572 Y84.747 E51.87013
G1 X9.829 Y84.747 E51.87519
G1 X9.829 Y65.253 E52.25858
G1 X10.086 Y65.253 E52.26363
G1 X10.086 Y84.747 E52.64702
G1 X10.343 Y84.747 E52.65208
G1 X10.343 Y65.253 E53.03547
G1 X10.600 Y65.253 E53.04052
G1 X10.600 Y84.747 E53.42391
G1 X10.857 Y84.747 E53.42897
G1 X10.857 Y65.253 E53.81236
G1 X11.114 Y65.253 E53.81741
G1 X11.114 Y84.747 E54.20080
G1 X11.372 Y84.747 E54.20586
G1 X11.372 Y65.253 E54.58925
G1 X11.629 Y65.253 E54.59430
G1 X11.629 Y84.747 E54.97769
G1 X11.886 Y84.747 E54.98275
G1 X11.886 Y65.253 E55.36614
G1 X12.143 Y65.253 E55.37119
G1 X12.143 Y84.747 E55.75458
G1 X12.400 Y84.747 E55.75964
G1 X12.400 Y65.253 E56.14303
G1 X12.657 Y65.253 E56.14808
G1 X12.657 Y84.747 E56.53147
G1 X12.914 Y84.747 E56.53653
G1 X12.914 Y65.253 E56.91992
G1 X13.171 Y65.253 E56.92497
G1 X13.171 Y84.747 E57.30836
G1 X13.428 Y84.747 E57.31342
G1 X13.428 Y65.253 E57.69681
G1 X13.685 Y65.253 E57.70186
G1 X13.685 Y84.747 E58.08525
G1 X13.942 Y84.747 E58.09031
G1 X13.942 Y65.253 E58.47370
G1 X14.200 Y65.253 E58.47875
G1 X14.200 Y84.747 E58.86214
G1 X14.457 Y84.747 E58.86720
G1 X14.457 Y65.253 E59.25059
G1 X14.714 Y65.253 E59.25564
G1 X14.714 Y84.747 E59.63903
G1 X14.971 Y84.747 E59.64409
G1 X14.971 Y65.253 E60.02748
G1 X15.228 Y65.253 E60.03253
G1 X15.228 Y84.747 E60.41592
G1 X15.485 Y84.747 E60.42098
G1 X15.485 Y65.253 E60.80437
G1 X15.742 Y65.253 E60.80942
G1 X15.742 Y84.747 E61.19281
G1 X15.999 Y84.747 E61.19787
G1 X15.999 Y65.253 E61.58126
G1 X16.256 Y65.253 E61.58631
G1 X16.256 Y84.747 E61.96970
G1 X16.513 Y84.747 E61.97476
G1 X16.513 Y65.253 E62.35815
G1 X16.770 Y65.253 E62.36320
G1 X16.770 Y84.747 E62.74659
G1 X17.027 Y84.747 E62.75165
G1 X17.027 Y65.253 E63.13504
G1 X17.285 Y65.253 E63.14009
G1 X17.285 Y84.747 E63.52348
G1 X17.542 Y84.747 E63.52854
G1 X17.542 Y65.253 E63.91193
G1 X17.799 Y65.253 E63.91698
G1 X17.799 Y84.747 E64.30037
G1 X18.056 Y84.747 E64.30543
G1 X18.056 Y65.253 E64.68882
G1 X18.313 Y65.253 E64.69387
G1 X18.313 Y84.747 E65.07726
G1 X18.570 Y84.747 E65.08232
G1 X18.570 Y65.253 E65.46571
G1 X18.827 Y65.253 E65.47077
G1 X18.827 Y84.747 E65.85415
G1 X19.084 Y84.747 E65.85921
G1 X19.084 Y65.253 E66.24260
G1 X19.341 Y65.253 E66.24766
G1 X19.341 Y84.747 E66.63104
G1 X19.598 Y84.747 E66.63610
G1 X19.598 Y65.253 E67.01949
G1 X19.855 Y65.253 E67.02455
G1 X19.855 Y84.747 E67.40793
G1 X20.112 Y84.747 E67.41299
G1 X20.113 Y65.253 E67.79638
G1 X20.370 Y65.253 E67.80144
G1 X20.370 Y84.747 E68.18482
G1 X20.627 Y84.747 E68.18988
G1 X20.627 Y65.253 E68.57327
G1 X20.884 Y65.253 E68.57833
G1 X20.884 Y84.747 E68.96172
G1 X21.141 Y84.747 E68.96677
G1 X21.141 Y65.253 E69.35016
G1 X21.398 Y65.253 E69.35522
G1 X21.398 Y84.747 E69.73861
G1 X21.655 Y84.747 E69.74366
G1 X21.655 Y65.253 E70.12705
G1 X21.912 Y65.253 E70.13211
G1 X21.912 Y84.747 E70.51550
G1 X22.169 Y84.747 E70.52055
G1 X22.169 Y65.253 E70.90394
G1 X22.426 Y65.253 E70.90900
G1 X22.426 Y84.747 E71.29239
G1 X22.683 Y84.747 E71.29744
G1 X22.683 Y65.253 E71.68083
G1 X22.940 Y65.253 E71.68589
G1 X22.940 Y84.747 E72.06928
G1 X23.198 Y84.747 E72.07433
G1 X23.198 Y65.253 E72.45772
G1 X23.455 Y65.253 E72.46278
G1 X23.455 Y84.747 E72.84617
G1 X23.712 Y84.747 E72.85122
G1 X23.712 Y65.253 E73.23461
G1 X23.969 Y65.253 E73.23967
G1 X23.969 Y84.747 E73.62306
G1 X24.226 Y84.747 E73.62811
G1 X24.226 Y65.253 E74.01150
G1 X24.483 Y65.253 E74.01656
G1 X24.483 Y84.747 E74.39995
G1 X24.740 Y84.747 E74.40500
G1 X24.740 Y65.253 E74.78839
G1 X24.997 Y65.253 E74.79345
G1 X24.997 Y84.747 E75.17684
G1 X25.254 Y84.747 E75.18189
G1 X25.254 Y65.253 E75.56528
G1 X25.511 Y65.253 E75.57034
G1 X25.511 Y84.747 E75.95373
G1 X25.768 Y84.747 E75.95878
G1 X25.768 Y65.253 E76.34217
G1 X26.025 Y65.253 E76.34723
G1 X26.025 Y84.747 E76.73062
G1 X26.283 Y84.747 E76.73567
G1 X26.283 Y65.253 E77.11906
G1 X26.540 Y65.253 E77.12412
G1 X26.540 Y84.747 E77.50751
G1 X26.797 Y84.747 E77.51256
G1 X26.797 Y65.253 E77.89595
G1 X27.054 Y65.253 E77.90101
G1 X27.054 Y84.747 E78.28440
G1 X27.311 Y84.747 E78.28945
G1 X27.311 Y65.253 E78.67284
G1 X27.568 Y65.253 E78.67790
G1 X27.568 Y84.747 E79.06129
G1 X27.825 Y84.747 E79.06634
G1 X27.825 Y65.253 E79.44973
G1 X28.082 Y65.253 E79.45479
G1 X28.082 Y84.747 E79.83818
G1 X28.339 Y84.747 E79.84323
G1 X28.339 Y65.253 E80.22662
G1 X28.596 Y65.253 E80.23168
G1 X28.596 Y84.747 E80.61507
G1 X28.853 Y84.747 E80.62012
G1 X28.853 Y65.253 E81.00351
G1 X29.111 Y65.253 E81.00857
G1 X29.111 Y84.747 E81.39196
G1 X29.368 Y84.747 E81.39701
G1 X29.368 Y65.253 E81.78040
G1 X29.625 Y65.253 E81.78546
G1 X29.625 Y84.747 E82.16885
G1 X29.882 Y84.747 E82.17390
G1 X29.882 Y65.253 E82.55729
G1 X30.139 Y65.253 E82.56235
G1 X30.139 Y84.747 E82.94574
G1 X30.396 Y84.747 E82.95079
G1 X30.396 Y65.253 E83.33418
G1 X30.653 Y65.253 E83.33924
G1 X30.653 Y84.747 E83.72263
G1 X30.910 Y84.747 E83.72768
G1 X30.910 Y65.253 E84.11107
G1 X31.167 Y65.253 E84.11613
G1 X31.167 Y84.747 E84.49952
G1 X31.424 Y84.747 E84.50457
G1 X31.424 Y65.253 E84.88796
G1 X31.681 Y65.253 E84.89302
G1 X31.681 Y84.747 E85.27641
G1 X31.938 Y84.747 E85.28147
G1 X31.938 Y65.253 E85.66485
G1 X32.196 Y65.253 E85.66991
G1 X32.196 Y84.747 E86.05330
G1 X32.453 Y84.747 E86.05836
G1 X32.453 Y65.253 E86.44174
G1 X32.710 Y65.253 E86.44680
G1 X32.710 Y84.747 E86.83019
G1 X32.967 Y84.747 E86.83525
G1 X32.967 Y65.253 E87.21863
G1 X33.224 Y65.253 E87.22369
G1 X33.224 Y84.747 E87.60708
G1 X33.481 Y84.747 E87.61214
G1 X33.481 Y65.253 E87.99552
G1 X33.738 Y65.253 E88.00058
G1 X33.738 Y84.747 E88.38397
G1 X33.995 Y84.747 E88.38903
G1 X33.995 Y65.253 E88.77241
G1 X34.252 Y65.253 E88.77747
