; generated by Slic3r 1.3.0 on 2020-04-24 at 13:37:03

; external perimeters extrusion width = 0.44mm (2.86mm^3/s)
; perimeters extrusion width = 0.56mm (4.14mm^3/s)
; infill extrusion width = 0.50mm (3.66mm^3/s)
; solid infill extrusion width = 0.56mm (3.10mm^3/s)
; top infill extrusion width = 0.45mm (2.44mm^3/s)

M107
;D3D:START:START
T0
M104 S215 T0

G21
G90
M107
T0
G28
G29
M109 T0 S215 T0
G0 F3000
M107
T0
G92 E0
G0 X0 Y149 Z0.1 F3600
G1 Y49 E6.5 F1200
G0 Z1
G92 E0
; Filament gcode

G21 ; set units to millimeters
G90 ; use absolute coordinates
M82 ; use absolute distances for extrusion
G92 E0
G1 Z0.200 F6000.000
G1 E-2.00000 F1200.00000
G92 E0
G1 Z0.700 F6000.000
G1 X66.836 Y79.164 F6000.000
G1 Z0.200 F6000.000
G1 E2.00000 F1200.00000
G1 F1800
G1 X70.566 Y79.164 E2.07176
G1 X71.043 Y78.976 E2.08162
G1 X71.813 Y78.778 E2.09693
G1 X72.602 Y78.678 E2.11223
G1 X73.398 Y78.678 E2.12754
G1 X74.187 Y78.778 E2.14284
G1 X74.957 Y78.976 E2.15814
G1 X75.697 Y79.268 E2.17345
G1 X76.394 Y79.652 E2.18875
G1 X77.038 Y80.119 E2.20406
G1 X77.618 Y80.664 E2.21936
G1 X78.125 Y81.277 E2.23467
G1 X78.551 Y81.948 E2.24997
G1 X78.888 Y82.664 E2.26519
G1 X84.336 Y82.664 E2.37000
G1 X84.336 Y83.836 E2.39254
G1 X78.636 Y83.836 E2.50221
G1 X78.584 Y83.566 E2.50749
G1 X78.361 Y82.878 E2.52142
G1 X78.052 Y82.223 E2.53535
G1 X77.664 Y81.611 E2.54928
G1 X77.203 Y81.053 E2.56321
G1 X76.675 Y80.558 E2.57713
G1 X76.089 Y80.132 E2.59106
G1 X75.455 Y79.783 E2.60499
G1 X74.782 Y79.517 E2.61892
G1 X74.080 Y79.337 E2.63285
G1 X73.362 Y79.246 E2.64678
G1 X72.638 Y79.246 E2.66071
G1 X71.920 Y79.337 E2.67464
G1 X71.218 Y79.517 E2.68857
G1 X70.545 Y79.783 E2.70250
G1 X69.911 Y80.132 E2.71643
G1 X69.325 Y80.558 E2.73036
G1 X68.797 Y81.053 E2.74429
G1 X68.336 Y81.611 E2.75822
G1 X67.948 Y82.223 E2.77215
G1 X67.639 Y82.878 E2.78608
G1 X67.416 Y83.566 E2.80001
G1 X67.280 Y84.277 E2.81393
G1 X67.235 Y85.000 E2.82786
G1 X67.280 Y85.723 E2.84179
G1 X67.416 Y86.434 E2.85572
G1 X67.639 Y87.122 E2.86965
G1 X67.948 Y87.777 E2.88358
G1 X68.336 Y88.389 E2.89751
G1 X68.797 Y88.947 E2.91144
G1 X69.320 Y89.438 E2.92524
G1 X69.910 Y89.868 E2.93929
G1 X70.545 Y90.217 E2.95323
G1 X71.218 Y90.483 E2.96716
G1 X71.920 Y90.663 E2.98109
G1 X72.638 Y90.754 E2.99502
G1 X73.362 Y90.754 E3.00894
G1 X74.080 Y90.663 E3.02287
G1 X74.782 Y90.483 E3.03680
G1 X75.455 Y90.217 E3.05073
G1 X76.089 Y89.868 E3.06466
G1 X76.675 Y89.442 E3.07859
G1 X77.203 Y88.947 E3.09252
G1 X77.664 Y88.389 E3.10645
G1 X78.052 Y87.777 E3.12038
G1 X78.361 Y87.122 E3.13431
G1 X78.584 Y86.434 E3.14824
G1 X78.636 Y86.164 E3.15352
G1 X84.336 Y86.164 E3.26318
G1 X84.336 Y87.336 E3.28572
G1 X78.888 Y87.336 E3.39054
G1 X78.551 Y88.052 E3.40576
G1 X78.125 Y88.723 E3.42106
G1 X77.618 Y89.336 E3.43637
G1 X77.038 Y89.881 E3.45167
G1 X76.394 Y90.348 E3.46697
G1 X75.697 Y90.732 E3.48228
G1 X74.957 Y91.024 E3.49758
G1 X74.187 Y91.222 E3.51289
G1 X73.398 Y91.322 E3.52819
G1 X72.602 Y91.322 E3.54349
G1 X71.813 Y91.222 E3.55880
G1 X71.043 Y91.024 E3.57410
G1 X70.566 Y90.836 E3.58396
G1 X66.836 Y90.836 E3.65573
G1 X66.836 Y99.336 E3.81926
G1 X65.164 Y99.336 E3.85142
G1 X65.164 Y70.664 E4.40302
G1 X66.836 Y70.664 E4.43518
G1 X66.836 Y79.104 E4.59756
G1 X67.093 Y78.907 F6000.000
G1 F1800
G1 X70.517 Y78.907 E4.66343
G1 X70.963 Y78.731 E4.67266
G1 X71.765 Y78.525 E4.68858
G1 X72.586 Y78.421 E4.70451
G1 X73.414 Y78.421 E4.72044
G1 X74.235 Y78.525 E4.73636
G1 X75.037 Y78.731 E4.75229
G1 X75.807 Y79.035 E4.76822
G1 X76.532 Y79.434 E4.78414
G1 X77.202 Y79.921 E4.80007
G1 X77.805 Y80.487 E4.81600
G1 X78.333 Y81.125 E4.83192
G1 X78.777 Y81.824 E4.84785
G1 X79.051 Y82.407 E4.86024
G1 X84.593 Y82.407 E4.96686
G1 X84.593 Y84.093 E4.99929
G1 X78.423 Y84.093 E5.11799
G1 X78.335 Y83.630 E5.12706
G1 X78.121 Y82.972 E5.14036
G1 X77.827 Y82.347 E5.15367
G1 X77.456 Y81.763 E5.16698
G1 X77.015 Y81.230 E5.18028
G1 X76.511 Y80.756 E5.19359
G1 X75.951 Y80.350 E5.20690
G1 X75.345 Y80.016 E5.22021
G1 X74.702 Y79.762 E5.23351
G1 X74.032 Y79.590 E5.24682
G1 X73.346 Y79.503 E5.26013
G1 X72.654 Y79.503 E5.27343
G1 X71.968 Y79.590 E5.28674
G1 X71.298 Y79.762 E5.30005
G1 X70.655 Y80.016 E5.31336
G1 X70.049 Y80.350 E5.32666
G1 X69.489 Y80.756 E5.33997
G1 X68.985 Y81.230 E5.35328
G1 X68.544 Y81.763 E5.36658
G1 X68.173 Y82.347 E5.37989
G1 X67.879 Y82.972 E5.39320
G1 X67.665 Y83.630 E5.40651
G1 X67.536 Y84.310 E5.41981
G1 X67.492 Y85.000 E5.43312
G1 X67.536 Y85.690 E5.44643
G1 X67.665 Y86.370 E5.45973
G1 X67.879 Y87.028 E5.47304
G1 X68.173 Y87.653 E5.48635
G1 X68.544 Y88.237 E5.49965
G1 X68.985 Y88.770 E5.51296
G1 X69.484 Y89.239 E5.52614
G1 X70.049 Y89.650 E5.53957
G1 X70.655 Y89.984 E5.55288
G1 X71.298 Y90.238 E5.56619
G1 X71.968 Y90.410 E5.57950
G1 X72.654 Y90.497 E5.59280
G1 X73.346 Y90.497 E5.60611
G1 X74.032 Y90.410 E5.61942
G1 X74.702 Y90.238 E5.63272
G1 X75.345 Y89.984 E5.64603
G1 X75.951 Y89.650 E5.65934
G1 X76.511 Y89.244 E5.67265
G1 X77.015 Y88.770 E5.68595
G1 X77.456 Y88.237 E5.69926
G1 X77.827 Y87.653 E5.71257
G1 X78.121 Y87.028 E5.72587
G1 X78.335 Y86.370 E5.73918
G1 X78.423 Y85.907 E5.74824
G1 X84.593 Y85.907 E5.86694
G1 X84.593 Y87.593 E5.89937
G1 X79.051 Y87.593 E6.00599
G1 X78.777 Y88.176 E6.01839
G1 X78.333 Y88.875 E6.03431
G1 X77.805 Y89.513 E6.05024
G1 X77.202 Y90.079 E6.06617
G1 X76.532 Y90.566 E6.08209
G1 X75.807 Y90.965 E6.09802
G1 X75.037 Y91.269 E6.11395
G1 X74.235 Y91.475 E6.12987
G1 X73.414 Y91.579 E6.14580
G1 X72.586 Y91.579 E6.16173
G1 X71.765 Y91.475 E6.17765
G1 X70.963 Y91.269 E6.19358
G1 X70.517 Y91.093 E6.20281
G1 X67.093 Y91.093 E6.26868
G1 X67.093 Y99.593 E6.43221
G1 X64.907 Y99.593 E6.47426
G1 X64.907 Y70.407 E7.03576
G1 X67.093 Y70.407 E7.07781
G1 X67.093 Y78.847 E7.24018
G1 X67.350 Y78.650 F6000.000
G1 F1800
G1 X70.468 Y78.650 E7.30017
G1 X70.883 Y78.486 E7.30876
G1 X71.716 Y78.272 E7.32531
G1 X72.570 Y78.164 E7.34186
G1 X73.430 Y78.164 E7.35841
G1 X74.284 Y78.272 E7.37496
G1 X75.117 Y78.486 E7.39151
G1 X75.916 Y78.802 E7.40806
G1 X76.670 Y79.217 E7.42461
G1 X77.366 Y79.722 E7.44116
G1 X77.993 Y80.311 E7.45771
G1 X78.542 Y80.974 E7.47425
G1 X79.002 Y81.700 E7.49080
G1 X79.214 Y82.150 E7.50037
G1 X84.850 Y82.150 E7.60879
G1 X84.850 Y84.350 E7.65112
G1 X78.210 Y84.350 E7.77886
G1 X78.085 Y83.694 E7.79170
G1 X77.882 Y83.067 E7.80438
G1 X77.601 Y82.471 E7.81707
G1 X77.248 Y81.914 E7.82975
G1 X76.827 Y81.406 E7.84244
G1 X76.347 Y80.955 E7.85512
G1 X75.813 Y80.567 E7.86781
G1 X75.235 Y80.249 E7.88049
G1 X74.622 Y80.007 E7.89318
G1 X73.984 Y79.843 E7.90586
G1 X73.330 Y79.760 E7.91855
G1 X72.670 Y79.760 E7.93123
G1 X72.016 Y79.843 E7.94391
G1 X71.378 Y80.007 E7.95660
G1 X70.765 Y80.249 E7.96928
G1 X70.187 Y80.567 E7.98197
G1 X69.653 Y80.955 E7.99465
G1 X69.173 Y81.406 E8.00734
G1 X68.752 Y81.914 E8.02002
G1 X68.399 Y82.471 E8.03271
G1 X68.118 Y83.067 E8.04539
G1 X67.915 Y83.694 E8.05808
G1 X67.791 Y84.342 E8.07076
G1 X67.750 Y85.000 E8.08345
G1 X67.791 Y85.658 E8.09613
G1 X67.915 Y86.306 E8.10882
G1 X68.118 Y86.933 E8.12150
G1 X68.399 Y87.529 E8.13419
G1 X68.752 Y88.086 E8.14687
G1 X69.173 Y88.594 E8.15956
G1 X69.649 Y89.041 E8.17211
G1 X70.187 Y89.433 E8.18492
G1 X70.765 Y89.751 E8.19761
G1 X71.378 Y89.993 E8.21029
G1 X72.016 Y90.157 E8.22298
G1 X72.670 Y90.240 E8.23566
G1 X73.330 Y90.240 E8.24835
G1 X73.984 Y90.157 E8.26103
G1 X74.622 Y89.993 E8.27372
G1 X75.235 Y89.751 E8.28640
G1 X75.813 Y89.433 E8.29909
G1 X76.347 Y89.045 E8.31177
G1 X76.827 Y88.594 E8.32446
G1 X77.248 Y88.086 E8.33714
G1 X77.601 Y87.529 E8.34983
G1 X77.882 Y86.933 E8.36251
G1 X78.085 Y86.306 E8.37520
G1 X78.210 Y85.650 E8.38804
G1 X84.850 Y85.650 E8.51577
G1 X84.850 Y87.850 E8.55810
G1 X79.214 Y87.850 E8.66653
G1 X79.002 Y88.300 E8.67609
G1 X78.542 Y89.026 E8.69264
G1 X77.993 Y89.689 E8.70919
G1 X77.366 Y90.278 E8.72574
G1 X76.670 Y90.783 E8.74229
G1 X75.916 Y91.198 E8.75884
G1 X75.117 Y91.514 E8.77538
G1 X74.284 Y91.728 E8.79193
G1 X73.430 Y91.836 E8.80848
G1 X72.570 Y91.836 E8.82503
G1 X71.716 Y91.728 E8.84158
G1 X70.883 Y91.514 E8.85813
G1 X70.468 Y91.350 E8.86672
G1 X67.350 Y91.350 E8.92671
G1 X67.350 Y99.850 E9.09024
G1 X64.650 Y99.850 E9.14218
G1 X64.650 Y70.150 E9.71357
G1 X67.350 Y70.150 E9.76551
G1 X67.350 Y78.590 E9.92789
G1 X67.391 Y79.048 F6000.000
G1 E7.92789 F1200.00000
G92 E0
G1 Z0.700 F6000.000
G1 X70.574 Y79.466 F6000.000
G1 Z0.200 F6000.000
G1 E2.00000 F1200.00000
G1 F1800
G1 X71.130 Y79.246 E2.01200
G1 X71.866 Y79.057 E2.02724
G1 X72.620 Y78.962 E2.04248
G1 X73.370 Y78.962 E2.05751
G1 X74.143 Y79.060 E2.07314
G1 X74.870 Y79.246 E2.08818
G1 X75.567 Y79.522 E2.10322
G1 X76.250 Y79.898 E2.11884
G1 X76.856 Y80.339 E2.13388
G1 X77.410 Y80.859 E2.14912
G1 X77.894 Y81.444 E2.16436
G1 X78.296 Y82.077 E2.17940
G1 X78.634 Y82.793 E2.19527
G1 X78.797 Y82.943 F6000.000
G1 F1800
G1 X78.578 Y83.161 E2.20131
G1 X78.669 Y83.440 E2.20706
G1 X79.297 Y82.812 E2.22444
G1 X79.667 Y82.812 E2.23168
G1 X78.791 Y83.688 E2.25592
G1 X79.161 Y83.688 E2.26316
G1 X80.037 Y82.812 E2.28740
G1 X80.407 Y82.812 E2.29464
G1 X79.531 Y83.688 E2.31887
G1 X79.901 Y83.688 E2.32611
G1 X80.777 Y82.812 E2.35035
G1 X81.147 Y82.812 E2.35759
G1 X80.271 Y83.688 E2.38183
G1 X80.641 Y83.688 E2.38907
G1 X81.516 Y82.812 E2.41331
G1 X81.886 Y82.812 E2.42055
G1 X81.011 Y83.688 E2.44479
G1 X81.380 Y83.688 E2.45203
G1 X82.256 Y82.812 E2.47627
G1 X82.626 Y82.812 E2.48351
G1 X81.750 Y83.688 E2.50774
G1 X82.120 Y83.688 E2.51498
G1 X82.996 Y82.812 E2.53922
G1 X83.366 Y82.812 E2.54646
G1 X82.490 Y83.688 E2.57070
G1 X82.860 Y83.688 E2.57794
G1 X83.736 Y82.812 E2.60218
G1 X84.106 Y82.812 E2.60942
G1 X83.230 Y83.688 E2.63366
G1 X83.600 Y83.688 E2.64090
G1 X84.188 Y83.100 E2.65718
G1 X84.188 Y83.470 E2.66442
G1 X83.970 Y83.688 E2.67046
G1 E0.67046 F1200.00000
G92 E0
G1 Z0.700 F6000.000
G1 X83.970 Y87.188 F6000.000
G1 Z0.200 F6000.000
G1 E2.00000 F1200.00000
G1 F1800
G1 X84.188 Y86.970 E2.00601
G1 X84.188 Y86.602 E2.01318
G1 X83.602 Y87.188 E2.02932
G1 X83.234 Y87.188 E2.03649
G1 X84.109 Y86.312 E2.06060
G1 X83.741 Y86.312 E2.06777
G1 X82.866 Y87.188 E2.09188
G1 X82.498 Y87.188 E2.09905
G1 X83.373 Y86.312 E2.12316
G1 X83.005 Y86.312 E2.13033
G1 X82.130 Y87.188 E2.15444
G1 X81.762 Y87.188 E2.16161
G1 X82.637 Y86.312 E2.18572
G1 X82.269 Y86.312 E2.19289
G1 X81.394 Y87.188 E2.21700
G1 X81.026 Y87.188 E2.22417
G1 X81.901 Y86.312 E2.24828
G1 X81.533 Y86.312 E2.25545
G1 X80.658 Y87.188 E2.27956
G1 X80.290 Y87.188 E2.28673
G1 X81.166 Y86.312 E2.31084
G1 X80.798 Y86.312 E2.31801
G1 X79.922 Y87.188 E2.34212
G1 X79.554 Y87.188 E2.34929
G1 X80.430 Y86.312 E2.37340
G1 X80.062 Y86.312 E2.38057
G1 X79.186 Y87.188 E2.40468
G1 X78.856 Y87.188 E2.41111
G1 X78.830 Y87.176 E2.41166
G1 X79.694 Y86.312 E2.43544
G1 X79.326 Y86.312 E2.44261
G1 X78.578 Y87.057 E2.46316
G1 X78.739 Y86.530 E2.47388
G1 X78.958 Y86.312 E2.47989
G1 X78.634 Y87.207 F6000.000
G1 F1800
G1 X78.296 Y87.923 E2.49576
G1 X77.894 Y88.556 E2.51080
G1 X77.410 Y89.141 E2.52604
G1 X76.856 Y89.661 E2.54127
G1 X76.250 Y90.102 E2.55631
G1 X75.567 Y90.478 E2.57194
G1 X74.870 Y90.754 E2.58698
G1 X74.143 Y90.940 E2.60202
G1 X73.370 Y91.038 E2.61764
G1 X72.620 Y91.038 E2.63268
G1 X71.866 Y90.943 E2.64792
G1 X71.130 Y90.754 E2.66315
G1 X70.574 Y90.534 E2.67516
G1 X69.839 Y90.688 F6000.000
G1 F1800
G1 X70.314 Y90.214 E2.68816
G1 X70.077 Y90.084 E2.69339
G1 X69.473 Y90.688 E2.70996
G1 X69.107 Y90.688 E2.71706
G1 X69.845 Y89.950 E2.73731
G1 X69.633 Y89.795 E2.74239
G1 X68.740 Y90.688 E2.76687
G1 X68.374 Y90.688 E2.77398
G1 X69.421 Y89.641 E2.80269
G1 X69.215 Y89.480 E2.80776
G1 X68.007 Y90.688 E2.84087
G1 X67.641 Y90.688 E2.84798
G1 X69.026 Y89.303 E2.88596
G1 X68.837 Y89.125 E2.89099
G1 X67.274 Y90.688 E2.93384
G1 X66.908 Y90.688 E2.94094
G1 X68.657 Y88.939 E2.98889
G1 X68.491 Y88.739 E2.99394
G1 X66.542 Y90.688 E3.04739
G1 X66.470 Y90.688 E3.04878
G1 X66.470 Y90.760 E3.05018
G1 E1.05018 F1200.00000
G92 E0
G1 Z0.700 F6000.000
G1 X65.312 Y83.856 F6000.000
G1 Z0.200 F6000.000
G1 E2.00000 F1200.00000
G1 F1800
G1 X69.856 Y79.312 E2.12459
G1 X69.489 Y79.312 E2.13170
G1 X65.312 Y83.489 E2.24625
G1 X65.312 Y83.123 E2.25335
G1 X69.123 Y79.312 E2.35785
G1 X68.756 Y79.312 E2.36495
G1 X65.312 Y82.756 E2.45940
G1 X65.312 Y82.390 E2.46651
G1 X68.390 Y79.312 E2.55091
G1 X68.024 Y79.312 E2.55801
G1 X65.312 Y82.024 E2.63237
G1 X65.312 Y81.657 E2.63947
G1 X67.657 Y79.312 E2.70377
G1 X67.291 Y79.312 E2.71088
G1 X65.312 Y81.291 E2.76513
G1 X65.312 Y80.924 E2.77224
G1 X66.924 Y79.312 E2.81645
G1 X66.688 Y79.312 E2.82103
G1 X66.688 Y79.182 E2.82355
G1 X65.312 Y80.558 E2.86128
G1 X65.312 Y80.191 E2.86838
G1 X66.688 Y78.816 E2.90611
G1 X66.688 Y78.449 E2.91321
G1 X65.312 Y79.825 E2.95094
G1 X65.312 Y79.458 E2.95804
G1 X66.688 Y78.083 E2.99577
G1 X66.688 Y77.716 E3.00287
G1 X65.312 Y79.092 E3.04060
G1 X65.312 Y78.726 E3.04770
G1 X66.688 Y77.350 E3.08543
G1 X66.688 Y76.983 E3.09253
G1 X65.312 Y78.359 E3.13026
G1 X65.312 Y77.993 E3.13737
G1 X66.688 Y76.617 E3.17509
G1 X66.688 Y76.251 E3.18220
G1 X65.312 Y77.626 E3.21992
G1 X65.312 Y77.260 E3.22703
G1 X66.688 Y75.884 E3.26475
G1 X66.688 Y75.518 E3.27186
G1 X65.312 Y76.893 E3.30958
G1 X65.312 Y76.527 E3.31669
G1 X66.688 Y75.151 E3.35441
G1 X66.688 Y74.785 E3.36152
G1 X65.312 Y76.161 E3.39924
G1 X65.312 Y75.794 E3.40635
G1 X66.688 Y74.418 E3.44407
G1 X66.688 Y74.052 E3.45118
G1 X65.312 Y75.428 E3.48890
G1 X65.312 Y75.061 E3.49601
G1 X66.688 Y73.686 E3.53373
G1 X66.688 Y73.319 E3.54084
G1 X65.312 Y74.695 E3.57856
G1 X65.312 Y74.328 E3.58567
G1 X66.688 Y72.953 E3.62339
G1 X66.688 Y72.586 E3.63050
G1 X65.312 Y73.962 E3.66822
G1 X65.312 Y73.595 E3.67533
G1 X66.688 Y72.220 E3.71306
G1 X66.688 Y71.853 E3.72016
G1 X65.312 Y73.229 E3.75789
G1 X65.312 Y72.863 E3.76499
G1 X66.688 Y71.487 E3.80272
G1 X66.688 Y71.120 E3.80982
G1 X65.312 Y72.496 E3.84755
G1 X65.312 Y72.130 E3.85465
G1 X66.630 Y70.812 E3.89078
G1 X66.263 Y70.812 E3.89789
G1 X65.312 Y71.763 E3.92397
G1 X65.312 Y71.397 E3.93108
G1 X65.897 Y70.812 E3.94711
G1 X65.530 Y70.812 E3.95422
G1 X65.312 Y71.030 E3.96020
G1 E1.96020 F1200.00000
G92 E0
G1 Z0.700 F6000.000
G1 X70.138 Y79.763 F6000.000
G1 Z0.200 F6000.000
G1 E2.00000 F1200.00000
G1 F1800
G1 X70.445 Y79.455 E2.00843
G1 X70.388 Y79.312 E2.01142
G1 X70.222 Y79.312 E2.01465
G1 X69.104 Y80.430 E2.04531
G1 X68.500 Y80.986 E2.06122
G1 X68.271 Y81.263 E2.06820
G1 X68.489 Y81.045 F6000.000
G1 F1800
G1 X65.312 Y84.222 E2.15532
G1 X65.312 Y84.589 E2.16242
G1 X67.760 Y82.141 E2.22954
G1 X67.509 Y82.674 E2.24095
G1 X67.468 Y82.799 E2.24350
G1 X65.312 Y84.955 E2.30263
G1 X65.312 Y85.321 E2.30973
G1 X67.292 Y83.342 E2.36403
G1 X67.197 Y83.803 E2.37316
G1 X65.312 Y85.688 E2.42485
G1 X65.312 Y86.054 E2.43195
G1 X67.127 Y84.239 E2.48172
G1 X67.102 Y84.630 E2.48932
G1 X65.312 Y86.421 E2.53841
G1 X65.312 Y86.787 E2.54551
G1 X67.093 Y85.006 E2.59436
G1 X67.115 Y85.351 E2.60106
G1 X65.312 Y87.154 E2.65049
G1 X65.312 Y87.520 E2.65760
G1 X67.142 Y85.690 E2.70778
G1 X67.201 Y85.998 E2.71385
G1 X65.312 Y87.886 E2.76564
G1 X65.312 Y88.253 E2.77274
G1 X67.259 Y86.306 E2.82614
G1 X67.341 Y86.591 E2.83189
G1 X65.312 Y88.619 E2.88752
G1 X65.312 Y88.986 E2.89463
G1 X67.431 Y86.867 E2.95272
G1 X67.524 Y87.140 E2.95832
G1 X65.312 Y89.352 E3.01897
G1 X65.312 Y89.719 E3.02608
G1 X67.641 Y87.389 E3.08995
G1 X67.759 Y87.639 E3.09529
G1 X65.312 Y90.085 E3.16238
G1 X65.312 Y90.452 E3.16948
G1 X67.885 Y87.878 E3.24005
G1 X68.028 Y88.102 E3.24520
G1 X65.312 Y90.818 E3.31966
G1 X65.312 Y91.184 E3.32677
G1 X68.170 Y88.327 E3.40513
G1 X68.325 Y88.538 E3.41022
G1 X65.312 Y91.551 E3.49283
G1 X65.312 Y91.917 E3.49994
G1 X66.688 Y90.542 E3.53766
G1 X66.688 Y90.908 E3.54477
G1 X65.312 Y92.284 E3.58249
G1 X65.312 Y92.650 E3.58960
G1 X66.688 Y91.274 E3.62732
G1 X66.688 Y91.641 E3.63443
G1 X65.312 Y93.017 E3.67215
G1 X65.312 Y93.383 E3.67926
G1 X66.688 Y92.007 E3.71699
G1 X66.688 Y92.374 E3.72409
G1 X65.312 Y93.749 E3.76182
G1 X65.312 Y94.116 E3.76892
G1 X66.688 Y92.740 E3.80665
G1 X66.688 Y93.107 E3.81375
G1 X65.312 Y94.482 E3.85148
G1 X65.312 Y94.849 E3.85858
G1 X66.688 Y93.473 E3.89631
G1 X66.688 Y93.839 E3.90341
G1 X65.312 Y95.215 E3.94114
G1 X65.312 Y95.582 E3.94824
