; generated by Slic3r 1.3.0 on 2021-03-06 at 11:32:07

; external perimeters extrusion width = 0.44mm (1.51mm^3/s)
; perimeters extrusion width = 0.56mm (2.15mm^3/s)
; infill extrusion width = 0.50mm (2.87mm^3/s)
; solid infill extrusion width = 0.56mm (1.62mm^3/s)
; top infill extrusion width = 0.45mm (1.29mm^3/s)

M107
;D3D:START:START
T0
M104 S215 T0

G21
G90
M107
T0
G28
G29
M109 T0 S215 T0
G0 F3000
M107
T0
G92 E0
G0 X0 Y149 Z0.1 F3600
G1 Y49 E6.5 F1200
G0 Z1
G92 E0
; Filament gcode

G21 ; set units to millimeters
G90 ; use absolute coordinates
M82 ; use absolute distances for extrusion
G92 E0
G1 Z0.300 F6000.000
G1 E-2.00000 F1200.00000
G92 E0
G1 X56.309 Y51.522 F6000.000
G1 E2.00000 F1200.00000
G1 F1800
G1 X57.971 Y50.514 E2.08413
G1 X59.256 Y50.251 E2.14090
G1 X85.516 Y48.556 E3.28002
G1 X87.441 Y48.829 E3.36415
G1 X89.097 Y49.846 E3.44827
G1 X90.489 Y52.316 E3.57100
G1 X95.076 Y73.680 E4.51687
G1 X95.182 Y74.682 E4.56047
G1 X95.182 Y96.682 E5.51279
G1 X94.786 Y98.585 E5.59691
G1 X93.664 Y100.172 E5.68104
G1 X92.003 Y101.180 E5.76516
G1 X89.999 Y101.435 E5.85259
G1 X59.151 Y98.765 E7.19290
G1 X57.290 Y98.207 E7.27703
G1 X55.805 Y96.953 E7.36115
G1 X54.944 Y95.210 E7.44528
G1 X54.792 Y94.012 E7.49757
G1 X54.792 Y55.012 E9.18576
G1 X55.187 Y53.109 E9.26989
G1 X56.274 Y51.571 E9.35141
G1 X56.688 Y51.700 F6000.000
G1 F1800
G1 X58.321 Y50.806 E9.43203
G1 X59.280 Y50.635 E9.47421
G1 X85.541 Y48.941 E10.61332
G1 X87.383 Y49.218 E10.69394
G1 X88.943 Y50.235 E10.77456
G1 X90.112 Y52.397 E10.88092
G1 X94.699 Y73.761 E11.82680
G1 X94.796 Y74.682 E11.86688
G1 X94.796 Y96.682 E12.81919
G1 X94.401 Y98.502 E12.89980
G1 X93.286 Y99.994 E12.98042
G1 X91.652 Y100.888 E13.06104
G1 X90.033 Y101.051 E13.13151
G1 X59.185 Y98.381 E14.47182
G1 X57.406 Y97.830 E14.55243
G1 X56.016 Y96.591 E14.63305
G1 X55.177 Y94.012 E14.75044
G1 X55.177 Y55.012 E16.43863
G1 X55.573 Y53.192 E16.51924
G1 X56.652 Y51.748 E16.59726
G1 E14.59726 F1200.00000
G92 E0
G1 X67.644 Y86.301 F6000.000
G1 E2.00000 F1200.00000
G1 F1800
G1 X67.273 Y87.028 E2.03533
G1 X66.696 Y87.606 E2.07067
G1 X65.969 Y87.976 E2.10600
G1 X65.163 Y88.104 E2.14133
G1 X64.356 Y87.976 E2.17667
G1 X63.672 Y87.627 E2.20994
G1 X63.057 Y87.038 E2.24679
G1 X62.680 Y86.297 E2.28279
G1 X62.557 Y85.477 E2.31870
G1 X62.682 Y84.689 E2.35323
G1 X63.052 Y83.961 E2.38857
G1 X63.637 Y83.376 E2.42439
G1 X64.406 Y83.006 E2.46131
G1 X65.163 Y82.886 E2.49449
G1 X65.969 Y83.013 E2.52983
G1 X66.696 Y83.384 E2.56516
G1 X67.273 Y83.961 E2.60050
G1 X67.644 Y84.689 E2.63583
G1 X67.771 Y85.495 E2.67116
G1 X67.653 Y86.242 E2.70389
G1 X67.272 Y86.181 F6000.000
G1 F1800
G1 X66.957 Y86.799 E2.73394
G1 X66.467 Y87.290 E2.76399
G1 X65.848 Y87.605 E2.79403
G1 X65.163 Y87.714 E2.82408
G1 X64.477 Y87.605 E2.85412
G1 X63.898 Y87.310 E2.88228
G1 X63.371 Y86.805 E2.91385
G1 X63.052 Y86.178 E2.94430
G1 X62.947 Y85.478 E2.97493
G1 X63.053 Y84.809 E3.00425
G1 X63.368 Y84.191 E3.03430
G1 X63.864 Y83.695 E3.06464
G1 X64.522 Y83.378 E3.09627
G1 X65.163 Y83.276 E3.12436
G1 X65.848 Y83.385 E3.15440
G1 X66.467 Y83.700 E3.18445
G1 X66.957 Y84.191 E3.21449
G1 X67.272 Y84.809 E3.24454
G1 X67.381 Y85.495 E3.27459
G1 X67.282 Y86.121 E3.30203
G1 X66.901 Y86.060 F6000.000
G1 F1800
G1 X66.641 Y86.570 E3.32679
G1 X66.237 Y86.974 E3.35155
G1 X65.728 Y87.234 E3.37631
G1 X65.163 Y87.323 E3.40106
G1 X64.598 Y87.234 E3.42582
G1 X64.123 Y86.992 E3.44888
G1 X63.685 Y86.572 E3.47516
G1 X63.424 Y86.059 E3.50006
G1 X63.337 Y85.480 E3.52541
G1 X63.424 Y84.930 E3.54951
G1 X63.684 Y84.420 E3.57427
G1 X64.090 Y84.014 E3.59914
G1 X64.638 Y83.750 E3.62548
G1 X65.163 Y83.667 E3.64847
G1 X65.728 Y83.756 E3.67322
G1 X66.237 Y84.016 E3.69798
G1 X66.641 Y84.420 E3.72274
G1 X66.901 Y84.930 E3.74750
G1 X66.991 Y85.495 E3.77226
G1 X66.910 Y86.001 E3.79442
G1 X67.169 Y86.357 F6000.000
G1 E1.79442 F1200.00000
G92 E0
G1 X76.719 Y85.495 F6000.000
G1 E2.00000 F1200.00000
G1 F1800
G1 X76.847 Y84.689 E2.03533
G1 X77.217 Y83.961 E2.07066
G1 X77.802 Y83.376 E2.10648
G1 X78.571 Y83.006 E2.14341
G1 X79.328 Y82.886 E2.17659
G1 X80.134 Y83.013 E2.21192
G1 X80.861 Y83.384 E2.24726
G1 X81.438 Y83.961 E2.28259
G1 X81.809 Y84.689 E2.31793
G1 X81.937 Y85.499 E2.35344
G1 X81.800 Y86.317 E2.38935
G1 X81.438 Y87.028 E2.42390
G1 X80.861 Y87.606 E2.45923
G1 X80.130 Y87.978 E2.49475
G1 X79.310 Y88.101 E2.53065
G1 X78.522 Y87.976 E2.56520
G1 X77.794 Y87.606 E2.60054
G1 X77.217 Y87.028 E2.63587
G1 X76.847 Y86.301 E2.67120
G1 X76.728 Y85.554 E2.70394
G1 X77.110 Y85.495 F6000.000
G1 F1800
G1 X77.218 Y84.809 E2.73398
G1 X77.533 Y84.191 E2.76403
G1 X78.029 Y83.695 E2.79437
G1 X78.687 Y83.378 E2.82601
G1 X79.328 Y83.276 E2.85409
G1 X80.013 Y83.385 E2.88413
G1 X80.632 Y83.700 E2.91418
G1 X81.122 Y84.191 E2.94423
G1 X81.437 Y84.809 E2.97427
G1 X81.546 Y85.498 E3.00443
G1 X81.430 Y86.195 E3.03505
G1 X81.122 Y86.799 E3.06438
G1 X80.632 Y87.290 E3.09443
G1 X80.011 Y87.606 E3.12459
G1 X79.312 Y87.711 E3.15520
G1 X78.642 Y87.605 E3.18453
G1 X78.024 Y87.290 E3.21458
G1 X77.533 Y86.799 E3.24462
G1 X77.218 Y86.181 E3.27467
G1 X77.119 Y85.554 E3.30212
G1 X77.500 Y85.495 F6000.000
G1 F1800
G1 X77.589 Y84.930 E3.32688
G1 X77.849 Y84.420 E3.35164
G1 X78.255 Y84.014 E3.37651
G1 X78.803 Y83.750 E3.40285
G1 X79.328 Y83.667 E3.42583
G1 X79.893 Y83.756 E3.45059
G1 X80.402 Y84.016 E3.47535
G1 X80.806 Y84.420 E3.50010
G1 X81.066 Y84.930 E3.52486
G1 X81.156 Y85.496 E3.54967
G1 X81.059 Y86.073 E3.57500
G1 X80.806 Y86.570 E3.59912
G1 X80.402 Y86.974 E3.62387
G1 X79.892 Y87.234 E3.64867
G1 X79.313 Y87.321 E3.67400
G1 X78.763 Y87.234 E3.69811
G1 X78.253 Y86.974 E3.72287
G1 X77.849 Y86.570 E3.74763
G1 X77.589 Y86.060 E3.77239
G1 X77.509 Y85.554 E3.79455
G1 X77.154 Y85.295 F6000.000
G1 E1.79455 F1200.00000
G92 E0
G1 X85.058 Y76.499 F6000.000
G1 E2.00000 F1200.00000
G1 F1800
G1 X89.114 Y95.388 E2.83627
G1 X77.961 Y93.016 E3.32983
G1 X60.559 Y93.016 E4.08312
G1 X60.559 Y78.008 E4.73275
G1 X77.961 Y78.008 E5.48604
G1 X85.000 Y76.511 E5.79752
G1 X85.355 Y76.042 F6000.000
G1 F1800
G1 X89.616 Y95.889 E6.67622
G1 X77.921 Y93.401 E7.19379
G1 X60.173 Y93.401 E7.96202
G1 X60.173 Y77.623 E8.64503
G1 X77.921 Y77.623 E9.41326
G1 X85.296 Y76.054 E9.73965
G1 X85.651 Y75.584 F6000.000
G1 F1800
G1 X90.118 Y96.390 E10.66076
G1 X77.880 Y93.787 E11.20234
G1 X59.788 Y93.787 E11.98551
G1 X59.788 Y77.237 E12.70191
G1 X77.880 Y77.237 E13.48507
G1 X85.592 Y75.597 E13.82636
G1 X85.509 Y75.959 F6000.000
G1 E11.82636 F1200.00000
G92 E0
G1 X88.448 Y95.050 F6000.000
G1 E2.00000 F1200.00000
G1 F1800
G1 X88.776 Y94.723 E2.02028
G1 X88.678 Y94.269 E2.04065
G1 X87.993 Y94.953 E2.08309
G1 X87.538 Y94.857 E2.10348
G1 X88.580 Y93.814 E2.16807
G1 X88.483 Y93.360 E2.18844
G1 X87.083 Y94.760 E2.27520
G1 X86.627 Y94.663 E2.29559
G1 X88.385 Y92.905 E2.40451
G1 X88.288 Y92.451 E2.42487
G1 X86.172 Y94.566 E2.55595
G1 X85.717 Y94.469 E2.57634
G1 X88.190 Y91.996 E2.72957
G1 X88.093 Y91.542 E2.74994
G1 X85.262 Y94.373 E2.92534
G1 X84.807 Y94.276 E2.94573
G1 X87.995 Y91.088 E3.14328
G1 X87.897 Y90.633 E3.16365
G1 X84.351 Y94.179 E3.38336
G1 X83.896 Y94.082 E3.40375
G1 X87.800 Y90.179 E3.64562
G1 X87.702 Y89.724 E3.66599
G1 X83.441 Y93.985 E3.93002
G1 X82.986 Y93.889 E3.95041
G1 X87.605 Y89.270 E4.23661
G1 X87.507 Y88.815 E4.25697
G1 X82.531 Y93.792 E4.56532
G1 X82.076 Y93.695 E4.58571
G1 X87.410 Y88.361 E4.91623
G1 X87.312 Y87.907 E4.93659
G1 X81.620 Y93.598 E5.28926
G1 X81.165 Y93.501 E5.30965
G1 X87.214 Y87.452 E5.68448
G1 X87.117 Y86.998 E5.70485
G1 X80.710 Y93.405 E6.10184
G1 X80.255 Y93.308 E6.12223
G1 X87.019 Y86.543 E6.54138
G1 X86.922 Y86.089 E6.56174
G1 X79.800 Y93.211 E7.00305
G1 X79.344 Y93.114 E7.02344
G1 X86.824 Y85.634 E7.48691
G1 X86.727 Y85.180 E7.50727
G1 X78.889 Y93.017 E7.99290
G1 X78.434 Y92.920 E8.01329
G1 X86.629 Y84.726 E8.52108
G1 X86.531 Y84.271 E8.54144
G1 X77.979 Y92.824 E9.07139
G1 X77.838 Y92.794 E9.07768
G1 X77.457 Y92.794 E9.09440
G1 X86.434 Y83.817 E9.65065
G1 X86.336 Y83.362 E9.67102
G1 X76.905 Y92.794 E10.25543
G1 X76.353 Y92.794 E10.27961
G1 X86.239 Y82.908 E10.89218
G1 X86.141 Y82.453 E10.91254
G1 X82.011 Y86.584 E11.16848
G1 X82.121 Y85.921 E11.19792
G1 X86.044 Y81.999 E11.44096
G1 X85.946 Y81.545 E11.46132
G1 X82.118 Y85.373 E11.69852
G1 X82.042 Y84.896 E11.71966
G1 X85.848 Y81.090 E11.95549
G1 X85.751 Y80.636 E11.97586
G1 X81.894 Y84.492 E12.21482
G1 X81.708 Y84.126 E12.23280
G1 X85.653 Y80.181 E12.47726
G1 X85.556 Y79.727 E12.49762
G1 X81.489 Y83.794 E12.74963
G1 X81.213 Y83.518 E12.76673
G1 X85.458 Y79.272 E13.02979
G1 X85.361 Y78.818 E13.05015
G1 X80.937 Y83.242 E13.32426
G1 X80.574 Y83.052 E13.34218
G1 X85.263 Y78.364 E13.63270
G1 X85.165 Y77.909 E13.65307
G1 X80.209 Y82.866 E13.96020
G1 X80.091 Y82.806 E13.96600
G1 X79.768 Y82.755 E13.98033
G1 X85.068 Y77.455 E14.30873
G1 X84.970 Y77.000 E14.32909
G1 X79.291 Y82.679 E14.68098
G1 X79.164 Y82.659 E14.68662
G1 X78.683 Y82.735 E14.70795
G1 X84.545 Y76.873 E15.07116
G1 X83.844 Y77.023 E15.10256
G1 X77.863 Y83.004 E15.47316
G1 X77.412 Y83.221 E15.49510
G1 X76.738 Y83.896 E15.53689
G1 X76.496 Y84.371 E15.56026
G1 X68.073 Y92.794 E16.08217
G1 X67.521 Y92.794 E16.10636
G1 X83.143 Y77.172 E17.07436
G1 X82.442 Y77.321 E17.10576
G1 X66.969 Y92.794 E18.06452
G1 X66.417 Y92.794 E18.08871
G1 X81.741 Y77.470 E19.03823
G1 X81.040 Y77.619 E19.06963
G1 X65.865 Y92.794 E20.00991
G1 X65.313 Y92.794 E20.03410
G1 X80.338 Y77.768 E20.96514
G1 X79.637 Y77.917 E20.99655
G1 X64.761 Y92.794 E21.91835
G1 X64.209 Y92.794 E21.94253
G1 X78.936 Y78.066 E22.85510
G1 X78.235 Y78.215 E22.88650
G1 X63.657 Y92.794 E23.78983
G1 X63.105 Y92.794 E23.81401
G1 X77.668 Y78.230 E24.71642
G1 X77.116 Y78.230 E24.74060
G1 X62.553 Y92.794 E25.64301
G1 X62.001 Y92.794 E25.66719
G1 X66.982 Y87.813 E25.97583
G1 X66.253 Y88.184 E26.01166
G1 X66.022 Y88.221 E26.02193
G1 X61.449 Y92.794 E26.30528
G1 X60.897 Y92.794 E26.32947
G1 X65.366 Y88.325 E26.60638
G1 X64.879 Y88.260 E26.62792
G1 X60.781 Y92.358 E26.88181
G1 X60.781 Y91.806 E26.90600
G1 X64.402 Y88.185 E27.13038
G1 X64.036 Y87.999 E27.14837
G1 X60.781 Y91.254 E27.35005
G1 X60.781 Y90.702 E27.37423
G1 X63.670 Y87.812 E27.55326
G1 X63.610 Y87.782 E27.55624
G1 X63.374 Y87.556 E27.57051
G1 X60.781 Y90.150 E27.73121
G1 X60.781 Y89.598 E27.75539
G1 X63.093 Y87.286 E27.89863
G1 X62.907 Y87.108 E27.90992
G1 X62.843 Y86.983 E27.91604
G1 X60.781 Y89.046 E28.04383
G1 X60.781 Y88.494 E28.06801
G1 X62.657 Y86.618 E28.18426
G1 X62.471 Y86.251 E28.20225
G1 X60.781 Y87.942 E28.30698
G1 X60.781 Y87.390 E28.33116
G1 X62.399 Y85.771 E28.43144
G1 X62.335 Y85.284 E28.45299
G1 X60.781 Y86.838 E28.54927
G1 X60.781 Y86.286 E28.57346
G1 X62.439 Y84.628 E28.67617
G1 X62.474 Y84.405 E28.68608
G1 X62.852 Y83.663 E28.72256
G1 X60.781 Y85.734 E28.85088
G1 X60.781 Y85.182 E28.87507
G1 X67.732 Y78.230 E29.30580
G1 X67.180 Y78.230 E29.32998
G1 X60.781 Y84.630 E29.72651
G1 X60.781 Y84.078 E29.75070
G1 X66.628 Y78.230 E30.11302
G1 X66.076 Y78.230 E30.13721
G1 X60.781 Y83.526 E30.46533
G1 X60.781 Y82.974 E30.48952
G1 X65.524 Y78.230 E30.78343
G1 X64.972 Y78.230 E30.80762
G1 X60.781 Y82.422 E31.06733
G1 X60.781 Y81.870 E31.09152
G1 X64.420 Y78.230 E31.31703
G1 X63.868 Y78.230 E31.34122
G1 X60.781 Y81.318 E31.53252
G1 X60.781 Y80.766 E31.55671
G1 X63.316 Y78.230 E31.71381
G1 X62.764 Y78.230 E31.73800
G1 X60.781 Y80.214 E31.86090
G1 X60.781 Y79.662 E31.88508
G1 X62.212 Y78.230 E31.97378
G1 X61.660 Y78.230 E31.99797
G1 X60.781 Y79.110 E32.05246
G1 X60.781 Y78.558 E32.07665
G1 X61.108 Y78.230 E32.09694
G1 E30.09694 F1200.00000
G92 E0
G1 X62.525 Y83.990 F6000.000
G1 E2.00000 F1200.00000
G1 F1800
G1 X62.573 Y83.896 E2.00464
G1 X63.247 Y83.221 E2.04644
G1 X63.337 Y83.178 E2.05081
G1 X68.284 Y78.230 E2.35736
G1 X68.836 Y78.230 E2.38155
G1 X64.296 Y82.770 E2.66287
G1 X64.952 Y82.666 E2.69196
G1 X69.388 Y78.230 E2.96684
G1 X69.940 Y78.230 E2.99103
G1 X65.442 Y82.729 E3.26979
G1 X65.918 Y82.805 E3.29093
G1 X70.492 Y78.230 E3.57437
G1 X71.044 Y78.230 E3.59855
G1 X66.286 Y82.989 E3.89343
G1 X66.651 Y83.175 E3.91141
G1 X71.596 Y78.230 E4.21783
G1 X72.148 Y78.230 E4.24201
G1 X66.954 Y83.424 E4.56385
G1 X67.230 Y83.700 E4.58095
G1 X72.700 Y78.230 E4.91990
G1 X73.252 Y78.230 E4.94408
G1 X67.480 Y84.003 E5.30176
G1 X67.666 Y84.368 E5.31974
G1 X73.804 Y78.230 E5.70007
G1 X74.356 Y78.230 E5.72426
G1 X67.852 Y84.735 E6.12730
G1 X67.927 Y85.211 E6.14844
G1 X74.908 Y78.230 E6.58100
G1 X75.460 Y78.230 E6.60519
G1 X67.992 Y85.699 E7.06796
G1 X67.888 Y86.355 E7.09706
G1 X76.012 Y78.230 E7.60047
G1 X76.564 Y78.230 E7.62466
G1 X67.480 Y87.315 E8.18755
G1 E6.18755 F1200.00000
G92 E0
G1 X68.073 Y92.794 F6000.000
G1 E2.00000 F1200.00000
G1 F1800
G1 X68.625 Y92.794 E2.02419
G1 X76.569 Y84.850 E2.51641
G1 X76.492 Y85.331 E2.53776
G1 X76.512 Y85.458 E2.54338
G1 X69.177 Y92.794 E2.99792
G1 X69.729 Y92.794 E3.02211
G1 X76.588 Y85.935 E3.44712
G1 X76.639 Y86.258 E3.46146
G1 X76.699 Y86.376 E3.46724
G1 X70.281 Y92.794 E3.86493
G1 X70.833 Y92.794 E3.88911
G1 X76.885 Y86.741 E4.26414
G1 X77.075 Y87.104 E4.28206
G1 X71.385 Y92.794 E4.63463
G1 X71.937 Y92.794 E4.65881
G1 X77.351 Y87.380 E4.99427
G1 X77.626 Y87.656 E5.01137
G1 X72.489 Y92.794 E5.32972
G1 X73.041 Y92.794 E5.35390
G1 X77.959 Y87.876 E5.65865
G1 X78.325 Y88.062 E5.67663
G1 X73.593 Y92.794 E5.96984
G1 X74.145 Y92.794 E5.99402
G1 X78.728 Y88.210 E6.27804
G1 X79.205 Y88.286 E6.29918
G1 X74.697 Y92.794 E6.57852
G1 X75.249 Y92.794 E6.60270
G1 X79.757 Y88.285 E6.88207
G1 X80.407 Y88.188 E6.91085
G1 X75.801 Y92.794 E7.19625
G1 E5.19625 F1200.00000
G92 E0
G1 X80.861 Y65.606 F6000.000
G1 E2.00000 F1200.00000
G1 F1800
G1 X80.130 Y65.978 E2.03552
G1 X79.310 Y66.101 E2.07142
G1 X78.522 Y65.976 E2.10597
G1 X77.794 Y65.606 E2.14131
G1 X77.217 Y65.028 E2.17664
G1 X76.847 Y64.301 E2.21197
G1 X76.719 Y63.495 E2.24731
G1 X76.847 Y62.689 E2.28264
G1 X77.217 Y61.961 E2.31797
G1 X77.802 Y61.376 E2.35379
G1 X78.571 Y61.006 E2.39072
G1 X79.328 Y60.886 E2.42390
G1 X80.134 Y61.013 E2.45923
G1 X80.861 Y61.384 E2.49457
G1 X81.438 Y61.961 E2.52990
G1 X81.809 Y62.689 E2.56523
G1 X81.937 Y63.499 E2.60075
G1 X81.800 Y64.317 E2.63666
G1 X81.438 Y65.028 E2.67120
G1 X80.904 Y65.563 E2.70394
G1 X80.632 Y65.290 F6000.000
G1 F1800
G1 X80.011 Y65.606 E2.73410
G1 X79.312 Y65.711 E2.76471
G1 X78.642 Y65.605 E2.79404
G1 X78.024 Y65.290 E2.82409
G1 X77.533 Y64.799 E2.85413
G1 X77.218 Y64.181 E2.88418
G1 X77.110 Y63.495 E2.91423
G1 X77.218 Y62.809 E2.94427
G1 X77.533 Y62.191 E2.97432
G1 X78.029 Y61.695 E3.00467
G1 X78.687 Y61.378 E3.03630
G1 X79.328 Y61.276 E3.06438
G1 X80.013 Y61.385 E3.09442
G1 X80.632 Y61.700 E3.12447
G1 X81.122 Y62.191 E3.15452
G1 X81.437 Y62.809 E3.18456
G1 X81.546 Y63.498 E3.21472
G1 X81.430 Y64.195 E3.24535
G1 X81.122 Y64.799 E3.27467
G1 X80.674 Y65.248 E3.30212
G1 X80.402 Y64.974 F6000.000
G1 F1800
G1 X79.892 Y65.234 E3.32692
G1 X79.313 Y65.321 E3.35225
G1 X78.763 Y65.234 E3.37636
G1 X78.253 Y64.974 E3.40112
G1 X77.849 Y64.570 E3.42588
G1 X77.589 Y64.060 E3.45064
G1 X77.500 Y63.495 E3.47540
G1 X77.589 Y62.930 E3.50016
G1 X77.849 Y62.420 E3.52492
G1 X78.255 Y62.014 E3.54978
G1 X78.803 Y61.750 E3.57613
G1 X79.328 Y61.667 E3.59911
G1 X79.893 Y61.756 E3.62386
G1 X80.402 Y62.016 E3.64862
G1 X80.806 Y62.420 E3.67338
G1 X81.066 Y62.930 E3.69814
G1 X81.156 Y63.496 E3.72294
G1 X81.059 Y64.073 E3.74828
G1 X80.806 Y64.570 E3.77239
G1 X80.445 Y64.932 E3.79455
G1 X80.444 Y65.372 F6000.000
G1 E1.79455 F1200.00000
G92 E0
G1 X67.771 Y63.495 F6000.000
G1 E2.00000 F1200.00000
G1 F1800
G1 X67.644 Y64.301 E2.03534
G1 X67.273 Y65.029 E2.07067
G1 X66.696 Y65.606 E2.10600
G1 X65.965 Y65.978 E2.14152
G1 X65.145 Y66.101 E2.17742
G1 X64.357 Y65.976 E2.21198
G1 X63.629 Y65.606 E2.24731
G1 X63.052 Y65.029 E2.28264
G1 X62.680 Y64.297 E2.31816
G1 X62.557 Y63.477 E2.35408
G1 X62.682 Y62.689 E2.38861
G1 X63.052 Y61.961 E2.42394
G1 X63.637 Y61.376 E2.45977
G1 X64.406 Y61.006 E2.49669
G1 X65.163 Y60.886 E2.52987
G1 X65.969 Y61.013 E2.56520
G1 X66.696 Y61.384 E2.60054
G1 X67.273 Y61.961 E2.63587
G1 X67.644 Y62.689 E2.67121
G1 X67.762 Y63.436 E2.70394
G1 X67.381 Y63.495 F6000.000
G1 F1800
G1 X67.272 Y64.181 E2.73399
