; generated by Slic3r 1.3.0 on 2021-03-06 at 11:49:00

; external perimeters extrusion width = 0.44mm (2.86mm^3/s)
; perimeters extrusion width = 0.56mm (4.14mm^3/s)
; infill extrusion width = 0.50mm (3.66mm^3/s)
; solid infill extrusion width = 0.56mm (3.10mm^3/s)
; top infill extrusion width = 0.45mm (2.44mm^3/s)

M107
;D3D:START:START
T0
M104 S215 T0

G21
G90
M107
T0
G28
G29
M109 T0 S215 T0
G0 F3000
M107
T0
G92 E0
G0 X0 Y149 Z0.1 F3600
G1 Y49 E6.5 F1200
G0 Z1
G92 E0
; Filament gcode

G21 ; set units to millimeters
G90 ; use absolute coordinates
M82 ; use absolute distances for extrusion
G92 E0
G1 Z0.300 F6000.000
G1 E-2.00000 F1200.00000
G92 E0
G1 Z0.800 F6000.000
G1 X20.517 Y59.598 F6000.000
G1 Z0.300 F6000.000
G1 E2.00000 F1200.00000
G1 F1800
G1 X59.857 Y20.259 E4.48854
G1 X61.753 Y18.924 E4.59226
G1 X63.988 Y18.307 E4.69598
G1 X66.301 Y18.481 E4.79970
G1 X68.419 Y19.425 E4.90342
G1 X69.433 Y20.259 E4.96214
G1 X179.741 Y130.567 E11.93999
G1 X181.076 Y132.464 E12.04372
G1 X181.693 Y134.699 E12.14744
G1 X181.519 Y137.011 E12.25116
G1 X180.575 Y139.129 E12.35488
G1 X179.741 Y140.143 E12.41360
G1 X140.143 Y179.741 E14.91848
G1 X138.247 Y181.076 E15.02220
G1 X136.012 Y181.693 E15.12592
G1 X133.699 Y181.519 E15.22964
G1 X131.581 Y180.575 E15.33336
G1 X130.567 Y179.741 E15.39209
G1 X20.259 Y69.433 E22.36994
G1 X18.924 Y67.536 E22.47366
G1 X18.307 Y65.301 E22.57738
G1 X18.481 Y62.989 E22.68110
G1 X19.425 Y60.871 E22.78482
G1 X20.259 Y59.857 E22.84354
G1 X20.475 Y59.641 E22.85720
G1 X20.790 Y59.871 F6000.000
G1 F1800
G1 X60.129 Y20.531 E25.34573
G1 X61.977 Y19.245 E25.44643
G1 X64.156 Y18.680 E25.54714
G1 X66.396 Y18.906 E25.64784
G1 X69.160 Y20.531 E25.79126
G1 X179.469 Y130.840 E32.76911
G1 X180.755 Y132.688 E32.86981
G1 X181.320 Y134.867 E32.97051
G1 X181.094 Y137.107 E33.07121
G1 X179.469 Y139.871 E33.21463
G1 X139.871 Y179.469 E35.71951
G1 X138.023 Y180.755 E35.82021
G1 X135.844 Y181.320 E35.92091
G1 X133.604 Y181.094 E36.02161
G1 X130.840 Y179.469 E36.16503
G1 X20.531 Y69.160 E43.14288
G1 X19.245 Y67.312 E43.24358
G1 X18.680 Y65.133 E43.34428
G1 X18.906 Y62.893 E43.44498
G1 X20.531 Y60.129 E43.58840
G1 X20.747 Y59.914 E43.60205
G1 E41.60205 F1200.00000
G92 E0
G1 Z0.800 F6000.000
G1 X119.455 Y152.722 F6000.000
G1 Z0.300 F6000.000
G1 E2.00000 F1200.00000
G1 F1800
G1 X120.195 Y151.982 E2.04683
G1 X121.134 Y151.621 E2.09180
G1 X122.209 Y151.656 E2.13995
G1 X123.104 Y152.112 E2.18484
G1 X125.373 Y154.382 E2.32843
G1 X125.932 Y155.072 E2.36813
G1 X126.203 Y156.083 E2.41498
G1 X126.039 Y157.118 E2.46182
G1 X125.469 Y157.996 E2.50865
G1 X124.591 Y158.566 E2.55550
G1 X123.556 Y158.730 E2.60234
G1 X122.545 Y158.459 E2.64919
G1 X121.855 Y157.900 E2.68889
G1 X119.585 Y155.630 E2.83248
G1 X119.134 Y154.746 E2.87690
G1 X119.079 Y153.700 E2.92375
G1 X119.433 Y152.778 E2.96791
G1 X119.785 Y152.937 F6000.000
G1 F1800
G1 X120.410 Y152.312 E3.00742
G1 X121.199 Y152.009 E3.04523
G1 X122.111 Y152.039 E3.08604
G1 X122.874 Y152.428 E3.12435
G1 X125.087 Y154.640 E3.26431
G1 X125.581 Y155.251 E3.29944
G1 X125.809 Y156.104 E3.33895
G1 X125.671 Y156.976 E3.37846
G1 X125.190 Y157.717 E3.41797
G1 X124.449 Y158.198 E3.45748
G1 X123.577 Y158.336 E3.49699
G1 X122.724 Y158.108 E3.53650
G1 X122.113 Y157.613 E3.57163
G1 X119.901 Y155.401 E3.71159
G1 X119.515 Y154.643 E3.74961
G1 X119.469 Y153.761 E3.78913
G1 X119.764 Y152.993 E3.82596
G1 X120.116 Y153.151 F6000.000
G1 F1800
G1 X120.625 Y152.643 E3.85813
G1 X121.264 Y152.397 E3.88879
G1 X122.012 Y152.422 E3.92227
G1 X122.645 Y152.744 E3.95400
G1 X124.800 Y154.899 E4.09032
G1 X125.230 Y155.430 E4.12088
G1 X125.416 Y156.124 E4.15306
G1 X125.303 Y156.835 E4.18524
G1 X124.911 Y157.438 E4.21741
G1 X124.308 Y157.830 E4.24959
G1 X123.598 Y157.943 E4.28177
G1 X122.903 Y157.756 E4.31395
G1 X122.372 Y157.326 E4.34451
G1 X120.217 Y155.171 E4.48083
G1 X119.896 Y154.541 E4.51246
G1 X119.858 Y153.823 E4.54463
G1 X120.094 Y153.207 E4.57413
G1 X119.934 Y152.795 F6000.000
G1 E2.57413 F1200.00000
G92 E0
G1 Z0.800 F6000.000
G1 X152.112 Y123.104 F6000.000
G1 Z0.300 F6000.000
G1 E2.00000 F1200.00000
G1 F1800
G1 X151.661 Y122.219 E2.04442
G1 X151.606 Y121.173 E2.09127
G1 X151.982 Y120.195 E2.13811
G1 X152.722 Y119.455 E2.18495
G1 X153.660 Y119.094 E2.22992
G1 X154.736 Y119.129 E2.27807
G1 X155.630 Y119.585 E2.32295
G1 X157.900 Y121.855 E2.46654
G1 X158.459 Y122.545 E2.50625
G1 X158.730 Y123.556 E2.55309
G1 X158.566 Y124.591 E2.59993
G1 X157.996 Y125.469 E2.64678
G1 X157.118 Y126.039 E2.69362
G1 X156.083 Y126.203 E2.74046
G1 X155.072 Y125.932 E2.78730
G1 X154.382 Y125.373 E2.82701
G1 X152.154 Y123.146 E2.96791
G1 X152.428 Y122.874 F6000.000
G1 F1800
G1 X152.042 Y122.117 E3.00594
G1 X151.996 Y121.234 E3.04545
G1 X152.312 Y120.410 E3.08496
G1 X152.937 Y119.785 E3.12447
G1 X153.726 Y119.482 E3.16228
G1 X154.638 Y119.512 E3.20310
G1 X155.401 Y119.901 E3.24141
G1 X157.613 Y122.113 E3.38136
G1 X158.108 Y122.724 E3.41649
G1 X158.336 Y123.577 E3.45600
G1 X158.198 Y124.449 E3.49551
G1 X157.717 Y125.190 E3.53503
G1 X156.976 Y125.671 E3.57453
G1 X156.104 Y125.809 E3.61404
G1 X155.251 Y125.581 E3.65355
G1 X154.640 Y125.087 E3.68869
G1 X152.470 Y122.917 E3.82596
G1 X152.744 Y122.645 F6000.000
G1 F1800
G1 X152.423 Y122.015 E3.85759
G1 X152.385 Y121.296 E3.88976
G1 X152.643 Y120.625 E3.92194
G1 X153.151 Y120.116 E3.95412
G1 X153.791 Y119.870 E3.98477
G1 X154.539 Y119.895 E4.01826
G1 X155.171 Y120.217 E4.04999
G1 X157.326 Y122.372 E4.18631
G1 X157.756 Y122.903 E4.21687
G1 X157.943 Y123.598 E4.24905
G1 X157.830 Y124.308 E4.28122
G1 X157.438 Y124.911 E4.31340
G1 X156.835 Y125.303 E4.34558
G1 X156.124 Y125.416 E4.37775
G1 X155.430 Y125.230 E4.40993
G1 X154.899 Y124.800 E4.44050
G1 X152.786 Y122.687 E4.57413
G1 X152.344 Y122.668 F6000.000
G1 E2.57413 F1200.00000
G92 E0
G1 Z0.800 F6000.000
G1 X119.105 Y86.578 F6000.000
G1 Z0.300 F6000.000
G1 E2.00000 F1200.00000
G1 F1800
G1 X118.227 Y87.148 E2.04685
G1 X117.192 Y87.312 E2.09369
G1 X116.181 Y87.041 E2.14053
G1 X115.491 Y86.483 E2.18024
G1 X113.221 Y84.213 E2.32382
G1 X112.770 Y83.328 E2.36825
G1 X112.715 Y82.282 E2.41509
G1 X113.091 Y81.304 E2.46193
G1 X113.831 Y80.564 E2.50878
G1 X114.770 Y80.204 E2.55374
G1 X115.845 Y80.239 E2.60189
G1 X116.740 Y80.694 E2.64678
G1 X119.009 Y82.964 E2.79036
G1 X119.568 Y83.654 E2.83007
G1 X119.839 Y84.665 E2.87691
G1 X119.675 Y85.700 E2.92376
G1 X119.138 Y86.528 E2.96792
G1 X118.826 Y86.299 F6000.000
G1 F1800
G1 X118.085 Y86.780 E3.00743
G1 X117.213 Y86.918 E3.04694
G1 X116.360 Y86.690 E3.08645
G1 X115.749 Y86.196 E3.12158
G1 X113.537 Y83.983 E3.26153
G1 X113.151 Y83.226 E3.29956
G1 X113.105 Y82.344 E3.33908
G1 X113.421 Y81.519 E3.37858
G1 X114.046 Y80.894 E3.41809
G1 X114.835 Y80.591 E3.45590
G1 X115.747 Y80.621 E3.49672
G1 X116.510 Y81.010 E3.53503
G1 X118.723 Y83.222 E3.67498
G1 X119.217 Y83.833 E3.71011
G1 X119.446 Y84.686 E3.74962
G1 X119.307 Y85.559 E3.78914
G1 X118.859 Y86.249 E3.82596
G1 X118.547 Y86.021 F6000.000
G1 F1800
G1 X117.944 Y86.412 E3.85814
G1 X117.234 Y86.525 E3.89032
G1 X116.539 Y86.339 E3.92250
G1 X116.008 Y85.909 E3.95306
G1 X113.853 Y83.754 E4.08937
G1 X113.532 Y83.124 E4.12101
G1 X113.494 Y82.405 E4.15319
G1 X113.752 Y81.734 E4.18536
G1 X114.261 Y81.225 E4.21754
G1 X114.900 Y80.979 E4.24819
G1 X115.648 Y81.004 E4.28167
G1 X116.281 Y81.326 E4.31341
G1 X118.436 Y83.481 E4.44972
G1 X118.866 Y84.012 E4.48029
G1 X119.052 Y84.707 E4.51247
G1 X118.939 Y85.417 E4.54465
G1 X118.580 Y85.970 E4.57414
G1 X118.651 Y86.407 F6000.000
G1 E2.57414 F1200.00000
G92 E0
G1 Z0.800 F6000.000
G1 X86.483 Y115.491 F6000.000
G1 Z0.300 F6000.000
G1 E2.00000 F1200.00000
G1 F1800
G1 X87.041 Y116.181 E2.03971
G1 X87.312 Y117.192 E2.08655
G1 X87.148 Y118.227 E2.13339
G1 X86.578 Y119.105 E2.18024
G1 X85.700 Y119.675 E2.22708
G1 X84.665 Y119.839 E2.27393
G1 X83.654 Y119.568 E2.32077
G1 X82.964 Y119.009 E2.36047
G1 X80.694 Y116.740 E2.50405
G1 X80.243 Y115.855 E2.54849
G1 X80.188 Y114.809 E2.59533
G1 X80.564 Y113.831 E2.64217
G1 X81.304 Y113.091 E2.68901
G1 X82.243 Y112.730 E2.73398
G1 X83.318 Y112.765 E2.78212
G1 X84.213 Y113.221 E2.82702
G1 X86.440 Y115.448 E2.96792
G1 X86.196 Y115.749 F6000.000
G1 F1800
G1 X86.690 Y116.360 E3.00305
G1 X86.918 Y117.213 E3.04256
G1 X86.780 Y118.085 E3.08207
G1 X86.299 Y118.826 E3.12158
G1 X85.559 Y119.307 E3.16109
G1 X84.686 Y119.446 E3.20061
G1 X83.833 Y119.217 E3.24012
G1 X83.222 Y118.723 E3.27525
G1 X81.010 Y116.510 E3.41520
G1 X80.624 Y115.753 E3.45323
G1 X80.578 Y114.870 E3.49274
G1 X80.894 Y114.046 E3.53225
G1 X81.519 Y113.421 E3.57176
G1 X82.308 Y113.118 E3.60957
G1 X83.220 Y113.148 E3.65038
G1 X83.983 Y113.537 E3.68870
G1 X86.153 Y115.707 E3.82596
G1 X85.909 Y116.008 F6000.000
G1 F1800
G1 X86.339 Y116.539 E3.85653
G1 X86.525 Y117.234 E3.88871
G1 X86.412 Y117.944 E3.92088
G1 X86.021 Y118.547 E3.95306
G1 X85.417 Y118.939 E3.98524
G1 X84.707 Y119.052 E4.01742
G1 X84.012 Y118.866 E4.04960
G1 X83.481 Y118.436 E4.08016
G1 X81.326 Y116.281 E4.21647
G1 X81.005 Y115.651 E4.24811
G1 X80.967 Y114.932 E4.28029
G1 X81.225 Y114.261 E4.31246
G1 X81.734 Y113.752 E4.34464
G1 X82.373 Y113.506 E4.37529
G1 X83.122 Y113.531 E4.40878
G1 X83.754 Y113.853 E4.44052
G1 X85.866 Y115.965 E4.57414
G1 X86.300 Y115.924 F6000.000
G1 E2.57414 F1200.00000
G92 E0
G1 Z0.800 F6000.000
G1 X47.687 Y80.214 F6000.000
G1 Z0.300 F6000.000
G1 E2.00000 F1200.00000
G1 F1800
G1 X46.809 Y80.784 E2.04684
G1 X45.775 Y80.948 E2.09369
G1 X44.763 Y80.677 E2.14053
G1 X44.073 Y80.119 E2.18024
G1 X41.803 Y77.849 E2.32382
G1 X41.352 Y76.964 E2.36825
G1 X41.298 Y75.918 E2.41509
G1 X41.673 Y74.940 E2.46193
G1 X42.413 Y74.200 E2.50878
G1 X43.352 Y73.839 E2.55375
G1 X44.428 Y73.875 E2.60189
G1 X45.322 Y74.330 E2.64678
G1 X47.592 Y76.600 E2.79037
G1 X48.150 Y77.290 E2.83007
G1 X48.421 Y78.301 E2.87691
G1 X48.258 Y79.336 E2.92376
G1 X47.720 Y80.164 E2.96792
G1 X47.408 Y79.935 F6000.000
G1 F1800
G1 X46.668 Y80.416 E3.00743
G1 X45.795 Y80.555 E3.04694
G1 X44.942 Y80.326 E3.08645
G1 X44.331 Y79.832 E3.12159
G1 X42.119 Y77.619 E3.26153
G1 X41.733 Y76.862 E3.29956
G1 X41.687 Y75.980 E3.33908
G1 X42.003 Y75.155 E3.37858
G1 X42.628 Y74.530 E3.41810
G1 X43.417 Y74.227 E3.45591
G1 X44.329 Y74.257 E3.49672
G1 X45.092 Y74.646 E3.53503
G1 X47.305 Y76.858 E3.67498
G1 X47.799 Y77.469 E3.71012
G1 X48.028 Y78.322 E3.74962
G1 X47.889 Y79.195 E3.78914
G1 X47.441 Y79.885 E3.82596
G1 X47.130 Y79.657 F6000.000
G1 F1800
G1 X46.526 Y80.048 E3.85814
G1 X45.816 Y80.161 E3.89032
G1 X45.121 Y79.975 E3.92250
G1 X44.590 Y79.545 E3.95307
G1 X42.435 Y77.390 E4.08938
G1 X42.114 Y76.760 E4.12101
G1 X42.076 Y76.041 E4.15319
G1 X42.334 Y75.370 E4.18536
G1 X42.843 Y74.861 E4.21755
G1 X43.483 Y74.615 E4.24820
G1 X44.231 Y74.640 E4.28168
G1 X44.863 Y74.962 E4.31342
G1 X47.018 Y77.117 E4.44973
G1 X47.448 Y77.648 E4.48029
G1 X47.634 Y78.343 E4.51247
G1 X47.521 Y79.053 E4.54465
G1 X47.162 Y79.606 E4.57414
G1 X47.233 Y80.043 F6000.000
G1 E2.57414 F1200.00000
G92 E0
G1 Z0.800 F6000.000
G1 X76.600 Y47.592 F6000.000
G1 Z0.300 F6000.000
G1 E2.00000 F1200.00000
G1 F1800
G1 X74.330 Y45.322 E2.14358
G1 X73.879 Y44.437 E2.18802
G1 X73.824 Y43.391 E2.23486
G1 X74.200 Y42.413 E2.28170
G1 X74.940 Y41.673 E2.32854
G1 X75.879 Y41.313 E2.37351
G1 X76.955 Y41.348 E2.42166
G1 X77.849 Y41.803 E2.46655
G1 X80.119 Y44.073 E2.61012
G1 X80.677 Y44.763 E2.64983
G1 X80.948 Y45.775 E2.69668
G1 X80.784 Y46.809 E2.74352
G1 X80.214 Y47.687 E2.79037
G1 X79.336 Y48.258 E2.83721
G1 X78.301 Y48.421 E2.88406
G1 X77.290 Y48.150 E2.93090
G1 X76.647 Y47.629 E2.96792
G1 X76.858 Y47.305 F6000.000
G1 F1800
G1 X74.646 Y45.092 E3.10786
G1 X74.260 Y44.335 E3.14590
G1 X74.214 Y43.453 E3.18541
G1 X74.530 Y42.628 E3.22491
G1 X75.155 Y42.003 E3.26443
G1 X75.944 Y41.701 E3.30224
G1 X76.856 Y41.730 E3.34305
G1 X77.619 Y42.119 E3.38137
G1 X79.832 Y44.331 E3.52131
G1 X80.326 Y44.942 E3.55645
G1 X80.555 Y45.795 E3.59596
G1 X80.416 Y46.668 E3.63547
G1 X79.935 Y47.408 E3.67498
G1 X79.195 Y47.889 E3.71449
G1 X78.322 Y48.028 E3.75401
G1 X77.469 Y47.799 E3.79351
G1 X76.905 Y47.342 E3.82596
G1 X77.117 Y47.018 F6000.000
G1 F1800
G1 X74.962 Y44.863 E3.96228
G1 X74.641 Y44.233 E3.99391
G1 X74.603 Y43.514 E4.02608
G1 X74.861 Y42.843 E4.05826
G1 X75.370 Y42.334 E4.09044
G1 X76.010 Y42.089 E4.12110
G1 X76.758 Y42.113 E4.15458
G1 X77.390 Y42.435 E4.18631
G1 X79.545 Y44.590 E4.32262
G1 X79.975 Y45.121 E4.35319
G1 X80.161 Y45.816 E4.38537
G1 X80.048 Y46.526 E4.41755
G1 X79.657 Y47.130 E4.44973
G1 X79.053 Y47.521 E4.48190
G1 X78.343 Y47.634 E4.51409
G1 X77.648 Y47.448 E4.54626
G1 X77.163 Y47.055 E4.57414
G1 X76.744 Y47.162 F6000.000
G1 E2.57414 F1200.00000
G92 E0
G1 Z0.800 F6000.000
G1 X64.645 Y26.456 F6000.000
G1 Z0.300 F6000.000
G1 E2.00000 F1200.00000
G1 F1800
G1 X173.544 Y135.355 E8.88873
G1 X135.355 Y173.544 E11.30447
G1 X26.456 Y64.645 E18.19320
G1 X64.602 Y26.498 E20.60626
G1 X64.645 Y25.910 F6000.000
G1 F1800
G1 X174.090 Y135.355 E27.52949
G1 X135.355 Y174.090 E29.97973
G1 X25.910 Y64.645 E36.90296
G1 X64.602 Y25.953 E39.35052
G1 X64.645 Y25.365 F6000.000
G1 F1800
G1 X174.635 Y135.355 E46.30824
G1 X135.355 Y174.635 E48.79298
G1 X25.365 Y64.645 E55.75070
G1 X64.602 Y25.407 E58.23276
G1 X64.893 Y25.678 F6000.000
G1 X64.331 Y27.315 F6000.000
G1 F1800
G1 X26.687 Y64.958 E60.61627
G1 X64.958 Y26.687 E63.03949
G1 X65.231 Y26.960 E63.05677
G1 X26.960 Y65.231 E65.47999
G1 X27.233 Y65.504 E65.49727
G1 X65.504 Y27.233 E67.92049
G1 X65.777 Y27.506 E67.93778
G1 X27.506 Y65.777 E70.36100
G1 X27.779 Y66.050 E70.37828
G1 X66.050 Y27.779 E72.80150
G1 X66.323 Y28.052 E72.81878
G1 X28.052 Y66.323 E75.24200
G1 X28.325 Y66.596 E75.25928
G1 X66.596 Y28.325 E77.68250
G1 X66.869 Y28.598 E77.69978
G1 X28.598 Y66.869 E80.12300
G1 X28.871 Y67.142 E80.14028
G1 X67.142 Y28.871 E82.56350
G1 X67.415 Y29.144 E82.58078
G1 X29.144 Y67.415 E85.00400
G1 X29.417 Y67.688 E85.02128
G1 X67.688 Y29.417 E87.44450
G1 X67.961 Y29.690 E87.46178
G1 X29.690 Y67.961 E89.88500
G1 X29.963 Y68.234 E89.90229
G1 X68.234 Y29.963 E92.32551
G1 X68.506 Y30.236 E92.34279
G1 X30.236 Y68.506 E94.76601
G1 X30.508 Y68.779 E94.78329
G1 X68.779 Y30.508 E97.20651
G1 X69.052 Y30.781 E97.22379
G1 X30.781 Y69.052 E99.64701
G1 X31.054 Y69.325 E99.66429
G1 X69.325 Y31.054 E102.08751
G1 X69.598 Y31.327 E102.10479
G1 X31.327 Y69.598 E104.52801
G1 X31.600 Y69.871 E104.54529
G1 X69.871 Y31.600 E106.96851
G1 X70.144 Y31.873 E106.98579
G1 X31.873 Y70.144 E109.40901
G1 X32.146 Y70.417 E109.42629
G1 X70.417 Y32.146 E111.84951
G1 X70.690 Y32.419 E111.86680
G1 X32.419 Y70.690 E114.29002
G1 X32.692 Y70.963 E114.30730
G1 X70.963 Y32.692 E116.73052
G1 X71.236 Y32.965 E116.74780
G1 X32.965 Y71.236 E119.17102
G1 X33.238 Y71.509 E119.18830
G1 X71.509 Y33.238 E121.61152
G1 X71.782 Y33.511 E121.62880
G1 X33.511 Y71.782 E124.05202
G1 X33.784 Y72.055 E124.06930
G1 X72.055 Y33.784 E126.49252
G1 X72.328 Y34.057 E126.50980
G1 X34.057 Y72.328 E128.93302
G1 X34.330 Y72.600 E128.95030
G1 X72.600 Y34.330 E131.37352
G1 X72.873 Y34.602 E131.39081
G1 X34.602 Y72.873 E133.81402
G1 X34.875 Y73.146 E133.83131
G1 X73.146 Y34.875 E136.25453
G1 X73.419 Y35.148 E136.27181
G1 X35.148 Y73.419 E138.69503
G1 X35.421 Y73.692 E138.71231
G1 X73.692 Y35.421 E141.13553
G1 X73.965 Y35.694 E141.15281
G1 X35.694 Y73.965 E143.57603
G1 X35.967 Y74.238 E143.59331
G1 X74.238 Y35.967 E146.01653
G1 X74.511 Y36.240 E146.03381
G1 X36.240 Y74.511 E148.45703
G1 X36.513 Y74.784 E148.47431
G1 X74.784 Y36.513 E150.89753
G1 X75.057 Y36.786 E150.91481
G1 X36.786 Y75.057 E153.33803
G1 X37.059 Y75.330 E153.35531
G1 X75.330 Y37.059 E155.77853
G1 X75.603 Y37.332 E155.79582
G1 X37.332 Y75.603 E158.21904
G1 X37.605 Y75.876 E158.23632
G1 X75.876 Y37.605 E160.65954
G1 X76.149 Y37.878 E160.67682
G1 X37.878 Y76.149 E163.10004
G1 X38.151 Y76.422 E163.11732
G1 X76.422 Y38.151 E165.54054
G1 X76.694 Y38.424 E165.55782
G1 X38.424 Y76.694 E167.98104
G1 X38.696 Y76.967 E167.99832
G1 X76.967 Y38.696 E170.42154
G1 X77.240 Y38.969 E170.43882
G1 X74.642 Y41.567 E170.60332
G1 X75.517 Y41.239 E170.64514
G1 X77.513 Y39.242 E170.77155
G1 X77.786 Y39.515 E170.78884
G1 X76.045 Y41.256 E170.89906
