; generated by Slic3r 1.3.1-dev (Build (Unknown revision)) on 2020-06-18 at 22:18:20

; external perimeters extrusion width = 0.44mm (3.57mm^3/s)
; perimeters extrusion width = 0.56mm (5.17mm^3/s)
; infill extrusion width = 0.50mm (5.48mm^3/s)
; solid infill extrusion width = 0.56mm (3.62mm^3/s)
; top infill extrusion width = 0.56mm (2.07mm^3/s)

M107
G92 E0
;D3D:START:START
T0
M104 S215 T0

G21
G90
M107
T0
G28
G29
M109 T0 S215 T0
G0 F3000
M107
T0
G92 E0
G0 X0 Y149 Z0.1 F3600
G1 Y49 E6.5 F1200
G0 Z1
G92 E0
; Filament gcode

G21 ; set units to millimeters
G90 ; use absolute coordinates
M82 ; use absolute distances for extrusion
G92 E0
G1 E-1.00000 F1200.00000
G92 E0
G1 Z0.200 F6000.000
G1 X8.100 Y66.628 F6000.000
G1 E1.00000 F1200.00000
G1 F1800.000
G1 X10.673 Y66.286 E1.05104
G1 X13.459 Y65.992 E1.10615
G1 X16.886 Y65.707 E1.17376
G1 X20.512 Y65.470 E1.24524
G1 X24.384 Y65.274 E1.32148
G1 X28.654 Y65.112 E1.40551
G1 X33.266 Y64.986 E1.49624
G1 X38.063 Y64.902 E1.59060
G1 X43.040 Y64.857 E1.68847
G1 X48.311 Y64.847 E1.79214
G1 X53.700 Y64.874 E1.89812
G1 X59.190 Y64.933 E2.00610
G1 X64.848 Y65.023 E2.11739
G1 X76.262 Y65.282 E2.34190
G1 X87.646 Y65.624 E2.56589
G1 X98.781 Y66.023 E2.78502
G1 X109.340 Y66.454 E2.99285
G1 X123.564 Y67.106 E3.27286
G1 X135.188 Y67.702 E3.50176
G1 X145.616 Y68.289 E3.70717
G1 X147.101 Y68.377 E3.73643
G1 X149.313 Y68.906 E3.78115
G1 X151.208 Y70.162 E3.82587
G1 X152.556 Y71.994 E3.87059
G1 X153.230 Y74.880 E3.92888
G1 X153.230 Y75.120 E3.93361
G1 X152.833 Y77.359 E3.97833
G1 X151.691 Y79.326 E4.02305
G1 X149.942 Y80.779 E4.06778
G1 X147.101 Y81.623 E4.12607
G1 X138.367 Y82.124 E4.29811
G1 X127.775 Y82.685 E4.50671
G1 X119.072 Y83.109 E4.67806
G1 X109.327 Y83.547 E4.86991
G1 X98.765 Y83.977 E5.07778
G1 X87.665 Y84.376 E5.29623
G1 X76.262 Y84.718 E5.52059
G1 X70.539 Y84.859 E5.63316
G1 X64.848 Y84.977 E5.74510
G1 X59.224 Y85.067 E5.85572
G1 X53.700 Y85.126 E5.96437
G1 X48.311 Y85.153 E6.07035
G1 X43.040 Y85.143 E6.17402
G1 X38.063 Y85.098 E6.27189
G1 X33.266 Y85.014 E6.36624
G1 X28.725 Y84.891 E6.45558
G1 X24.466 Y84.729 E6.53940
G1 X20.417 Y84.524 E6.61913
G1 X16.771 Y84.285 E6.69099
G1 X13.602 Y84.021 E6.75352
G1 X10.673 Y83.714 E6.81145
G1 X7.846 Y83.332 E6.86754
G1 X5.493 Y82.910 E6.91456
G1 X3.945 Y82.543 E6.94584
G1 X3.314 Y82.360 E6.95877
G1 X2.201 Y81.975 E6.98192
G1 X0.982 Y81.406 E7.00837
G1 X0.312 Y81.004 E7.02375
G1 X-1.404 Y79.512 E7.06847
G1 X-2.078 Y78.499 E7.09240
G1 X-2.302 Y78.082 E7.10171
G1 X-3.011 Y75.921 E7.14643
G1 X-2.935 Y73.648 E7.19115
G1 X-2.302 Y71.918 E7.22738
G1 X-2.078 Y71.501 E7.23669
G1 X-0.669 Y69.716 E7.28141
G1 X0.312 Y68.996 E7.30534
G1 X0.982 Y68.594 E7.32071
G1 X2.201 Y68.025 E7.34716
G1 X3.314 Y67.640 E7.37032
G1 X3.945 Y67.457 E7.38324
G1 X5.872 Y67.013 E7.42213
G1 X8.041 Y66.638 E7.46542
G1 X8.134 Y66.883 F6000.000
G1 F1800.000
G1 X10.699 Y66.541 E7.51631
G1 X13.623 Y66.235 E7.57413
G1 X16.792 Y65.971 E7.63666
G1 X20.525 Y65.727 E7.71024
G1 X24.475 Y65.528 E7.78802
G1 X28.732 Y65.366 E7.87179
G1 X33.270 Y65.243 E7.96108
G1 X38.013 Y65.160 E8.05436
G1 X43.089 Y65.113 E8.15418
G1 X48.310 Y65.104 E8.25686
G1 X53.697 Y65.131 E8.36281
G1 X59.220 Y65.190 E8.47143
G1 X64.843 Y65.280 E8.58202
G1 X70.532 Y65.398 E8.69394
G1 X81.953 Y65.701 E8.91863
G1 X93.267 Y66.075 E9.14124
G1 X104.136 Y66.493 E9.35516
G1 X119.060 Y67.148 E9.64894
G1 X131.634 Y67.771 E9.89651
G1 X141.156 Y68.289 E10.08405
G1 X147.086 Y68.634 E10.20087
G1 X149.251 Y69.159 E10.24470
G1 X151.095 Y70.411 E10.28852
G1 X152.384 Y72.229 E10.33234
G1 X152.973 Y74.880 E10.38575
G1 X152.973 Y75.120 E10.39048
G1 X152.576 Y77.313 E10.43431
G1 X151.436 Y79.228 E10.47813
G1 X149.697 Y80.621 E10.52195
G1 X147.086 Y81.366 E10.57537
G1 X138.353 Y81.868 E10.74739
G1 X127.762 Y82.428 E10.95597
G1 X119.060 Y82.852 E11.12730
G1 X109.316 Y83.290 E11.31912
G1 X98.756 Y83.721 E11.52697
G1 X87.656 Y84.119 E11.74540
G1 X76.254 Y84.461 E11.96973
G1 X70.532 Y84.602 E12.08229
G1 X64.843 Y84.720 E12.19421
G1 X59.220 Y84.810 E12.30481
G1 X53.697 Y84.869 E12.41343
G1 X48.310 Y84.896 E12.51938
G1 X43.042 Y84.886 E12.62297
G1 X38.065 Y84.841 E12.72085
G1 X33.270 Y84.757 E12.81516
G1 X28.732 Y84.634 E12.90445
G1 X24.475 Y84.472 E12.98822
G1 X20.525 Y84.273 E13.06600
G1 X16.792 Y84.029 E13.13958
G1 X13.623 Y83.765 E13.20211
G1 X10.699 Y83.459 E13.25992
G1 X7.890 Y83.079 E13.31567
G1 X5.552 Y82.659 E13.36239
G1 X4.004 Y82.293 E13.39367
G1 X3.398 Y82.117 E13.40609
G1 X2.285 Y81.732 E13.42924
G1 X1.114 Y81.185 E13.45465
G1 X0.444 Y80.784 E13.47002
G1 X-1.233 Y79.316 E13.51385
G1 X-1.851 Y78.377 E13.53595
G1 X-2.075 Y77.960 E13.54526
G1 X-2.763 Y75.840 E13.58909
G1 X-2.664 Y73.614 E13.63291
G1 X-2.075 Y72.040 E13.66597
G1 X-1.851 Y71.623 E13.67528
G1 X-0.464 Y69.879 E13.71910
G1 X0.444 Y69.216 E13.74121
G1 X1.114 Y68.814 E13.75658
G1 X2.285 Y68.268 E13.78198
G1 X3.398 Y67.883 E13.80514
G1 X4.004 Y67.707 E13.81755
G1 X5.916 Y67.266 E13.85614
G1 X8.075 Y66.892 E13.89923
G1 E12.89923 F1200.00000
G92 E0
G1 X88.716 Y76.402 F6000.000
G1 E1.00000 F1200.00000
G1 F1800.000
G1 X88.283 Y76.333 E1.00862
G1 X87.892 Y76.134 E1.01726
G1 X87.582 Y75.824 E1.02587
G1 X87.383 Y75.433 E1.03450
G1 X87.314 Y75.000 E1.04313
G1 X87.383 Y74.567 E1.05175
G1 X87.582 Y74.176 E1.06038
G1 X87.892 Y73.866 E1.06900
G1 X88.283 Y73.667 E1.07764
G1 X88.716 Y73.598 E1.08626
G1 X89.149 Y73.667 E1.09488
G1 X89.540 Y73.866 E1.10351
G1 X89.850 Y74.176 E1.11213
G1 X90.049 Y74.567 E1.12076
G1 X90.118 Y75.000 E1.12938
G1 X90.049 Y75.433 E1.13801
G1 X89.850 Y75.824 E1.14664
G1 X89.540 Y76.134 E1.15526
G1 X89.149 Y76.333 E1.16389
G1 X88.775 Y76.392 E1.17133
G1 E0.17133 F1200.00000
G92 E0
G1 X144.926 Y75.073 F6000.000
G1 E1.00000 F1200.00000
G1 F1800.000
G1 X131.305 Y75.830 E1.26829
G1 X118.766 Y76.452 E1.51518
G1 X103.868 Y77.106 E1.80844
G1 X93.029 Y77.522 E2.02177
G1 X81.771 Y77.895 E2.24328
G1 X70.374 Y78.197 E2.46750
G1 X64.711 Y78.314 E2.57889
G1 X59.118 Y78.403 E2.68891
G1 X53.628 Y78.462 E2.79687
G1 X48.279 Y78.489 E2.90208
G1 X43.100 Y78.480 E3.00392
G1 X38.125 Y78.434 E3.10177
G1 X33.384 Y78.350 E3.19502
G1 X28.906 Y78.229 E3.28311
G1 X24.720 Y78.070 E3.36550
G1 X20.850 Y77.874 E3.44170
G1 X17.322 Y77.643 E3.51124
G1 X14.156 Y77.380 E3.57372
G1 X11.373 Y77.087 E3.62875
G1 X8.990 Y76.767 E3.67603
G1 X7.023 Y76.424 E3.71530
G1 X5.487 Y76.060 E3.74635
G1 X4.396 Y75.682 E3.76905
G1 X3.774 Y75.310 E3.78330
G1 X3.608 Y75.000 E3.79022
G1 X3.774 Y74.690 E3.79713
G1 X4.396 Y74.318 E3.81138
G1 X5.487 Y73.940 E3.83408
G1 X7.023 Y73.576 E3.86514
G1 X8.990 Y73.233 E3.90440
G1 X11.373 Y72.913 E3.95168
G1 X14.156 Y72.620 E4.00672
G1 X17.322 Y72.357 E4.06919
G1 X20.850 Y72.126 E4.13873
G1 X24.720 Y71.930 E4.21493
G1 X28.906 Y71.771 E4.29732
G1 X33.384 Y71.650 E4.38541
G1 X38.125 Y71.566 E4.47867
G1 X43.100 Y71.520 E4.57651
G1 X48.279 Y71.511 E4.67836
G1 X53.628 Y71.538 E4.78357
G1 X59.118 Y71.597 E4.89153
G1 X64.711 Y71.686 E5.00154
G1 X76.073 Y71.944 E5.22504
G1 X87.435 Y72.285 E5.44859
G1 X93.028 Y72.478 E5.55866
G1 X103.868 Y72.894 E5.77199
G1 X114.024 Y73.330 E5.97190
G1 X123.245 Y73.763 E6.15343
G1 X138.004 Y74.530 E6.44409
G1 X144.926 Y74.927 E6.58043
G1 X144.926 Y75.013 E6.58212
G1 X144.926 Y75.000 F6000.000
G1 F1800.000
G1 X145.821 Y75.000 E6.60434
G1 F1800.000
G1 X146.716 Y75.000 E6.62142
G1 E5.62142 F1200.00000
G92 E0
G1 X141.658 Y75.151 F6000.000
G1 E1.00000 F1200.00000
G1 F1800.000
G1 X141.658 Y74.843 E1.00608
G1 X141.401 Y74.828 E1.01116
G1 X141.401 Y75.166 E1.01781
G1 X141.143 Y75.180 E1.02289
G1 X141.143 Y74.813 E1.03011
G1 X140.886 Y74.798 E1.03519
G1 X140.886 Y75.194 E1.04299
G1 X140.628 Y75.209 E1.04807
G1 X140.628 Y74.784 E1.05644
G1 X140.371 Y74.769 E1.06152
G1 X140.371 Y75.223 E1.07046
G1 X140.113 Y75.237 E1.07554
G1 X140.113 Y74.754 E1.08506
G1 X139.856 Y74.739 E1.09014
G1 X139.856 Y75.252 E1.10023
G1 X139.598 Y75.266 E1.10531
G1 X139.598 Y74.725 E1.11597
G1 X139.341 Y74.710 E1.12105
G1 X139.341 Y75.280 E1.13228
G1 X139.083 Y75.294 E1.13736
G1 X139.083 Y74.695 E1.14917
G1 X138.826 Y74.680 E1.15425
G1 X138.826 Y75.309 E1.16664
G1 X138.568 Y75.323 E1.17172
G1 X138.568 Y74.665 E1.18467
G1 X138.311 Y74.651 E1.18975
G1 X138.311 Y75.337 E1.20328
G1 X138.053 Y75.352 E1.20836
G1 X138.053 Y74.636 E1.22246
G1 X137.796 Y74.622 E1.22754
G1 X137.796 Y75.366 E1.24219
G1 X137.538 Y75.380 E1.24727
G1 X137.538 Y74.609 E1.26247
G1 X137.281 Y74.595 E1.26755
G1 X137.281 Y75.395 E1.28330
G1 X137.023 Y75.409 E1.28838
G1 X137.023 Y74.582 E1.30467
G1 X136.766 Y74.569 E1.30975
G1 X136.766 Y75.423 E1.32659
G1 X136.508 Y75.438 E1.33166
G1 X136.508 Y74.555 E1.34905
G1 X136.251 Y74.542 E1.35413
G1 X136.251 Y75.452 E1.37205
G1 X135.993 Y75.466 E1.37713
G1 X135.993 Y74.528 E1.39561
G1 X135.736 Y74.515 E1.40069
G1 X135.736 Y75.481 E1.41971
G1 X135.478 Y75.495 E1.42479
G1 X135.478 Y74.502 E1.44435
G1 X135.221 Y74.488 E1.44943
G1 X135.221 Y75.509 E1.46954
G1 X134.963 Y75.524 E1.47462
G1 X134.963 Y74.475 E1.49528
G1 X134.706 Y74.462 E1.50035
G1 X134.706 Y75.538 E1.52156
G1 X134.448 Y75.552 E1.52664
G1 X134.448 Y74.448 E1.54838
G1 X134.191 Y74.435 E1.55346
G1 X134.191 Y75.567 E1.57576
G1 X133.933 Y75.581 E1.58084
G1 X133.933 Y74.421 E1.60367
G1 X133.676 Y74.408 E1.60875
G1 X133.676 Y75.595 E1.63214
G1 X133.418 Y75.609 E1.63722
G1 X133.418 Y74.395 E1.66115
G1 X133.161 Y74.381 E1.66623
G1 X133.161 Y75.624 E1.69070
G1 X132.903 Y75.638 E1.69578
G1 X132.903 Y74.368 E1.72080
G1 X132.646 Y74.354 E1.72588
G1 X132.646 Y75.652 E1.75145
G1 X132.388 Y75.667 E1.75653
G1 X132.388 Y74.341 E1.78264
G1 X132.131 Y74.328 E1.78772
G1 X132.131 Y75.681 E1.81438
G1 X131.873 Y75.695 E1.81946
G1 X131.873 Y74.314 E1.84666
G1 X131.616 Y74.301 E1.85174
G1 X131.616 Y75.710 E1.87949
G1 X131.358 Y75.724 E1.88457
G1 X131.358 Y74.288 E1.91286
G1 X131.101 Y74.274 E1.91794
G1 X131.101 Y75.737 E1.94676
G1 X130.843 Y75.750 E1.95184
G1 X130.843 Y74.261 E1.98117
G1 X130.586 Y74.247 E1.98625
G1 X130.586 Y75.763 E2.01610
G1 X130.328 Y75.775 E2.02118
G1 X130.328 Y74.234 E2.05154
G1 X130.071 Y74.221 E2.05662
G1 X130.071 Y75.788 E2.08750
G1 X129.813 Y75.801 E2.09258
G1 X129.813 Y74.207 E2.12397
G1 X129.556 Y74.194 E2.12905
G1 X129.556 Y75.814 E2.16096
G1 X129.298 Y75.827 E2.16603
G1 X129.298 Y74.181 E2.19846
G1 X129.041 Y74.167 E2.20354
G1 X129.041 Y75.839 E2.23647
G1 X128.783 Y75.852 E2.24155
G1 X128.783 Y74.154 E2.27500
G1 X128.526 Y74.140 E2.28008
G1 X128.526 Y75.865 E2.31405
G1 X128.268 Y75.878 E2.31913
G1 X128.268 Y74.127 E2.35361
G1 X128.011 Y74.114 E2.35869
G1 X128.011 Y75.890 E2.39369
G1 X127.753 Y75.903 E2.39877
G1 X127.753 Y74.100 E2.43428
G1 X127.496 Y74.087 E2.43936
G1 X127.496 Y75.916 E2.47539
G1 X127.238 Y75.929 E2.48047
G1 X127.238 Y74.073 E2.51701
G1 X126.981 Y74.060 E2.52209
G1 X126.981 Y75.941 E2.55914
G1 X126.723 Y75.954 E2.56422
G1 X126.723 Y74.047 E2.60180
G1 X126.466 Y74.033 E2.60687
G1 X126.466 Y75.967 E2.64496
G1 X126.208 Y75.980 E2.65004
G1 X126.208 Y74.020 E2.68864
G1 X125.951 Y74.007 E2.69372
G1 X125.951 Y75.992 E2.73284
G1 X125.694 Y76.005 E2.73792
G1 X125.694 Y73.993 E2.77755
G1 X125.436 Y73.980 E2.78263
G1 X125.436 Y76.018 E2.82278
G1 X125.179 Y76.031 E2.82786
G1 X125.179 Y73.966 E2.86852
G1 X124.921 Y73.953 E2.87360
G1 X124.921 Y76.043 E2.91478
G1 X124.664 Y76.056 E2.91985
G1 X124.664 Y73.940 E2.96155
G1 X124.406 Y73.926 E2.96662
G1 X124.406 Y76.069 E3.00883
G1 X124.149 Y76.082 E3.01391
G1 X124.149 Y73.913 E3.05663
G1 X123.891 Y73.899 E3.06171
G1 X123.891 Y76.095 E3.10495
G1 X123.634 Y76.107 E3.11003
G1 X123.634 Y73.886 E3.15378
G1 X123.376 Y73.873 E3.15886
G1 X123.376 Y76.120 E3.20313
G1 X123.119 Y76.133 E3.20821
G1 X123.119 Y73.860 E3.25298
G1 X122.861 Y73.848 E3.25805
G1 X122.861 Y76.146 E3.30332
G1 X122.604 Y76.158 E3.30839
G1 X122.604 Y73.836 E3.35414
G1 X122.346 Y73.824 E3.35922
G1 X122.346 Y76.171 E3.40546
G1 X122.089 Y76.184 E3.41054
G1 X122.089 Y73.812 E3.45727
G1 X121.831 Y73.800 E3.46234
G1 X121.831 Y76.197 E3.50956
G1 X121.574 Y76.209 E3.51464
G1 X121.574 Y73.787 E3.56235
G1 X121.316 Y73.775 E3.56743
G1 X121.316 Y76.222 E3.61562
G1 X121.059 Y76.235 E3.62070
G1 X121.059 Y73.763 E3.66939
G1 X120.801 Y73.751 E3.67446
G1 X120.801 Y76.248 E3.72364
G1 X120.544 Y76.260 E3.72872
G1 X120.544 Y73.739 E3.77838
G1 X120.286 Y73.727 E3.78346
G1 X120.286 Y76.273 E3.83361
G1 X120.029 Y76.286 E3.83869
G1 X120.029 Y73.715 E3.88933
G1 X119.771 Y73.703 E3.89441
G1 X119.771 Y76.299 E3.94554
G1 X119.514 Y76.311 E3.95062
G1 X119.514 Y73.691 E4.00224
G1 X119.256 Y73.679 E4.00732
G1 X119.256 Y76.324 E4.05943
G1 X118.999 Y76.337 E4.06451
G1 X118.999 Y73.667 E4.11711
G1 X118.741 Y73.655 E4.12219
G1 X118.741 Y76.350 E4.17527
G1 X118.484 Y76.361 E4.18035
G1 X118.484 Y73.642 E4.23390
G1 X118.226 Y73.630 E4.23898
G1 X118.226 Y76.372 E4.29299
G1 X117.969 Y76.384 E4.29806
G1 X117.969 Y73.618 E4.35253
G1 X117.711 Y73.606 E4.35761
G1 X117.711 Y76.395 E4.41254
G1 X117.454 Y76.406 E4.41762
G1 X117.454 Y73.594 E4.47301
G1 X117.196 Y73.582 E4.47809
G1 X117.196 Y76.418 E4.53394
G1 X116.939 Y76.429 E4.53902
G1 X116.939 Y73.570 E4.59533
G1 X116.681 Y73.558 E4.60040
G1 X116.681 Y76.440 E4.65718
G1 X116.424 Y76.451 E4.66225
G1 X116.424 Y73.546 E4.71949
G1 X116.166 Y73.534 E4.72457
G1 X116.166 Y76.463 E4.78226
G1 X115.909 Y76.474 E4.78734
G1 X115.909 Y73.522 E4.84549
G1 X115.651 Y73.510 E4.85057
G1 X115.651 Y76.485 E4.90918
G1 X115.394 Y76.497 E4.91426
G1 X115.394 Y73.498 E4.97334
G1 X115.136 Y73.485 E4.97841
G1 X115.136 Y76.508 E5.03795
G1 X114.879 Y76.519 E5.04303
G1 X114.879 Y73.473 E5.10302
G1 X114.621 Y73.461 E5.10810
G1 X114.621 Y76.531 E5.16856
G1 X114.364 Y76.542 E5.17364
G1 X114.364 Y73.449 E5.23455
G1 X114.106 Y73.437 E5.23963
G1 X114.106 Y76.553 E5.30101
G1 X113.849 Y76.564 E5.30609
G1 X113.849 Y73.426 E5.36791
G1 X113.591 Y73.415 E5.37299
G1 X113.591 Y76.576 E5.43526
G1 X113.334 Y76.587 E5.44033
G1 X113.334 Y73.404 E5.50304
G1 X113.076 Y73.393 E5.50812
G1 X113.076 Y76.598 E5.57126
G1 X112.819 Y76.610 E5.57634
G1 X112.819 Y73.382 E5.63993
G1 X112.561 Y73.370 E5.64501
G1 X112.561 Y76.621 E5.70903
G1 X112.304 Y76.632 E5.71411
G1 X112.304 Y73.359 E5.77858
G1 X112.046 Y73.348 E5.78366
G1 X112.046 Y76.644 E5.84857
G1 X111.789 Y76.655 E5.85364
G1 X111.789 Y73.337 E5.91899
G1 X111.531 Y73.326 E5.92407
G1 X111.531 Y76.666 E5.98986
G1 X111.274 Y76.678 E5.99494
G1 X111.274 Y73.315 E6.06117
G1 X111.016 Y73.304 E6.06624
G1 X111.016 Y76.689 E6.13291
G1 X110.759 Y76.700 E6.13799
G1 X110.759 Y73.293 E6.20510
G1 X110.501 Y73.282 E6.21018
G1 X110.501 Y76.711 E6.27773
G1 X110.244 Y76.723 E6.28281
G1 X110.244 Y73.271 E6.35080
G1 X109.986 Y73.260 E6.35588
G1 X109.986 Y76.734 E6.42431
G1 X109.729 Y76.745 E6.42938
G1 X109.729 Y73.249 E6.49826
G1 X109.472 Y73.238 E6.50333
G1 X109.472 Y76.757 E6.57265
G1 X109.214 Y76.768 E6.57772
G1 X109.214 Y73.227 E6.64748
G1 X108.957 Y73.216 E6.65255
G1 X108.957 Y76.779 E6.72275
G1 X108.699 Y76.791 E6.72783
G1 X108.699 Y73.205 E6.79846
G1 X108.442 Y73.194 E6.80354
G1 X108.442 Y76.802 E6.87461
G1 X108.184 Y76.813 E6.87969
G1 X108.184 Y73.183 E6.95120
G1 X107.927 Y73.172 E6.95628
G1 X107.927 Y76.825 E7.02824
G1 X107.669 Y76.836 E7.03331
G1 X107.669 Y73.160 E7.10571
G1 X107.412 Y73.149 E7.11078
G1 X107.412 Y76.847 E7.18362
G1 X107.154 Y76.858 E7.18870
G1 X107.154 Y73.138 E7.26197
G1 X106.897 Y73.127 E7.26705
G1 X106.897 Y76.870 E7.34077
G1 X106.639 Y76.881 E7.34585
G1 X106.639 Y73.116 E7.42000
G1 X106.382 Y73.105 E7.42508
G1 X106.382 Y76.892 E7.49968
G1 X106.124 Y76.904 E7.50475
G1 X106.124 Y73.094 E7.57979
G1 X105.867 Y73.083 E7.58487
G1 X105.867 Y76.915 E7.66035
G1 X105.609 Y76.926 E7.66543
G1 X105.609 Y73.072 E7.74134
G1 X105.352 Y73.061 E7.74642
G1 X105.352 Y76.938 E7.82278
G1 X105.094 Y76.949 E7.82786
G1 X105.094 Y73.050 E7.90466
G1 X104.837 Y73.039 E7.90973
G1 X104.837 Y76.960 E7.98697
G1 X104.579 Y76.971 E7.99205
G1 X104.579 Y73.028 E8.06973
G1 X104.322 Y73.017 E8.07481
G1 X104.322 Y76.983 E8.15293
G1 X104.064 Y76.994 E8.15801
G1 X104.064 Y73.006 E8.23657
G1 X103.807 Y72.995 E8.24165
G1 X103.807 Y77.005 E8.32064
G1 X103.549 Y77.015 E8.32571
G1 X103.549 Y72.985 E8.40509
