; generated by Slic3r 1.3.0 on 2021-01-15 at 18:03:31

; external perimeters extrusion width = 0.44mm (2.86mm^3/s)
; perimeters extrusion width = 0.56mm (4.14mm^3/s)
; infill extrusion width = 0.50mm (5.48mm^3/s)
; solid infill extrusion width = 0.56mm (3.10mm^3/s)
; top infill extrusion width = 0.45mm (2.44mm^3/s)

M107
;D3D:START:START
T0
M104 S215 T0

G21
G90
M107
T0
G28
G29
M109 T0 S215 T0
G0 F3000
M107
T0
G92 E0
G0 X0 Y149 Z0.1 F3600
G1 Y49 E6.5 F1200
G0 Z1
G92 E0
; Filament gcode

G21 ; set units to millimeters
G90 ; use absolute coordinates
M82 ; use absolute distances for extrusion
G92 E0
G1 Z0.200 F6000.000
G1 E-2.00000 F1200.00000
G92 E0
G1 X66.243 Y60.315 F6000.000
G1 E2.00000 F1200.00000
G1 F1800
G1 X68.161 Y58.808 E2.04692
G1 X68.810 Y58.546 E2.06040
G1 X69.680 Y58.245 E2.07810
G1 X70.563 Y57.989 E2.09579
G1 X71.460 Y57.780 E2.11352
G1 X72.366 Y57.619 E2.13122
G1 X73.279 Y57.505 E2.14891
G1 X74.197 Y57.439 E2.16662
G1 X74.883 Y57.421 E2.17982
G1 X75.802 Y57.439 E2.19751
G1 X76.720 Y57.505 E2.21521
G1 X77.634 Y57.619 E2.23293
G1 X78.540 Y57.780 E2.25064
G1 X79.436 Y57.989 E2.26834
G1 X80.320 Y58.245 E2.28604
G1 X81.190 Y58.546 E2.30376
G1 X82.024 Y58.885 E2.32108
G1 X83.086 Y59.391 E2.34371
G1 X83.892 Y59.835 E2.36141
G1 X84.673 Y60.321 E2.37912
G1 X85.428 Y60.847 E2.39682
G1 X86.155 Y61.413 E2.41453
G1 X86.850 Y62.015 E2.43222
G1 X87.514 Y62.653 E2.44995
G1 X87.834 Y62.991 E2.45890
G1 X88.819 Y64.603 E2.49525
G1 X88.978 Y67.024 E2.54192
G1 X84.528 Y87.959 E2.95369
G1 X83.757 Y89.685 E2.99004
G1 X81.839 Y91.192 E3.03696
G1 X81.190 Y91.454 E3.05044
G1 X80.320 Y91.755 E3.06814
G1 X79.664 Y91.950 E3.08131
G1 X78.771 Y92.171 E3.09902
G1 X77.634 Y92.381 E3.12126
G1 X76.955 Y92.471 E3.13442
G1 X76.038 Y92.549 E3.15214
G1 X74.882 Y92.579 E3.17439
G1 X74.198 Y92.561 E3.18755
G1 X73.280 Y92.495 E3.20526
G1 X72.366 Y92.381 E3.22297
G1 X71.472 Y92.222 E3.24045
G1 X70.336 Y91.950 E3.26292
G1 X69.455 Y91.682 E3.28063
G1 X68.590 Y91.369 E3.29833
G1 X67.958 Y91.108 E3.31149
G1 X67.124 Y90.717 E3.32920
G1 X66.108 Y90.165 E3.35145
G1 X65.327 Y89.679 E3.36916
G1 X64.763 Y89.291 E3.38232
G1 X64.029 Y88.736 E3.40003
G1 X63.325 Y88.143 E3.41773
G1 X62.653 Y87.514 E3.43544
G1 X62.166 Y87.009 E3.44894
G1 X61.181 Y85.397 E3.48529
G1 X61.025 Y82.964 E3.53220
G1 X65.472 Y62.041 E3.94372
G1 X66.219 Y60.370 E3.97892
G1 X66.483 Y60.424 F6000.000
G1 F1800
G1 X68.259 Y59.046 E4.02218
G1 X68.896 Y58.788 E4.03540
G1 X69.753 Y58.491 E4.05284
G1 X70.623 Y58.239 E4.07027
G1 X71.507 Y58.033 E4.08774
G1 X72.400 Y57.874 E4.10518
G1 X73.299 Y57.761 E4.12262
G1 X74.204 Y57.696 E4.14007
G1 X74.889 Y57.678 E4.15326
G1 X75.795 Y57.696 E4.17069
G1 X76.700 Y57.761 E4.18814
G1 X77.600 Y57.874 E4.20560
G1 X78.493 Y58.033 E4.22305
G1 X79.376 Y58.239 E4.24049
G1 X80.247 Y58.491 E4.25793
G1 X81.104 Y58.788 E4.27539
G1 X81.926 Y59.123 E4.29245
G1 X82.964 Y59.616 E4.31457
G1 X83.758 Y60.054 E4.33201
G1 X84.528 Y60.533 E4.34945
G1 X85.272 Y61.051 E4.36690
G1 X85.988 Y61.608 E4.38435
G1 X86.673 Y62.201 E4.40179
G1 X87.328 Y62.830 E4.41925
G1 X87.648 Y63.168 E4.42820
G1 X88.594 Y64.739 E4.46349
G1 X88.726 Y66.971 E4.50651
G1 X84.277 Y87.906 E4.91826
G1 X83.517 Y89.576 E4.95356
G1 X81.741 Y90.954 E4.99681
G1 X81.104 Y91.212 E5.01003
G1 X80.247 Y91.509 E5.02747
G1 X79.591 Y91.703 E5.04064
G1 X78.711 Y91.921 E5.05809
G1 X77.600 Y92.126 E5.07982
G1 X76.700 Y92.239 E5.09727
G1 X76.018 Y92.293 E5.11043
G1 X74.889 Y92.322 E5.13216
G1 X74.205 Y92.304 E5.14532
G1 X73.300 Y92.239 E5.16277
G1 X72.400 Y92.126 E5.18023
G1 X71.519 Y91.969 E5.19745
G1 X70.409 Y91.703 E5.21940
G1 X69.541 Y91.440 E5.23685
G1 X68.689 Y91.132 E5.25429
G1 X68.056 Y90.870 E5.26745
G1 X67.235 Y90.485 E5.28491
G1 X66.242 Y89.946 E5.30664
G1 X65.472 Y89.467 E5.32408
G1 X64.908 Y89.079 E5.33725
G1 X64.185 Y88.532 E5.35469
G1 X63.492 Y87.948 E5.37214
G1 X62.830 Y87.328 E5.38959
G1 X62.352 Y86.832 E5.40283
G1 X61.406 Y85.261 E5.43812
G1 X61.276 Y83.017 E5.48136
G1 X65.723 Y62.094 E5.89288
G1 X66.458 Y60.479 E5.92702
G1 E3.92702 F1200.00000
G92 E0
G1 X75.076 Y85.037 F6000.000
G1 E2.00000 F1200.00000
G1 F1800
G1 X74.629 Y85.590 E2.01368
G1 X74.032 Y85.977 E2.02736
G1 X73.346 Y86.161 E2.04103
G1 X72.631 Y86.124 E2.05480
G1 X71.951 Y85.853 E2.06888
G1 X71.419 Y85.422 E2.08205
G1 X71.032 Y84.825 E2.09573
G1 X70.848 Y84.139 E2.10941
G1 X70.885 Y83.429 E2.12309
G1 X71.140 Y82.765 E2.13676
G1 X71.587 Y82.212 E2.15044
G1 X72.184 Y81.825 E2.16412
G1 X72.845 Y81.648 E2.17729
G1 X73.576 Y81.677 E2.19137
G1 X74.244 Y81.933 E2.20513
G1 X74.797 Y82.381 E2.21881
G1 X75.184 Y82.977 E2.23249
G1 X75.368 Y83.664 E2.24617
G1 X75.331 Y84.374 E2.25985
G1 X75.097 Y84.981 E2.27237
G1 X74.851 Y84.907 F6000.000
G1 F1800
G1 X74.454 Y85.396 E2.28448
G1 X73.926 Y85.739 E2.29659
G1 X73.318 Y85.902 E2.30871
G1 X72.687 Y85.869 E2.32087
G1 X72.083 Y85.628 E2.33338
G1 X71.613 Y85.248 E2.34502
G1 X71.270 Y84.720 E2.35713
G1 X71.107 Y84.111 E2.36924
G1 X71.140 Y83.483 E2.38136
G1 X71.365 Y82.895 E2.39347
G1 X71.762 Y82.406 E2.40558
G1 X72.290 Y82.063 E2.41769
G1 X72.874 Y81.906 E2.42933
G1 X73.524 Y81.932 E2.44184
G1 X74.114 Y82.159 E2.45400
G1 X74.603 Y82.555 E2.46612
G1 X74.946 Y83.083 E2.47823
G1 X75.109 Y83.691 E2.49034
G1 X75.076 Y84.319 E2.50245
G1 X74.872 Y84.851 E2.51341
G1 X74.625 Y84.777 F6000.000
G1 F1800
G1 X74.280 Y85.203 E2.52395
G1 X73.821 Y85.502 E2.53450
G1 X73.291 Y85.643 E2.54504
G1 X72.743 Y85.615 E2.55561
G1 X72.214 Y85.404 E2.56655
G1 X71.806 Y85.073 E2.57666
G1 X71.508 Y84.614 E2.58720
G1 X71.366 Y84.084 E2.59775
G1 X71.394 Y83.537 E2.60829
G1 X71.591 Y83.025 E2.61884
G1 X71.936 Y82.599 E2.62938
G1 X72.395 Y82.301 E2.63993
G1 X72.903 Y82.165 E2.65003
G1 X73.471 Y82.187 E2.66098
G1 X73.984 Y82.384 E2.67154
G1 X74.410 Y82.729 E2.68209
G1 X74.708 Y83.189 E2.69263
G1 X74.850 Y83.718 E2.70318
G1 X74.822 Y84.265 E2.71372
G1 X74.647 Y84.721 E2.72311
G1 X74.825 Y85.123 F6000.000
G1 E0.72311 F1200.00000
G92 E0
G1 X75.243 Y77.310 F6000.000
G1 E2.00000 F1200.00000
G1 F1800
G1 X74.517 Y77.272 E2.01398
G1 X73.839 Y77.011 E2.02796
G1 X73.274 Y76.554 E2.04194
G1 X72.878 Y75.945 E2.05592
G1 X72.690 Y75.243 E2.06990
G1 X72.728 Y74.517 E2.08387
G1 X72.989 Y73.839 E2.09785
G1 X73.446 Y73.274 E2.11183
G1 X74.055 Y72.878 E2.12581
G1 X74.721 Y72.700 E2.13907
G1 X75.477 Y72.726 E2.15363
G1 X76.161 Y72.989 E2.16772
G1 X76.726 Y73.446 E2.18170
G1 X77.122 Y74.055 E2.19568
G1 X77.310 Y74.757 E2.20966
G1 X77.272 Y75.483 E2.22364
G1 X77.011 Y76.161 E2.23762
G1 X76.554 Y76.726 E2.25160
G1 X75.945 Y77.122 E2.26558
G1 X75.301 Y77.294 E2.27840
G1 X75.216 Y77.051 F6000.000
G1 F1800
G1 X74.571 Y77.017 E2.29081
G1 X73.969 Y76.786 E2.30323
G1 X73.468 Y76.380 E2.31564
G1 X73.116 Y75.839 E2.32805
G1 X72.949 Y75.216 E2.34046
G1 X72.983 Y74.571 E2.35288
G1 X73.214 Y73.969 E2.36529
G1 X73.620 Y73.468 E2.37770
G1 X74.161 Y73.116 E2.39011
G1 X74.751 Y72.958 E2.40185
G1 X75.425 Y72.982 E2.41484
G1 X76.031 Y73.214 E2.42732
G1 X76.532 Y73.620 E2.43974
G1 X76.884 Y74.161 E2.45215
G1 X77.051 Y74.784 E2.46456
G1 X77.017 Y75.429 E2.47697
G1 X76.786 Y76.031 E2.48939
G1 X76.380 Y76.532 E2.50180
G1 X75.839 Y76.884 E2.51421
G1 X75.274 Y77.035 E2.52547
G1 X75.188 Y76.792 F6000.000
G1 F1800
G1 X74.625 Y76.762 E2.53631
G1 X74.099 Y76.560 E2.54716
G1 X73.661 Y76.206 E2.55801
G1 X73.354 Y75.733 E2.56885
G1 X73.208 Y75.188 E2.57970
G1 X73.238 Y74.625 E2.59054
G1 X73.440 Y74.099 E2.60139
G1 X73.794 Y73.661 E2.61223
G1 X74.267 Y73.354 E2.62308
G1 X74.780 Y73.216 E2.63330
G1 X75.373 Y73.237 E2.64472
G1 X75.901 Y73.440 E2.65559
G1 X76.339 Y73.794 E2.66644
G1 X76.646 Y74.267 E2.67728
G1 X76.792 Y74.812 E2.68813
G1 X76.762 Y75.375 E2.69897
G1 X76.560 Y75.901 E2.70982
G1 X76.206 Y76.339 E2.72066
G1 X75.733 Y76.646 E2.73151
G1 X75.246 Y76.776 E2.74120
G1 X75.026 Y77.157 F6000.000
G1 E0.74120 F1200.00000
G92 E0
G1 X77.431 Y63.631 F6000.000
G1 E2.00000 F1200.00000
G1 F1800
G1 X77.431 Y63.901 E2.00521
G1 X78.028 Y64.131 E2.01752
G1 X78.581 Y64.578 E2.03120
G1 X78.968 Y65.175 E2.04488
G1 X79.152 Y65.861 E2.05856
G1 X79.115 Y66.571 E2.07223
G1 X78.860 Y67.235 E2.08591
G1 X78.413 Y67.788 E2.09959
G1 X77.813 Y68.177 E2.11335
G1 X77.103 Y68.357 E2.12743
G1 X76.420 Y68.322 E2.14061
G1 X75.756 Y68.067 E2.15428
G1 X75.203 Y67.619 E2.16796
G1 X74.816 Y67.023 E2.18164
G1 X74.632 Y66.336 E2.19532
G1 X74.669 Y65.626 E2.20900
G1 X74.915 Y64.987 E2.22217
G1 X75.368 Y64.412 E2.23625
G1 X75.968 Y64.023 E2.25001
G1 X77.373 Y63.646 E2.27800
G1 X77.174 Y63.966 F6000.000
G1 F1800
G1 X77.174 Y64.123 E2.28103
G1 X77.310 Y64.131 E2.28366
G1 X77.898 Y64.356 E2.29578
G1 X78.387 Y64.752 E2.30789
G1 X78.730 Y65.280 E2.32000
G1 X78.893 Y65.889 E2.33211
G1 X78.860 Y66.517 E2.34422
G1 X78.635 Y67.105 E2.35633
G1 X78.238 Y67.594 E2.36844
G1 X77.708 Y67.939 E2.38061
G1 X77.078 Y68.099 E2.39312
G1 X76.474 Y68.067 E2.40476
G1 X75.886 Y67.841 E2.41687
G1 X75.397 Y67.445 E2.42898
G1 X75.054 Y66.917 E2.44109
G1 X74.891 Y66.309 E2.45321
G1 X74.924 Y65.681 E2.46532
G1 X75.141 Y65.116 E2.47696
G1 X75.543 Y64.605 E2.48947
G1 X76.074 Y64.261 E2.50163
G1 X77.116 Y63.981 E2.52239
G1 X76.917 Y64.301 F6000.000
G1 F1800
G1 X76.917 Y64.367 E2.52367
G1 X77.256 Y64.385 E2.53021
G1 X77.768 Y64.582 E2.54076
G1 X78.194 Y64.927 E2.55130
G1 X78.492 Y65.386 E2.56185
G1 X78.634 Y65.916 E2.57239
G1 X78.606 Y66.463 E2.58294
G1 X78.409 Y66.975 E2.59348
G1 X78.064 Y67.401 E2.60403
G1 X77.604 Y67.700 E2.61459
G1 X77.052 Y67.840 E2.62553
G1 X76.528 Y67.812 E2.63564
G1 X76.016 Y67.616 E2.64619
G1 X75.590 Y67.271 E2.65673
G1 X75.292 Y66.811 E2.66728
G1 X75.150 Y66.282 E2.67782
G1 X75.178 Y65.735 E2.68836
G1 X75.367 Y65.244 E2.69847
G1 X75.719 Y64.797 E2.70942
G1 X76.179 Y64.498 E2.71998
G1 X76.859 Y64.316 E2.73351
G1 X76.983 Y64.292 F6000.000
G1 E0.73351 F1200.00000
G92 E0
G1 X70.465 Y63.459 F6000.000
G1 E2.00000 F1200.00000
G1 F1800
G1 X71.167 Y63.205 E2.01438
G1 X71.790 Y63.020 E2.02687
G1 X72.421 Y62.869 E2.03937
G1 X73.060 Y62.750 E2.05186
G1 X73.704 Y62.666 E2.06435
G1 X74.351 Y62.615 E2.07684
G1 X75.011 Y62.598 E2.08954
G1 X75.649 Y62.615 E2.10182
G1 X76.296 Y62.666 E2.11432
G1 X76.940 Y62.750 E2.12681
G1 X77.579 Y62.869 E2.13930
G1 X78.210 Y63.020 E2.15179
G1 X78.833 Y63.205 E2.16428
G1 X79.445 Y63.422 E2.17678
G1 X80.044 Y63.670 E2.18927
G1 X80.631 Y63.949 E2.20176
G1 X81.201 Y64.259 E2.21425
G1 X81.755 Y64.599 E2.22674
G1 X82.290 Y64.966 E2.23923
G1 X82.805 Y65.362 E2.25173
G1 X83.299 Y65.783 E2.26422
G1 X83.837 Y66.302 E2.27860
G1 X79.535 Y86.541 E2.67667
G1 X79.445 Y86.578 E2.67857
G1 X78.833 Y86.795 E2.69106
G1 X78.210 Y86.980 E2.70355
G1 X77.579 Y87.131 E2.71604
G1 X76.940 Y87.250 E2.72853
G1 X76.296 Y87.334 E2.74103
G1 X75.649 Y87.385 E2.75352
G1 X75.000 Y87.402 E2.76601
G1 X74.351 Y87.385 E2.77850
G1 X73.704 Y87.334 E2.79099
G1 X73.060 Y87.250 E2.80348
G1 X72.421 Y87.131 E2.81598
G1 X71.790 Y86.980 E2.82847
G1 X71.167 Y86.795 E2.84096
G1 X70.555 Y86.578 E2.85345
G1 X69.956 Y86.330 E2.86594
G1 X69.369 Y86.051 E2.87844
G1 X68.799 Y85.741 E2.89093
G1 X68.245 Y85.401 E2.90342
G1 X67.710 Y85.034 E2.91591
G1 X67.195 Y84.638 E2.92840
G1 X66.701 Y84.217 E2.94089
G1 X66.163 Y83.698 E2.95528
G1 X70.452 Y63.518 E3.35220
G1 X70.241 Y63.273 F6000.000
G1 F1800
G1 X71.088 Y62.960 E3.36957
G1 X71.723 Y62.772 E3.38232
G1 X72.368 Y62.617 E3.39507
G1 X73.020 Y62.496 E3.40782
G1 X73.677 Y62.410 E3.42057
G1 X74.337 Y62.358 E3.43332
G1 X75.011 Y62.341 E3.44628
G1 X75.663 Y62.358 E3.45882
G1 X76.323 Y62.410 E3.47157
G1 X76.980 Y62.496 E3.48432
G1 X77.632 Y62.617 E3.49708
G1 X78.277 Y62.772 E3.50983
G1 X78.912 Y62.960 E3.52258
G1 X79.537 Y63.181 E3.53533
G1 X80.149 Y63.435 E3.54808
G1 X80.747 Y63.720 E3.56083
G1 X81.330 Y64.037 E3.57358
G1 X81.895 Y64.383 E3.58633
G1 X82.441 Y64.758 E3.59908
G1 X82.967 Y65.162 E3.61183
G1 X83.471 Y65.592 E3.62458
G1 X84.117 Y66.223 E3.64195
G1 X79.759 Y86.727 E4.04523
G1 X79.537 Y86.819 E4.04986
G1 X78.912 Y87.040 E4.06261
G1 X78.277 Y87.228 E4.07536
G1 X77.632 Y87.383 E4.08811
G1 X76.980 Y87.504 E4.10086
G1 X76.323 Y87.590 E4.11361
G1 X75.663 Y87.642 E4.12636
G1 X75.000 Y87.659 E4.13911
G1 X74.337 Y87.642 E4.15186
G1 X73.677 Y87.590 E4.16461
G1 X73.020 Y87.504 E4.17736
G1 X72.368 Y87.383 E4.19012
G1 X71.723 Y87.228 E4.20287
G1 X71.088 Y87.040 E4.21562
G1 X70.463 Y86.819 E4.22837
G1 X69.851 Y86.565 E4.24112
G1 X69.253 Y86.280 E4.25387
G1 X68.670 Y85.963 E4.26662
G1 X68.105 Y85.617 E4.27937
G1 X67.559 Y85.242 E4.29212
G1 X67.033 Y84.838 E4.30487
G1 X66.529 Y84.408 E4.31762
G1 X65.883 Y83.777 E4.33499
G1 X70.229 Y63.332 E4.73712
G1 X70.018 Y63.088 F6000.000
G1 F1800
G1 X70.371 Y62.941 E4.74447
G1 X71.009 Y62.716 E4.75748
G1 X71.657 Y62.524 E4.77049
G1 X72.314 Y62.366 E4.78350
G1 X72.979 Y62.242 E4.79651
G1 X73.650 Y62.154 E4.80952
G1 X74.324 Y62.101 E4.82253
G1 X75.011 Y62.084 E4.83575
G1 X75.676 Y62.101 E4.84855
G1 X76.350 Y62.154 E4.86156
G1 X77.021 Y62.242 E4.87457
G1 X77.686 Y62.366 E4.88758
G1 X78.343 Y62.524 E4.90059
G1 X78.991 Y62.716 E4.91360
G1 X79.629 Y62.941 E4.92661
G1 X80.254 Y63.200 E4.93962
G1 X80.864 Y63.491 E4.95263
G1 X81.458 Y63.814 E4.96564
G1 X82.035 Y64.167 E4.97865
G1 X82.592 Y64.550 E4.99166
G1 X83.129 Y64.962 E5.00467
G1 X83.643 Y65.401 E5.01768
G1 X84.133 Y65.867 E5.03069
G1 X84.397 Y66.144 E5.03805
G1 X79.982 Y86.912 E5.44653
G1 X79.629 Y87.059 E5.45388
G1 X78.991 Y87.284 E5.46689
G1 X78.343 Y87.476 E5.47990
G1 X77.686 Y87.634 E5.49291
G1 X77.021 Y87.758 E5.50592
G1 X76.350 Y87.846 E5.51893
G1 X75.676 Y87.899 E5.53194
G1 X75.000 Y87.917 E5.54495
G1 X74.324 Y87.899 E5.55796
G1 X73.650 Y87.846 E5.57097
G1 X72.979 Y87.758 E5.58398
G1 X72.314 Y87.634 E5.59699
G1 X71.657 Y87.476 E5.61000
G1 X71.009 Y87.284 E5.62301
G1 X70.371 Y87.059 E5.63602
G1 X69.746 Y86.800 E5.64903
G1 X69.136 Y86.509 E5.66204
G1 X68.542 Y86.186 E5.67505
G1 X67.965 Y85.833 E5.68806
G1 X67.408 Y85.450 E5.70107
G1 X66.871 Y85.038 E5.71408
G1 X66.357 Y84.599 E5.72709
G1 X65.867 Y84.133 E5.74010
G1 X65.603 Y83.856 E5.74746
G1 X70.005 Y63.146 E6.15479
G1 X70.380 Y63.210 F6000.000
G1 X70.796 Y63.543 F6000.000
G1 F1800
G1 X70.577 Y63.762 E6.16074
G1 X70.479 Y64.224 E6.16985
G1 X71.365 Y63.337 E6.19402
G1 X71.883 Y63.184 E6.20442
G1 X70.381 Y64.687 E6.24537
G1 X70.282 Y65.149 E6.25449
G1 X72.368 Y63.063 E6.31135
G1 X72.830 Y62.966 E6.32044
G1 X70.184 Y65.612 E6.39256
G1 X70.086 Y66.074 E6.40167
G1 X73.273 Y62.887 E6.48854
G1 X73.692 Y62.832 E6.49670
G1 X69.987 Y66.537 E6.59768
G1 X69.889 Y66.999 E6.60680
G1 X74.096 Y62.792 E6.72147
G1 X74.490 Y62.762 E6.72909
G1 X69.791 Y67.462 E6.85719
G1 X69.692 Y67.924 E6.86630
G1 X74.864 Y62.753 E7.00726
G1 X75.232 Y62.749 E7.01435
G1 X69.594 Y68.387 E7.16802
G1 X69.496 Y68.849 E7.17713
G1 X75.587 Y62.758 E7.34315
G1 X75.932 Y62.777 E7.34982
G1 X69.397 Y69.312 E7.52793
G1 X69.299 Y69.774 E7.53704
G1 X76.270 Y62.804 E7.72704
G1 X76.597 Y62.841 E7.73338
G1 X75.156 Y64.282 E7.77265
G1 X75.753 Y63.894 E7.78636
G1 X75.964 Y63.837 E7.79058
G1 X76.918 Y62.883 E7.81659
G1 X77.230 Y62.936 E7.82267
G1 X76.462 Y63.704 E7.84360
G1 X76.960 Y63.571 E7.85353
G1 X77.537 Y62.993 E7.86927
G1 X77.835 Y63.059 E7.87516
G1 X77.457 Y63.437 E7.88546
G1 X77.579 Y63.405 E7.88788
G1 X77.579 Y63.680 E7.89319
G1 X78.129 Y63.130 E7.90818
G1 X78.415 Y63.208 E7.91390
G1 X77.731 Y63.892 E7.93255
G1 X77.994 Y63.993 E7.93799
G1 X78.696 Y63.291 E7.95713
G1 X78.972 Y63.379 E7.96271
G1 X78.208 Y64.143 E7.98353
G1 X78.409 Y64.306 E7.98853
G1 X79.241 Y63.474 E8.01120
G1 X79.508 Y63.572 E8.01667
G1 X78.611 Y64.469 E8.04113
G1 X78.665 Y64.513 E8.04248
G1 X78.770 Y64.674 E8.04618
G1 X79.766 Y63.678 E8.07333
G1 X80.023 Y63.785 E8.07870
G1 X78.913 Y64.895 E8.10895
G1 X79.057 Y65.116 E8.11403
G1 X80.271 Y63.902 E8.14713
G1 X80.517 Y64.019 E8.15239
G1 X79.152 Y65.385 E8.18961
G1 X79.229 Y65.672 E8.19534
G1 X80.758 Y64.143 E8.23702
G1 X80.994 Y64.271 E8.24219
G1 X79.301 Y65.965 E8.28835
G1 X79.280 Y66.349 E8.29577
G1 X81.228 Y64.401 E8.34885
G1 X81.454 Y64.540 E8.35395
G1 X79.260 Y66.733 E8.41374
G1 X79.034 Y67.324 E8.42593
G1 X81.680 Y64.678 E8.49804
G1 X81.897 Y64.825 E8.50310
G1 X74.021 Y72.701 E8.71779
