; generated by Slic3r 1.3.1-dev (Build (Unknown revision)) on 2020-12-02 at 11:27:02

; external perimeters extrusion width = 0.44mm (2.86mm^3/s)
; perimeters extrusion width = 0.56mm (4.14mm^3/s)
; infill extrusion width = 0.50mm (3.66mm^3/s)
; solid infill extrusion width = 0.56mm (3.10mm^3/s)
; top infill extrusion width = 0.45mm (2.44mm^3/s)

M107
G92 E0
;D3D:START:START
T0
M104 S215 T0

G21
G90
M107
T0
G28
G29
M109 T0 S215 T0
G0 F3000
M107
T0
G92 E0
G0 X0 Y149 Z0.1 F3600
G1 Y49 E6.5 F1200
G0 Z1
G92 E0
; Filament gcode

G21 ; set units to millimeters
G90 ; use absolute coordinates
M82 ; use absolute distances for extrusion
G92 E0
G1 Z0.300 F6000.000
G1 E-2.00000 F1200.00000
G92 E0
G1 Z0.800 F6000.000
G1 X42.260 Y38.899 F6000.000
G1 Z0.300 F6000.000
G1 E2.00000 F1200.00000
G1 F1800.000
G1 X44.047 Y37.369 E2.10520
G1 X54.547 Y31.169 E2.65063
G1 X56.716 Y30.350 E2.75435
G1 X57.990 Y30.229 E2.81158
G1 X72.490 Y30.229 E3.46016
G1 X74.774 Y30.626 E3.56388
G1 X76.297 Y31.401 E3.64030
G1 X77.017 Y31.935 E3.68041
G1 X77.536 Y32.420 E3.71220
G1 X77.807 Y32.715 E3.73010
G1 X78.136 Y33.124 E3.75359
G1 X78.618 Y33.849 E3.79252
G1 X97.611 Y67.528 E5.52200
G1 X97.938 Y68.187 E5.55494
G1 X98.164 Y68.786 E5.58353
G1 X98.802 Y70.749 E5.67589
G1 X98.966 Y71.346 E5.70358
G1 X99.106 Y72.182 E5.74150
G1 X99.330 Y74.320 E5.83765
G1 X99.361 Y75.014 E5.86874
G1 X99.330 Y75.680 E5.89854
G1 X99.106 Y77.818 E5.99469
G1 X98.966 Y78.654 E6.03261
G1 X98.802 Y79.251 E6.06030
G1 X98.164 Y81.214 E6.15266
G1 X97.935 Y81.820 E6.18163
G1 X97.611 Y82.472 E6.21418
G1 X78.525 Y116.305 E7.95170
G1 X78.147 Y116.862 E7.98182
G1 X77.797 Y117.296 E8.00675
G1 X77.374 Y117.742 E8.03426
G1 X76.807 Y118.235 E8.06784
G1 X76.297 Y118.599 E8.09590
G1 X74.184 Y119.556 E8.19962
G1 X72.490 Y119.771 E8.27604
G1 X57.990 Y119.771 E8.92462
G1 X55.705 Y119.374 E9.02834
G1 X54.547 Y118.831 E9.08557
G1 X44.047 Y112.631 E9.63100
G1 X42.281 Y111.127 E9.73472
G1 X41.127 Y109.116 E9.83844
G1 X40.718 Y106.800 E9.94365
G1 X40.718 Y43.200 E12.78846
G1 X41.116 Y40.915 E12.89218
G1 X42.230 Y38.951 E12.99322
G1 X42.642 Y39.043 F6000.000
G1 F1800.000
G1 X44.243 Y37.701 E13.08665
G1 X54.743 Y31.501 E13.63208
G1 X56.853 Y30.716 E13.73278
G1 X57.990 Y30.614 E13.78383
G1 X72.490 Y30.614 E14.43241
G1 X74.706 Y31.011 E14.53312
G1 X76.080 Y31.719 E14.60227
G1 X76.768 Y32.230 E14.64058
G1 X77.260 Y32.689 E14.67066
G1 X77.515 Y32.968 E14.68761
G1 X77.827 Y33.355 E14.70984
G1 X78.285 Y34.044 E14.74682
G1 X97.275 Y67.717 E16.47604
G1 X97.581 Y68.332 E16.50675
G1 X97.740 Y68.737 E16.52621
G1 X98.498 Y71.073 E16.63608
G1 X98.652 Y71.733 E16.66638
G1 X98.722 Y72.223 E16.68851
G1 X98.944 Y74.342 E16.78381
G1 X98.974 Y75.131 E16.81915
G1 X98.944 Y75.658 E16.84277
G1 X98.722 Y77.777 E16.93807
G1 X98.590 Y78.568 E16.97391
G1 X98.435 Y79.132 E17.00008
G1 X97.797 Y81.095 E17.09243
G1 X97.581 Y81.668 E17.11981
G1 X97.275 Y82.283 E17.15053
G1 X78.197 Y116.103 E18.88738
G1 X77.827 Y116.645 E18.91675
G1 X77.385 Y117.178 E18.94773
G1 X76.948 Y117.613 E18.97529
G1 X76.342 Y118.101 E19.01008
G1 X76.080 Y118.281 E19.02430
G1 X74.024 Y119.198 E19.12500
G1 X72.490 Y119.386 E19.19416
G1 X57.990 Y119.386 E19.84274
G1 X55.774 Y118.989 E19.94344
G1 X54.743 Y118.499 E19.99449
G1 X44.243 Y112.299 E20.53992
G1 X42.536 Y110.830 E20.64062
G1 X41.446 Y108.861 E20.74132
G1 X41.104 Y106.800 E20.83475
G1 X41.104 Y43.200 E23.67957
G1 X41.501 Y40.984 E23.78027
G1 X42.612 Y39.095 E23.87829
G1 E21.87829 F1200.00000
G92 E0
G1 Z0.800 F6000.000
G1 X72.552 Y111.096 F6000.000
G1 Z0.300 F6000.000
G1 E2.00000 F1200.00000
G1 F1800.000
G1 X72.040 Y112.004 E2.04660
G1 X58.986 Y112.004 E2.63053
G1 X58.986 Y111.096 E2.67112
G1 X72.492 Y111.096 E3.27526
G1 X73.212 Y110.711 F6000.000
G1 F1800.000
G1 X72.266 Y112.389 E3.36146
G1 X58.600 Y112.389 E3.97271
G1 X58.600 Y110.711 E4.04780
G1 X73.152 Y110.711 E4.69871
G1 E2.69871 F1200.00000
G92 E0
G1 Z0.800 F6000.000
G1 X73.486 Y105.804 F6000.000
G1 Z0.300 F6000.000
G1 E2.00000 F1200.00000
G1 F1800.000
G1 X48.486 Y105.804 E3.11825
G1 X48.486 Y103.996 E3.19910
G1 X76.058 Y103.996 E4.43237
G1 X81.035 Y95.589 E4.86939
G1 X81.233 Y95.703 E4.87963
G1 X73.659 Y109.134 E5.56935
G1 X73.486 Y109.089 E5.57733
G1 X73.486 Y105.864 E5.72160
G1 E3.72160 F1200.00000
G92 E0
G1 Z0.800 F6000.000
G1 X73.486 Y44.196 F6000.000
G1 Z0.300 F6000.000
G1 E2.00000 F1200.00000
G1 F1800.000
G1 X73.486 Y40.911 E2.14695
G1 X73.659 Y40.866 E2.15493
G1 X81.230 Y54.292 E2.84442
G1 X81.032 Y54.407 E2.85466
G1 X76.058 Y46.004 E3.29145
G1 X48.486 Y46.004 E4.52473
G1 X48.486 Y44.196 E4.60558
G1 X73.426 Y44.196 E5.72114
G1 X73.100 Y43.811 F6000.000
G1 F1800.000
G1 X73.100 Y39.442 E5.91654
G1 X73.273 Y39.397 E5.92453
G1 X91.155 Y71.107 E7.55290
G1 X91.767 Y72.991 E7.64150
G1 X91.973 Y74.942 E7.72926
G1 X91.766 Y77.011 E7.82225
G1 X91.151 Y78.900 E7.91110
G1 X73.273 Y110.603 E9.53915
G1 X73.100 Y110.558 E9.54713
G1 X73.100 Y106.189 E9.74254
G1 X48.100 Y106.189 E10.86078
G1 X48.100 Y103.611 E10.97613
G1 X75.838 Y103.611 E12.21682
G1 X90.347 Y79.100 E13.49088
G1 X91.097 Y77.122 E13.58551
G1 X91.355 Y75.000 E13.68111
G1 X91.097 Y72.878 E13.77670
G1 X90.347 Y70.900 E13.87133
G1 X75.838 Y46.389 E15.14539
G1 X48.100 Y46.389 E16.38608
G1 X48.100 Y43.811 E16.50143
G1 X73.040 Y43.811 E17.61699
G1 E15.61699 F1200.00000
G92 E0
G1 Z0.800 F6000.000
G1 X72.552 Y38.904 F6000.000
G1 Z0.300 F6000.000
G1 E2.00000 F1200.00000
G1 F1800.000
G1 X58.986 Y38.904 E2.60682
G1 X58.986 Y37.996 E2.64741
G1 X72.040 Y37.996 E3.23134
G1 X72.523 Y38.852 E3.27525
G1 X73.212 Y39.289 F6000.000
G1 F1800.000
G1 X58.600 Y39.289 E3.92885
G1 X58.600 Y37.611 E4.00394
G1 X72.266 Y37.611 E4.61519
G1 X73.183 Y39.237 E4.69871
G1 X72.715 Y39.675 F6000.000
G1 F1800.000
G1 X58.215 Y39.675 E5.34730
G1 X58.215 Y37.225 E5.45688
G1 X72.420 Y37.225 E6.09230
G1 X72.482 Y37.267 E6.09561
G1 X72.598 Y37.415 E6.10405
G1 X91.510 Y70.951 E7.82619
G1 X92.146 Y72.910 E7.91833
G1 X92.361 Y74.941 E8.00966
G1 X92.146 Y77.090 E8.10629
G1 X91.506 Y79.055 E8.19872
G1 X72.595 Y112.590 E9.92078
G1 X72.514 Y112.705 E9.92709
G1 X72.417 Y112.775 E9.93244
G1 X58.215 Y112.775 E10.56770
G1 X58.215 Y110.325 E10.67729
G1 X72.715 Y110.325 E11.32587
G1 X72.715 Y106.575 E11.49361
G1 X47.715 Y106.575 E12.61185
G1 X47.715 Y103.225 E12.76170
G1 X75.618 Y103.225 E14.00981
G1 X89.998 Y78.932 E15.27254
G1 X90.720 Y77.029 E15.36359
G1 X90.966 Y75.000 E15.45500
G1 X90.720 Y72.971 E15.54640
G1 X89.998 Y71.068 E15.63745
G1 X75.618 Y46.775 E16.90019
G1 X47.715 Y46.775 E18.14830
G1 X47.715 Y43.425 E18.29814
G1 X72.715 Y43.425 E19.41639
G1 X72.715 Y39.735 E19.58144
G1 X72.897 Y39.319 F6000.000
G1 X72.075 Y38.450 F6000.000
G1 F1800.000
G1 X59.179 Y38.450 E20.26585
G1 E18.26585 F1200.00000
G92 E0
G1 Z0.800 F6000.000
G1 X48.558 Y44.895 F6000.000
G1 Z0.300 F6000.000
G1 E2.00000 F1200.00000
G1 F1800.000
G1 X49.185 Y44.268 E2.04003
G1 X49.736 Y44.268 E2.06485
G1 X48.558 Y45.446 E2.14001
G1 X48.558 Y45.932 E2.16194
G1 X48.622 Y45.932 E2.16484
G1 X50.286 Y44.268 E2.27100
G1 X50.836 Y44.268 E2.29583
G1 X49.172 Y45.932 E2.40199
G1 X49.723 Y45.932 E2.42682
G1 X51.386 Y44.268 E2.53299
G1 X51.936 Y44.268 E2.55782
G1 X50.273 Y45.932 E2.66398
G1 X50.823 Y45.932 E2.68881
G1 X52.487 Y44.268 E2.79498
G1 X53.037 Y44.268 E2.81981
G1 X51.373 Y45.932 E2.92597
G1 X51.923 Y45.932 E2.95080
G1 X53.587 Y44.268 E3.05696
G1 X54.137 Y44.268 E3.08179
G1 X52.474 Y45.932 E3.18796
G1 X53.024 Y45.932 E3.21279
G1 X54.687 Y44.268 E3.31895
G1 X55.238 Y44.268 E3.34378
G1 X53.574 Y45.932 E3.44994
G1 X54.124 Y45.932 E3.47477
G1 X55.788 Y44.268 E3.58094
G1 X56.338 Y44.268 E3.60577
G1 X54.674 Y45.932 E3.71193
G1 X55.225 Y45.932 E3.73676
G1 X56.888 Y44.268 E3.84292
G1 X57.438 Y44.268 E3.86775
G1 X55.775 Y45.932 E3.97392
G1 X56.325 Y45.932 E3.99875
G1 X57.989 Y44.268 E4.10491
G1 X58.539 Y44.268 E4.12974
G1 X56.875 Y45.932 E4.23591
G1 X57.425 Y45.932 E4.26074
G1 X59.089 Y44.268 E4.36690
G1 X59.639 Y44.268 E4.39173
G1 X57.976 Y45.932 E4.49789
G1 X58.526 Y45.932 E4.52272
G1 X60.189 Y44.268 E4.62889
G1 X60.740 Y44.268 E4.65372
G1 X59.076 Y45.932 E4.75988
G1 X59.626 Y45.932 E4.78471
G1 X61.290 Y44.268 E4.89087
G1 X61.840 Y44.268 E4.91570
G1 X60.177 Y45.932 E5.02187
G1 X60.727 Y45.932 E5.04670
G1 X62.390 Y44.268 E5.15286
G1 X62.940 Y44.268 E5.17769
G1 X61.277 Y45.932 E5.28386
G1 X61.827 Y45.932 E5.30868
G1 X63.491 Y44.268 E5.41485
G1 X64.041 Y44.268 E5.43968
G1 X62.377 Y45.932 E5.54584
G1 X62.928 Y45.932 E5.57067
G1 X64.591 Y44.268 E5.67684
G1 X65.141 Y44.268 E5.70167
G1 X63.478 Y45.932 E5.80783
G1 X64.028 Y45.932 E5.83266
G1 X65.691 Y44.268 E5.93882
G1 X66.242 Y44.268 E5.96365
G1 X64.578 Y45.932 E6.06982
G1 X65.128 Y45.932 E6.09465
G1 X66.792 Y44.268 E6.20081
G1 X67.342 Y44.268 E6.22564
G1 X65.679 Y45.932 E6.33180
G1 X66.229 Y45.932 E6.35663
G1 X67.892 Y44.268 E6.46280
G1 X68.442 Y44.268 E6.48763
G1 X66.779 Y45.932 E6.59379
G1 X67.329 Y45.932 E6.61862
G1 X68.993 Y44.268 E6.72479
G1 X69.543 Y44.268 E6.74962
G1 X67.879 Y45.932 E6.85578
G1 X68.430 Y45.932 E6.88061
G1 X70.093 Y44.268 E6.98677
G1 X70.643 Y44.268 E7.01160
G1 X68.980 Y45.932 E7.11777
G1 X69.530 Y45.932 E7.14260
G1 X71.193 Y44.268 E7.24876
G1 X71.744 Y44.268 E7.27359
G1 X70.080 Y45.932 E7.37975
G1 X70.630 Y45.932 E7.40458
G1 X72.294 Y44.268 E7.51075
G1 X72.844 Y44.268 E7.53558
G1 X71.181 Y45.932 E7.64174
G1 X71.731 Y45.932 E7.66657
G1 X73.394 Y44.268 E7.77273
G1 X73.944 Y44.268 E7.79756
G1 X72.281 Y45.932 E7.90373
G1 X72.831 Y45.932 E7.92856
G1 X75.217 Y43.545 E8.08085
G1 X75.416 Y43.897 E8.09908
G1 X73.381 Y45.932 E8.22892
G1 X73.932 Y45.932 E8.25375
G1 X75.614 Y44.249 E8.36114
G1 X75.813 Y44.601 E8.37937
G1 X74.482 Y45.932 E8.46430
G1 X75.032 Y45.932 E8.48913
G1 X76.011 Y44.953 E8.55162
G1 X76.209 Y45.304 E8.56984
G1 X75.582 Y45.932 E8.60987
G1 E6.60987 F1200.00000
G92 E0
G1 Z0.800 F6000.000
G1 X73.558 Y44.655 F6000.000
G1 Z0.300 F6000.000
G1 E2.00000 F1200.00000
G1 F1800.000
G1 X75.019 Y43.194 E2.09325
G1 X74.821 Y42.842 E2.11148
G1 X73.558 Y44.105 E2.19206
G1 X73.558 Y43.554 E2.21689
G1 X74.622 Y42.490 E2.28482
G1 X74.424 Y42.138 E2.30305
G1 X73.558 Y43.004 E2.35831
G1 X73.558 Y42.454 E2.38314
G1 X74.225 Y41.786 E2.42574
G1 E0.42574 F1200.00000
G92 E0
G1 Z0.800 F6000.000
G1 X81.228 Y54.517 F6000.000
G1 Z0.300 F6000.000
G1 E2.00000 F1200.00000
G1 F1800.000
G1 X82.401 Y56.547 E2.14684
G1 F1800.000
G1 X84.748 Y60.608 E2.38776
G1 F1800.000
G1 X87.094 Y64.670 E2.57593
G1 F1800.000
G1 X89.441 Y68.731 E2.71135
G1 F1800.000
G1 X90.623 Y70.778 E2.75334
G1 F1800.000
G1 X90.842 Y71.245 E2.76714
G1 X91.114 Y72.019 E2.78913
G1 F1800.000
G1 X91.387 Y72.794 E2.80370
G1 X91.447 Y73.059 E2.80852
G1 X91.661 Y74.943 E2.84215
G1 X91.446 Y76.943 E2.87784
G1 X91.387 Y77.206 E2.88262
G1 F1800.000
G1 X90.839 Y78.762 E2.92663
G1 X90.731 Y78.992 E2.93341
G1 F1800.000
G1 X90.615 Y79.239 E2.93826
G1 F1800.000
G1 X88.268 Y83.299 E3.07373
G1 F1800.000
G1 X85.922 Y87.359 E3.26191
G1 F1800.000
G1 X83.576 Y91.419 E3.50280
G1 F1800.000
G1 X81.230 Y95.479 E3.79639
G1 E1.79639 F1200.00000
G92 E0
G1 Z0.800 F6000.000
G1 X73.558 Y108.285 F6000.000
G1 Z0.300 F6000.000
G1 E2.00000 F1200.00000
G1 F1800.000
G1 X74.185 Y107.658 E2.04001
G1 X74.896 Y106.397 E2.10528
G1 X73.558 Y107.735 E2.19063
G1 X73.558 Y107.186 E2.21542
G1 X75.607 Y105.136 E2.34612
G1 X76.210 Y104.068 E2.40140
G1 X76.125 Y104.068 E2.40520
G1 X73.558 Y106.636 E2.56893
G1 X73.558 Y106.086 E2.59373
G1 X75.576 Y104.068 E2.72240
G1 X75.026 Y104.068 E2.74719
G1 X73.362 Y105.732 E2.85328
G1 X72.813 Y105.732 E2.87807
G1 X74.476 Y104.068 E2.98416
G1 X73.926 Y104.068 E3.00895
G1 X72.263 Y105.732 E3.11504
G1 X71.713 Y105.732 E3.13983
G1 X73.376 Y104.068 E3.24592
G1 X72.827 Y104.068 E3.27071
G1 X71.163 Y105.732 E3.37680
G1 X70.613 Y105.732 E3.40159
G1 X72.277 Y104.068 E3.50768
G1 X71.727 Y104.068 E3.53247
G1 X70.064 Y105.732 E3.63856
G1 X69.514 Y105.732 E3.66335
G1 X71.177 Y104.068 E3.76943
G1 X70.627 Y104.068 E3.79423
G1 X68.964 Y105.732 E3.90031
G1 X68.414 Y105.732 E3.92511
G1 X70.078 Y104.068 E4.03119
G1 X69.528 Y104.068 E4.05599
G1 X67.864 Y105.732 E4.16207
G1 X67.315 Y105.732 E4.18687
G1 X68.978 Y104.068 E4.29295
G1 X68.428 Y104.068 E4.31774
G1 X66.765 Y105.732 E4.42383
G1 X66.215 Y105.732 E4.44862
G1 X67.878 Y104.068 E4.55471
G1 X67.329 Y104.068 E4.57950
G1 X65.665 Y105.732 E4.68559
G1 X65.115 Y105.732 E4.71038
G1 X66.779 Y104.068 E4.81647
G1 X66.229 Y104.068 E4.84126
G1 X64.566 Y105.732 E4.94735
G1 X64.016 Y105.732 E4.97214
G1 X65.679 Y104.068 E5.07823
G1 X65.129 Y104.068 E5.10302
G1 X63.466 Y105.732 E5.20911
G1 X62.916 Y105.732 E5.23390
G1 X64.580 Y104.068 E5.33999
G1 X64.030 Y104.068 E5.36478
G1 X62.366 Y105.732 E5.47087
G1 X61.817 Y105.732 E5.49566
G1 X63.480 Y104.068 E5.60174
G1 X62.930 Y104.068 E5.62654
G1 X61.267 Y105.732 E5.73262
G1 X60.717 Y105.732 E5.75742
G1 X62.380 Y104.068 E5.86350
G1 X61.831 Y104.068 E5.88830
G1 X60.167 Y105.732 E5.99438
G1 X59.617 Y105.732 E6.01918
G1 X61.281 Y104.068 E6.12526
G1 X60.731 Y104.068 E6.15005
G1 X59.068 Y105.732 E6.25614
G1 X58.518 Y105.732 E6.28093
G1 X60.181 Y104.068 E6.38702
G1 X59.631 Y104.068 E6.41181
G1 X57.968 Y105.732 E6.51790
G1 X57.418 Y105.732 E6.54269
G1 X59.082 Y104.068 E6.64878
G1 X58.532 Y104.068 E6.67357
G1 X56.868 Y105.732 E6.77966
G1 X56.319 Y105.732 E6.80445
G1 X57.982 Y104.068 E6.91054
G1 X57.432 Y104.068 E6.93533
G1 X55.769 Y105.732 E7.04142
G1 X55.219 Y105.732 E7.06621
G1 X56.882 Y104.068 E7.17230
G1 X56.333 Y104.068 E7.19709
G1 X54.669 Y105.732 E7.30317
G1 X54.119 Y105.732 E7.32797
G1 X55.783 Y104.068 E7.43405
G1 X55.233 Y104.068 E7.45885
G1 X53.570 Y105.732 E7.56493
G1 X53.020 Y105.732 E7.58973
G1 X54.683 Y104.068 E7.69581
G1 X54.134 Y104.068 E7.72061
G1 X52.470 Y105.732 E7.82669
G1 X51.920 Y105.732 E7.85148
G1 X53.584 Y104.068 E7.95757
G1 X53.034 Y104.068 E7.98236
G1 X51.370 Y105.732 E8.08845
G1 X50.821 Y105.732 E8.11324
G1 X52.484 Y104.068 E8.21933
G1 X51.934 Y104.068 E8.24412
G1 X50.271 Y105.732 E8.35021
G1 X49.721 Y105.732 E8.37500
G1 X51.385 Y104.068 E8.48109
G1 X50.835 Y104.068 E8.50588
G1 X49.171 Y105.732 E8.61197
G1 X48.621 Y105.732 E8.63676
G1 X50.285 Y104.068 E8.74285
G1 X49.735 Y104.068 E8.76764
G1 X48.558 Y105.245 E8.84271
G1 X48.558 Y104.696 E8.86750
G1 X49.185 Y104.068 E8.90751
G1 E6.90751 F1200.00000
G92 E0
G1 Z0.800 F6000.000
G1 X59.179 Y111.550 F6000.000
G1 Z0.300 F6000.000
G1 E2.00000 F1200.00000
G1 F1800.000
G1 X72.075 Y111.550 E2.68441
G1 Z0.500 F6000.000
G1 X72.434 Y111.294 F6000.000
G1 F1800.000
G1 X72.134 Y111.806 E2.70814
G1 X59.184 Y111.806 E3.22595
G1 X59.184 Y111.294 E3.24641
G1 X72.374 Y111.294 E3.77385
G1 X73.320 Y110.777 F6000.000
G1 F1800.000
G1 X72.591 Y112.050 E3.83251
G1 X72.484 Y112.185 E3.83939
G1 X72.281 Y112.323 E3.84919
G1 X58.667 Y112.323 E4.39357
G1 X58.667 Y110.777 E4.45538
G1 X73.260 Y110.777 E5.03889
G1 E3.03889 F1200.00000
G92 E0
G1 Z1.000 F6000.000
G1 X73.684 Y105.606 F6000.000
G1 Z0.500 F6000.000
G1 E2.00000 F1200.00000
G1 F2400.000
G1 X55.338 Y105.606 E2.73356
G1 X55.338 Y104.194 E2.79000
G1 X59.641 Y104.194 E2.96204
G1 X59.641 Y104.694 E2.98204
G1 X65.338 Y104.694 E3.20985
G1 X65.338 Y104.194 E3.22984
G1 X76.438 Y104.194 E3.67368
G1 X73.915 Y108.668 E3.87907
G1 X73.684 Y108.607 E3.88864
G1 X73.684 Y105.666 E4.00626
G1 E2.00626 F1200.00000
G92 E0
G1 Z1.000 F6000.000
G1 X49.641 Y105.606 F6000.000
G1 Z0.500 F6000.000
G1 E2.00000 F1200.00000
G1 F1800.000
G1 X48.684 Y105.606 E2.03827
G1 X48.684 Y104.194 E2.09472
G1 X49.641 Y104.194 E2.13299
G1 X49.641 Y105.546 E2.18704
G1 E0.18704 F1200.00000
G92 E0
G1 Z1.000 F6000.000
G1 X49.641 Y45.806 F6000.000
G1 Z0.500 F6000.000
G1 E2.00000 F1200.00000
G1 F1800.000
G1 X48.684 Y45.806 E2.03827
G1 X48.684 Y44.394 E2.09472
G1 X49.641 Y44.394 E2.13299
G1 X49.641 Y45.746 E2.18704
G1 E0.18704 F1200.00000
G92 E0
G1 Z1.000 F6000.000
G1 X59.641 Y45.306 F6000.000
G1 Z0.500 F6000.000
G1 E2.00000 F1200.00000
G1 F2400.000
G1 X59.641 Y45.806 E2.01999
G1 X55.338 Y45.806 E2.19203
G1 X55.338 Y44.394 E2.24848
G1 X73.684 Y44.394 E2.98204
G1 X73.684 Y41.393 E3.10205
G1 X73.915 Y41.332 E3.11162
G1 X76.438 Y45.806 E3.31700
