; generated by Slic3r 1.3.0 on 2020-04-24 at 11:21:00

; external perimeters extrusion width = 0.44mm (2.86mm^3/s)
; perimeters extrusion width = 0.56mm (4.14mm^3/s)
; infill extrusion width = 0.50mm (3.66mm^3/s)
; solid infill extrusion width = 0.56mm (3.10mm^3/s)
; top infill extrusion width = 0.45mm (2.44mm^3/s)

M107
;D3D:START:START
T0
M104 S215 T0

G21
G90
M107
T0
G28
G29
M109 T0 S215 T0
G0 F3000
M107
T0
G92 E0
G0 X0 Y149 Z0.1 F3600
G1 Y49 E6.5 F1200
G0 Z1
G92 E0
; Filament gcode

G21 ; set units to millimeters
G90 ; use absolute coordinates
M82 ; use absolute distances for extrusion
G92 E0
G1 Z0.200 F6000.000
G1 E-2.00000 F1200.00000
G92 E0
G1 Z0.700 F6000.000
G1 X115.765 Y74.336 F6000.000
G1 Z0.200 F6000.000
G1 E2.00000 F1200.00000
G1 F1800
G1 X130.664 Y74.336 E2.28664
G1 X130.664 Y103.164 E2.84126
G1 X115.765 Y103.164 E3.12790
G1 X115.765 Y74.396 E3.68137
G1 X116.022 Y74.593 F6000.000
G1 F1800
G1 X130.407 Y74.593 E3.95812
G1 X130.407 Y102.907 E4.50284
G1 X116.022 Y102.907 E4.77959
G1 X116.022 Y74.653 E5.32316
G1 X116.279 Y74.850 F6000.000
G1 F1800
G1 X130.150 Y74.850 E5.59002
G1 X130.150 Y102.650 E6.12486
G1 X116.279 Y102.650 E6.39172
G1 X116.279 Y74.910 E6.92540
G1 X116.218 Y74.455 F6000.000
G1 E4.92540 F1200.00000
G92 E0
G1 Z0.700 F6000.000
G1 X113.759 Y74.336 F6000.000
G1 Z0.200 F6000.000
G1 E2.00000 F1200.00000
G1 F1800
G1 X113.759 Y103.164 E2.55462
G1 X98.860 Y103.164 E2.84126
G1 X98.860 Y74.336 E3.39588
G1 X113.699 Y74.336 E3.68137
G1 X113.502 Y74.593 F6000.000
G1 F1800
G1 X113.502 Y102.907 E4.22610
G1 X99.117 Y102.907 E4.50285
G1 X99.117 Y74.593 E5.04758
G1 X113.442 Y74.593 E5.32318
G1 X113.245 Y74.850 F6000.000
G1 F1800
G1 X113.245 Y102.650 E5.85801
G1 X99.374 Y102.650 E6.12488
G1 X99.374 Y74.850 E6.65971
G1 X113.185 Y74.850 E6.92542
G1 X113.618 Y74.706 F6000.000
G1 E4.92542 F1200.00000
G92 E0
G1 Z0.700 F6000.000
G1 X96.855 Y74.336 F6000.000
G1 Z0.200 F6000.000
G1 E2.00000 F1200.00000
G1 F1800
G1 X96.855 Y103.164 E2.55462
G1 X81.955 Y103.164 E2.84127
G1 X81.955 Y74.336 E3.39589
G1 X96.795 Y74.336 E3.68138
G1 X96.598 Y74.593 F6000.000
G1 F1800
G1 X96.598 Y102.907 E4.22611
G1 X82.212 Y102.907 E4.50287
G1 X82.212 Y74.593 E5.04760
G1 X96.538 Y74.593 E5.32320
G1 X96.340 Y74.850 F6000.000
G1 F1800
G1 X96.340 Y102.650 E5.85804
G1 X82.469 Y102.650 E6.12490
G1 X82.469 Y74.850 E6.65974
G1 X96.280 Y74.850 E6.92545
G1 X96.714 Y74.706 F6000.000
G1 E4.92545 F1200.00000
G92 E0
G1 Z0.700 F6000.000
G1 X79.950 Y74.336 F6000.000
G1 Z0.200 F6000.000
G1 E2.00000 F1200.00000
G1 F1800
G1 X79.950 Y103.164 E2.55462
G1 X65.050 Y103.164 E2.84127
G1 X65.050 Y74.336 E3.39588
G1 X79.890 Y74.336 E3.68138
G1 X79.693 Y74.593 F6000.000
G1 F1800
G1 X79.693 Y102.907 E4.22611
G1 X65.307 Y102.907 E4.50286
G1 X65.307 Y74.593 E5.04759
G1 X79.633 Y74.593 E5.32319
G1 X79.436 Y74.850 F6000.000
G1 F1800
G1 X79.436 Y102.650 E5.85803
G1 X65.564 Y102.650 E6.12490
G1 X65.564 Y74.850 E6.65973
G1 X79.376 Y74.850 E6.92544
G1 X79.809 Y74.706 F6000.000
G1 E4.92544 F1200.00000
G92 E0
G1 Z0.700 F6000.000
G1 X63.045 Y74.336 F6000.000
G1 Z0.200 F6000.000
G1 E2.00000 F1200.00000
G1 F1800
G1 X63.045 Y103.164 E2.55462
G1 X48.145 Y103.164 E2.84127
G1 X48.145 Y74.336 E3.39589
G1 X62.985 Y74.336 E3.68138
G1 X62.788 Y74.593 F6000.000
G1 F1800
G1 X62.788 Y102.907 E4.22611
G1 X48.402 Y102.907 E4.50287
G1 X48.402 Y74.593 E5.04760
G1 X62.728 Y74.593 E5.32320
G1 X62.531 Y74.850 F6000.000
G1 F1800
G1 X62.531 Y102.650 E5.85804
G1 X48.660 Y102.650 E6.12491
G1 X48.660 Y74.850 E6.65974
G1 X62.471 Y74.850 E6.92545
G1 X62.904 Y74.706 F6000.000
G1 E4.92545 F1200.00000
G92 E0
G1 Z0.700 F6000.000
G1 X46.140 Y74.336 F6000.000
G1 Z0.200 F6000.000
G1 E2.00000 F1200.00000
G1 F1800
G1 X46.140 Y103.164 E2.55462
G1 X31.241 Y103.164 E2.84127
G1 X31.241 Y74.336 E3.39588
G1 X46.080 Y74.336 E3.68138
G1 X45.883 Y74.593 F6000.000
G1 F1800
G1 X45.883 Y102.907 E4.22611
G1 X31.498 Y102.907 E4.50286
G1 X31.498 Y74.593 E5.04759
G1 X45.823 Y74.593 E5.32319
G1 X45.626 Y74.850 F6000.000
G1 F1800
G1 X45.626 Y102.650 E5.85803
G1 X31.755 Y102.650 E6.12490
G1 X31.755 Y74.850 E6.65973
G1 X45.566 Y74.850 E6.92544
G1 X45.999 Y74.706 F6000.000
G1 E4.92544 F1200.00000
G92 E0
G1 Z0.700 F6000.000
G1 X29.236 Y74.336 F6000.000
G1 Z0.200 F6000.000
G1 E2.00000 F1200.00000
G1 F1800
G1 X29.236 Y103.164 E2.55462
G1 X14.336 Y103.164 E2.84127
G1 X14.336 Y74.336 E3.39588
G1 X29.176 Y74.336 E3.68138
G1 X28.978 Y74.593 F6000.000
G1 F1800
G1 X28.978 Y102.907 E4.22611
G1 X14.593 Y102.907 E4.50286
G1 X14.593 Y74.593 E5.04759
G1 X28.918 Y74.593 E5.32319
G1 X28.721 Y74.850 F6000.000
G1 F1800
G1 X28.721 Y102.650 E5.85803
G1 X14.850 Y102.650 E6.12490
G1 X14.850 Y74.850 E6.65973
G1 X28.661 Y74.850 E6.92544
G1 X29.094 Y74.706 F6000.000
G1 X29.236 Y73.164 F6000.000
G1 F1800
G1 X14.336 Y73.164 E7.21209
G1 X14.336 Y44.336 E7.76671
G1 X29.236 Y44.336 E8.05336
G1 X29.236 Y73.104 E8.60682
G1 X28.978 Y72.907 F6000.000
G1 F1800
G1 X14.593 Y72.907 E8.88358
G1 X14.593 Y44.593 E9.42831
G1 X28.978 Y44.593 E9.70507
G1 X28.978 Y72.847 E10.24864
G1 X28.721 Y72.650 F6000.000
G1 F1800
G1 X14.850 Y72.650 E10.51550
G1 X14.850 Y44.850 E11.05034
G1 X28.721 Y44.850 E11.31720
G1 X28.721 Y72.590 E11.85088
G1 X28.783 Y73.045 F6000.000
G1 E9.85088 F1200.00000
G92 E0
G1 Z0.700 F6000.000
G1 X31.241 Y73.164 F6000.000
G1 Z0.200 F6000.000
G1 E2.00000 F1200.00000
G1 F1800
G1 X31.241 Y44.336 E2.55462
G1 X46.140 Y44.336 E2.84127
G1 X46.140 Y73.164 E3.39588
G1 X31.301 Y73.164 E3.68138
G1 X31.498 Y72.907 F6000.000
G1 F1800
G1 X31.498 Y44.593 E4.22611
G1 X45.883 Y44.593 E4.50286
G1 X45.883 Y72.907 E5.04759
G1 X31.558 Y72.907 E5.32319
G1 X31.755 Y72.650 F6000.000
G1 F1800
G1 X31.755 Y44.850 E5.85803
G1 X45.626 Y44.850 E6.12490
G1 X45.626 Y72.650 E6.65973
G1 X31.815 Y72.650 E6.92544
G1 X31.382 Y72.794 F6000.000
G1 E4.92544 F1200.00000
G92 E0
G1 Z0.700 F6000.000
G1 X48.145 Y73.164 F6000.000
G1 Z0.200 F6000.000
G1 E2.00000 F1200.00000
G1 F1800
G1 X48.145 Y44.336 E2.55462
G1 X63.045 Y44.336 E2.84127
G1 X63.045 Y73.164 E3.39589
G1 X48.205 Y73.164 E3.68138
G1 X48.402 Y72.907 F6000.000
G1 F1800
G1 X48.402 Y44.593 E4.22611
G1 X62.788 Y44.593 E4.50287
G1 X62.788 Y72.907 E5.04760
G1 X48.462 Y72.907 E5.32320
G1 X48.660 Y72.650 F6000.000
G1 F1800
G1 X48.660 Y44.850 E5.85804
G1 X62.531 Y44.850 E6.12491
G1 X62.531 Y72.650 E6.65974
G1 X48.719 Y72.650 E6.92545
G1 X48.286 Y72.794 F6000.000
G1 E4.92545 F1200.00000
G92 E0
G1 Z0.700 F6000.000
G1 X65.050 Y73.164 F6000.000
G1 Z0.200 F6000.000
G1 E2.00000 F1200.00000
G1 F1800
G1 X65.050 Y44.336 E2.55462
G1 X79.950 Y44.336 E2.84127
G1 X79.950 Y73.164 E3.39588
G1 X65.110 Y73.164 E3.68138
G1 X65.307 Y72.907 F6000.000
G1 F1800
G1 X65.307 Y44.593 E4.22611
G1 X79.693 Y44.593 E4.50286
G1 X79.693 Y72.907 E5.04759
G1 X65.367 Y72.907 E5.32319
G1 X65.564 Y72.650 F6000.000
G1 F1800
G1 X65.564 Y44.850 E5.85803
G1 X79.436 Y44.850 E6.12490
G1 X79.436 Y72.650 E6.65973
G1 X65.624 Y72.650 E6.92544
G1 X65.191 Y72.794 F6000.000
G1 E4.92544 F1200.00000
G92 E0
G1 Z0.700 F6000.000
G1 X81.955 Y73.164 F6000.000
G1 Z0.200 F6000.000
G1 E2.00000 F1200.00000
G1 F1800
G1 X81.955 Y44.336 E2.55462
G1 X96.855 Y44.336 E2.84127
G1 X96.855 Y73.164 E3.39589
G1 X82.015 Y73.164 E3.68138
G1 X82.212 Y72.907 F6000.000
G1 F1800
G1 X82.212 Y44.593 E4.22611
G1 X96.598 Y44.593 E4.50287
G1 X96.598 Y72.907 E5.04760
G1 X82.272 Y72.907 E5.32320
G1 X82.469 Y72.650 F6000.000
G1 F1800
G1 X82.469 Y44.850 E5.85804
G1 X96.340 Y44.850 E6.12490
G1 X96.340 Y72.650 E6.65974
G1 X82.529 Y72.650 E6.92545
G1 X82.096 Y72.794 F6000.000
G1 E4.92545 F1200.00000
G92 E0
G1 Z0.700 F6000.000
G1 X98.860 Y73.164 F6000.000
G1 Z0.200 F6000.000
G1 E2.00000 F1200.00000
G1 F1800
G1 X98.860 Y44.336 E2.55462
G1 X113.759 Y44.336 E2.84126
G1 X113.759 Y73.164 E3.39588
G1 X98.920 Y73.164 E3.68137
G1 X99.117 Y72.907 F6000.000
G1 F1800
G1 X99.117 Y44.593 E4.22610
G1 X113.502 Y44.593 E4.50285
G1 X113.502 Y72.907 E5.04758
G1 X99.177 Y72.907 E5.32318
G1 X99.374 Y72.650 F6000.000
G1 F1800
G1 X99.374 Y44.850 E5.85801
G1 X113.245 Y44.850 E6.12488
G1 X113.245 Y72.650 E6.65971
G1 X99.434 Y72.650 E6.92542
G1 X99.001 Y72.794 F6000.000
G1 E4.92542 F1200.00000
G92 E0
G1 Z0.700 F6000.000
G1 X115.765 Y73.164 F6000.000
G1 Z0.200 F6000.000
G1 E2.00000 F1200.00000
G1 F1800
G1 X115.765 Y44.336 E2.55462
G1 X130.664 Y44.336 E2.84126
G1 X130.664 Y73.164 E3.39588
G1 X115.825 Y73.164 E3.68137
G1 X116.022 Y72.907 F6000.000
G1 F1800
G1 X116.022 Y44.593 E4.22609
G1 X130.407 Y44.593 E4.50284
G1 X130.407 Y72.907 E5.04757
G1 X116.082 Y72.907 E5.32316
G1 X116.279 Y72.650 F6000.000
G1 F1800
G1 X116.279 Y44.850 E5.85800
G1 X130.150 Y44.850 E6.12486
G1 X130.150 Y72.650 E6.65969
G1 X116.339 Y72.650 E6.92540
G1 X115.906 Y72.794 F6000.000
G1 E4.92540 F1200.00000
G92 E0
G1 Z0.700 F6000.000
G1 X139.336 Y40.664 F6000.000
G1 Z0.200 F6000.000
G1 E2.00000 F1200.00000
G1 F1800
G1 X139.336 Y109.336 E3.32115
G1 X10.664 Y109.336 E5.79662
G1 X10.664 Y40.664 E7.11777
G1 X139.276 Y40.664 E9.59208
G1 X139.593 Y40.407 F6000.000
G1 F1800
G1 X139.593 Y109.593 E10.92312
G1 X10.407 Y109.593 E13.40848
G1 X10.407 Y40.407 E14.73952
G1 X139.533 Y40.407 E17.22372
G1 X139.850 Y40.150 F6000.000
G1 F1800
G1 X139.850 Y109.850 E18.56466
G1 X10.150 Y109.850 E21.05991
G1 X10.150 Y40.150 E22.40084
G1 X139.790 Y40.150 E24.89494
G1 X139.709 Y40.524 F6000.000
G1 E22.89494 F1200.00000
G92 E0
G1 Z0.700 F6000.000
G1 X113.907 Y45.745 F6000.000
G1 Z0.200 F6000.000
G1 E2.00000 F1200.00000
G1 F1800
G1 X113.907 Y46.109 E2.00702
G1 X115.617 Y44.399 E2.05362
G1 X115.617 Y44.764 E2.06064
G1 X113.907 Y46.473 E2.10724
G1 X113.907 Y46.838 E2.11426
G1 X115.617 Y45.128 E2.16086
G1 X115.617 Y45.492 E2.16788
G1 X113.907 Y47.202 E2.21448
G1 X113.907 Y47.566 E2.22150
G1 X115.617 Y45.856 E2.26810
G1 X115.617 Y46.221 E2.27512
G1 X113.907 Y47.930 E2.32172
G1 X113.907 Y48.295 E2.32874
G1 X115.617 Y46.585 E2.37534
G1 X115.617 Y46.949 E2.38236
G1 X113.907 Y48.659 E2.42896
G1 X113.907 Y49.023 E2.43598
G1 X115.617 Y47.313 E2.48258
G1 X115.617 Y47.677 E2.48960
G1 X113.907 Y49.387 E2.53620
G1 X113.907 Y49.751 E2.54322
G1 X115.617 Y48.042 E2.58982
G1 X115.617 Y48.406 E2.59684
G1 X113.907 Y50.116 E2.64344
G1 X113.907 Y50.480 E2.65046
G1 X115.617 Y48.770 E2.69706
G1 X115.617 Y49.134 E2.70408
G1 X113.907 Y50.844 E2.75068
G1 X113.907 Y51.208 E2.75770
G1 X115.617 Y49.499 E2.80430
G1 X115.617 Y49.863 E2.81132
G1 X113.907 Y51.572 E2.85792
G1 X113.907 Y51.937 E2.86494
G1 X115.617 Y50.227 E2.91154
G1 X115.617 Y50.591 E2.91856
G1 X113.907 Y52.301 E2.96516
G1 X113.907 Y52.665 E2.97218
G1 X115.617 Y50.955 E3.01878
G1 X115.617 Y51.320 E3.02580
G1 X113.907 Y53.029 E3.07241
G1 X113.907 Y53.394 E3.07942
G1 X115.617 Y51.684 E3.12603
G1 X115.617 Y52.048 E3.13305
G1 X113.907 Y53.758 E3.17965
G1 X113.907 Y54.122 E3.18667
G1 X115.617 Y52.412 E3.23327
G1 X115.617 Y52.777 E3.24029
G1 X113.907 Y54.486 E3.28689
G1 X113.907 Y54.850 E3.29391
G1 X115.617 Y53.141 E3.34051
G1 X115.617 Y53.505 E3.34753
G1 X113.907 Y55.215 E3.39413
G1 X113.907 Y55.579 E3.40115
G1 X115.617 Y53.869 E3.44775
G1 X115.617 Y54.233 E3.45477
G1 X113.907 Y55.943 E3.50137
G1 X113.907 Y56.307 E3.50839
G1 X115.617 Y54.598 E3.55499
G1 X115.617 Y54.962 E3.56201
G1 X113.907 Y56.672 E3.60861
G1 X113.907 Y57.036 E3.61563
G1 X115.617 Y55.326 E3.66223
G1 X115.617 Y55.690 E3.66925
G1 X113.907 Y57.400 E3.71585
G1 X113.907 Y57.764 E3.72287
G1 X115.617 Y56.055 E3.76947
G1 X115.617 Y56.419 E3.77649
G1 X113.907 Y58.128 E3.82309
G1 X113.907 Y58.493 E3.83011
G1 X115.617 Y56.783 E3.87671
G1 X115.617 Y57.147 E3.88373
G1 X113.907 Y58.857 E3.93033
G1 X113.907 Y59.221 E3.93735
G1 X115.617 Y57.511 E3.98395
G1 X115.617 Y57.876 E3.99097
G1 X113.907 Y59.585 E4.03757
G1 X113.907 Y59.950 E4.04459
G1 X115.617 Y58.240 E4.09119
G1 X115.617 Y58.604 E4.09821
G1 X113.907 Y60.314 E4.14481
G1 X113.907 Y60.678 E4.15183
G1 X115.617 Y58.968 E4.19843
G1 X115.617 Y59.332 E4.20545
G1 X113.907 Y61.042 E4.25205
G1 X113.907 Y61.406 E4.25907
G1 X115.617 Y59.697 E4.30567
G1 X115.617 Y60.061 E4.31269
G1 X113.907 Y61.771 E4.35929
G1 X113.907 Y62.135 E4.36631
G1 X115.617 Y60.425 E4.41291
G1 X115.617 Y60.789 E4.41993
G1 X113.907 Y62.499 E4.46653
G1 X113.907 Y62.863 E4.47355
G1 X115.617 Y61.154 E4.52015
G1 X115.617 Y61.518 E4.52717
G1 X113.907 Y63.228 E4.57377
G1 X113.907 Y63.592 E4.58079
G1 X115.617 Y61.882 E4.62739
G1 X115.617 Y62.246 E4.63441
G1 X113.907 Y63.956 E4.68101
G1 X113.907 Y64.320 E4.68803
G1 X115.617 Y62.610 E4.73463
G1 X115.617 Y62.975 E4.74165
G1 X113.907 Y64.684 E4.78825
G1 X113.907 Y65.049 E4.79527
G1 X115.617 Y63.339 E4.84187
G1 X115.617 Y63.703 E4.84889
G1 X113.907 Y65.413 E4.89549
G1 X113.907 Y65.777 E4.90251
G1 X115.617 Y64.067 E4.94911
G1 X115.617 Y64.432 E4.95613
G1 X113.907 Y66.141 E5.00273
G1 X113.907 Y66.505 E5.00975
G1 X115.617 Y64.796 E5.05635
G1 X115.617 Y65.160 E5.06337
G1 X113.907 Y66.870 E5.10998
G1 X113.907 Y67.234 E5.11699
G1 X115.617 Y65.524 E5.16360
G1 X115.617 Y65.888 E5.17062
G1 X113.907 Y67.598 E5.21722
G1 X113.907 Y67.962 E5.22424
G1 X115.617 Y66.253 E5.27084
G1 X115.617 Y66.617 E5.27786
G1 X113.907 Y68.327 E5.32446
G1 X113.907 Y68.691 E5.33148
G1 X115.617 Y66.981 E5.37808
G1 X115.617 Y67.345 E5.38510
G1 X113.907 Y69.055 E5.43170
G1 X113.907 Y69.419 E5.43872
G1 X115.617 Y67.710 E5.48532
G1 X115.617 Y68.074 E5.49234
G1 X113.907 Y69.783 E5.53894
G1 X113.907 Y70.148 E5.54596
G1 X115.617 Y68.438 E5.59256
G1 X115.617 Y68.802 E5.59958
G1 X113.907 Y70.512 E5.64618
G1 X113.907 Y70.876 E5.65320
G1 X115.617 Y69.166 E5.69980
G1 X115.617 Y69.531 E5.70682
G1 X113.907 Y71.240 E5.75342
G1 X113.907 Y71.605 E5.76044
G1 X115.617 Y69.895 E5.80704
G1 X115.617 Y70.259 E5.81406
G1 X113.907 Y71.969 E5.86066
G1 X113.907 Y72.333 E5.86768
G1 X115.617 Y70.623 E5.91428
G1 X115.617 Y70.987 E5.92130
G1 X113.907 Y72.697 E5.96790
G1 X113.907 Y73.061 E5.97492
G1 X115.617 Y71.352 E6.02152
G1 X115.617 Y71.716 E6.02854
G1 X113.907 Y73.426 E6.07514
G1 X115.399 Y74.484 F6000.000
G1 F1800
G1 X115.399 Y74.188 E6.08084
G1 X115.694 Y74.188 E6.08654
G1 X116.570 Y73.312 E6.11041
G1 X116.934 Y73.312 E6.11743
G1 X116.059 Y74.188 E6.14130
G1 X116.423 Y74.188 E6.14832
G1 X117.299 Y73.312 E6.17219
G1 X117.663 Y73.312 E6.17921
G1 X116.787 Y74.188 E6.20307
G1 X117.151 Y74.188 E6.21009
G1 X118.027 Y73.312 E6.23396
G1 X118.391 Y73.312 E6.24098
G1 X117.516 Y74.188 E6.26485
G1 X117.880 Y74.188 E6.27187
G1 X118.755 Y73.312 E6.29574
G1 X119.120 Y73.312 E6.30276
G1 X118.244 Y74.188 E6.32663
G1 X118.608 Y74.188 E6.33365
G1 X119.484 Y73.312 E6.35752
G1 X119.848 Y73.312 E6.36454
G1 X118.972 Y74.188 E6.38840
G1 X119.337 Y74.188 E6.39542
G1 X120.212 Y73.312 E6.41929
G1 X120.577 Y73.312 E6.42631
G1 X119.701 Y74.188 E6.45018
G1 X120.065 Y74.188 E6.45720
G1 X120.941 Y73.312 E6.48107
G1 X121.305 Y73.312 E6.48809
G1 X120.429 Y74.188 E6.51196
G1 X120.794 Y74.188 E6.51898
G1 X121.669 Y73.312 E6.54285
G1 X122.033 Y73.312 E6.54987
G1 X121.158 Y74.188 E6.57373
G1 X121.522 Y74.188 E6.58075
G1 X122.398 Y73.312 E6.60462
G1 X122.762 Y73.312 E6.61164
G1 X121.886 Y74.188 E6.63551
G1 X122.250 Y74.188 E6.64253
G1 X123.126 Y73.312 E6.66640
G1 X123.490 Y73.312 E6.67342
G1 X122.615 Y74.188 E6.69729
G1 X122.979 Y74.188 E6.70431
G1 X123.855 Y73.312 E6.72818
G1 X124.219 Y73.312 E6.73520
G1 X123.343 Y74.188 E6.75906
G1 X123.707 Y74.188 E6.76608
G1 X124.583 Y73.312 E6.78995
G1 X124.947 Y73.312 E6.79697
G1 X124.072 Y74.188 E6.82084
G1 X124.436 Y74.188 E6.82786
G1 X125.311 Y73.312 E6.85173
G1 X125.676 Y73.312 E6.85875
G1 X124.800 Y74.188 E6.88262
G1 X125.164 Y74.188 E6.88964
G1 X126.040 Y73.312 E6.91351
G1 X126.404 Y73.312 E6.92053
G1 X125.528 Y74.188 E6.94440
G1 X125.893 Y74.188 E6.95141
G1 X126.768 Y73.312 E6.97528
G1 X127.133 Y73.312 E6.98230
G1 X126.257 Y74.188 E7.00617
G1 X126.621 Y74.188 E7.01319
G1 X127.497 Y73.312 E7.03706
G1 X127.861 Y73.312 E7.04408
G1 X126.985 Y74.188 E7.06795
G1 X127.349 Y74.188 E7.07497
G1 X128.225 Y73.312 E7.09884
G1 X128.589 Y73.312 E7.10586
G1 X127.714 Y74.188 E7.12973
G1 X128.078 Y74.188 E7.13675
G1 X128.954 Y73.312 E7.16061
G1 X129.318 Y73.312 E7.16763
G1 X128.442 Y74.188 E7.19150
G1 X128.806 Y74.188 E7.19852
