; generated by Slic3r 1.3.0 on 2021-03-06 at 11:21:20

; external perimeters extrusion width = 0.44mm (2.86mm^3/s)
; perimeters extrusion width = 0.56mm (4.14mm^3/s)
; infill extrusion width = 0.50mm (3.66mm^3/s)
; solid infill extrusion width = 0.56mm (3.10mm^3/s)
; top infill extrusion width = 0.45mm (2.44mm^3/s)

M107
;D3D:START:START
T0
M104 S215 T0

G21
G90
M107
T0
G28
G29
M109 T0 S215 T0
G0 F3000
M107
T0
G92 E0
G0 X0 Y149 Z0.1 F3600
G1 Y49 E6.5 F1200
G0 Z1
G92 E0
; Filament gcode

G21 ; set units to millimeters
G90 ; use absolute coordinates
M82 ; use absolute distances for extrusion
G92 E0
G1 Z0.300 F6000.000
G1 E-2.00000 F1200.00000
G92 E0
G1 Z0.800 F6000.000
G1 X8.693 Y33.356 F6000.000
G1 Z0.300 F6000.000
G1 E2.00000 F1200.00000
G1 F1800
G1 X10.000 Y33.229 E2.05873
G1 X140.000 Y33.229 E7.87360
G1 X142.285 Y33.626 E7.97732
G1 X144.301 Y34.770 E8.08104
G1 X145.813 Y36.528 E8.18477
G1 X146.644 Y38.693 E8.28849
G1 X146.771 Y40.000 E8.34721
G1 X146.771 Y110.000 E11.47830
G1 X146.374 Y112.285 E11.58202
G1 X145.230 Y114.301 E11.68574
G1 X143.472 Y115.813 E11.78946
G1 X141.307 Y116.644 E11.89318
G1 X140.000 Y116.771 E11.95191
G1 X10.000 Y116.771 E17.76679
G1 X7.715 Y116.374 E17.87051
G1 X5.699 Y115.230 E17.97423
G1 X4.187 Y113.472 E18.07795
G1 X3.356 Y111.307 E18.18167
G1 X3.229 Y110.000 E18.24040
G1 X3.229 Y40.000 E21.37149
G1 X3.626 Y37.715 E21.47521
G1 X4.770 Y35.699 E21.57893
G1 X6.528 Y34.187 E21.68265
G1 X8.637 Y33.378 E21.78369
G1 X10.000 Y33.614 F6000.000
G1 F1800
G1 X140.000 Y33.614 E27.59856
G1 X142.216 Y34.011 E27.69926
G1 X144.157 Y35.153 E27.79997
G1 X145.581 Y36.896 E27.90067
G1 X146.386 Y40.000 E28.04409
G1 X146.386 Y110.000 E31.17517
G1 X145.989 Y112.216 E31.27588
G1 X144.847 Y114.157 E31.37658
G1 X143.104 Y115.581 E31.47728
G1 X140.000 Y116.386 E31.62070
G1 X10.000 Y116.386 E37.43558
G1 X7.784 Y115.989 E37.53628
G1 X5.843 Y114.847 E37.63698
G1 X4.419 Y113.104 E37.73768
G1 X3.614 Y110.000 E37.88110
G1 X3.614 Y40.000 E41.01219
G1 X4.011 Y37.784 E41.11289
G1 X5.153 Y35.843 E41.21359
G1 X6.896 Y34.419 E41.31429
G1 X9.942 Y33.629 E41.45503
G1 E39.45503 F1200.00000
G92 E0
G1 Z0.800 F6000.000
G1 X28.396 Y78.639 F6000.000
G1 Z0.300 F6000.000
G1 E2.00000 F1200.00000
G1 F1800
G1 X28.396 Y106.361 E3.23997
G1 X11.604 Y106.361 E3.99110
G1 X11.604 Y78.639 E5.23106
G1 X28.336 Y78.639 E5.97951
G1 X28.011 Y79.025 F6000.000
G1 F1800
G1 X28.011 Y105.975 E7.18498
G1 X11.989 Y105.975 E7.90162
G1 X11.989 Y79.025 E9.10709
G1 X27.951 Y79.025 E9.82104
G1 X28.387 Y78.890 F6000.000
G1 E7.82104 F1200.00000
G92 E0
G1 Z0.800 F6000.000
G1 X28.396 Y71.361 F6000.000
G1 Z0.300 F6000.000
G1 E2.00000 F1200.00000
G1 F1800
G1 X11.604 Y71.361 E2.75113
G1 X11.604 Y43.639 E3.99110
G1 X28.396 Y43.639 E4.74223
G1 X28.396 Y71.301 E5.97951
G1 X28.011 Y70.975 F6000.000
G1 F1800
G1 X11.989 Y70.975 E6.69615
G1 X11.989 Y44.025 E7.90162
G1 X28.011 Y44.025 E8.61825
G1 X28.011 Y70.915 E9.82104
G1 X28.082 Y71.369 F6000.000
G1 E7.82104 F1200.00000
G92 E0
G1 Z0.800 F6000.000
G1 X119.552 Y78.254 F6000.000
G1 Z0.300 F6000.000
G1 E2.00000 F1200.00000
G1 F1800
G1 X137.115 Y78.254 E2.78561
G1 X137.115 Y106.746 E4.06007
G1 X119.552 Y106.746 E4.84569
G1 X119.552 Y78.314 E6.11747
G1 X119.937 Y78.639 F6000.000
G1 F1800
G1 X136.730 Y78.639 E6.86858
G1 X136.730 Y106.361 E8.10855
G1 X119.937 Y106.361 E8.85966
G1 X119.937 Y78.699 E10.09694
G1 X120.323 Y79.025 F6000.000
G1 F1800
G1 X136.344 Y79.025 E10.81356
G1 X136.344 Y105.975 E12.01903
G1 X120.323 Y105.975 E12.73564
G1 X120.323 Y79.085 E13.93843
G1 X120.252 Y78.631 F6000.000
G1 E11.93843 F1200.00000
G92 E0
G1 Z0.800 F6000.000
G1 X115.448 Y78.254 F6000.000
G1 Z0.300 F6000.000
G1 E2.00000 F1200.00000
G1 F1800
G1 X115.448 Y106.746 E3.27446
G1 X97.885 Y106.746 E4.06007
G1 X97.885 Y78.254 E5.33454
G1 X115.388 Y78.254 E6.11747
G1 X115.063 Y78.639 F6000.000
G1 F1800
G1 X115.063 Y106.361 E7.35743
G1 X98.270 Y106.361 E8.10855
G1 X98.270 Y78.639 E9.34851
G1 X115.003 Y78.639 E10.09694
G1 X114.677 Y79.025 F6000.000
G1 F1800
G1 X114.677 Y105.975 E11.30241
G1 X98.656 Y105.975 E12.01903
G1 X98.656 Y79.025 E13.22450
G1 X114.617 Y79.025 E13.93843
G1 X115.053 Y78.890 F6000.000
G1 E11.93843 F1200.00000
G92 E0
G1 Z0.800 F6000.000
G1 X93.782 Y78.254 F6000.000
G1 Z0.300 F6000.000
G1 E2.00000 F1200.00000
G1 F1800
G1 X93.782 Y98.496 E2.90544
G1 X76.218 Y98.496 E3.69107
G1 X76.218 Y78.254 E4.59651
G1 X93.722 Y78.254 E5.37946
G1 X93.396 Y78.639 F6000.000
G1 F1800
G1 X93.396 Y98.111 E6.25040
G1 X76.604 Y98.111 E7.00153
G1 X76.604 Y78.639 E7.87248
G1 X93.336 Y78.639 E8.62093
G1 X93.011 Y79.025 F6000.000
G1 F1800
G1 X93.011 Y97.725 E9.45737
G1 X76.989 Y97.725 E10.17401
G1 X76.989 Y79.025 E11.01046
G1 X92.951 Y79.025 E11.72441
G1 X93.394 Y78.912 F6000.000
G1 E9.72441 F1200.00000
G92 E0
G1 Z0.800 F6000.000
G1 X72.115 Y78.254 F6000.000
G1 Z0.300 F6000.000
G1 E2.00000 F1200.00000
G1 F1800
G1 X72.115 Y98.496 E2.90544
G1 X54.551 Y98.496 E3.69107
G1 X54.551 Y78.254 E4.59651
G1 X72.055 Y78.254 E5.37946
G1 X71.730 Y78.639 F6000.000
G1 F1800
G1 X71.730 Y98.111 E6.25040
G1 X54.937 Y98.111 E7.00154
G1 X54.937 Y78.639 E7.87248
G1 X71.670 Y78.639 E8.62093
G1 X71.344 Y79.025 F6000.000
G1 F1800
G1 X71.344 Y97.725 E9.45738
G1 X55.323 Y97.725 E10.17401
G1 X55.323 Y79.025 E11.01046
G1 X71.284 Y79.025 E11.72441
G1 X71.728 Y78.912 F6000.000
G1 E9.72441 F1200.00000
G92 E0
G1 Z0.800 F6000.000
G1 X50.449 Y78.254 F6000.000
G1 Z0.300 F6000.000
G1 E2.00000 F1200.00000
G1 F1800
G1 X50.449 Y106.746 E3.27446
G1 X32.885 Y106.746 E4.06009
G1 X32.885 Y78.254 E5.33456
G1 X50.389 Y78.254 E6.11750
G1 X50.063 Y78.639 F6000.000
G1 F1800
G1 X50.063 Y106.361 E7.35747
G1 X33.270 Y106.361 E8.10860
G1 X33.270 Y78.639 E9.34856
G1 X50.003 Y78.639 E10.09701
G1 X49.677 Y79.025 F6000.000
G1 F1800
G1 X49.677 Y105.975 E11.30248
G1 X33.656 Y105.975 E12.01912
G1 X33.656 Y79.025 E13.22458
G1 X49.617 Y79.025 E13.93854
G1 X50.054 Y78.890 F6000.000
G1 E11.93854 F1200.00000
G92 E0
G1 Z0.800 F6000.000
G1 X54.551 Y71.746 F6000.000
G1 Z0.300 F6000.000
G1 E2.00000 F1200.00000
G1 F1800
G1 X54.551 Y51.504 E2.90544
G1 X72.115 Y51.504 E3.69107
G1 X72.115 Y71.746 E4.59651
G1 X54.611 Y71.746 E5.37946
G1 X54.937 Y71.361 F6000.000
G1 F1800
G1 X54.937 Y51.889 E6.25040
G1 X71.730 Y51.889 E7.00154
G1 X71.730 Y71.361 E7.87248
G1 X54.997 Y71.361 E8.62093
G1 X55.323 Y70.975 F6000.000
G1 F1800
G1 X55.323 Y52.275 E9.45738
G1 X71.344 Y52.275 E10.17401
G1 X71.344 Y70.975 E11.01046
G1 X55.383 Y70.975 E11.72441
G1 X54.939 Y71.088 F6000.000
G1 E9.72441 F1200.00000
G92 E0
G1 Z0.800 F6000.000
G1 X62.004 Y49.996 F6000.000
G1 Z0.300 F6000.000
G1 E2.00000 F1200.00000
G1 F1800
G1 X62.004 Y46.004 E2.17858
G1 X87.996 Y46.004 E3.34122
G1 X87.996 Y49.996 E3.51980
G1 X62.064 Y49.996 E4.67976
G1 X62.389 Y49.611 F6000.000
G1 F1800
G1 X62.389 Y46.389 E4.82384
G1 X87.611 Y46.389 E5.95199
G1 X87.611 Y49.611 E6.09607
G1 X62.449 Y49.611 E7.22153
G1 X62.775 Y49.225 F6000.000
G1 F1800
G1 X62.775 Y46.775 E7.33112
G1 X87.225 Y46.775 E8.42476
G1 X87.225 Y49.225 E8.53435
G1 X62.835 Y49.225 E9.62531
G1 X62.375 Y49.238 F6000.000
G1 E7.62531 F1200.00000
G92 E0
G1 Z0.800 F6000.000
G1 X76.218 Y51.504 F6000.000
G1 Z0.300 F6000.000
G1 E2.00000 F1200.00000
G1 F1800
G1 X93.782 Y51.504 E2.78563
G1 X93.782 Y71.746 E3.69107
G1 X76.218 Y71.746 E4.47670
G1 X76.218 Y51.564 E5.37946
G1 X76.604 Y51.889 F6000.000
G1 F1800
G1 X93.396 Y51.889 E6.13059
G1 X93.396 Y71.361 E7.00153
G1 X76.604 Y71.361 E7.75267
G1 X76.604 Y51.949 E8.62093
G1 X76.989 Y52.275 F6000.000
G1 F1800
G1 X93.011 Y52.275 E9.33756
G1 X93.011 Y70.975 E10.17401
G1 X76.989 Y70.975 E10.89064
G1 X76.989 Y52.335 E11.72441
G1 X76.896 Y51.886 F6000.000
G1 E9.72441 F1200.00000
G92 E0
G1 Z0.800 F6000.000
G1 X97.885 Y43.254 F6000.000
G1 Z0.300 F6000.000
G1 E2.00000 F1200.00000
G1 F1800
G1 X115.448 Y43.254 E2.78561
G1 X115.448 Y71.746 E4.06007
G1 X97.885 Y71.746 E4.84569
G1 X97.885 Y43.314 E6.11747
G1 X98.270 Y43.639 F6000.000
G1 F1800
G1 X115.063 Y43.639 E6.86858
G1 X115.063 Y71.361 E8.10855
G1 X98.270 Y71.361 E8.85966
G1 X98.270 Y43.699 E10.09694
G1 X98.656 Y44.025 F6000.000
G1 F1800
G1 X114.677 Y44.025 E10.81356
G1 X114.677 Y70.975 E12.01903
G1 X98.656 Y70.975 E12.73564
G1 X98.656 Y44.085 E13.93843
G1 X98.585 Y43.631 F6000.000
G1 E11.93843 F1200.00000
G92 E0
G1 Z0.800 F6000.000
G1 X119.552 Y43.254 F6000.000
G1 Z0.300 F6000.000
G1 E2.00000 F1200.00000
G1 F1800
G1 X137.115 Y43.254 E2.78561
G1 X137.115 Y71.746 E4.06007
G1 X119.552 Y71.746 E4.84569
G1 X119.552 Y43.314 E6.11747
G1 X119.937 Y43.639 F6000.000
G1 F1800
G1 X136.730 Y43.639 E6.86858
G1 X136.730 Y71.361 E8.10855
G1 X119.937 Y71.361 E8.85966
G1 X119.937 Y43.699 E10.09694
G1 X120.323 Y44.025 F6000.000
G1 F1800
G1 X136.344 Y44.025 E10.81356
G1 X136.344 Y70.975 E12.01903
G1 X120.323 Y70.975 E12.73564
G1 X120.323 Y44.085 E13.93843
G1 X120.252 Y43.631 F6000.000
G1 E11.93843 F1200.00000
G92 E0
G1 Z0.800 F6000.000
G1 X87.996 Y100.004 F6000.000
G1 Z0.300 F6000.000
G1 E2.00000 F1200.00000
G1 F1800
G1 X87.996 Y103.996 E2.17858
G1 X62.004 Y103.996 E3.34122
G1 X62.004 Y100.004 E3.51980
G1 X87.936 Y100.004 E4.67976
G1 X87.611 Y100.389 F6000.000
G1 F1800
G1 X87.611 Y103.611 E4.82384
G1 X62.389 Y103.611 E5.95199
G1 X62.389 Y100.389 E6.09607
G1 X87.551 Y100.389 E7.22153
G1 X87.225 Y100.775 F6000.000
G1 F1800
G1 X87.225 Y103.225 E7.33112
G1 X62.775 Y103.225 E8.42476
G1 X62.775 Y100.775 E8.53435
G1 X87.165 Y100.775 E9.62531
G1 X87.625 Y100.762 F6000.000
G1 E7.62531 F1200.00000
G92 E0
G1 Z0.800 F6000.000
G1 X50.449 Y71.746 F6000.000
G1 Z0.300 F6000.000
G1 E2.00000 F1200.00000
G1 F1800
G1 X32.885 Y71.746 E2.78563
G1 X32.885 Y43.254 E4.06009
G1 X50.449 Y43.254 E4.84572
G1 X50.449 Y71.686 E6.11750
G1 X50.063 Y71.361 F6000.000
G1 F1800
G1 X33.270 Y71.361 E6.86863
G1 X33.270 Y43.639 E8.10860
G1 X50.063 Y43.639 E8.85973
G1 X50.063 Y71.301 E10.09701
G1 X49.677 Y70.975 F6000.000
G1 F1800
G1 X33.656 Y70.975 E10.81365
G1 X33.656 Y44.025 E12.01912
G1 X49.677 Y44.025 E12.73575
G1 X49.677 Y70.915 E13.93854
G1 X49.749 Y71.369 F6000.000
G1 E11.93854 F1200.00000
G92 E0
G1 Z0.800 F6000.000
G1 X28.782 Y71.746 F6000.000
G1 Z0.300 F6000.000
G1 E2.00000 F1200.00000
G1 F1800
G1 X28.782 Y43.254 E3.27446
G1 X10.996 Y43.254 E4.07001
G1 X10.996 Y40.996 E4.17099
G1 X139.004 Y40.996 E9.89675
G1 X139.004 Y109.004 E12.93871
G1 X10.996 Y109.004 E18.66447
G1 X10.996 Y106.746 E18.76544
G1 X28.782 Y106.746 E19.56100
G1 X28.782 Y78.254 E20.83546
G1 X10.996 Y78.254 E21.63101
G1 X10.996 Y71.746 E21.92209
G1 X28.722 Y71.746 E22.71496
G1 E20.71496 F1200.00000
G92 E0
G1 Z0.800 F6000.000
G1 X10.611 Y40.611 F6000.000
G1 Z0.300 F6000.000
G1 E2.00000 F1200.00000
G1 F1800
G1 X139.389 Y40.611 E7.76025
G1 X139.389 Y109.389 E10.83671
G1 X10.611 Y109.389 E16.59696
G1 X10.611 Y40.671 E19.67074
G1 X10.225 Y40.225 F6000.000
G1 F1800
G1 X139.775 Y40.225 E25.46549
G1 X139.775 Y109.775 E28.57645
G1 X10.225 Y109.775 E34.37120
G1 X10.225 Y40.285 E37.47947
G1 X10.620 Y40.290 F6000.000
G1 E35.47947 F1200.00000
G92 E0
G1 Z0.800 F6000.000
G1 X11.107 Y43.447 F6000.000
G1 Z0.300 F6000.000
G1 E2.00000 F1200.00000
G1 F1800
G1 X11.107 Y71.553 E3.77045
G1 E1.77045 F1200.00000
G92 E0
G1 Z0.800 F6000.000
G1 X11.107 Y78.447 F6000.000
G1 Z0.300 F6000.000
G1 E2.00000 F1200.00000
G1 F1800
G1 X11.107 Y106.553 E3.77045
G1 X11.417 Y107.445 F6000.000
G1 F1800
G1 X11.068 Y107.445 E3.78610
G1 X11.068 Y107.795 E3.80174
G1 X12.045 Y106.818 E3.86360
G1 X12.591 Y106.818 E3.88808
G1 X11.068 Y108.341 E3.98455
G1 X11.068 Y108.887 E4.00903
G1 X13.137 Y106.818 E4.14011
G1 X13.683 Y106.818 E4.16459
G1 X11.570 Y108.932 E4.29851
G1 X12.116 Y108.932 E4.32299
G1 X14.230 Y106.818 E4.45690
G1 X14.776 Y106.818 E4.48138
G1 X12.662 Y108.932 E4.61530
G1 X13.209 Y108.932 E4.63977
G1 X15.322 Y106.818 E4.77369
G1 X15.868 Y106.818 E4.79817
G1 X13.755 Y108.932 E4.93209
G1 X14.301 Y108.932 E4.95657
G1 X16.415 Y106.818 E5.09048
G1 X16.961 Y106.818 E5.11496
G1 X14.847 Y108.932 E5.24888
G1 X15.394 Y108.932 E5.27335
G1 X17.507 Y106.818 E5.40727
G1 X18.053 Y106.818 E5.43175
G1 X15.940 Y108.932 E5.56567
G1 X16.486 Y108.932 E5.59014
G1 X18.600 Y106.818 E5.72406
G1 X19.146 Y106.818 E5.74854
G1 X17.033 Y108.932 E5.88246
G1 X17.579 Y108.932 E5.90693
G1 X19.692 Y106.818 E6.04085
G1 X20.239 Y106.818 E6.06533
G1 X18.125 Y108.932 E6.19925
G1 X18.671 Y108.932 E6.22372
G1 X20.785 Y106.818 E6.35764
G1 X21.331 Y106.818 E6.38212
G1 X19.218 Y108.932 E6.51604
G1 X19.764 Y108.932 E6.54051
G1 X21.877 Y106.818 E6.67443
G1 X22.424 Y106.818 E6.69891
G1 X20.310 Y108.932 E6.83283
G1 X20.856 Y108.932 E6.85730
G1 X22.970 Y106.818 E6.99122
G1 X23.516 Y106.818 E7.01570
G1 X21.403 Y108.932 E7.14962
G1 X21.949 Y108.932 E7.17409
G1 X24.062 Y106.818 E7.30801
G1 X24.609 Y106.818 E7.33249
G1 X22.495 Y108.932 E7.46641
G1 X23.042 Y108.932 E7.49088
G1 X25.155 Y106.818 E7.62480
G1 X25.701 Y106.818 E7.64928
G1 X23.588 Y108.932 E7.78320
G1 X24.134 Y108.932 E7.80767
G1 X26.248 Y106.818 E7.94159
G1 X26.794 Y106.818 E7.96607
G1 X24.680 Y108.932 E8.09999
G1 X25.227 Y108.932 E8.12446
G1 X27.340 Y106.818 E8.25838
G1 X27.886 Y106.818 E8.28286
G1 X25.773 Y108.932 E8.41678
G1 X26.319 Y108.932 E8.44125
G1 X28.433 Y106.818 E8.57517
G1 X28.979 Y106.818 E8.59965
G1 X26.865 Y108.932 E8.73357
G1 X27.412 Y108.932 E8.75804
G1 X32.813 Y103.531 E9.10028
G1 X32.813 Y104.077 E9.12475
G1 X27.958 Y108.932 E9.43238
G1 X28.504 Y108.932 E9.45685
G1 X32.813 Y104.623 E9.72986
G1 X32.813 Y105.169 E9.75433
G1 X29.050 Y108.932 E9.99273
G1 X29.597 Y108.932 E10.01720
G1 X32.813 Y105.716 E10.22098
G1 X32.813 Y106.262 E10.24546
G1 X30.143 Y108.932 E10.41462
G1 X30.689 Y108.932 E10.43910
G1 X32.813 Y106.808 E10.57365
G1 X33.349 Y106.818 E10.59768
G1 X31.236 Y108.932 E10.73160
G1 X31.782 Y108.932 E10.75608
G1 X33.895 Y106.818 E10.88999
G1 X34.442 Y106.818 E10.91447
G1 X32.328 Y108.932 E11.04839
G1 X32.874 Y108.932 E11.07287
G1 X34.988 Y106.818 E11.20678
G1 X35.534 Y106.818 E11.23126
G1 X33.421 Y108.932 E11.36518
G1 X33.967 Y108.932 E11.38966
G1 X36.080 Y106.818 E11.52358
G1 X36.627 Y106.818 E11.54805
G1 X34.513 Y108.932 E11.68197
G1 X35.059 Y108.932 E11.70645
G1 X37.173 Y106.818 E11.84037
G1 X37.719 Y106.818 E11.86484
G1 X35.606 Y108.932 E11.99876
G1 X36.152 Y108.932 E12.02324
G1 X38.265 Y106.818 E12.15716
G1 X38.812 Y106.818 E12.18163
G1 X36.698 Y108.932 E12.31555
G1 X37.245 Y108.932 E12.34003
G1 X39.358 Y106.818 E12.47395
G1 X39.904 Y106.818 E12.49842
G1 X37.791 Y108.932 E12.63234
G1 X38.337 Y108.932 E12.65682
G1 X40.451 Y106.818 E12.79074
G1 X40.997 Y106.818 E12.81521
G1 X38.883 Y108.932 E12.94913
G1 X39.430 Y108.932 E12.97361
G1 X41.543 Y106.818 E13.10753
G1 X42.089 Y106.818 E13.13200
G1 X39.976 Y108.932 E13.26592
G1 X40.522 Y108.932 E13.29040
G1 X42.636 Y106.818 E13.42432
G1 X43.182 Y106.818 E13.44879
G1 X41.068 Y108.932 E13.58271
G1 X41.615 Y108.932 E13.60719
G1 X43.728 Y106.818 E13.74111
G1 X44.274 Y106.818 E13.76558
G1 X42.161 Y108.932 E13.89950
G1 X42.707 Y108.932 E13.92398
G1 X44.821 Y106.818 E14.05790
G1 X45.367 Y106.818 E14.08237
G1 X43.254 Y108.932 E14.21629
G1 X43.800 Y108.932 E14.24077
G1 X45.913 Y106.818 E14.37469
G1 X46.460 Y106.818 E14.39916
G1 X44.346 Y108.932 E14.53308
G1 X44.892 Y108.932 E14.55756
G1 X47.006 Y106.818 E14.69148
G1 X47.552 Y106.818 E14.71595
G1 X45.439 Y108.932 E14.84987
G1 X45.985 Y108.932 E14.87435
G1 X48.098 Y106.818 E15.00827
G1 X48.645 Y106.818 E15.03274
G1 X46.531 Y108.932 E15.16666
G1 X47.077 Y108.932 E15.19114
G1 X49.191 Y106.818 E15.32506
G1 X49.737 Y106.818 E15.34954
G1 X47.624 Y108.932 E15.48345
G1 X48.170 Y108.932 E15.50793
G1 X50.283 Y106.818 E15.64185
G1 X50.830 Y106.818 E15.66633
G1 X48.716 Y108.932 E15.80024
G1 X49.262 Y108.932 E15.82472
G1 X59.626 Y98.568 E16.48140
G1 X60.172 Y98.568 E16.50587
G1 X49.809 Y108.932 E17.16255
G1 X50.355 Y108.932 E17.18702
G1 X60.718 Y98.568 E17.84370
G1 X61.265 Y98.568 E17.86818
G1 X50.901 Y108.932 E18.52485
G1 X51.448 Y108.932 E18.54933
G1 X61.811 Y98.568 E19.20600
G1 X62.357 Y98.568 E19.23048
G1 X51.994 Y108.932 E19.88715
G1 X52.540 Y108.932 E19.91163
G1 X61.932 Y99.540 E20.50673
G1 X61.932 Y100.086 E20.53120
G1 X53.086 Y108.932 E21.09168
