; generated by Slic3r 1.3.1-dev (Build (Unknown revision)) on 2020-11-30 at 12:29:25

; external perimeters extrusion width = 0.44mm (2.86mm^3/s)
; perimeters extrusion width = 0.56mm (4.14mm^3/s)
; infill extrusion width = 0.50mm (3.66mm^3/s)
; solid infill extrusion width = 0.56mm (3.10mm^3/s)
; top infill extrusion width = 0.45mm (2.44mm^3/s)

M107
G92 E0
;D3D:START:START
T0
M104 S215 T0

G21
G90
M107
T0
G28
G29
M109 T0 S215 T0
G0 F3000
M107
T0
G92 E0
G0 X0 Y149 Z0.1 F3600
G1 Y49 E6.5 F1200
G0 Z1
G92 E0
; Filament gcode

G21 ; set units to millimeters
G90 ; use absolute coordinates
M82 ; use absolute distances for extrusion
G92 E0
G1 Z0.300 F6000.000
G1 E-2.00000 F1200.00000
G92 E0
G1 Z0.800 F6000.000
G1 X42.011 Y38.899 F6000.000
G1 Z0.300 F6000.000
G1 E2.00000 F1200.00000
G1 F1800.000
G1 X43.769 Y37.387 E2.10372
G1 X45.934 Y36.556 E2.20744
G1 X47.241 Y36.429 E2.26617
G1 X61.094 Y36.429 E2.88583
G1 X63.379 Y36.826 E2.98955
G1 X65.538 Y38.091 E3.10151
G1 X93.769 Y62.665 E4.77565
G1 X94.074 Y62.982 E4.79535
G1 X95.620 Y64.706 E4.89890
G1 X96.020 Y65.232 E4.92849
G1 X96.300 Y65.677 E4.95199
G1 X97.338 Y67.475 E5.04483
G1 X97.619 Y68.017 E5.07214
G1 X97.921 Y68.785 E5.10909
G1 X98.586 Y70.833 E5.20538
G1 X98.695 Y71.222 E5.22347
G1 X98.829 Y71.905 E5.25459
G1 X99.081 Y74.247 E5.35994
G1 X99.118 Y74.838 E5.38643
G1 X99.107 Y75.438 E5.41326
G1 X99.081 Y75.753 E5.42742
G1 X98.864 Y77.818 E5.52028
G1 X98.771 Y78.435 E5.54821
G1 X98.559 Y79.251 E5.58591
G1 X97.921 Y81.215 E5.67826
G1 X97.619 Y81.983 E5.71517
G1 X97.338 Y82.525 E5.74252
G1 X96.300 Y84.323 E5.83536
G1 X96.020 Y84.767 E5.85883
G1 X95.624 Y85.290 E5.88821
G1 X94.074 Y87.018 E5.99200
G1 X93.773 Y87.332 E6.01147
G1 X93.482 Y87.600 E6.02919
G1 X65.538 Y111.909 E7.68585
G1 X63.554 Y113.109 E7.78957
G1 X61.094 Y113.571 E7.90153
G1 X47.241 Y113.571 E8.52119
G1 X44.956 Y113.174 E8.62491
G1 X42.939 Y112.030 E8.72863
G1 X41.427 Y110.272 E8.83235
G1 X40.597 Y108.107 E8.93607
G1 X40.469 Y106.800 E8.99480
G1 X40.469 Y43.200 E11.83962
G1 X40.866 Y40.915 E11.94334
G1 X41.981 Y38.951 E12.04438
G1 X42.393 Y39.043 F6000.000
G1 F1800.000
G1 X44.137 Y37.619 E12.14508
G1 X47.241 Y36.814 E12.28850
G1 X61.094 Y36.814 E12.90816
G1 X63.310 Y37.211 E13.00886
G1 X65.285 Y38.382 E13.11156
G1 X93.500 Y62.940 E14.78471
G1 X95.325 Y64.953 E14.90622
G1 X95.702 Y65.450 E14.93413
G1 X95.966 Y65.870 E14.95632
G1 X97.004 Y67.667 E15.04916
G1 X97.269 Y68.179 E15.07494
G1 X97.554 Y68.904 E15.10980
G1 X98.218 Y70.948 E15.20590
G1 X98.321 Y71.316 E15.22299
G1 X98.447 Y71.961 E15.25241
G1 X98.697 Y74.287 E15.35705
G1 X98.732 Y74.845 E15.38207
G1 X98.697 Y75.713 E15.42090
G1 X98.480 Y77.777 E15.51376
G1 X98.392 Y78.361 E15.54017
G1 X98.192 Y79.132 E15.57578
G1 X97.554 Y81.096 E15.66813
G1 X97.270 Y81.820 E15.70296
G1 X97.004 Y82.333 E15.72878
G1 X95.966 Y84.130 E15.82161
G1 X95.702 Y84.549 E15.84377
G1 X95.328 Y85.043 E15.87147
G1 X93.788 Y86.760 E15.97465
G1 X93.229 Y87.309 E16.00972
G1 X65.285 Y111.618 E17.66637
G1 X63.353 Y112.773 E17.76708
G1 X61.094 Y113.186 E17.86978
G1 X47.241 Y113.186 E18.48944
G1 X45.025 Y112.789 E18.59014
G1 X43.084 Y111.647 E18.69084
G1 X41.660 Y109.904 E18.79154
G1 X40.855 Y106.800 E18.93496
G1 X40.855 Y43.200 E21.77978
G1 X41.252 Y40.984 E21.88048
G1 X42.363 Y39.095 E21.97850
G1 E19.97850 F1200.00000
G92 E0
G1 Z0.800 F6000.000
G1 X86.879 Y82.754 F6000.000
G1 Z0.300 F6000.000
G1 E2.00000 F1200.00000
G1 F1800.000
G1 X87.018 Y82.928 E2.00995
G1 X60.721 Y105.804 E3.56899
G1 X48.237 Y105.804 E4.12742
G1 X48.237 Y102.996 E4.25300
G1 X59.570 Y102.996 E4.75991
G1 X86.831 Y82.790 E6.27774
G1 E4.27774 F1200.00000
G92 E0
G1 Z0.800 F6000.000
G1 X86.879 Y67.246 F6000.000
G1 Z0.300 F6000.000
G1 E2.00000 F1200.00000
G1 F1800.000
G1 X59.570 Y47.004 E3.52051
G1 X48.237 Y47.004 E4.02742
G1 X48.237 Y44.196 E4.15300
G1 X60.721 Y44.196 E4.71143
G1 X87.018 Y67.072 E6.27047
G1 X86.917 Y67.199 E6.27774
G1 E4.27774 F1200.00000
G92 E0
G1 Z0.800 F6000.000
G1 X47.851 Y47.389 F6000.000
G1 Z0.300 F6000.000
G1 E2.00000 F1200.00000
G1 F1800.000
G1 X47.851 Y43.811 E2.16008
G1 X60.866 Y43.811 E2.74221
G1 X88.609 Y67.945 E4.38699
G1 X89.935 Y69.417 E4.47563
G1 X90.917 Y71.118 E4.56346
G1 X91.524 Y72.990 E4.65150
G1 X91.734 Y75.014 E4.74252
G1 X91.525 Y77.010 E4.83227
G1 X90.917 Y78.882 E4.92034
G1 X89.935 Y80.583 E5.00817
G1 X88.609 Y82.055 E5.09681
G1 X60.866 Y106.189 E6.74159
G1 X47.851 Y106.189 E7.32372
G1 X47.851 Y102.611 E7.48380
G1 X59.442 Y102.611 E8.00226
G1 X87.170 Y82.059 E9.54607
G1 X88.689 Y80.713 E9.63684
G1 X89.869 Y79.004 E9.72974
G1 X90.605 Y77.062 E9.82264
G1 X90.856 Y75.000 E9.91554
G1 X90.605 Y72.938 E10.00843
G1 X89.869 Y70.996 E10.10133
G1 X88.689 Y69.287 E10.19423
G1 X87.170 Y67.941 E10.28500
G1 X59.442 Y47.389 E11.82881
G1 X47.911 Y47.389 E12.34459
G1 X47.466 Y47.775 F6000.000
G1 F1800.000
G1 X47.466 Y43.425 E12.53916
G1 X61.010 Y43.425 E13.14500
G1 X88.880 Y67.669 E14.79728
G1 X90.249 Y69.189 E14.88878
G1 X91.271 Y70.960 E14.98024
G1 X91.904 Y72.910 E15.07193
G1 X92.122 Y75.014 E15.16657
G1 X91.904 Y77.090 E15.25993
G1 X91.271 Y79.040 E15.35162
G1 X90.249 Y80.811 E15.44308
G1 X88.880 Y82.331 E15.53459
G1 X61.010 Y106.575 E17.18687
G1 X47.466 Y106.575 E17.79270
G1 X47.466 Y102.225 E17.98728
G1 X59.315 Y102.225 E18.51729
G1 X86.927 Y81.759 E20.05465
G1 X88.398 Y80.455 E20.14258
G1 X89.525 Y78.823 E20.23129
G1 X90.228 Y76.969 E20.32000
G1 X90.467 Y75.000 E20.40871
G1 X90.228 Y73.031 E20.49742
G1 X89.525 Y71.177 E20.58613
G1 X88.398 Y69.545 E20.67484
G1 X86.927 Y68.241 E20.76276
G1 X59.315 Y47.775 E22.30012
G1 X47.526 Y47.775 E22.82746
G1 X47.718 Y47.465 F6000.000
G1 E20.82746 F1200.00000
G92 E0
G1 Z0.800 F6000.000
G1 X48.936 Y44.268 F6000.000
G1 Z0.300 F6000.000
G1 E2.00000 F1200.00000
G1 F1800.000
G1 X48.309 Y44.896 E2.04003
G1 X48.309 Y45.446 E2.06486
G1 X49.486 Y44.268 E2.13999
G1 X50.037 Y44.268 E2.16482
G1 X48.309 Y45.996 E2.27506
G1 X48.309 Y46.546 E2.29989
G1 X50.587 Y44.268 E2.44524
G1 X51.137 Y44.268 E2.47006
G1 X48.473 Y46.932 E2.64003
G1 X49.023 Y46.932 E2.66485
G1 X51.687 Y44.268 E2.83481
G1 X52.237 Y44.268 E2.85964
G1 X49.574 Y46.932 E3.02960
G1 X50.124 Y46.932 E3.05443
G1 X52.787 Y44.268 E3.22439
G1 X53.337 Y44.268 E3.24921
G1 X50.674 Y46.932 E3.41918
G1 X51.224 Y46.932 E3.44400
G1 X53.887 Y44.268 E3.61397
G1 X54.438 Y44.268 E3.63879
G1 X51.774 Y46.932 E3.80876
G1 X52.324 Y46.932 E3.83358
G1 X54.988 Y44.268 E4.00354
G1 X55.538 Y44.268 E4.02837
G1 X52.874 Y46.932 E4.19833
G1 X53.425 Y46.932 E4.22316
G1 X56.088 Y44.268 E4.39312
G1 X56.638 Y44.268 E4.41794
G1 X53.975 Y46.932 E4.58791
G1 X54.525 Y46.932 E4.61273
G1 X57.188 Y44.268 E4.78270
G1 X57.738 Y44.268 E4.80752
G1 X55.075 Y46.932 E4.97748
G1 X55.625 Y46.932 E5.00231
G1 X58.289 Y44.268 E5.17227
G1 X58.839 Y44.268 E5.19710
G1 X56.175 Y46.932 E5.36706
G1 X56.725 Y46.932 E5.39189
G1 X59.389 Y44.268 E5.56185
G1 X59.939 Y44.268 E5.58667
G1 X57.276 Y46.932 E5.75664
G1 X57.826 Y46.932 E5.78146
G1 X60.489 Y44.268 E5.95143
G1 X60.891 Y44.268 E5.96955
G1 X60.970 Y44.337 E5.97430
G1 X58.376 Y46.932 E6.13985
G1 X58.926 Y46.932 E6.16468
G1 X61.264 Y44.593 E6.31390
G1 X61.559 Y44.849 E6.33150
G1 X59.437 Y46.971 E6.46691
G1 X59.753 Y47.205 E6.48465
G1 X61.853 Y45.105 E6.61868
G1 X62.147 Y45.361 E6.63627
G1 X60.069 Y47.440 E6.76891
G1 X60.384 Y47.674 E6.78665
G1 X62.441 Y45.617 E6.91790
G1 X62.735 Y45.873 E6.93550
G1 X60.700 Y47.908 E7.06536
G1 X61.016 Y48.142 E7.08310
G1 X63.030 Y46.129 E7.21158
G1 X63.324 Y46.385 E7.22917
G1 X61.332 Y48.376 E7.35626
G1 X61.648 Y48.611 E7.37400
G1 X63.618 Y46.641 E7.49970
G1 X63.912 Y46.897 E7.51729
G1 X61.964 Y48.845 E7.64160
G1 X62.280 Y49.079 E7.65935
G1 X64.206 Y47.153 E7.78227
G1 X64.501 Y47.409 E7.79987
G1 X62.596 Y49.313 E7.92140
G1 X62.912 Y49.547 E7.93915
G1 X64.795 Y47.664 E8.05929
G1 X65.089 Y47.920 E8.07689
G1 X63.228 Y49.781 E8.19565
G1 X63.544 Y50.016 E8.21339
G1 X65.383 Y48.176 E8.33076
G1 X65.677 Y48.432 E8.34836
G1 X63.860 Y50.250 E8.46434
G1 X64.176 Y50.484 E8.48209
G1 X65.972 Y48.688 E8.59668
G1 X66.266 Y48.944 E8.61428
G1 X64.492 Y50.718 E8.72749
G1 X64.808 Y50.952 E8.74523
G1 X66.560 Y49.200 E8.85705
G1 X66.854 Y49.456 E8.87465
G1 X65.124 Y51.187 E8.98508
G1 X65.440 Y51.421 E9.00282
G1 X67.149 Y49.712 E9.11187
G1 X67.443 Y49.968 E9.12946
G1 X65.756 Y51.655 E9.23712
G1 X66.072 Y51.889 E9.25487
G1 X67.737 Y50.224 E9.36114
G1 X68.031 Y50.480 E9.37873
G1 X66.388 Y52.123 E9.48361
G1 X66.704 Y52.357 E9.50136
G1 X68.325 Y50.736 E9.60485
G1 X68.620 Y50.992 E9.62245
G1 X67.019 Y52.592 E9.72455
G1 X67.335 Y52.826 E9.74230
G1 X68.914 Y51.248 E9.84302
G1 X69.208 Y51.503 E9.86061
G1 X67.651 Y53.060 E9.95994
G1 X67.967 Y53.294 E9.97769
G1 X69.502 Y51.759 E10.07563
G1 X69.796 Y52.015 E10.09323
G1 X68.283 Y53.528 E10.18978
G1 X68.599 Y53.763 E10.20753
G1 X70.091 Y52.271 E10.30269
G1 X70.385 Y52.527 E10.32029
G1 X68.915 Y53.997 E10.41407
G1 X69.231 Y54.231 E10.43181
G1 X70.679 Y52.783 E10.52421
G1 X70.973 Y53.039 E10.54180
G1 X69.547 Y54.465 E10.63281
G1 X69.863 Y54.699 E10.65055
G1 X71.267 Y53.295 E10.74017
G1 X71.562 Y53.551 E10.75776
G1 X70.179 Y54.934 E10.84599
G1 X70.495 Y55.168 E10.86374
G1 X71.856 Y53.807 E10.95058
G1 X72.150 Y54.063 E10.96817
G1 X70.811 Y55.402 E11.05363
G1 X71.127 Y55.636 E11.07137
G1 X72.444 Y54.319 E11.15544
G1 X72.738 Y54.575 E11.17303
G1 X71.443 Y55.870 E11.25571
G1 X71.759 Y56.104 E11.27346
G1 X73.033 Y54.831 E11.35475
G1 X73.327 Y55.086 E11.37234
G1 X72.075 Y56.339 E11.45224
G1 X72.391 Y56.573 E11.46999
G1 X73.621 Y55.342 E11.54850
G1 X73.915 Y55.598 E11.56610
G1 X72.707 Y56.807 E11.64323
G1 X73.023 Y57.041 E11.66097
G1 X74.209 Y55.854 E11.73671
G1 X74.504 Y56.110 E11.75431
G1 X73.338 Y57.275 E11.82866
G1 X73.654 Y57.510 E11.84640
G1 X74.798 Y56.366 E11.91937
G1 X75.092 Y56.622 E11.93696
G1 X73.970 Y57.744 E12.00854
G1 X74.286 Y57.978 E12.02628
G1 X75.386 Y56.878 E12.09647
G1 X75.680 Y57.134 E12.11407
G1 X74.602 Y58.212 E12.18287
G1 X74.918 Y58.446 E12.20061
G1 X75.975 Y57.390 E12.26803
G1 X76.269 Y57.646 E12.28562
G1 X75.234 Y58.680 E12.35165
G1 X75.550 Y58.915 E12.36939
G1 X76.563 Y57.902 E12.43403
G1 X76.857 Y58.158 E12.45163
G1 X75.866 Y59.149 E12.51488
G1 X76.182 Y59.383 E12.53262
G1 X77.151 Y58.414 E12.59448
G1 X77.446 Y58.670 E12.61208
G1 X76.498 Y59.617 E12.67255
G1 X76.814 Y59.851 E12.69030
G1 X77.740 Y58.925 E12.74938
G1 X78.034 Y59.181 E12.76698
G1 X77.130 Y60.086 E12.82468
G1 X77.446 Y60.320 E12.84242
G1 X78.328 Y59.437 E12.89874
G1 X78.623 Y59.693 E12.91633
G1 X77.762 Y60.554 E12.97125
G1 X78.078 Y60.788 E12.98900
G1 X78.917 Y59.949 E13.04254
G1 X79.211 Y60.205 E13.06013
G1 X78.394 Y61.022 E13.11228
G1 X78.710 Y61.257 F6000.000
G1 F1800.000
G1 X79.337 Y60.629 E13.15230
G1 X79.398 Y61.092 F6000.000
G1 F1800.000
G1 X79.889 Y61.487 E13.18929
G1 F1800.000
G1 X80.872 Y62.276 E13.24955
G1 F1800.000
G1 X81.854 Y63.065 E13.29608
G1 F1800.000
G1 X82.836 Y63.854 E13.32888
G1 F1800.000
G1 X83.818 Y64.643 E13.34796
G1 F1800.000
G1 X84.800 Y65.433 E13.35331
G1 E11.35331 F1200.00000
G92 E0
G1 Z0.800 F6000.000
G1 X87.099 Y67.280 F6000.000
G1 Z0.300 F6000.000
G1 E2.00000 F1200.00000
G1 F1800.000
G1 X87.476 Y67.583 E2.02605
G1 X88.275 Y68.285 E2.08323
G1 X88.748 Y68.754 E2.11910
G1 F1800.000
G1 X89.021 Y69.030 E2.13661
G1 F1800.000
G1 X89.549 Y69.698 E2.18251
G1 X90.003 Y70.416 E2.22832
G1 F1800.000
G1 X90.257 Y70.824 E2.25053
G1 F1800.000
G1 X90.487 Y71.309 E2.28070
G1 X90.751 Y72.058 E2.32538
G1 F1800.000
G1 X91.015 Y72.808 E2.36332
G1 X91.079 Y73.084 E2.37687
G1 X91.294 Y75.014 E2.46957
G1 X91.079 Y76.915 E2.56094
G1 X91.015 Y77.192 E2.57452
G1 F1800.000
G1 X90.487 Y78.691 E2.66387
G1 X90.372 Y78.934 E2.67896
G1 F1800.000
G1 X90.230 Y79.225 E2.69512
G1 X90.003 Y79.584 E2.71634
G1 F1800.000
G1 X89.549 Y80.302 E2.76554
G1 X89.373 Y80.525 E2.78197
G1 F1800.000
G1 X89.021 Y80.970 E2.81004
G1 X88.748 Y81.246 E2.82922
G1 F1800.000
G1 X88.275 Y81.715 E2.86837
G1 X87.476 Y82.417 E2.93077
G1 X87.099 Y82.720 E2.95921
G1 E0.95921 F1200.00000
G92 E0
G1 Z0.800 F6000.000
G1 X84.800 Y84.567 F6000.000
G1 Z0.300 F6000.000
G1 E2.00000 F1200.00000
G1 F1800.000
G1 X83.818 Y85.357 E2.00535
G1 F1800.000
G1 X82.836 Y86.146 E2.02442
G1 F1800.000
G1 X81.854 Y86.935 E2.05722
G1 F1800.000
G1 X80.872 Y87.724 E2.10375
G1 F1800.000
G1 X79.889 Y88.513 E2.16401
G1 F1800.000
G1 X79.398 Y88.908 E2.20101
G1 X78.858 Y89.557 F6000.000
G1 F1800.000
G1 X79.486 Y88.929 E2.24086
G1 X79.337 Y88.743 E2.25152
G1 X78.514 Y89.354 E2.29750
G1 X74.653 Y93.214 E2.54246
G1 X70.448 Y96.872 E2.79249
G1 X76.400 Y90.920 E3.17013
G1 X74.286 Y92.487 E3.28816
G1 X66.243 Y100.530 E3.79847
G1 X62.039 Y104.188 E4.04851
G1 X72.173 Y94.054 E4.69149
G1 X70.059 Y95.620 E4.80953
G1 X59.948 Y105.732 E5.45109
G1 X59.401 Y105.732 E5.47563
G1 X67.945 Y97.187 E6.01779
G1 X65.832 Y98.753 E6.13583
G1 X58.854 Y105.732 E6.57859
G1 X58.307 Y105.732 E6.60313
G1 X63.718 Y100.320 E6.94649
G1 X61.605 Y101.887 E7.06453
G1 X57.760 Y105.732 E7.30849
G1 X57.213 Y105.732 E7.33303
G1 X59.876 Y103.068 E7.50202
G1 X59.329 Y103.068 E7.52656
G1 X56.666 Y105.732 E7.69556
G1 X56.119 Y105.732 E7.72010
G1 X58.782 Y103.068 E7.88909
G1 X58.235 Y103.068 E7.91363
G1 X55.572 Y105.732 E8.08262
G1 X55.025 Y105.732 E8.10717
G1 X57.688 Y103.068 E8.27616
G1 X57.141 Y103.068 E8.30070
G1 X54.478 Y105.732 E8.46969
G1 X53.931 Y105.732 E8.49423
G1 X56.594 Y103.068 E8.66323
G1 X56.047 Y103.068 E8.68777
G1 X53.384 Y105.732 E8.85676
G1 X52.837 Y105.732 E8.88130
G1 X55.500 Y103.068 E9.05029
G1 X54.953 Y103.068 E9.07483
G1 X52.290 Y105.732 E9.24383
G1 X51.743 Y105.732 E9.26837
G1 X54.406 Y103.068 E9.43736
G1 X53.859 Y103.068 E9.46190
G1 X51.196 Y105.732 E9.63090
G1 X50.649 Y105.732 E9.65544
G1 X53.312 Y103.068 E9.82443
G1 X52.765 Y103.068 E9.84897
G1 X50.102 Y105.732 E10.01796
G1 X49.555 Y105.732 E10.04250
G1 X52.218 Y103.068 E10.21150
G1 X51.671 Y103.068 E10.23604
G1 X49.008 Y105.732 E10.40503
G1 X48.461 Y105.732 E10.42957
G1 X51.124 Y103.068 E10.59856
G1 X50.577 Y103.068 E10.62310
G1 X48.309 Y105.337 E10.76702
G1 X48.309 Y104.790 E10.79156
G1 X50.030 Y103.068 E10.90078
G1 X49.483 Y103.068 E10.92532
G1 X48.309 Y104.243 E10.99982
G1 X48.309 Y103.696 E11.02436
G1 X48.936 Y103.068 E11.06417
G1 Z0.500 F6000.000
G1 X48.435 Y103.194 F6000.000
G1 F1800.000
G1 X49.392 Y103.194 E11.10244
G1 X49.392 Y105.606 E11.19887
G1 X48.435 Y105.606 E11.23714
G1 X48.435 Y103.254 E11.33118
G1 E9.33118 F1200.00000
G92 E0
G1 Z1.000 F6000.000
G1 X59.392 Y104.694 F6000.000
G1 Z0.500 F6000.000
G1 E2.00000 F1200.00000
G1 F1800.000
G1 X61.987 Y104.694 E2.10376
G1 X60.939 Y105.606 E2.15931
G1 X55.089 Y105.606 E2.39321
G1 X55.089 Y103.194 E2.48964
G1 X59.392 Y103.194 E2.66168
G1 X59.392 Y104.634 E2.71926
G1 X59.909 Y104.177 F6000.000
G1 F2400.000
G1 X63.369 Y104.177 E2.85762
G1 X61.132 Y106.123 E2.97617
G1 X47.918 Y106.123 E3.50456
G1 X47.918 Y102.677 E3.64235
G1 X49.909 Y102.677 E3.72197
G1 X49.909 Y105.677 E3.84193
G1 X54.572 Y105.677 E4.02839
G1 X54.572 Y102.677 E4.14835
G1 X59.464 Y102.677 E4.34395
G1 X59.909 Y102.347 E4.36609
G1 X59.909 Y104.117 E4.43686
G1 E2.43686 F1200.00000
G92 E0
G1 Z1.000 F6000.000
G1 X65.089 Y101.995 F6000.000
G1 Z0.500 F6000.000
G1 E2.00000 F1200.00000
G1 F2400.000
G1 X65.089 Y99.151 E2.11372
G1 X84.117 Y85.048 E3.06074
G1 X84.303 Y85.281 E3.07267
G1 X65.135 Y101.956 E4.08857
G1 E2.08857 F1200.00000
G92 E0
G1 Z1.000 F6000.000
G1 X84.116 Y64.952 F6000.000
G1 Z0.500 F6000.000
G1 E2.00000 F1200.00000
G1 F2400.000
G1 X65.089 Y50.849 E2.94702
G1 X65.089 Y48.005 E3.06074
G1 X84.303 Y64.719 E4.07904
G1 X84.154 Y64.905 E4.08857
G1 E2.08857 F1200.00000
G92 E0
G1 Z1.000 F6000.000
G1 X64.572 Y46.869 F6000.000
G1 Z0.500 F6000.000
G1 E2.00000 F1200.00000
G1 F2400.000
G1 X88.738 Y67.892 E3.28076
G1 X90.049 Y69.347 E3.35905
G1 X91.024 Y71.037 E3.43709
G1 X91.631 Y72.907 E3.51571
G1 X91.849 Y74.990 E3.59944
G1 X91.631 Y77.092 E3.68392
G1 X91.024 Y78.963 E3.76257
G1 X90.049 Y80.653 E3.84061
G1 X88.738 Y82.108 E3.91891
G1 X64.572 Y103.131 E5.19967
G1 X64.572 Y98.891 E5.36919
G1 X87.212 Y82.110 E6.49601
G1 X88.739 Y80.757 E6.57760
G1 X89.928 Y79.035 E6.66129
