; generated by Slic3r 1.3.1-dev (Build (Unknown revision)) on 2020-06-30 at 09:33:47

; external perimeters extrusion width = 0.44mm (2.86mm^3/s)
; perimeters extrusion width = 0.56mm (4.14mm^3/s)
; infill extrusion width = 0.50mm (5.48mm^3/s)
; solid infill extrusion width = 0.56mm (3.10mm^3/s)
; top infill extrusion width = 0.45mm (2.44mm^3/s)

M107
G92 E0
;D3D:START:START
T0
M104 S215 T0

G21
G90
M107
T0
G28
G29
M109 T0 S215 T0
G0 F3000
M107
T0
G92 E0
G0 X0 Y149 Z0.1 F3600
G1 Y49 E6.5 F1200
G0 Z1
G92 E0
; Filament gcode

G21 ; set units to millimeters
G90 ; use absolute coordinates
M82 ; use absolute distances for extrusion
G92 E0
G1 Z0.200 F6000.000
G1 E-2.00000 F1200.00000
G92 E0
G1 X48.687 Y46.542 F6000.000
G1 E2.00000 F1200.00000
G1 F1800.000
G1 X50.367 Y45.142 E2.04208
G1 X51.134 Y44.781 E2.05839
G1 X52.099 Y44.397 E2.07836
G1 X52.813 Y44.156 E2.09286
G1 X53.813 Y43.879 E2.11282
G1 X55.107 Y43.618 E2.13823
G1 X55.854 Y43.516 E2.15273
G1 X56.888 Y43.431 E2.17269
G1 X58.209 Y43.417 E2.19810
G1 X59.244 Y43.480 E2.21805
G1 X60.274 Y43.608 E2.23801
G1 X61.293 Y43.801 E2.25796
G1 X62.184 Y44.023 E2.27563
G1 X102.797 Y55.581 E3.08799
G1 X104.466 Y56.467 E3.12435
G1 X105.626 Y57.959 E3.16071
G1 X106.075 Y59.923 E3.19946
G1 X106.075 Y74.923 E3.48804
G1 X105.997 Y75.759 E3.50420
G1 X103.357 Y89.759 E3.77829
G1 X102.626 Y91.502 E3.81465
G1 X101.246 Y92.792 E3.85101
G1 X100.265 Y93.232 E3.87169
G1 X58.804 Y106.155 E4.70718
G1 X58.399 Y106.261 E4.71523
G1 X57.320 Y106.490 E4.73646
G1 X56.381 Y106.589 E4.75462
G1 X55.277 Y106.589 E4.77586
G1 X54.339 Y106.490 E4.79401
G1 X53.259 Y106.261 E4.81525
G1 X52.362 Y105.969 E4.83340
G1 X51.353 Y105.520 E4.85463
G1 X50.536 Y105.048 E4.87280
G1 X49.643 Y104.399 E4.89404
G1 X48.942 Y103.768 E4.91219
G1 X48.203 Y102.948 E4.93342
G1 X47.873 Y102.535 E4.94359
G1 X44.754 Y98.128 E5.04745
G1 X43.925 Y95.520 E5.10010
G1 X43.925 Y67.520 E5.63878
G1 X44.023 Y66.582 E5.65694
G1 X47.916 Y48.267 E6.01716
G1 X48.663 Y46.597 E6.05236
G1 X48.927 Y46.651 F6000.000
G1 F1800.000
G1 X50.479 Y45.373 E6.09105
G1 X51.232 Y45.019 E6.10704
G1 X52.181 Y44.640 E6.12670
G1 X53.151 Y44.323 E6.14634
G1 X54.139 Y44.067 E6.16598
G1 X54.878 Y43.918 E6.18048
G1 X55.889 Y43.771 E6.20014
G1 X57.174 Y43.676 E6.22493
G1 X57.928 Y43.668 E6.23943
G1 X58.948 Y43.713 E6.25908
G1 X59.963 Y43.822 E6.27872
G1 X60.970 Y43.995 E6.29837
G1 X62.114 Y44.270 E6.32100
G1 X102.727 Y55.828 E7.13336
G1 X104.341 Y56.699 E7.16865
G1 X105.440 Y58.168 E7.20395
G1 X105.818 Y59.923 E7.23848
G1 X105.818 Y74.923 E7.52706
G1 X105.745 Y75.711 E7.54230
G1 X103.105 Y89.711 E7.81639
G1 X102.384 Y91.399 E7.85169
G1 X100.188 Y92.987 E7.90383
G1 X58.728 Y105.910 E8.73932
G1 X58.346 Y106.009 E8.74691
G1 X57.266 Y106.239 E8.76814
G1 X56.381 Y106.332 E8.78526
G1 X55.277 Y106.332 E8.80650
G1 X54.392 Y106.239 E8.82362
G1 X53.313 Y106.009 E8.84486
G1 X52.466 Y105.734 E8.86198
G1 X51.458 Y105.286 E8.88321
G1 X50.687 Y104.840 E8.90034
G1 X49.794 Y104.191 E8.92158
G1 X49.133 Y103.596 E8.93870
G1 X48.394 Y102.776 E8.95993
G1 X48.083 Y102.387 E8.96952
G1 X44.964 Y97.980 E9.07338
G1 X44.182 Y95.520 E9.12303
G1 X44.182 Y67.520 E9.66172
G1 X44.275 Y66.635 E9.67884
G1 X48.168 Y48.321 E10.03905
G1 X48.902 Y46.705 E10.07320
G1 E8.07320 F1200.00000
G92 E0
G1 X58.089 Y96.586 F6000.000
G1 E2.00000 F1200.00000
G1 F1800.000
G1 X58.052 Y97.296 E2.01368
G1 X57.797 Y97.960 E2.02736
G1 X57.350 Y98.513 E2.04103
G1 X56.754 Y98.900 E2.05471
G1 X56.067 Y99.084 E2.06839
G1 X55.357 Y99.047 E2.08207
G1 X54.693 Y98.792 E2.09575
G1 X54.141 Y98.344 E2.10943
G1 X53.753 Y97.748 E2.12311
G1 X53.569 Y97.061 E2.13678
G1 X53.606 Y96.351 E2.15046
G1 X53.861 Y95.687 E2.16414
G1 X54.309 Y95.135 E2.17782
G1 X54.905 Y94.748 E2.19149
G1 X55.592 Y94.564 E2.20517
G1 X56.302 Y94.601 E2.21885
G1 X56.965 Y94.856 E2.23253
G1 X57.518 Y95.303 E2.24621
G1 X57.905 Y95.900 E2.25989
G1 X58.074 Y96.528 E2.27241
G1 X57.830 Y96.613 F6000.000
G1 F1800.000
G1 X57.797 Y97.242 E2.28452
G1 X57.572 Y97.830 E2.29663
G1 X57.176 Y98.319 E2.30874
G1 X56.648 Y98.662 E2.32086
G1 X56.040 Y98.825 E2.33297
G1 X55.411 Y98.792 E2.34508
G1 X54.823 Y98.566 E2.35719
G1 X54.334 Y98.170 E2.36930
G1 X53.991 Y97.642 E2.38141
G1 X53.828 Y97.034 E2.39353
G1 X53.861 Y96.405 E2.40564
G1 X54.087 Y95.818 E2.41775
G1 X54.483 Y95.328 E2.42986
G1 X55.011 Y94.986 E2.44197
G1 X55.619 Y94.823 E2.45408
G1 X56.248 Y94.856 E2.46619
G1 X56.835 Y95.081 E2.47831
G1 X57.325 Y95.477 E2.49042
G1 X57.667 Y96.005 E2.50253
G1 X57.815 Y96.555 E2.51349
G1 X57.572 Y96.641 F6000.000
G1 F1800.000
G1 X57.543 Y97.188 E2.52403
G1 X57.346 Y97.700 E2.53457
G1 X57.002 Y98.126 E2.54512
G1 X56.542 Y98.424 E2.55567
G1 X56.012 Y98.566 E2.56621
G1 X55.465 Y98.537 E2.57675
G1 X54.953 Y98.341 E2.58730
G1 X54.527 Y97.996 E2.59784
G1 X54.229 Y97.536 E2.60839
G1 X54.087 Y97.007 E2.61893
G1 X54.116 Y96.460 E2.62948
G1 X54.312 Y95.948 E2.64002
G1 X54.657 Y95.522 E2.65057
G1 X55.117 Y95.223 E2.66111
G1 X55.646 Y95.081 E2.67166
G1 X56.194 Y95.110 E2.68220
G1 X56.705 Y95.307 E2.69275
G1 X57.131 Y95.651 E2.70329
G1 X57.430 Y96.111 E2.71384
G1 X57.556 Y96.583 E2.72323
G1 X57.937 Y96.803 F6000.000
G1 E0.72323 F1200.00000
G92 E0
G1 X57.959 Y90.183 F6000.000
G1 E2.00000 F1200.00000
G1 F1800.000
G1 X57.249 Y90.145 E2.01368
G1 X56.585 Y89.891 E2.02736
G1 X56.033 Y89.443 E2.04103
G1 X55.645 Y88.847 E2.05471
G1 X55.461 Y88.160 E2.06839
G1 X55.498 Y87.450 E2.08207
G1 X55.753 Y86.786 E2.09575
G1 X56.201 Y86.234 E2.10942
G1 X56.797 Y85.847 E2.12310
G1 X57.484 Y85.663 E2.13678
G1 X58.194 Y85.700 E2.15046
G1 X58.857 Y85.955 E2.16414
G1 X59.410 Y86.402 E2.17781
G1 X59.797 Y86.998 E2.19149
G1 X59.981 Y87.685 E2.20517
G1 X59.944 Y88.395 E2.21885
G1 X59.689 Y89.059 E2.23253
G1 X59.242 Y89.611 E2.24620
G1 X58.646 Y89.999 E2.25988
G1 X58.017 Y90.167 E2.27241
G1 X57.932 Y89.924 F6000.000
G1 F1800.000
G1 X57.303 Y89.891 E2.28452
G1 X56.715 Y89.665 E2.29663
G1 X56.226 Y89.269 E2.30874
G1 X55.883 Y88.741 E2.32085
G1 X55.720 Y88.133 E2.33297
G1 X55.753 Y87.504 E2.34508
G1 X55.979 Y86.917 E2.35719
G1 X56.375 Y86.427 E2.36930
G1 X56.903 Y86.084 E2.38141
G1 X57.511 Y85.922 E2.39352
G1 X58.140 Y85.954 E2.40563
G1 X58.727 Y86.180 E2.41774
G1 X59.217 Y86.576 E2.42986
G1 X59.559 Y87.104 E2.44197
G1 X59.722 Y87.712 E2.45408
G1 X59.689 Y88.341 E2.46619
G1 X59.464 Y88.929 E2.47830
G1 X59.068 Y89.418 E2.49041
G1 X58.540 Y89.761 E2.50253
G1 X57.990 Y89.908 E2.51348
G1 X57.904 Y89.665 F6000.000
G1 F1800.000
G1 X57.357 Y89.636 E2.52403
G1 X56.845 Y89.440 E2.53457
G1 X56.419 Y89.095 E2.54512
G1 X56.121 Y88.635 E2.55566
G1 X55.979 Y88.106 E2.56621
G1 X56.008 Y87.558 E2.57675
G1 X56.204 Y87.047 E2.58730
G1 X56.549 Y86.621 E2.59784
G1 X57.009 Y86.322 E2.60839
G1 X57.538 Y86.180 E2.61893
G1 X58.086 Y86.209 E2.62947
G1 X58.597 Y86.405 E2.64002
G1 X59.023 Y86.750 E2.65056
G1 X59.322 Y87.210 E2.66111
G1 X59.464 Y87.740 E2.67165
G1 X59.435 Y88.287 E2.68220
G1 X59.238 Y88.799 E2.69274
G1 X58.894 Y89.224 E2.70329
G1 X58.434 Y89.523 E2.71383
G1 X57.962 Y89.649 E2.72322
G1 X57.742 Y90.030 F6000.000
G1 E0.72322 F1200.00000
G92 E0
G1 X59.141 Y81.244 F6000.000
G1 E2.00000 F1200.00000
G1 F1800.000
G1 X58.477 Y80.989 E2.01368
G1 X57.925 Y80.542 E2.02736
G1 X57.537 Y79.946 E2.04104
G1 X57.353 Y79.259 E2.05471
G1 X57.390 Y78.549 E2.06839
G1 X57.645 Y77.885 E2.08207
G1 X58.093 Y77.333 E2.09575
G1 X58.689 Y76.946 E2.10943
G1 X59.376 Y76.761 E2.12310
G1 X60.086 Y76.799 E2.13678
G1 X60.749 Y77.053 E2.15046
G1 X61.302 Y77.501 E2.16414
G1 X61.689 Y78.097 E2.17782
G1 X61.873 Y78.784 E2.19149
G1 X61.836 Y79.494 E2.20517
G1 X61.581 Y80.158 E2.21885
G1 X61.134 Y80.710 E2.23253
G1 X60.538 Y81.097 E2.24621
G1 X59.851 Y81.281 E2.25989
G1 X59.201 Y81.247 E2.27241
G1 X59.195 Y80.990 F6000.000
G1 F1800.000
G1 X58.607 Y80.764 E2.28452
G1 X58.118 Y80.368 E2.29663
G1 X57.775 Y79.840 E2.30875
G1 X57.612 Y79.232 E2.32086
G1 X57.645 Y78.603 E2.33297
G1 X57.871 Y78.015 E2.34508
G1 X58.267 Y77.526 E2.35719
G1 X58.795 Y77.183 E2.36930
G1 X59.403 Y77.020 E2.38141
G1 X60.032 Y77.053 E2.39352
G1 X60.619 Y77.279 E2.40564
G1 X61.109 Y77.675 E2.41775
G1 X61.451 Y78.203 E2.42986
G1 X61.614 Y78.811 E2.44197
G1 X61.581 Y79.440 E2.45408
G1 X61.356 Y80.028 E2.46619
G1 X60.960 Y80.517 E2.47831
G1 X60.432 Y80.860 E2.49042
G1 X59.824 Y81.023 E2.50253
G1 X59.255 Y80.993 E2.51349
G1 X59.249 Y80.735 F6000.000
G1 F1800.000
G1 X58.737 Y80.539 E2.52403
G1 X58.311 Y80.194 E2.53458
G1 X58.013 Y79.734 E2.54512
G1 X57.871 Y79.205 E2.55567
G1 X57.900 Y78.657 E2.56621
G1 X58.096 Y78.146 E2.57675
G1 X58.441 Y77.720 E2.58730
G1 X58.901 Y77.421 E2.59784
G1 X59.430 Y77.279 E2.60839
G1 X59.977 Y77.308 E2.61893
G1 X60.489 Y77.504 E2.62948
G1 X60.915 Y77.849 E2.64002
G1 X61.214 Y78.309 E2.65057
G1 X61.356 Y78.838 E2.66111
G1 X61.327 Y79.386 E2.67166
G1 X61.130 Y79.897 E2.68220
G1 X60.785 Y80.323 E2.69275
G1 X60.326 Y80.622 E2.70329
G1 X59.796 Y80.764 E2.71384
G1 X59.309 Y80.738 E2.72323
G1 X58.981 Y81.032 F6000.000
G1 E0.72323 F1200.00000
G92 E0
G1 X64.181 Y78.595 F6000.000
G1 E2.00000 F1200.00000
G1 F1800.000
G1 X65.131 Y79.345 E2.02329
G1 X65.652 Y79.824 E2.03690
G1 X66.287 Y80.505 E2.05481
G1 X62.529 Y98.183 E2.40251
G1 X61.673 Y98.547 E2.42041
G1 X61.002 Y98.773 E2.43403
G1 X59.829 Y99.071 E2.45731
G1 X59.561 Y99.535 E2.46762
G1 X58.915 Y100.251 E2.48617
G1 X58.135 Y100.818 E2.50472
G1 X57.255 Y101.210 E2.52327
G1 X56.311 Y101.411 E2.54182
G1 X55.347 Y101.411 E2.56037
G1 X54.404 Y101.210 E2.57892
G1 X53.523 Y100.818 E2.59747
G1 X52.743 Y100.251 E2.61602
G1 X52.098 Y99.535 E2.63457
G1 X51.616 Y98.700 E2.65312
G1 X51.318 Y97.783 E2.67167
G1 X51.262 Y97.250 E2.68198
G1 X50.311 Y96.500 E2.70527
G1 X49.790 Y96.022 E2.71888
G1 X49.156 Y95.340 E2.73679
G1 X52.914 Y77.662 E3.08449
G1 X53.770 Y77.298 E3.10239
G1 X54.441 Y77.072 E3.11601
G1 X55.614 Y76.774 E3.13929
G1 X55.882 Y76.311 E3.14960
G1 X56.527 Y75.594 E3.16815
G1 X57.307 Y75.027 E3.18670
G1 X58.188 Y74.635 E3.20525
G1 X59.131 Y74.435 E3.22380
G1 X60.095 Y74.435 E3.24235
G1 X61.039 Y74.635 E3.26090
G1 X61.919 Y75.027 E3.27945
G1 X62.699 Y75.594 E3.29800
G1 X63.345 Y76.311 E3.31655
G1 X63.827 Y77.146 E3.33510
G1 X64.125 Y78.063 E3.35365
G1 X64.174 Y78.536 E3.36281
G1 X64.425 Y78.461 F6000.000
G1 F1800.000
G1 X65.298 Y79.149 E3.38420
G1 X65.832 Y79.640 E3.39815
G1 X66.336 Y80.166 E3.41217
G1 X66.564 Y80.435 E3.41896
G1 X62.754 Y98.359 E3.77150
G1 X62.436 Y98.513 E3.77829
G1 X61.762 Y98.788 E3.79230
G1 X61.074 Y99.020 E3.80626
G1 X59.997 Y99.293 E3.82765
G1 X59.770 Y99.687 E3.83639
G1 X59.088 Y100.443 E3.85598
G1 X58.265 Y101.042 E3.87557
G1 X57.334 Y101.456 E3.89516
G1 X56.338 Y101.668 E3.91475
G1 X55.320 Y101.668 E3.93434
G1 X54.324 Y101.456 E3.95393
G1 X53.394 Y101.042 E3.97352
G1 X52.570 Y100.443 E3.99311
G1 X51.889 Y99.687 E4.01270
G1 X51.380 Y98.805 E4.03229
G1 X51.065 Y97.836 E4.05188
G1 X51.018 Y97.385 E4.06062
G1 X50.144 Y96.696 E4.08201
G1 X49.610 Y96.205 E4.09596
G1 X49.106 Y95.680 E4.10997
G1 X48.878 Y95.410 E4.11677
G1 X52.688 Y77.486 E4.46931
G1 X53.006 Y77.332 E4.47610
G1 X53.680 Y77.057 E4.49011
G1 X54.368 Y76.826 E4.50407
G1 X55.446 Y76.552 E4.52546
G1 X55.673 Y76.159 E4.53420
G1 X56.354 Y75.402 E4.55379
G1 X57.178 Y74.803 E4.57338
G1 X58.108 Y74.389 E4.59297
G1 X59.104 Y74.177 E4.61256
G1 X60.122 Y74.177 E4.63215
G1 X61.118 Y74.389 E4.65174
G1 X62.049 Y74.803 E4.67133
G1 X62.872 Y75.402 E4.69092
G1 X63.554 Y76.159 E4.71051
G1 X64.063 Y77.040 E4.73010
G1 X64.378 Y78.009 E4.74969
G1 X64.419 Y78.401 E4.75727
G1 X64.669 Y78.326 F6000.000
G1 F1800.000
G1 X65.465 Y78.953 E4.77676
G1 X66.012 Y79.456 E4.79106
G1 X66.527 Y79.993 E4.80539
G1 X66.842 Y80.365 E4.81475
G1 X62.980 Y98.536 E5.17214
G1 X62.541 Y98.748 E5.18151
G1 X61.852 Y99.029 E5.19583
G1 X61.147 Y99.266 E5.21014
G1 X60.165 Y99.516 E5.22963
G1 X59.979 Y99.839 E5.23680
G1 X59.261 Y100.635 E5.25743
G1 X58.394 Y101.266 E5.27806
G1 X57.414 Y101.702 E5.29869
G1 X56.365 Y101.925 E5.31932
G1 X55.293 Y101.925 E5.33995
G1 X54.244 Y101.702 E5.36058
G1 X53.265 Y101.266 E5.38121
G1 X52.397 Y100.635 E5.40184
G1 X51.680 Y99.839 E5.42247
G1 X51.144 Y98.910 E5.44309
G1 X50.812 Y97.890 E5.46372
G1 X50.773 Y97.519 E5.47090
G1 X49.978 Y96.892 E5.49039
G1 X49.430 Y96.389 E5.50469
G1 X48.915 Y95.852 E5.51901
G1 X48.601 Y95.480 E5.52838
G1 X52.463 Y77.309 E5.88577
G1 X52.901 Y77.097 E5.89514
G1 X53.591 Y76.816 E5.90946
G1 X54.295 Y76.579 E5.92376
G1 X55.277 Y76.330 E5.94325
G1 X55.464 Y76.007 E5.95042
G1 X56.181 Y75.210 E5.97105
G1 X57.049 Y74.579 E5.99168
G1 X58.028 Y74.143 E6.01231
G1 X59.077 Y73.920 E6.03294
G1 X60.149 Y73.920 E6.05357
G1 X61.198 Y74.143 E6.07420
G1 X62.178 Y74.579 E6.09483
G1 X63.045 Y75.210 E6.11546
G1 X63.763 Y76.007 E6.13609
G1 X64.299 Y76.935 E6.15672
G1 X64.630 Y77.955 E6.17735
G1 X64.663 Y78.266 E6.18337
G1 X64.529 Y78.701 F6000.000
G1 E4.18337 F1200.00000
G92 E0
G1 X61.770 Y80.209 F6000.000
G1 E2.00000 F1200.00000
G1 F1800.000
G1 X63.979 Y78.000 E2.06059
G1 X63.889 Y77.724 E2.06623
G1 X61.983 Y79.629 E2.11850
G1 X62.003 Y79.243 E2.12601
G1 X63.799 Y77.447 E2.17526
G1 X63.709 Y77.170 E2.18090
G1 X62.021 Y78.858 E2.22720
G1 X61.944 Y78.569 E2.23300
G1 X63.579 Y76.933 E2.27787
G1 X63.445 Y76.701 E2.28307
G1 X61.866 Y78.280 E2.32638
G1 X61.818 Y78.100 E2.32999
G1 X61.763 Y78.017 E2.33193
G1 X63.311 Y76.469 E2.37438
G1 X63.245 Y76.353 E2.37697
G1 X63.157 Y76.256 E2.37950
G1 X61.619 Y77.794 E2.42168
G1 X61.475 Y77.572 E2.42682
G1 X62.984 Y76.063 E2.46820
G1 X62.810 Y75.871 E2.47323
G1 X61.308 Y77.372 E2.51442
G1 X61.106 Y77.208 E2.51947
G1 X62.636 Y75.678 E2.56146
G1 X62.424 Y75.523 E2.56654
G1 X60.903 Y77.044 E2.60826
G1 X60.771 Y76.937 E2.61157
G1 X60.679 Y76.902 E2.61347
G1 X62.212 Y75.369 E2.65551
G1 X62.000 Y75.215 E2.66060
G1 X60.414 Y76.800 E2.70408
G1 X60.149 Y76.699 E2.70958
G1 X61.766 Y75.082 E2.75391
G1 X61.512 Y74.970 E2.75930
G1 X59.838 Y76.643 E2.80520
G1 X59.490 Y76.625 E2.81196
G1 X61.258 Y74.857 E2.86045
G1 X61.068 Y74.772 E2.86450
G1 X60.993 Y74.756 E2.86599
G1 X59.099 Y76.649 E2.91792
G1 X58.599 Y76.783 E2.92797
G1 X60.690 Y74.692 E2.98535
G1 X60.388 Y74.627 E2.99134
G1 X51.940 Y83.076 E3.22305
G1 X52.039 Y82.610 E3.23228
G1 X60.066 Y74.583 E3.45245
G1 X59.700 Y74.583 E3.45956
G1 X52.138 Y82.145 E3.66697
G1 X52.237 Y81.679 E3.67620
G1 X59.333 Y74.583 E3.87084
G1 X58.886 Y74.664 E3.87966
G1 X52.336 Y81.214 E4.05932
G1 X52.435 Y80.749 E4.06854
G1 X58.421 Y74.763 E4.23272
G1 X57.778 Y75.038 E4.24628
G1 X52.533 Y80.283 E4.39013
G1 X52.632 Y79.818 E4.39935
G1 X55.450 Y77.000 E4.47664
G1 X54.959 Y77.125 E4.48647
G1 X52.731 Y79.352 E4.54756
G1 X52.830 Y78.887 E4.55679
G1 X54.448 Y77.269 E4.60117
G1 X53.885 Y77.466 E4.61276
G1 X52.929 Y78.421 E4.63897
G1 X53.028 Y77.956 E4.64819
G1 X53.247 Y77.737 E4.65419
G1 E2.65419 F1200.00000
G92 E0
G1 X57.400 Y77.982 F6000.000
G1 E2.00000 F1200.00000
G1 F1800.000
G1 X51.841 Y83.541 E2.15247
G1 X51.742 Y84.007 E2.16170
G1 X57.238 Y78.510 E2.31245
G1 X57.218 Y78.897 E2.31996
G1 X51.643 Y84.472 E2.47286
G1 X51.544 Y84.937 E2.48209
G1 X57.225 Y79.257 E2.63790
G1 X57.302 Y79.546 E2.64370
G1 X51.445 Y85.403 E2.80434
G1 X51.346 Y85.868 E2.81357
G1 X57.380 Y79.835 E2.97905
G1 X57.409 Y79.942 E2.98121
G1 X57.499 Y80.082 E2.98443
G1 X51.247 Y86.334 E3.15590
G1 X51.148 Y86.799 E3.16513
G1 X57.643 Y80.304 E3.34326
G1 X57.788 Y80.526 E3.34840
G1 X51.050 Y87.264 E3.53321
G1 X50.951 Y87.730 E3.54244
G1 X57.969 Y80.711 E3.73493
G1 X58.172 Y80.875 E3.73998
G1 X50.852 Y88.195 E3.94075
G1 X50.753 Y88.661 E3.94997
G1 X58.374 Y81.039 E4.15900
G1 X58.456 Y81.106 E4.16105
G1 X58.614 Y81.166 E4.16432
G1 X50.654 Y89.126 E4.38264
G1 X50.555 Y89.592 E4.39187
G1 X58.879 Y81.268 E4.62016
G1 X59.143 Y81.370 E4.62566
G1 X50.456 Y90.057 E4.86393
G1 X50.357 Y90.522 E4.87316
G1 X59.475 Y81.404 E5.12324
G1 X59.823 Y81.423 E5.13000
G1 X50.258 Y90.988 E5.39234
G1 X50.159 Y91.453 E5.40157
G1 X60.252 Y81.360 E5.67840
G1 X60.754 Y81.225 E5.68846
G1 X50.060 Y91.919 E5.98175
G1 X49.961 Y92.384 E5.99098
G1 X55.318 Y87.027 E6.13790
G1 X55.419 Y86.765 E6.14334
G1 X55.917 Y86.150 E6.15871
G1 X56.582 Y85.718 E6.17408
G1 X56.644 Y85.701 E6.17533
