; generated by Slic3r 1.3.1-dev (Build (Unknown revision)) on 2021-02-07 at 17:09:15

; external perimeters extrusion width = 0.44mm (2.86mm^3/s)
; perimeters extrusion width = 0.56mm (4.14mm^3/s)
; infill extrusion width = 0.50mm (5.48mm^3/s)
; solid infill extrusion width = 0.56mm (3.10mm^3/s)
; top infill extrusion width = 0.45mm (2.44mm^3/s)

M107
G92 E0
;D3D:START:START
T0
M104 S215 T0

G21
G90
M107
T0
G28
G29
M109 T0 S215 T0
G0 F3000
M107
T0
G92 E0
G0 X0 Y149 Z0.1 F3600
G1 Y49 E6.5 F1200
G0 Z1
G92 E0
; Filament gcode

G21 ; set units to millimeters
G90 ; use absolute coordinates
M82 ; use absolute distances for extrusion
G92 E0
G1 Z0.200 F6000.000
G1 E-2.00000 F1200.00000
G92 E0
G1 X50.583 Y70.014 F6000.000
G1 E2.00000 F1200.00000
G1 F1800.000
G1 X74.330 Y50.088 E2.59640
G1 X76.000 Y49.203 E2.63275
G1 X77.886 Y49.080 E2.66911
G1 X79.657 Y49.739 E2.70547
G1 X80.690 Y50.644 E2.73190
G1 X99.974 Y73.626 E3.30906
G1 X100.858 Y75.296 E3.34542
G1 X100.982 Y77.181 E3.38177
G1 X100.323 Y78.953 E3.41813
G1 X99.417 Y79.986 E3.44456
G1 X75.670 Y99.912 E4.04096
G1 X74.000 Y100.797 E4.07732
G1 X72.114 Y100.920 E4.11367
G1 X70.343 Y100.261 E4.15003
G1 X69.310 Y99.356 E4.17646
G1 X50.026 Y76.374 E4.75362
G1 X49.142 Y74.704 E4.78998
G1 X49.018 Y72.819 E4.82633
G1 X49.677 Y71.047 E4.86269
G1 X50.543 Y70.060 E4.88797
G1 X50.748 Y70.211 F6000.000
G1 F1800.000
G1 X74.495 Y50.285 E5.48437
G1 X76.122 Y49.436 E5.51966
G1 X77.955 Y49.351 E5.55496
G1 X79.653 Y50.044 E5.59025
G1 X80.493 Y50.810 E5.61211
G1 X99.777 Y73.791 E6.18927
G1 X100.625 Y75.418 E6.22457
G1 X100.711 Y77.250 E6.25986
G1 X100.017 Y78.948 E6.29516
G1 X99.252 Y79.789 E6.31702
G1 X75.505 Y99.715 E6.91342
G1 X73.878 Y100.564 E6.94871
G1 X72.045 Y100.649 E6.98401
G1 X70.347 Y99.956 E7.01930
G1 X69.507 Y99.190 E7.04116
G1 X50.223 Y76.209 E7.61832
G1 X49.375 Y74.582 E7.65362
G1 X49.289 Y72.750 E7.68891
G1 X49.983 Y71.052 E7.72421
G1 X50.708 Y70.256 E7.74491
G1 E5.74491 F1200.00000
G92 E0
G1 X72.850 Y95.518 F6000.000
G1 E2.00000 F1200.00000
G1 F1800.000
G1 X54.420 Y73.554 E2.55160
G1 X77.150 Y54.482 E3.12245
G1 X95.580 Y76.446 E3.67405
G1 X72.896 Y95.480 E4.24374
G1 X72.818 Y95.880 F6000.000
G1 F1800.000
G1 X54.058 Y73.523 E4.80524
G1 X77.182 Y54.120 E5.38597
G1 X95.942 Y76.477 E5.94747
G1 X72.864 Y95.842 E6.52705
G1 X72.787 Y96.243 F6000.000
G1 F1800.000
G1 X53.696 Y73.491 E7.09844
G1 X77.213 Y53.757 E7.68906
G1 X96.304 Y76.509 E8.26045
G1 X72.833 Y96.204 E8.84992
G1 X72.620 Y95.879 F6000.000
G1 E6.84992 F1200.00000
G92 E0
G1 X54.893 Y73.476 F6000.000
G1 E2.00000 F1200.00000
G1 F1800.000
G1 X54.673 Y73.695 E2.00603
G1 X54.841 Y73.895 E2.01108
G1 X57.172 Y71.564 E2.07503
G1 X59.450 Y69.652 E2.13274
G1 X55.008 Y74.094 E2.25463
G1 X55.175 Y74.293 E2.25968
G1 X61.729 Y67.740 E2.43950
G1 X64.008 Y65.828 E2.49720
G1 X55.342 Y74.493 E2.73495
G1 X55.510 Y74.692 E2.74000
G1 X66.286 Y63.916 E3.03568
G1 X68.565 Y62.003 E3.09339
G1 X55.677 Y74.891 E3.44700
G1 X55.844 Y75.091 E3.45205
G1 X70.844 Y60.091 E3.86358
G1 X73.122 Y58.179 E3.92129
G1 X56.012 Y75.290 E4.39076
G1 X56.179 Y75.489 E4.39581
G1 X75.401 Y56.267 E4.92321
G1 X77.227 Y54.735 E4.96946
G1 X77.261 Y54.774 E4.97047
G1 X56.346 Y75.689 E5.54430
G1 X56.513 Y75.888 E5.54935
G1 X77.428 Y54.974 E6.12318
G1 X77.595 Y55.173 E6.12823
G1 X56.681 Y76.088 E6.70206
G1 X56.848 Y76.287 E6.70711
G1 X77.762 Y55.372 E7.28094
G1 X77.930 Y55.572 E7.28599
G1 X57.015 Y76.486 E7.85982
G1 X57.183 Y76.686 E7.86487
G1 X78.097 Y55.771 E8.43870
G1 X78.264 Y55.971 E8.44375
G1 X57.350 Y76.885 E9.01758
G1 X57.517 Y77.084 E9.02263
G1 X78.432 Y56.170 E9.59646
G1 X78.599 Y56.369 E9.60151
G1 X57.684 Y77.284 E10.17534
G1 X57.852 Y77.483 E10.18039
G1 X78.766 Y56.569 E10.75422
G1 X78.933 Y56.768 E10.75927
G1 X58.019 Y77.682 E11.33310
G1 X58.186 Y77.882 E11.33815
G1 X79.101 Y56.967 E11.91198
G1 X79.268 Y57.167 E11.91703
G1 X58.354 Y78.081 E12.49086
G1 X58.521 Y78.280 E12.49591
G1 X79.435 Y57.366 E13.06974
G1 X79.602 Y57.565 E13.07479
G1 X58.688 Y78.480 E13.64862
G1 X58.855 Y78.679 E13.65367
G1 X79.770 Y57.765 E14.22750
G1 X79.937 Y57.964 E14.23255
G1 X59.023 Y78.879 E14.80638
G1 X59.190 Y79.078 E14.81143
G1 X80.104 Y58.163 E15.38526
G1 X80.272 Y58.363 E15.39031
G1 X59.357 Y79.277 E15.96415
G1 X59.524 Y79.477 E15.96919
G1 X80.439 Y58.562 E16.54303
G1 X80.606 Y58.762 E16.54807
G1 X59.692 Y79.676 E17.12191
G1 X59.859 Y79.875 E17.12695
G1 X80.773 Y58.961 E17.70079
G1 X80.941 Y59.160 E17.70584
G1 X60.026 Y80.075 E18.27967
G1 X60.194 Y80.274 E18.28472
G1 X81.108 Y59.360 E18.85855
G1 X81.275 Y59.559 E18.86360
G1 X60.361 Y80.473 E19.43743
G1 X60.528 Y80.673 E19.44248
G1 X81.443 Y59.758 E20.01631
G1 X81.610 Y59.958 E20.02136
G1 X60.695 Y80.872 E20.59519
G1 X60.863 Y81.071 E20.60024
G1 X81.777 Y60.157 E21.17407
G1 X81.944 Y60.356 E21.17912
G1 X61.030 Y81.271 E21.75295
G1 X61.197 Y81.470 E21.75800
G1 X82.112 Y60.556 E22.33183
G1 X82.279 Y60.755 E22.33688
G1 X61.365 Y81.669 E22.91071
G1 X61.532 Y81.869 E22.91576
G1 X82.446 Y60.954 E23.48959
G1 X82.614 Y61.154 E23.49464
G1 X61.699 Y82.068 E24.06847
G1 X61.866 Y82.268 E24.07352
G1 X82.781 Y61.353 E24.64735
G1 X82.948 Y61.552 E24.65240
G1 X62.034 Y82.467 E25.22623
G1 X62.201 Y82.666 E25.23128
G1 X83.115 Y61.752 E25.80511
G1 X83.283 Y61.951 E25.81016
G1 X62.368 Y82.866 E26.38399
G1 X62.535 Y83.065 E26.38904
G1 X83.450 Y62.151 E26.96287
G1 X83.617 Y62.350 E26.96792
G1 X62.703 Y83.264 E27.54175
G1 X62.870 Y83.464 E27.54680
G1 X83.784 Y62.549 E28.12063
G1 X83.952 Y62.749 E28.12568
G1 X63.037 Y83.663 E28.69951
G1 X63.205 Y83.862 E28.70456
G1 X84.119 Y62.948 E29.27839
G1 X84.286 Y63.147 E29.28344
G1 X63.372 Y84.062 E29.85727
G1 X63.539 Y84.261 E29.86232
G1 X84.454 Y63.347 E30.43616
G1 X84.621 Y63.546 E30.44120
G1 X63.706 Y84.460 E31.01504
G1 X63.874 Y84.660 E31.02008
G1 X84.788 Y63.745 E31.59392
G1 X84.955 Y63.945 E31.59896
G1 X64.041 Y84.859 E32.17280
G1 X64.208 Y85.059 E32.17785
G1 X85.123 Y64.144 E32.75168
G1 X85.290 Y64.343 E32.75673
G1 X64.376 Y85.258 E33.33056
G1 X64.543 Y85.457 E33.33561
G1 X85.457 Y64.543 E33.90944
G1 X85.625 Y64.742 E33.91449
G1 X64.710 Y85.657 E34.48832
G1 X64.877 Y85.856 E34.49337
G1 X85.792 Y64.942 E35.06720
G1 X85.959 Y65.141 E35.07225
G1 X65.045 Y86.055 E35.64608
G1 X65.212 Y86.255 E35.65113
G1 X86.126 Y65.340 E36.22496
G1 X86.294 Y65.540 E36.23001
G1 X65.379 Y86.454 E36.80384
G1 X65.546 Y86.653 E36.80889
G1 X86.461 Y65.739 E37.38272
G1 X86.628 Y65.938 E37.38777
G1 X65.714 Y86.853 E37.96160
G1 X65.881 Y87.052 E37.96665
G1 X86.795 Y66.138 E38.54048
G1 X86.963 Y66.337 E38.54553
G1 X66.048 Y87.251 E39.11936
G1 X66.216 Y87.451 E39.12441
G1 X87.130 Y66.536 E39.69824
G1 X87.297 Y66.736 E39.70329
G1 X66.383 Y87.650 E40.27712
G1 X66.550 Y87.849 E40.28217
G1 X87.465 Y66.935 E40.85600
G1 X87.632 Y67.134 E40.86105
G1 X66.717 Y88.049 E41.43488
G1 X66.885 Y88.248 E41.43993
G1 X87.799 Y67.334 E42.01376
G1 X87.966 Y67.533 E42.01881
G1 X67.052 Y88.448 E42.59264
G1 X67.219 Y88.647 E42.59769
G1 X88.134 Y67.733 E43.17152
G1 X88.301 Y67.932 E43.17657
G1 X67.387 Y88.846 E43.75040
G1 X67.554 Y89.046 E43.75545
G1 X88.468 Y68.131 E44.32929
G1 X88.636 Y68.331 E44.33433
G1 X67.721 Y89.245 E44.90817
G1 X67.888 Y89.444 E44.91321
G1 X88.803 Y68.530 E45.48705
G1 X88.970 Y68.729 E45.49209
G1 X68.056 Y89.644 E46.06593
G1 X68.223 Y89.843 E46.07098
G1 X89.137 Y68.929 E46.64481
G1 X89.305 Y69.128 E46.64986
G1 X68.390 Y90.042 E47.22369
G1 X68.557 Y90.242 E47.22874
G1 X89.472 Y69.327 E47.80257
G1 X89.639 Y69.527 E47.80762
G1 X68.725 Y90.441 E48.38145
G1 X68.892 Y90.640 E48.38650
G1 X89.806 Y69.726 E48.96033
G1 X89.974 Y69.925 E48.96538
G1 X69.059 Y90.840 E49.53921
G1 X69.227 Y91.039 E49.54426
G1 X90.141 Y70.125 E50.11809
G1 X90.308 Y70.324 E50.12314
G1 X69.394 Y91.239 E50.69697
G1 X69.561 Y91.438 E50.70202
G1 X90.476 Y70.523 E51.27585
G1 X90.643 Y70.723 E51.28090
G1 X69.728 Y91.637 E51.85473
G1 X69.896 Y91.837 E51.85978
G1 X90.810 Y70.922 E52.43361
G1 X90.977 Y71.122 E52.43866
G1 X70.063 Y92.036 E53.01249
G1 X70.230 Y92.235 E53.01754
G1 X91.145 Y71.321 E53.59137
G1 X91.312 Y71.520 E53.59642
G1 X70.398 Y92.435 E54.17025
G1 X70.565 Y92.634 E54.17530
G1 X91.479 Y71.720 E54.74913
G1 X91.647 Y71.919 E54.75418
G1 X70.732 Y92.833 E55.32801
G1 X70.899 Y93.033 E55.33306
G1 X91.814 Y72.118 E55.90689
G1 X91.981 Y72.318 E55.91194
G1 X71.067 Y93.232 E56.48577
G1 X71.234 Y93.431 E56.49082
G1 X92.148 Y72.517 E57.06465
G1 X92.316 Y72.716 E57.06970
G1 X71.401 Y93.631 E57.64353
G1 X71.569 Y93.830 E57.64858
G1 X92.483 Y72.916 E58.22242
G1 X92.650 Y73.115 E58.22746
G1 X71.736 Y94.030 E58.80130
G1 X71.903 Y94.229 E58.80634
G1 X92.817 Y73.314 E59.38018
G1 X92.985 Y73.514 E59.38522
G1 X72.070 Y94.428 E59.95906
G1 X72.238 Y94.628 E59.96411
G1 X93.152 Y73.713 E60.53794
G1 X93.319 Y73.913 E60.54299
G1 X72.405 Y94.827 E61.11682
G1 X72.572 Y95.026 E61.12187
G1 X93.487 Y74.112 E61.69570
G1 X93.654 Y74.311 E61.70075
G1 X72.739 Y95.226 E62.27458
G1 X72.773 Y95.265 E62.27558
G1 X74.600 Y93.732 E62.32185
G1 X93.821 Y74.511 E62.84923
G1 X93.988 Y74.710 E62.85428
G1 X76.878 Y91.820 E63.32373
G1 X79.157 Y89.908 E63.38144
G1 X94.156 Y74.909 E63.79296
G1 X94.323 Y75.109 E63.79801
G1 X81.436 Y87.996 E64.15160
G1 X83.714 Y86.084 E64.20931
G1 X94.490 Y75.308 E64.50496
G1 X94.658 Y75.507 E64.51001
G1 X85.993 Y84.172 E64.74774
G1 X88.272 Y82.260 E64.80545
G1 X94.825 Y75.707 E64.98525
G1 X94.992 Y75.906 E64.99030
G1 X90.550 Y80.348 E65.11217
G1 X92.829 Y78.436 E65.16988
G1 X95.159 Y76.105 E65.23381
G1 X95.327 Y76.305 E65.23886
G1 X95.108 Y76.524 E65.24487
G1 Z0.400 F6000.000
G1 X72.915 Y94.772 F6000.000
G1 F2400.000
G1 X55.167 Y73.620 E66.31333
G1 X77.085 Y55.228 E67.42048
G1 X94.833 Y76.380 E68.48894
G1 X72.961 Y94.733 E69.59377
G1 X72.852 Y95.500 F6000.000
G1 F2400.000
G1 X54.438 Y73.556 E70.70224
G1 X77.148 Y54.500 E71.84941
G1 X95.562 Y76.444 E72.95789
G1 X72.898 Y95.461 E74.10274
G1 X72.795 Y96.144 F6000.000
G1 F2160.000
G1 X53.794 Y73.500 E74.98113
G1 X77.205 Y53.856 E75.88924
G1 X96.206 Y76.500 E76.76763
G1 X72.841 Y96.105 E77.67396
G1 X72.628 Y95.781 F6000.000
G1 X73.198 Y94.261 F6000.000
G1 F1800.000
G1 X72.759 Y93.823 E77.69822
G1 X68.904 Y89.229 E77.93274
G1 X73.600 Y93.925 E78.19247
G1 X74.002 Y93.588 E78.21298
G1 X65.050 Y84.636 E78.70812
G1 X61.196 Y80.042 E78.94263
G1 X74.404 Y93.251 E79.67318
G1 X74.806 Y92.914 E79.69369
G1 X57.342 Y75.449 E80.65965
G1 X55.676 Y73.464 E80.76099
G1 X55.904 Y73.273 E80.77264
G1 X75.208 Y92.576 E81.84032
G1 X75.610 Y92.239 E81.86084
G1 X56.306 Y72.935 E82.92852
G1 X56.708 Y72.598 E82.94904
G1 X76.012 Y91.902 E84.01672
G1 X76.413 Y91.565 E84.03723
G1 X57.110 Y72.261 E85.10492
G1 X57.512 Y71.924 E85.12543
G1 X76.815 Y91.227 E86.19311
G1 X77.217 Y90.890 E86.21363
G1 X57.913 Y71.587 E87.28131
G1 X58.315 Y71.249 E87.30183
G1 X77.619 Y90.553 E88.36951
G1 X78.021 Y90.216 E88.39003
G1 X58.717 Y70.912 E89.45771
G1 X59.119 Y70.575 E89.47823
G1 X78.423 Y89.879 E90.54591
G1 X78.825 Y89.541 E90.56643
G1 X59.521 Y70.238 E91.63411
G1 X59.923 Y69.900 E91.65463
G1 X79.227 Y89.204 E92.72231
G1 X79.628 Y88.867 E92.74283
G1 X60.325 Y69.563 E93.81051
G1 X60.727 Y69.226 E93.83102
G1 X80.030 Y88.530 E94.89871
G1 X80.432 Y88.193 E94.91922
G1 X61.128 Y68.889 E95.98691
G1 X61.530 Y68.552 E96.00742
G1 X80.834 Y87.855 E97.07510
G1 X81.236 Y87.518 E97.09562
G1 X61.932 Y68.214 E98.16330
G1 X62.334 Y67.877 E98.18382
G1 X81.638 Y87.181 E99.25150
G1 X82.040 Y86.844 E99.27202
G1 X62.736 Y67.540 E100.33970
G1 X63.138 Y67.203 E100.36022
G1 X82.442 Y86.507 E101.42790
G1 X82.843 Y86.169 E101.44842
G1 X63.540 Y66.866 E102.51610
G1 X63.942 Y66.528 E102.53662
G1 X83.245 Y85.832 E103.60430
G1 X83.647 Y85.495 E103.62482
G1 X64.343 Y66.191 E104.69250
G1 X64.745 Y65.854 E104.71301
G1 X84.049 Y85.158 E105.78070
G1 X84.451 Y84.820 E105.80121
G1 X65.147 Y65.517 E106.86889
G1 X65.549 Y65.180 E106.88941
G1 X84.853 Y84.483 E107.95709
G1 X85.255 Y84.146 E107.97761
G1 X65.951 Y64.842 E109.04529
G1 X66.353 Y64.505 E109.06581
G1 X85.657 Y83.809 E110.13349
G1 X86.058 Y83.472 E110.15401
G1 X66.755 Y64.168 E111.22169
G1 X67.157 Y63.831 E111.24221
G1 X86.460 Y83.134 E112.30989
G1 X86.862 Y82.797 E112.33041
G1 X67.558 Y63.493 E113.39809
G1 X67.960 Y63.156 E113.41861
G1 X87.264 Y82.460 E114.48629
G1 X87.666 Y82.123 E114.50680
G1 X68.362 Y62.819 E115.57449
G1 X68.764 Y62.482 E115.59500
G1 X88.068 Y81.786 E116.66268
G1 X88.470 Y81.448 E116.68320
G1 X69.166 Y62.145 E117.75088
G1 X69.568 Y61.807 E117.77140
G1 X88.872 Y81.111 E118.83908
G1 X89.273 Y80.774 E118.85960
G1 X69.970 Y61.470 E119.92728
G1 X70.372 Y61.133 E119.94780
G1 X89.675 Y80.437 E121.01548
G1 X90.077 Y80.100 E121.03600
G1 X70.773 Y60.796 E122.10368
G1 X71.175 Y60.459 E122.12420
G1 X90.479 Y79.762 E123.19188
G1 X90.881 Y79.425 E123.21240
G1 X71.577 Y60.121 E124.28008
G1 X71.979 Y59.784 E124.30059
G1 X91.283 Y79.088 E125.36828
G1 X91.685 Y78.751 E125.38879
G1 X72.381 Y59.447 E126.45648
G1 X72.783 Y59.110 E126.47699
G1 X92.087 Y78.413 E127.54467
G1 X92.488 Y78.076 E127.56519
G1 X73.185 Y58.772 E128.63287
G1 X73.587 Y58.435 E128.65339
G1 X92.890 Y77.739 E129.72107
G1 X93.292 Y77.402 E129.74159
G1 X73.988 Y58.098 E130.80927
G1 X74.390 Y57.761 E130.82979
G1 X93.694 Y77.065 E131.89747
G1 X94.096 Y76.727 E131.91799
G1 X74.792 Y57.424 E132.98567
G1 X75.194 Y57.086 E133.00619
G1 X92.658 Y74.551 E133.97213
G1 X88.804 Y69.957 E134.20664
G1 X75.596 Y56.749 E134.93718
G1 X75.998 Y56.412 E134.95769
G1 X84.950 Y65.364 E135.45282
G1 X81.095 Y60.771 E135.68733
G1 X76.400 Y56.075 E135.94705
G1 X76.801 Y55.738 E135.96757
G1 X77.241 Y56.177 E135.99188
G1 Z0.600 F6000.000
G1 X72.915 Y94.772 F6000.000
G1 F2400.000
G1 X55.167 Y73.620 E137.06034
G1 X77.085 Y55.228 E138.16749
G1 X94.833 Y76.380 E139.23595
G1 X72.961 Y94.733 E140.34078
G1 X72.852 Y95.500 F6000.000
G1 F2400.000
G1 X54.438 Y73.556 E141.44926
G1 X77.148 Y54.500 E142.59643
G1 X95.562 Y76.444 E143.70490
G1 X72.898 Y95.461 E144.84975
G1 X72.795 Y96.144 F6000.000
G1 F2160.000
G1 X53.794 Y73.500 E145.72814
G1 X77.205 Y53.856 E146.63625
G1 X96.206 Y76.500 E147.51465
G1 X72.841 Y96.105 E148.42097
G1 X72.628 Y95.781 F6000.000
G1 X55.677 Y73.902 F6000.000
G1 F1800.000
G1 X56.116 Y73.463 E148.44535
G1 X60.731 Y69.590 E148.68210
G1 X56.015 Y74.307 E148.94420
G1 X56.354 Y74.710 E148.96491
G1 X65.347 Y65.718 E149.46466
G1 X69.962 Y61.845 E149.70140
G1 X56.692 Y75.114 E150.43880
G1 X57.031 Y75.518 E150.45951
G1 X74.577 Y57.972 E151.43455
G1 X77.240 Y55.738 E151.57117
G1 X77.384 Y55.908 E151.57993
G1 X57.370 Y75.922 E152.69211
G1 X57.709 Y76.326 E152.71282
G1 X77.722 Y56.312 E153.82500
G1 X78.061 Y56.716 E153.84572
G1 X58.048 Y76.729 E154.95790
G1 X58.386 Y77.133 E154.97861
G1 X78.400 Y57.120 E156.09079
G1 X78.739 Y57.523 E156.11150
G1 X58.725 Y77.537 E157.22369
G1 X59.064 Y77.941 E157.24440
G1 X79.078 Y57.927 E158.35658
G1 X79.416 Y58.331 E158.37729
G1 X59.403 Y78.344 E159.48947
G1 X59.742 Y78.748 E159.51019
G1 X79.755 Y58.735 E160.62237
G1 X80.094 Y59.138 E160.64308
G1 X60.081 Y79.152 E161.75526
G1 X60.419 Y79.556 E161.77597
G1 X80.433 Y59.542 E162.88816
G1 X80.772 Y59.946 E162.90887
G1 X60.758 Y79.960 E164.02105
G1 X61.097 Y80.363 E164.04176
G1 X81.110 Y60.350 E165.15394
G1 X81.449 Y60.754 E165.17466
G1 X61.436 Y80.767 E166.28684
G1 X61.775 Y81.171 E166.30755
G1 X81.788 Y61.157 E167.41973
G1 X82.127 Y61.561 E167.44044
G1 X62.113 Y81.575 E168.55263
G1 X62.452 Y81.978 E168.57334
G1 X82.466 Y61.965 E169.68552
G1 X82.805 Y62.369 E169.70623
G1 X62.791 Y82.382 E170.81841
G1 X63.130 Y82.786 E170.83913
G1 X83.143 Y62.772 E171.95131
G1 X83.482 Y63.176 E171.97202
G1 X63.469 Y83.190 E173.08420
G1 X63.807 Y83.594 E173.10491
G1 X83.821 Y63.580 E174.21710
G1 X84.160 Y63.984 E174.23781
G1 X64.146 Y83.997 E175.34999
G1 X64.485 Y84.401 E175.37070
G1 X84.499 Y64.388 E176.48288
G1 X84.837 Y64.791 E176.50360
G1 X64.824 Y84.805 E177.61578
G1 X65.163 Y85.209 E177.63649
G1 X85.176 Y65.195 E178.74867
G1 X85.515 Y65.599 E178.76938
G1 X65.501 Y85.612 E179.88157
G1 X65.840 Y86.016 E179.90228
G1 X85.854 Y66.003 E181.01446
G1 X86.193 Y66.406 E181.03517
G1 X66.179 Y86.420 E182.14735
G1 X66.518 Y86.824 E182.16806
