; generated by Slic3r 1.3.1-dev (Build (Unknown revision)) on 2020-07-17 at 14:44:31

; external perimeters extrusion width = 0.44mm (2.86mm^3/s)
; perimeters extrusion width = 0.56mm (4.14mm^3/s)
; infill extrusion width = 0.50mm (5.48mm^3/s)
; solid infill extrusion width = 0.56mm (3.10mm^3/s)
; top infill extrusion width = 0.45mm (2.44mm^3/s)

M107
G92 E0
;D3D:START:START
T0
M104 S215 T0

G21
G90
M107
T0
G28
G29
M109 T0 S215 T0
G0 F3000
M107
T0
G92 E0
G0 X0 Y149 Z0.1 F3600
G1 Y49 E6.5 F1200
G0 Z1
G92 E0
; Filament gcode

G21 ; set units to millimeters
G90 ; use absolute coordinates
M82 ; use absolute distances for extrusion
G92 E0
G1 Z0.200 F6000.000
G1 E-2.00000 F1200.00000
G92 E0
G1 X48.928 Y46.122 F6000.000
G1 E2.00000 F1200.00000
G1 F1800.000
G1 X50.338 Y44.863 E2.03636
G1 X51.633 Y44.370 E2.06303
G1 X54.823 Y43.694 E2.12575
G1 X55.709 Y43.553 E2.14302
G1 X56.241 Y43.491 E2.15331
G1 X57.133 Y43.426 E2.17052
G1 X58.170 Y43.413 E2.19048
G1 X59.207 Y43.464 E2.21045
G1 X60.238 Y43.580 E2.23041
G1 X61.308 Y43.771 E2.25132
G1 X68.714 Y45.350 E2.39702
G1 X102.970 Y53.229 E3.07326
G1 X104.682 Y54.029 E3.10962
G1 X105.917 Y55.460 E3.14597
G1 X106.472 Y57.629 E3.18905
G1 X106.472 Y72.629 E3.47763
G1 X106.374 Y73.564 E3.49572
G1 X101.999 Y94.224 E3.90200
G1 X101.229 Y95.950 E3.93836
G1 X99.821 Y97.209 E3.97472
G1 X98.584 Y97.690 E4.00024
G1 X63.715 Y105.619 E4.68820
G1 X63.335 Y105.689 E4.69563
G1 X57.153 Y106.547 E4.81571
G1 X56.532 Y106.590 E4.82768
G1 X55.428 Y106.590 E4.84892
G1 X54.490 Y106.492 E4.86708
G1 X53.410 Y106.262 E4.88831
G1 X52.513 Y105.971 E4.90646
G1 X51.504 Y105.522 E4.92770
G1 X50.687 Y105.050 E4.94586
G1 X49.794 Y104.401 E4.96710
G1 X49.092 Y103.769 E4.98525
G1 X48.192 Y102.760 E5.01127
G1 X44.984 Y98.775 E5.10970
G1 X44.133 Y97.087 E5.14606
G1 X43.986 Y96.024 E5.16671
G1 X43.528 Y70.179 E5.66401
G1 X43.626 Y69.160 E5.68370
G1 X48.157 Y47.847 E6.10290
G1 X48.903 Y46.176 E6.13810
G1 X49.167 Y46.230 F6000.000
G1 F1800.000
G1 X50.559 Y45.035 E6.17340
G1 X51.687 Y44.621 E6.19651
G1 X54.868 Y43.947 E6.25907
G1 X55.746 Y43.807 E6.27618
G1 X56.262 Y43.747 E6.28617
G1 X57.146 Y43.683 E6.30322
G1 X58.167 Y43.670 E6.32287
G1 X59.188 Y43.720 E6.34253
G1 X60.203 Y43.835 E6.36218
G1 X61.254 Y44.022 E6.38273
G1 X68.657 Y45.600 E6.52834
G1 X102.913 Y53.480 E7.20459
G1 X104.570 Y54.267 E7.23988
G1 X105.742 Y55.678 E7.27518
G1 X106.215 Y57.629 E7.31379
G1 X106.215 Y72.629 E7.60237
G1 X106.123 Y73.511 E7.61943
G1 X101.748 Y94.171 E8.02572
G1 X100.990 Y95.841 E8.06101
G1 X99.599 Y97.038 E8.09631
G1 X98.527 Y97.440 E8.11834
G1 X63.658 Y105.369 E8.80630
G1 X63.300 Y105.434 E8.81331
G1 X57.118 Y106.293 E8.93338
G1 X56.532 Y106.333 E8.94467
G1 X55.428 Y106.333 E8.96591
G1 X54.543 Y106.240 E8.98303
G1 X53.463 Y106.011 E9.00427
G1 X52.617 Y105.736 E9.02138
G1 X51.609 Y105.287 E9.04262
G1 X50.838 Y104.842 E9.05975
G1 X49.945 Y104.193 E9.08099
G1 X49.283 Y103.597 E9.09810
G1 X48.393 Y102.598 E9.12385
G1 X45.184 Y98.614 E9.22228
G1 X44.368 Y96.970 E9.25757
G1 X44.243 Y96.019 E9.27603
G1 X43.785 Y70.174 E9.77333
G1 X43.878 Y69.214 E9.79189
G1 X48.408 Y47.900 E10.21109
G1 X49.142 Y46.285 E10.24523
G1 E8.24523 F1200.00000
G92 E0
G1 X58.240 Y96.588 F6000.000
G1 E2.00000 F1200.00000
G1 F1800.000
G1 X58.203 Y97.298 E2.01368
G1 X57.948 Y97.961 E2.02736
G1 X57.501 Y98.514 E2.04103
G1 X56.904 Y98.901 E2.05471
G1 X56.218 Y99.085 E2.06839
G1 X55.508 Y99.048 E2.08207
G1 X54.844 Y98.793 E2.09575
G1 X54.291 Y98.346 E2.10943
G1 X53.904 Y97.749 E2.12310
G1 X53.720 Y97.063 E2.13678
G1 X53.757 Y96.353 E2.15046
G1 X54.012 Y95.689 E2.16414
G1 X54.460 Y95.136 E2.17782
G1 X55.056 Y94.749 E2.19149
G1 X55.743 Y94.565 E2.20517
G1 X56.453 Y94.602 E2.21885
G1 X57.116 Y94.857 E2.23253
G1 X57.669 Y95.304 E2.24621
G1 X58.056 Y95.901 E2.25989
G1 X58.225 Y96.530 E2.27241
G1 X57.981 Y96.615 F6000.000
G1 F1800.000
G1 X57.948 Y97.243 E2.28452
G1 X57.723 Y97.831 E2.29663
G1 X57.327 Y98.320 E2.30874
G1 X56.799 Y98.663 E2.32086
G1 X56.190 Y98.826 E2.33297
G1 X55.562 Y98.793 E2.34508
G1 X54.974 Y98.568 E2.35719
G1 X54.485 Y98.171 E2.36930
G1 X54.142 Y97.643 E2.38141
G1 X53.979 Y97.035 E2.39352
G1 X54.012 Y96.407 E2.40564
G1 X54.238 Y95.819 E2.41775
G1 X54.634 Y95.330 E2.42986
G1 X55.162 Y94.987 E2.44197
G1 X55.770 Y94.824 E2.45408
G1 X56.398 Y94.857 E2.46619
G1 X56.986 Y95.082 E2.47831
G1 X57.475 Y95.479 E2.49042
G1 X57.818 Y96.007 E2.50253
G1 X57.966 Y96.557 E2.51349
G1 X57.722 Y96.642 F6000.000
G1 F1800.000
G1 X57.694 Y97.189 E2.52403
G1 X57.497 Y97.701 E2.53457
G1 X57.152 Y98.127 E2.54512
G1 X56.693 Y98.425 E2.55566
G1 X56.163 Y98.567 E2.56621
G1 X55.616 Y98.539 E2.57675
G1 X55.104 Y98.342 E2.58730
G1 X54.678 Y97.997 E2.59784
G1 X54.380 Y97.538 E2.60839
G1 X54.238 Y97.008 E2.61893
G1 X54.267 Y96.461 E2.62948
G1 X54.463 Y95.949 E2.64002
G1 X54.808 Y95.523 E2.65057
G1 X55.268 Y95.225 E2.66111
G1 X55.797 Y95.083 E2.67166
G1 X56.344 Y95.111 E2.68220
G1 X56.856 Y95.308 E2.69275
G1 X57.282 Y95.653 E2.70329
G1 X57.581 Y96.113 E2.71384
G1 X57.707 Y96.584 E2.72323
G1 X58.088 Y96.805 F6000.000
G1 E0.72323 F1200.00000
G92 E0
G1 X58.110 Y90.184 F6000.000
G1 E2.00000 F1200.00000
G1 F1800.000
G1 X57.400 Y90.147 E2.01368
G1 X56.736 Y89.892 E2.02736
G1 X56.183 Y89.444 E2.04103
G1 X55.796 Y88.848 E2.05471
G1 X55.612 Y88.161 E2.06839
G1 X55.649 Y87.451 E2.08207
G1 X55.904 Y86.788 E2.09575
G1 X56.352 Y86.235 E2.10942
G1 X56.948 Y85.848 E2.12310
G1 X57.635 Y85.664 E2.13678
G1 X58.345 Y85.701 E2.15046
G1 X59.008 Y85.956 E2.16414
G1 X59.561 Y86.403 E2.17781
G1 X59.948 Y87.000 E2.19149
G1 X60.132 Y87.686 E2.20517
G1 X60.095 Y88.396 E2.21885
G1 X59.840 Y89.060 E2.23253
G1 X59.393 Y89.613 E2.24620
G1 X58.796 Y90.000 E2.25988
G1 X58.168 Y90.168 E2.27241
G1 X58.082 Y89.925 F6000.000
G1 F1800.000
G1 X57.454 Y89.892 E2.28452
G1 X56.866 Y89.666 E2.29663
G1 X56.377 Y89.270 E2.30874
G1 X56.034 Y88.742 E2.32085
G1 X55.871 Y88.134 E2.33297
G1 X55.904 Y87.505 E2.34508
G1 X56.130 Y86.918 E2.35719
G1 X56.526 Y86.429 E2.36930
G1 X57.054 Y86.086 E2.38141
G1 X57.662 Y85.923 E2.39352
G1 X58.290 Y85.956 E2.40563
G1 X58.878 Y86.181 E2.41775
G1 X59.367 Y86.577 E2.42986
G1 X59.710 Y87.105 E2.44197
G1 X59.873 Y87.714 E2.45408
G1 X59.840 Y88.342 E2.46619
G1 X59.615 Y88.930 E2.47830
G1 X59.219 Y89.419 E2.49041
G1 X58.691 Y89.762 E2.50253
G1 X58.140 Y89.909 E2.51348
G1 X58.055 Y89.666 F6000.000
G1 F1800.000
G1 X57.508 Y89.637 E2.52403
G1 X56.996 Y89.441 E2.53457
G1 X56.570 Y89.096 E2.54512
G1 X56.272 Y88.636 E2.55566
G1 X56.130 Y88.107 E2.56621
G1 X56.159 Y87.560 E2.57675
G1 X56.355 Y87.048 E2.58730
G1 X56.700 Y86.622 E2.59784
G1 X57.160 Y86.323 E2.60839
G1 X57.689 Y86.182 E2.61893
G1 X58.236 Y86.210 E2.62947
G1 X58.748 Y86.407 E2.64002
G1 X59.174 Y86.752 E2.65056
G1 X59.473 Y87.211 E2.66111
G1 X59.614 Y87.741 E2.67165
G1 X59.586 Y88.288 E2.68220
G1 X59.389 Y88.800 E2.69274
G1 X59.044 Y89.226 E2.70329
G1 X58.585 Y89.524 E2.71383
G1 X58.113 Y89.651 E2.72322
G1 X57.893 Y90.032 F6000.000
G1 E0.72322 F1200.00000
G92 E0
G1 X59.292 Y81.246 F6000.000
G1 E2.00000 F1200.00000
G1 F1800.000
G1 X58.628 Y80.991 E2.01368
G1 X58.075 Y80.543 E2.02736
G1 X57.688 Y79.947 E2.04104
G1 X57.504 Y79.260 E2.05471
G1 X57.541 Y78.550 E2.06839
G1 X57.796 Y77.887 E2.08207
G1 X58.244 Y77.334 E2.09575
G1 X58.840 Y76.947 E2.10943
G1 X59.527 Y76.763 E2.12310
G1 X60.237 Y76.800 E2.13678
G1 X60.900 Y77.055 E2.15046
G1 X61.453 Y77.502 E2.16414
G1 X61.840 Y78.099 E2.17782
G1 X62.024 Y78.785 E2.19149
G1 X61.987 Y79.495 E2.20517
G1 X61.732 Y80.159 E2.21885
G1 X61.285 Y80.712 E2.23253
G1 X60.688 Y81.099 E2.24621
G1 X60.002 Y81.283 E2.25989
G1 X59.352 Y81.249 E2.27241
G1 X59.346 Y80.991 F6000.000
G1 F1800.000
G1 X58.758 Y80.765 E2.28452
G1 X58.269 Y80.369 E2.29663
G1 X57.926 Y79.841 E2.30875
G1 X57.763 Y79.233 E2.32086
G1 X57.796 Y78.604 E2.33297
G1 X58.022 Y78.017 E2.34508
G1 X58.418 Y77.527 E2.35719
G1 X58.946 Y77.185 E2.36930
G1 X59.554 Y77.022 E2.38141
G1 X60.182 Y77.055 E2.39352
G1 X60.770 Y77.280 E2.40564
G1 X61.259 Y77.676 E2.41775
G1 X61.602 Y78.204 E2.42986
G1 X61.765 Y78.812 E2.44197
G1 X61.732 Y79.441 E2.45408
G1 X61.507 Y80.029 E2.46619
G1 X61.110 Y80.518 E2.47831
G1 X60.583 Y80.861 E2.49042
G1 X59.974 Y81.024 E2.50253
G1 X59.406 Y80.994 E2.51349
G1 X59.400 Y80.736 F6000.000
G1 F1800.000
G1 X58.888 Y80.540 E2.52403
G1 X58.462 Y80.195 E2.53458
G1 X58.164 Y79.735 E2.54512
G1 X58.022 Y79.206 E2.55567
G1 X58.051 Y78.659 E2.56621
G1 X58.247 Y78.147 E2.57675
G1 X58.592 Y77.721 E2.58730
G1 X59.052 Y77.422 E2.59784
G1 X59.581 Y77.280 E2.60839
G1 X60.128 Y77.309 E2.61893
G1 X60.640 Y77.506 E2.62948
G1 X61.066 Y77.850 E2.64002
G1 X61.365 Y78.310 E2.65057
G1 X61.506 Y78.840 E2.66111
G1 X61.478 Y79.387 E2.67166
G1 X61.281 Y79.899 E2.68220
G1 X60.936 Y80.325 E2.69275
G1 X60.477 Y80.623 E2.70329
G1 X59.947 Y80.765 E2.71384
G1 X59.460 Y80.739 E2.72323
G1 X59.132 Y81.034 F6000.000
G1 E0.72323 F1200.00000
G92 E0
G1 X66.505 Y80.188 F6000.000
G1 E2.00000 F1200.00000
G1 F1800.000
G1 X62.202 Y100.430 E2.39813
G1 X59.436 Y99.842 E2.45254
G1 X59.066 Y100.253 E2.46317
G1 X58.286 Y100.819 E2.48172
G1 X57.405 Y101.211 E2.50027
G1 X56.462 Y101.412 E2.51882
G1 X55.498 Y101.412 E2.53737
G1 X54.555 Y101.211 E2.55592
G1 X53.674 Y100.819 E2.57447
G1 X52.894 Y100.253 E2.59302
G1 X52.249 Y99.536 E2.61157
G1 X51.767 Y98.701 E2.63012
G1 X51.469 Y97.784 E2.64867
G1 X51.411 Y97.239 E2.65922
G1 X49.239 Y95.660 E2.71088
G1 X53.542 Y75.418 E3.10901
G1 X56.308 Y76.006 E3.16342
G1 X56.678 Y75.595 E3.17405
G1 X57.458 Y75.028 E3.19260
G1 X58.339 Y74.636 E3.21115
G1 X59.282 Y74.436 E3.22970
G1 X60.246 Y74.436 E3.24825
G1 X61.189 Y74.636 E3.26680
G1 X62.070 Y75.028 E3.28535
G1 X62.850 Y75.595 E3.30390
G1 X63.495 Y76.312 E3.32245
G1 X63.978 Y77.147 E3.34100
G1 X64.276 Y78.064 E3.35955
G1 X64.333 Y78.609 E3.37010
G1 X66.456 Y80.153 E3.42061
G1 X66.791 Y80.078 F6000.000
G1 F1800.000
G1 X62.400 Y100.735 E3.82689
G1 X59.528 Y100.124 E3.88340
G1 X59.239 Y100.445 E3.89169
G1 X58.415 Y101.043 E3.91128
G1 X57.485 Y101.457 E3.93086
G1 X56.489 Y101.669 E3.95045
G1 X55.471 Y101.669 E3.97004
G1 X54.475 Y101.457 E3.98963
G1 X53.545 Y101.043 E4.00922
G1 X52.721 Y100.445 E4.02881
G1 X52.040 Y99.688 E4.04840
G1 X51.531 Y98.806 E4.06799
G1 X51.216 Y97.838 E4.08758
G1 X51.168 Y97.379 E4.09645
G1 X48.953 Y95.770 E4.14912
G1 X53.344 Y75.113 E4.55541
G1 X56.217 Y75.723 E4.61191
G1 X56.505 Y75.403 E4.62020
G1 X57.329 Y74.805 E4.63979
G1 X58.259 Y74.390 E4.65938
G1 X59.255 Y74.179 E4.67897
G1 X60.273 Y74.179 E4.69856
G1 X61.269 Y74.390 E4.71815
G1 X62.199 Y74.805 E4.73774
G1 X63.023 Y75.403 E4.75733
G1 X63.705 Y76.160 E4.77692
G1 X64.214 Y77.042 E4.79651
G1 X64.528 Y78.010 E4.81610
G1 X64.577 Y78.469 E4.82497
G1 X66.743 Y80.043 E4.87648
G1 X67.077 Y79.968 F6000.000
G1 F1800.000
G1 X62.598 Y101.040 E5.29093
G1 X59.619 Y100.407 E5.34952
G1 X59.412 Y100.637 E5.35547
G1 X58.545 Y101.267 E5.37611
G1 X57.565 Y101.703 E5.39673
G1 X56.516 Y101.926 E5.41736
G1 X55.444 Y101.926 E5.43799
G1 X54.395 Y101.703 E5.45862
G1 X53.416 Y101.267 E5.47925
G1 X52.548 Y100.637 E5.49988
G1 X51.831 Y99.840 E5.52051
G1 X51.294 Y98.911 E5.54114
G1 X50.963 Y97.891 E5.56177
G1 X50.924 Y97.520 E5.56896
G1 X48.667 Y95.880 E5.62264
G1 X53.146 Y74.808 E6.03708
G1 X56.125 Y75.441 E6.09567
G1 X56.332 Y75.211 E6.10163
G1 X57.200 Y74.581 E6.12226
G1 X58.179 Y74.145 E6.14289
G1 X59.228 Y73.922 E6.16352
G1 X60.300 Y73.922 E6.18415
G1 X61.349 Y74.145 E6.20478
G1 X62.329 Y74.581 E6.22540
G1 X63.196 Y75.211 E6.24603
G1 X63.914 Y76.008 E6.26666
G1 X64.450 Y76.937 E6.28729
G1 X64.781 Y77.956 E6.30792
G1 X64.820 Y78.328 E6.31511
G1 X67.029 Y79.933 E6.36763
G1 X66.763 Y80.216 F6000.000
G1 E4.36763 F1200.00000
G92 E0
G1 X61.582 Y80.727 F6000.000
G1 E2.00000 F1200.00000
G1 F1800.000
G1 X64.148 Y78.161 E2.07047
G1 X64.132 Y78.009 E2.07346
G1 X64.083 Y77.859 E2.07651
G1 X62.038 Y79.904 E2.13268
G1 X62.132 Y79.658 E2.13780
G1 X62.144 Y79.431 E2.14222
G1 X63.993 Y77.582 E2.19300
G1 X63.903 Y77.305 E2.19866
G1 X62.165 Y79.043 E2.24642
G1 X62.174 Y78.867 E2.24985
G1 X62.132 Y78.709 E2.25302
G1 X63.795 Y77.046 E2.29870
G1 X63.660 Y76.814 E2.30392
G1 X62.054 Y78.420 E2.34804
G1 X61.976 Y78.130 E2.35386
G1 X63.526 Y76.581 E2.39642
G1 X63.391 Y76.349 E2.40163
G1 X61.839 Y77.901 E2.44426
G1 X61.694 Y77.679 E2.44941
G1 X63.217 Y76.156 E2.49123
G1 X63.043 Y75.963 E2.49628
G1 X61.550 Y77.456 E2.53730
G1 X61.352 Y77.287 E2.54235
G1 X62.869 Y75.770 E2.58402
G1 X62.786 Y75.678 E2.58642
G1 X62.675 Y75.597 E2.58910
G1 X61.149 Y77.123 E2.63100
G1 X60.946 Y76.959 E2.63607
G1 X62.462 Y75.443 E2.67771
G1 X62.249 Y75.288 E2.68281
G1 X60.689 Y76.849 E2.72569
G1 X60.423 Y76.747 E2.73121
G1 X62.034 Y75.136 E2.77546
G1 X61.780 Y75.023 E2.78086
G1 X60.151 Y76.653 E2.82562
G1 X59.802 Y76.635 E2.83240
G1 X61.526 Y74.910 E2.87977
G1 X61.272 Y74.797 E2.88517
G1 X59.453 Y76.616 E2.93514
G1 X59.390 Y76.613 E2.93636
G1 X58.979 Y76.723 E2.94462
G1 X60.980 Y74.722 E2.99958
G1 X60.677 Y74.658 E3.00559
G1 X58.318 Y77.017 E3.07040
G1 X57.960 Y77.250 E3.07868
G1 X57.457 Y77.879 E3.09433
G1 E1.09433 F1200.00000
G92 E0
G1 X53.631 Y75.832 F6000.000
G1 E2.00000 F1200.00000
G1 F1800.000
G1 X53.849 Y75.614 E2.00599
G1 X54.152 Y75.678 E2.01200
G1 X53.532 Y76.298 E2.02904
G1 X53.432 Y76.764 E2.03829
G1 X54.454 Y75.742 E2.06637
G1 X54.757 Y75.807 E2.07238
G1 X53.333 Y77.230 E2.11148
G1 X53.234 Y77.697 E2.12074
G1 X55.060 Y75.871 E2.17089
G1 X55.363 Y75.935 E2.17690
G1 X53.135 Y78.163 E2.23808
G1 X53.036 Y78.629 E2.24733
G1 X55.665 Y76.000 E2.31955
G1 X55.968 Y76.064 E2.32556
G1 X52.937 Y79.095 E2.40882
G1 X52.838 Y79.561 E2.41807
G1 X56.271 Y76.128 E2.51236
G1 X56.509 Y76.179 E2.51710
G1 X56.960 Y75.678 E2.53018
G1 X57.428 Y75.338 E2.54141
G1 X52.739 Y80.027 E2.67020
G1 X52.640 Y80.493 E2.67945
G1 X58.225 Y74.908 E2.83287
G1 X58.528 Y74.773 E2.83930
G1 X58.781 Y74.719 E2.84433
G1 X52.541 Y80.959 E3.01573
G1 X52.442 Y81.425 E3.02498
G1 X59.247 Y74.620 E3.21191
G1 X59.418 Y74.584 E3.21530
G1 X59.650 Y74.584 E3.21982
G1 X52.343 Y81.892 E3.42054
G1 X52.244 Y82.358 E3.42980
G1 X60.017 Y74.584 E3.64333
G1 X60.375 Y74.594 E3.65027
G1 X52.145 Y82.824 E3.87633
G1 X52.045 Y83.290 E3.88559
G1 X57.675 Y77.661 E4.04021
G1 X57.446 Y78.256 E4.05260
G1 X51.946 Y83.756 E4.20366
G1 X51.847 Y84.222 E4.21292
G1 X57.380 Y78.690 E4.36489
G1 X57.360 Y79.077 E4.37242
G1 X51.748 Y84.688 E4.52656
G1 X51.649 Y85.154 E4.53581
G1 X57.412 Y79.392 E4.69409
G1 X57.489 Y79.681 E4.69991
G1 X51.550 Y85.621 E4.86305
G1 X51.451 Y86.087 E4.87230
G1 X57.573 Y79.965 E5.04046
G1 X57.717 Y80.187 E5.04561
G1 X51.352 Y86.553 E5.22046
G1 X51.253 Y87.019 E5.22971
G1 X57.862 Y80.410 E5.41125
G1 X58.013 Y80.626 E5.41637
G1 X51.154 Y87.485 E5.60477
G1 X51.055 Y87.951 E5.61403
G1 X58.216 Y80.790 E5.81072
G1 X58.418 Y80.954 E5.81579
G1 X50.956 Y88.417 E6.02077
G1 X50.857 Y88.883 E6.03003
G1 X58.626 Y81.114 E6.24343
G1 X58.891 Y81.216 E6.24895
G1 X50.757 Y89.349 E6.47235
G1 X50.658 Y89.816 E6.48161
G1 X59.156 Y81.318 E6.71502
G1 X59.347 Y81.391 E6.71898
G1 X59.445 Y81.396 E6.72089
G1 X50.559 Y90.282 E6.96496
G1 X50.460 Y90.748 E6.97421
G1 X59.794 Y81.414 E7.23058
G1 X60.144 Y81.431 E7.23739
G1 X50.361 Y91.214 E7.50611
G1 X50.262 Y91.680 E7.51537
G1 X60.646 Y81.296 E7.80058
G1 X60.903 Y81.227 E7.80576
G1 X61.412 Y80.897 E7.81755
G1 X56.325 Y85.984 E7.95728
G1 X56.733 Y85.719 E7.96672
G1 X57.039 Y85.637 E7.97288
G1 X64.183 Y78.493 E8.16910
G1 X64.198 Y78.641 E8.17198
G1 X64.316 Y78.727 E8.17482
G1 X57.528 Y85.516 E8.36129
G1 X57.876 Y85.534 E8.36808
G1 X64.529 Y78.881 E8.55081
G1 X64.742 Y79.036 E8.55591
G1 X58.225 Y85.552 E8.73491
G1 X58.290 Y85.556 E8.73616
G1 X58.506 Y85.639 E8.74066
G1 X64.954 Y79.190 E8.91778
G1 X65.167 Y79.345 E8.92288
G1 X58.771 Y85.740 E9.09856
G1 X59.035 Y85.844 E9.10406
G1 X65.379 Y79.499 E9.27833
G1 X65.592 Y79.654 E9.28344
G1 X59.237 Y86.008 E9.45798
G1 X59.440 Y86.172 E9.46305
G1 X65.804 Y79.808 E9.63786
G1 X66.017 Y79.963 E9.64296
G1 X59.643 Y86.337 E9.81804
G1 X59.788 Y86.558 E9.82319
G1 X66.230 Y80.117 E10.00011
G1 X66.328 Y80.189 E10.00248
G1 X66.275 Y80.439 E10.00745
G1 X59.933 Y86.781 E10.18165
