; generated by Slic3r 1.3.1-dev (Build (Unknown revision)) on 2020-12-03 at 09:21:50

; external perimeters extrusion width = 0.44mm (2.86mm^3/s)
; perimeters extrusion width = 0.56mm (4.14mm^3/s)
; infill extrusion width = 0.50mm (3.66mm^3/s)
; solid infill extrusion width = 0.56mm (3.10mm^3/s)
; top infill extrusion width = 0.45mm (2.44mm^3/s)

M107
G92 E0
;D3D:START:START
T0
M104 S215 T0

G21
G90
M107
T0
G28
G29
M109 T0 S215 T0
G0 F3000
M107
T0
G92 E0
G0 X0 Y149 Z0.1 F3600
G1 Y49 E6.5 F1200
G0 Z1
G92 E0
; Filament gcode

G21 ; set units to millimeters
G90 ; use absolute coordinates
M82 ; use absolute distances for extrusion
G92 E0
G1 Z0.300 F6000.000
G1 E-2.00000 F1200.00000
G92 E0
G1 Z0.800 F6000.000
G1 X34.770 Y35.699 F6000.000
G1 Z0.300 F6000.000
G1 E2.00000 F1200.00000
G1 F1800.000
G1 X36.528 Y34.187 E2.10372
G1 X38.693 Y33.356 E2.20744
G1 X40.000 Y33.229 E2.26617
G1 X110.000 Y33.229 E5.39726
G1 X112.285 Y33.626 E5.50098
G1 X114.301 Y34.770 E5.60470
G1 X115.813 Y36.528 E5.70842
G1 X116.644 Y38.693 E5.81214
G1 X116.771 Y40.000 E5.87087
G1 X116.771 Y110.000 E9.00195
G1 X116.374 Y112.285 E9.10567
G1 X115.230 Y114.301 E9.20940
G1 X113.472 Y115.813 E9.31312
G1 X111.307 Y116.644 E9.41684
G1 X110.000 Y116.771 E9.47556
G1 X40.000 Y116.771 E12.60665
G1 X37.715 Y116.374 E12.71037
G1 X35.699 Y115.230 E12.81409
G1 X34.187 Y113.472 E12.91781
G1 X33.356 Y111.307 E13.02153
G1 X33.229 Y110.000 E13.08026
G1 X33.229 Y40.000 E16.21135
G1 X33.626 Y37.715 E16.31507
G1 X34.741 Y35.751 E16.41611
G1 X35.153 Y35.843 F6000.000
G1 F1800.000
G1 X36.896 Y34.419 E16.51681
G1 X40.000 Y33.614 E16.66023
G1 X110.000 Y33.614 E19.79132
G1 X112.216 Y34.011 E19.89202
G1 X114.157 Y35.153 E19.99272
G1 X115.581 Y36.896 E20.09342
G1 X116.386 Y40.000 E20.23684
G1 X116.386 Y110.000 E23.36793
G1 X115.989 Y112.216 E23.46863
G1 X114.847 Y114.157 E23.56933
G1 X113.104 Y115.581 E23.67003
G1 X110.000 Y116.386 E23.81345
G1 X40.000 Y116.386 E26.94454
G1 X37.784 Y115.989 E27.04524
G1 X35.843 Y114.847 E27.14594
G1 X34.419 Y113.104 E27.24665
G1 X33.614 Y110.000 E27.39006
G1 X33.614 Y40.000 E30.52115
G1 X34.011 Y37.784 E30.62185
G1 X35.122 Y35.895 E30.71987
G1 E28.71987 F1200.00000
G92 E0
G1 Z0.800 F6000.000
G1 X102.577 Y103.347 F6000.000
G1 Z0.300 F6000.000
G1 E2.00000 F1200.00000
G1 F1800.000
G1 X103.373 Y102.559 E2.05010
G1 X104.376 Y102.058 E2.10024
G1 X105.487 Y101.893 E2.15048
G1 X106.598 Y102.080 E2.20085
G1 X107.599 Y102.600 E2.25132
G1 X108.393 Y103.402 E2.30183
G1 X108.904 Y104.409 E2.35230
G1 X109.079 Y105.521 E2.40266
G1 X108.904 Y106.630 E2.45290
G1 X108.393 Y107.628 E2.50304
G1 X107.597 Y108.416 E2.55314
G1 X106.594 Y108.917 E2.60328
G1 X105.483 Y109.082 E2.65353
G1 X104.372 Y108.895 E2.70390
G1 X103.371 Y108.375 E2.75437
G1 X102.577 Y107.572 E2.80487
G1 X102.066 Y106.566 E2.85534
G1 X101.890 Y105.454 E2.90571
G1 X102.066 Y104.345 E2.95595
G1 X102.550 Y103.400 E3.00340
G1 X102.416 Y102.981 F6000.000
G1 E1.00340 F1200.00000
G92 E0
G1 Z0.800 F6000.000
G1 X108.099 Y109.004 F6000.000
G1 Z0.300 F6000.000
G1 E2.00000 F1200.00000
G1 F1800.000
G1 X109.004 Y108.108 E2.05694
G1 X109.004 Y109.004 E2.09700
G1 X108.159 Y109.004 E2.13478
G1 X106.910 Y109.389 F6000.000
G1 F1800.000
G1 X106.868 Y109.211 E2.14297
G1 X107.824 Y108.733 E2.19078
G1 X108.708 Y107.859 E2.24639
G1 X109.212 Y106.873 E2.29590
G1 X109.389 Y106.916 E2.30405
G1 X109.389 Y109.389 E2.41468
G1 X106.970 Y109.389 E2.52290
G1 E0.52290 F1200.00000
G92 E0
G1 Z0.800 F6000.000
G1 X109.004 Y41.892 F6000.000
G1 Z0.300 F6000.000
G1 E2.00000 F1200.00000
G1 F1800.000
G1 X108.099 Y40.996 E2.05694
G1 X109.004 Y40.996 E2.09740
G1 X109.004 Y41.832 E2.13477
G1 X109.389 Y43.084 F6000.000
G1 F1800.000
G1 X109.212 Y43.127 E2.14292
G1 X108.708 Y42.141 E2.19244
G1 X107.824 Y41.267 E2.24805
G1 X106.868 Y40.789 E2.29586
G1 X106.910 Y40.611 E2.30405
G1 X109.389 Y40.611 E2.41495
G1 X109.389 Y43.024 E2.52290
G1 X108.904 Y43.370 F6000.000
G1 F1800.000
G1 X109.080 Y44.479 E2.57314
G1 X108.904 Y45.591 E2.62350
G1 X108.393 Y46.598 E2.67397
G1 X107.599 Y47.400 E2.72448
G1 X106.598 Y47.920 E2.77495
G1 X105.487 Y48.107 E2.82532
G1 X104.376 Y47.942 E2.87556
G1 X103.373 Y47.441 E2.92570
G1 X102.577 Y46.653 E2.97580
G1 X102.066 Y45.655 E3.02594
G1 X101.890 Y44.546 E3.07618
G1 X102.066 Y43.434 E3.12655
G1 X102.577 Y42.428 E3.17702
G1 X103.371 Y41.625 E3.22752
G1 X104.372 Y41.105 E3.27799
G1 X105.483 Y40.918 E3.32836
G1 X106.594 Y41.083 E3.37861
G1 X107.597 Y41.584 E3.42875
G1 X108.393 Y42.372 E3.47885
G1 X108.876 Y43.316 E3.52630
G1 X109.295 Y43.452 F6000.000
G1 E1.52630 F1200.00000
G92 E0
G1 Z0.800 F6000.000
G1 X103.444 Y52.165 F6000.000
G1 Z0.300 F6000.000
G1 E2.00000 F1200.00000
G1 F1800.000
G1 X104.364 Y53.085 E2.05820
G1 X104.955 Y54.245 E2.11640
G1 X105.146 Y55.451 E2.17104
G1 X105.146 Y94.549 E3.91987
G1 X104.955 Y95.755 E3.97451
G1 X104.364 Y96.915 E4.03271
G1 X103.444 Y97.835 E4.09091
G1 X102.309 Y98.413 E4.14791
G1 X102.193 Y98.438 E4.15322
G1 X101.152 Y98.902 E4.20420
G1 X100.031 Y99.716 E4.26615
G1 X99.269 Y100.562 E4.31712
G1 X98.699 Y101.549 E4.36810
G1 X98.437 Y102.356 E4.40603
G1 X97.882 Y103.444 E4.46067
G1 X96.962 Y104.364 E4.51887
G1 X95.803 Y104.955 E4.57707
G1 X94.596 Y105.146 E4.63172
G1 X55.404 Y105.146 E6.38478
G1 X54.197 Y104.955 E6.43943
G1 X53.038 Y104.364 E6.49763
G1 X52.118 Y103.444 E6.55583
G1 X51.563 Y102.356 E6.61047
G1 X51.301 Y101.549 E6.64840
G1 X50.731 Y100.562 E6.69938
G1 X49.969 Y99.716 E6.75035
G1 X48.848 Y98.902 E6.81230
G1 X47.807 Y98.438 E6.86328
G1 X47.691 Y98.413 E6.86859
G1 X46.556 Y97.835 E6.92559
G1 X45.636 Y96.915 E6.98379
G1 X45.045 Y95.755 E7.04199
G1 X44.854 Y94.549 E7.09663
G1 X44.854 Y55.451 E8.84546
G1 X45.045 Y54.245 E8.90010
G1 X45.636 Y53.085 E8.95830
G1 X46.556 Y52.165 E9.01650
G1 X47.691 Y51.587 E9.07350
G1 X47.807 Y51.562 E9.07881
G1 X48.848 Y51.098 E9.12979
G1 X49.969 Y50.284 E9.19174
G1 X50.731 Y49.438 E9.24271
G1 X51.301 Y48.451 E9.29369
G1 X51.565 Y47.640 E9.33182
G1 X52.118 Y46.555 E9.38628
G1 X53.038 Y45.636 E9.44446
G1 X54.197 Y45.045 E9.50266
G1 X55.404 Y44.854 E9.55731
G1 X94.596 Y44.854 E11.31037
G1 X95.803 Y45.045 E11.36502
G1 X96.962 Y45.636 E11.42322
G1 X97.882 Y46.556 E11.48142
G1 X98.437 Y47.644 E11.53606
G1 X98.699 Y48.451 E11.57399
G1 X99.269 Y49.438 E11.62497
G1 X100.031 Y50.284 E11.67594
G1 X101.152 Y51.098 E11.73789
G1 X102.193 Y51.562 E11.78887
G1 X102.309 Y51.587 E11.79418
G1 X103.391 Y52.138 E11.84850
G1 X103.215 Y52.481 F6000.000
G1 F1800.000
G1 X104.049 Y53.315 E11.90123
G1 X104.584 Y54.365 E11.95397
G1 X104.761 Y55.482 E12.00452
G1 X104.761 Y94.518 E13.75063
G1 X104.584 Y95.635 E13.80119
G1 X104.049 Y96.685 E13.85392
G1 X103.215 Y97.519 E13.90666
G1 X102.179 Y98.047 E13.95866
G1 X102.073 Y98.069 E13.96351
G1 X100.958 Y98.566 E14.01811
G1 X99.772 Y99.427 E14.08369
G1 X98.955 Y100.335 E14.13829
G1 X98.345 Y101.392 E14.19289
G1 X98.079 Y102.208 E14.23127
G1 X97.566 Y103.215 E14.28183
G1 X96.733 Y104.049 E14.33456
G1 X95.682 Y104.584 E14.38730
G1 X94.566 Y104.761 E14.43786
G1 X55.434 Y104.761 E16.18820
G1 X54.318 Y104.584 E16.23876
G1 X53.267 Y104.049 E16.29150
G1 X52.434 Y103.215 E16.34423
G1 X51.921 Y102.208 E16.39479
G1 X51.655 Y101.392 E16.43317
G1 X51.045 Y100.335 E16.48777
G1 X50.228 Y99.427 E16.54238
G1 X49.042 Y98.566 E16.60795
G1 X47.927 Y98.069 E16.66255
G1 X47.821 Y98.047 E16.66740
G1 X46.785 Y97.519 E16.71940
G1 X45.951 Y96.685 E16.77214
G1 X45.416 Y95.635 E16.82487
G1 X45.239 Y94.518 E16.87543
G1 X45.239 Y55.482 E18.62154
G1 X45.416 Y54.365 E18.67210
G1 X45.951 Y53.315 E18.72483
G1 X46.785 Y52.481 E18.77757
G1 X47.821 Y51.953 E18.82956
G1 X47.927 Y51.931 E18.83441
G1 X49.042 Y51.434 E18.88902
G1 X50.228 Y50.573 E18.95459
G1 X51.045 Y49.665 E19.00920
G1 X51.655 Y48.608 E19.06380
G1 X51.922 Y47.788 E19.10238
G1 X52.434 Y46.785 E19.15275
G1 X53.267 Y45.951 E19.20547
G1 X54.318 Y45.416 E19.25821
G1 X55.434 Y45.239 E19.30877
G1 X94.566 Y45.239 E21.05911
G1 X95.682 Y45.416 E21.10967
G1 X96.733 Y45.951 E21.16241
G1 X97.566 Y46.785 E21.21514
G1 X98.079 Y47.792 E21.26570
G1 X98.345 Y48.608 E21.30408
G1 X98.955 Y49.665 E21.35868
G1 X99.772 Y50.573 E21.41329
G1 X100.958 Y51.434 E21.47886
G1 X102.073 Y51.931 E21.53346
G1 X102.179 Y51.953 E21.53831
G1 X103.161 Y52.454 E21.58763
G1 X102.985 Y52.797 F6000.000
G1 F1800.000
G1 X103.733 Y53.544 E21.63490
G1 X104.212 Y54.486 E21.68217
G1 X104.375 Y55.512 E21.72864
G1 X104.375 Y94.488 E23.47203
G1 X104.212 Y95.514 E23.51850
G1 X103.733 Y96.456 E23.56577
G1 X102.985 Y97.203 E23.61304
G1 X102.049 Y97.680 E23.66004
G1 X101.953 Y97.700 E23.66443
G1 X100.764 Y98.230 E23.72266
G1 X99.512 Y99.139 E23.79186
G1 X98.641 Y100.107 E23.85009
G1 X97.990 Y101.234 E23.90832
G1 X97.722 Y102.060 E23.94715
G1 X97.250 Y102.985 E23.99362
G1 X96.503 Y103.733 E24.04089
G1 X95.561 Y104.212 E24.08817
G1 X94.535 Y104.375 E24.13463
G1 X55.465 Y104.375 E25.88226
G1 X54.439 Y104.212 E25.92873
G1 X53.497 Y103.733 E25.97601
G1 X52.750 Y102.985 E26.02328
G1 X52.278 Y102.060 E26.06975
G1 X52.010 Y101.234 E26.10858
G1 X51.359 Y100.107 E26.16681
G1 X50.488 Y99.139 E26.22504
G1 X49.236 Y98.230 E26.29424
G1 X48.047 Y97.700 E26.35247
G1 X47.951 Y97.680 E26.35686
G1 X47.015 Y97.203 E26.40386
G1 X46.267 Y96.456 E26.45113
G1 X45.788 Y95.514 E26.49840
G1 X45.625 Y94.488 E26.54487
G1 X45.625 Y55.512 E28.28826
G1 X45.788 Y54.486 E28.33473
G1 X46.267 Y53.544 E28.38200
G1 X47.015 Y52.797 E28.42927
G1 X47.951 Y52.320 E28.47627
G1 X48.047 Y52.300 E28.48066
G1 X49.236 Y51.770 E28.53889
G1 X50.488 Y50.861 E28.60809
G1 X51.359 Y49.893 E28.66632
G1 X52.010 Y48.766 E28.72454
G1 X52.279 Y47.936 E28.76358
G1 X52.750 Y47.015 E28.80986
G1 X53.497 Y46.267 E28.85712
G1 X54.439 Y45.788 E28.90439
G1 X55.465 Y45.625 E28.95086
G1 X94.535 Y45.625 E30.69849
G1 X95.561 Y45.788 E30.74496
G1 X96.503 Y46.267 E30.79224
G1 X97.250 Y47.015 E30.83951
G1 X97.722 Y47.940 E30.88598
G1 X97.990 Y48.766 E30.92481
G1 X98.641 Y49.893 E30.98304
G1 X99.512 Y50.861 E31.04127
G1 X100.764 Y51.770 E31.11047
G1 X101.953 Y52.300 E31.16869
G1 X102.049 Y52.320 E31.17309
G1 X102.932 Y52.770 E31.21740
G1 X103.358 Y52.651 F6000.000
G1 E29.21740 F1200.00000
G92 E0
G1 Z0.800 F6000.000
G1 X109.004 Y47.077 F6000.000
G1 Z0.300 F6000.000
G1 E2.00000 F1200.00000
G1 F1800.000
G1 X109.004 Y102.923 E4.49795
G1 X108.062 Y101.971 E4.55783
G1 X106.845 Y101.339 E4.61915
G1 X105.495 Y101.112 E4.68041
G1 X104.141 Y101.313 E4.74161
G1 X102.918 Y101.924 E4.80276
G1 X101.947 Y102.886 E4.86389
G1 X101.324 Y104.102 E4.92505
G1 X101.110 Y105.454 E4.98624
G1 X101.324 Y106.806 E5.04751
G1 X101.943 Y108.029 E5.10882
G1 X102.908 Y109.004 E5.17017
G1 X47.092 Y109.004 E7.66685
G1 X48.057 Y108.029 E7.72821
G1 X48.676 Y106.806 E7.78952
G1 X48.890 Y105.454 E7.85078
G1 X48.676 Y104.102 E7.91198
G1 X48.053 Y102.886 E7.97313
G1 X47.082 Y101.924 E8.03426
G1 X45.859 Y101.313 E8.09541
G1 X44.505 Y101.112 E8.15662
G1 X43.155 Y101.339 E8.21788
G1 X41.938 Y101.971 E8.27920
G1 X40.996 Y102.923 E8.33907
G1 X40.996 Y47.077 E10.83703
G1 X41.938 Y48.029 E10.89691
G1 X43.155 Y48.661 E10.95822
G1 X44.505 Y48.888 E11.01949
G1 X45.859 Y48.687 E11.08069
G1 X47.082 Y48.076 E11.14184
G1 X48.053 Y47.114 E11.20297
G1 X48.676 Y45.898 E11.26412
G1 X48.890 Y44.546 E11.32532
G1 X48.676 Y43.194 E11.38658
G1 X48.057 Y41.971 E11.44790
G1 X47.092 Y40.996 E11.50925
G1 X102.908 Y40.996 E14.00593
G1 X101.943 Y41.971 E14.06728
G1 X101.324 Y43.194 E14.12859
G1 X101.110 Y44.546 E14.18986
G1 X101.324 Y45.898 E14.25106
G1 X101.947 Y47.114 E14.31221
G1 X102.918 Y48.076 E14.37334
G1 X104.141 Y48.687 E14.43449
G1 X105.495 Y48.888 E14.49569
G1 X106.845 Y48.661 E14.55696
G1 X108.062 Y48.029 E14.61827
G1 X108.962 Y47.120 E14.67547
G1 X109.389 Y45.879 F6000.000
G1 F1800.000
G1 X109.389 Y104.121 E17.28066
G1 X109.212 Y104.164 E17.28883
G1 X108.710 Y103.174 E17.33846
G1 X107.830 Y102.286 E17.39438
G1 X106.722 Y101.710 E17.45028
G1 X105.491 Y101.503 E17.50609
G1 X104.259 Y101.685 E17.56182
G1 X103.146 Y102.241 E17.61746
G1 X102.262 Y103.116 E17.67308
G1 X101.695 Y104.223 E17.72872
G1 X101.500 Y105.454 E17.78444
G1 X101.695 Y106.686 E17.84026
G1 X102.260 Y107.801 E17.89615
G1 X103.140 Y108.689 E17.95207
G1 X104.148 Y109.213 E18.00288
G1 X104.105 Y109.389 E18.01101
G1 X45.895 Y109.389 E20.61470
G1 X45.852 Y109.213 E20.62283
G1 X46.860 Y108.689 E20.67365
G1 X47.740 Y107.801 E20.72956
G1 X48.305 Y106.686 E20.78546
G1 X48.500 Y105.454 E20.84127
G1 X48.305 Y104.223 E20.89699
G1 X47.738 Y103.116 E20.95264
G1 X46.854 Y102.241 E21.00825
G1 X45.741 Y101.685 E21.06389
G1 X44.509 Y101.503 E21.11962
G1 X43.278 Y101.710 E21.17544
G1 X42.170 Y102.286 E21.23133
G1 X41.290 Y103.174 E21.28725
G1 X40.788 Y104.164 E21.33689
G1 X40.611 Y104.121 E21.34505
G1 X40.611 Y45.879 E23.95025
G1 X40.788 Y45.836 E23.95841
G1 X41.290 Y46.826 E24.00805
G1 X42.170 Y47.714 E24.06397
G1 X43.278 Y48.290 E24.11986
G1 X44.509 Y48.497 E24.17568
G1 X45.741 Y48.315 E24.23140
G1 X46.854 Y47.759 E24.28705
G1 X47.738 Y46.884 E24.34266
G1 X48.305 Y45.777 E24.39831
G1 X48.500 Y44.546 E24.45403
G1 X48.305 Y43.314 E24.50984
G1 X47.740 Y42.199 E24.56573
G1 X46.860 Y41.311 E24.62165
G1 X45.852 Y40.787 E24.67247
G1 X45.895 Y40.611 E24.68060
G1 X104.105 Y40.611 E27.28429
G1 X104.148 Y40.787 E27.29241
G1 X103.140 Y41.311 E27.34323
G1 X102.260 Y42.199 E27.39915
G1 X101.695 Y43.314 E27.45504
G1 X101.500 Y44.546 E27.51086
G1 X101.695 Y45.777 E27.56658
G1 X102.262 Y46.884 E27.62222
G1 X103.146 Y47.759 E27.67784
G1 X104.259 Y48.315 E27.73348
G1 X105.491 Y48.497 E27.78921
G1 X106.722 Y48.290 E27.84502
G1 X107.830 Y47.714 E27.90092
G1 X108.710 Y46.826 E27.95683
G1 X109.212 Y45.836 E28.00647
G1 X109.331 Y45.865 E28.01196
G1 E26.01196 F1200.00000
G92 E0
G1 Z0.800 F6000.000
G1 X48.110 Y44.546 F6000.000
G1 Z0.300 F6000.000
G1 E2.00000 F1200.00000
G1 F1800.000
G1 X47.934 Y45.655 E2.05024
G1 X47.423 Y46.653 E2.10038
G1 X46.627 Y47.441 E2.15048
G1 X45.624 Y47.942 E2.20062
G1 X44.513 Y48.107 E2.25086
G1 X43.402 Y47.920 E2.30123
G1 X42.401 Y47.400 E2.35170
G1 X41.607 Y46.598 E2.40221
G1 X41.096 Y45.591 E2.45268
G1 X40.920 Y44.479 E2.50304
G1 X41.096 Y43.370 E2.55328
G1 X41.607 Y42.372 E2.60342
G1 X42.403 Y41.584 E2.65352
G1 X43.406 Y41.083 E2.70366
G1 X44.517 Y40.918 E2.75391
G1 X45.628 Y41.105 E2.80427
G1 X46.629 Y41.625 E2.85475
G1 X47.423 Y42.428 E2.90525
G1 X47.934 Y43.434 E2.95572
G1 X48.100 Y44.487 E3.00340
G1 X48.456 Y44.746 F6000.000
G1 E1.00340 F1200.00000
G92 E0
G1 Z0.800 F6000.000
G1 X41.901 Y40.996 F6000.000
G1 Z0.300 F6000.000
G1 E2.00000 F1200.00000
G1 F1800.000
G1 X40.996 Y41.892 E2.05694
G1 X40.996 Y40.996 E2.09700
G1 X41.841 Y40.996 E2.13477
G1 X43.132 Y40.789 F6000.000
G1 F1800.000
G1 X42.176 Y41.267 E2.18258
G1 X41.292 Y42.141 E2.23820
G1 X40.788 Y43.127 E2.28771
G1 X40.611 Y43.084 E2.29586
G1 X40.611 Y40.611 E2.40649
G1 X43.090 Y40.611 E2.51739
G1 X43.118 Y40.730 E2.52290
G1 E0.52290 F1200.00000
G92 E0
G1 Z0.800 F6000.000
G1 X44.513 Y101.893 F6000.000
G1 Z0.300 F6000.000
G1 E2.00000 F1200.00000
G1 F1800.000
G1 X45.624 Y102.058 E2.05024
G1 X46.627 Y102.559 E2.10038
G1 X47.423 Y103.347 E2.15048
G1 X47.934 Y104.345 E2.20062
G1 X48.110 Y105.454 E2.25086
G1 X47.934 Y106.566 E2.30123
G1 X47.423 Y107.572 E2.35170
G1 X46.629 Y108.375 E2.40220
G1 X45.628 Y108.895 E2.45267
G1 X44.517 Y109.082 E2.50304
G1 X43.406 Y108.917 E2.55329
G1 X42.403 Y108.416 E2.60343
G1 X41.607 Y107.628 E2.65353
G1 X41.096 Y106.630 E2.70367
G1 X40.920 Y105.521 E2.75391
G1 X41.096 Y104.409 E2.80427
G1 X41.607 Y103.402 E2.85474
G1 X42.401 Y102.600 E2.90525
G1 X43.402 Y102.080 E2.95572
G1 X44.454 Y101.903 E3.00340
G1 X44.709 Y101.545 F6000.000
G1 E1.00340 F1200.00000
G92 E0
G1 Z0.800 F6000.000
G1 X40.996 Y108.108 F6000.000
G1 Z0.300 F6000.000
G1 E2.00000 F1200.00000
G1 F1800.000
G1 X41.901 Y109.004 E2.05694
G1 X40.996 Y109.004 E2.09740
G1 X40.996 Y108.168 E2.13477
G1 X40.611 Y106.916 F6000.000
G1 F1800.000
G1 X40.788 Y106.873 E2.14292
G1 X41.292 Y107.859 E2.19244
G1 X42.176 Y108.733 E2.24805
G1 X43.132 Y109.211 E2.29586
G1 X43.090 Y109.389 E2.30405
G1 X40.611 Y109.389 E2.41495
G1 X40.611 Y106.976 E2.52290
G1 E0.52290 F1200.00000
G92 E0
