; generated by Slic3r 1.3.1-dev (Build (Unknown revision)) on 2020-06-18 at 22:15:43

; external perimeters extrusion width = 0.44mm (2.86mm^3/s)
; perimeters extrusion width = 0.56mm (4.14mm^3/s)
; infill extrusion width = 0.50mm (3.66mm^3/s)
; solid infill extrusion width = 0.56mm (3.10mm^3/s)
; top infill extrusion width = 0.45mm (2.44mm^3/s)

M107
G92 E0
;D3D:START:START
T0
M104 S215 T0

G21
G90
M107
T0
G28
G29
M109 T0 S215 T0
G0 F3000
M107
T0
G92 E0
G0 X0 Y149 Z0.1 F3600
G1 Y49 E6.5 F1200
G0 Z1
G92 E0
; Filament gcode

G21 ; set units to millimeters
G90 ; use absolute coordinates
M82 ; use absolute distances for extrusion
G92 E0
G1 Z0.200 F6000.000
G1 E-2.00000 F1200.00000
G92 E0
G1 Z0.700 F6000.000
G1 X52.958 Y51.307 F6000.000
G1 Z0.200 F6000.000
G1 E2.00000 F1200.00000
G1 F1800.000
G1 X54.707 Y49.853 E2.04375
G1 X57.933 Y48.998 E2.10796
G1 X72.000 Y48.998 E2.37858
G1 X74.239 Y49.395 E2.42233
G1 X76.205 Y50.538 E2.46608
G1 X77.231 Y51.630 E2.49491
G1 X100.872 Y83.485 E3.25809
G1 X101.282 Y84.110 E3.27247
G1 X101.752 Y84.925 E3.29057
G1 X102.306 Y86.169 E3.31677
G1 X102.597 Y87.064 E3.33487
G1 X102.880 Y88.396 E3.36108
G1 X102.978 Y89.332 E3.37917
G1 X102.978 Y90.693 E3.40536
G1 X102.880 Y91.629 E3.42346
G1 X102.597 Y92.961 E3.44967
G1 X102.306 Y93.856 E3.46777
G1 X101.752 Y95.100 E3.49397
G1 X101.282 Y95.915 E3.51207
G1 X100.482 Y97.016 E3.53826
G1 X99.852 Y97.715 E3.55636
G1 X98.840 Y98.627 E3.58257
G1 X98.079 Y99.180 E3.60067
G1 X96.900 Y99.860 E3.62685
G1 X96.041 Y100.243 E3.64495
G1 X94.744 Y100.664 E3.67117
G1 X93.824 Y100.860 E3.68927
G1 X92.470 Y101.002 E3.71546
G1 X91.530 Y101.002 E3.73356
G1 X90.176 Y100.860 E3.75975
G1 X89.256 Y100.664 E3.77785
G1 X88.001 Y100.261 E3.80320
G1 X55.325 Y85.981 E4.48925
G1 X53.432 Y84.721 E4.53300
G1 X52.088 Y82.887 E4.57675
G1 X51.419 Y80.012 E4.63353
G1 X51.419 Y55.512 E5.10487
G1 X51.816 Y53.273 E5.14862
G1 X52.928 Y51.359 E5.19122
G1 X53.213 Y51.405 F6000.000
G1 F1800.000
G1 X54.952 Y50.011 E5.23409
G1 X57.933 Y49.255 E5.29326
G1 X72.000 Y49.255 E5.56389
G1 X74.193 Y49.652 E5.60676
G1 X76.107 Y50.792 E5.64963
G1 X77.025 Y51.783 E5.67561
G1 X100.665 Y83.638 E6.43879
G1 X101.059 Y84.239 E6.45260
G1 X101.530 Y85.053 E6.47070
G1 X102.062 Y86.249 E6.49587
G1 X102.353 Y87.143 E6.51397
G1 X102.625 Y88.423 E6.53914
G1 X102.723 Y89.359 E6.55724
G1 X102.723 Y90.666 E6.58239
G1 X102.625 Y91.602 E6.60049
G1 X102.353 Y92.881 E6.62566
G1 X102.062 Y93.776 E6.64376
G1 X101.530 Y94.971 E6.66893
G1 X101.059 Y95.786 E6.68703
G1 X100.291 Y96.844 E6.71219
G1 X99.661 Y97.543 E6.73029
G1 X98.689 Y98.419 E6.75546
G1 X97.928 Y98.972 E6.77356
G1 X96.795 Y99.625 E6.79871
G1 X95.936 Y100.008 E6.81681
G1 X94.691 Y100.413 E6.84200
G1 X93.771 Y100.608 E6.86010
G1 X92.470 Y100.745 E6.88525
G1 X91.530 Y100.745 E6.90335
G1 X90.229 Y100.608 E6.92850
G1 X89.309 Y100.413 E6.94660
G1 X88.104 Y100.026 E6.97096
G1 X55.428 Y85.746 E7.65701
G1 X53.577 Y84.504 E7.69988
G1 X52.279 Y82.693 E7.74275
G1 X51.676 Y80.012 E7.79561
G1 X51.676 Y55.512 E8.26695
G1 X52.073 Y53.320 E8.30982
G1 X53.182 Y51.456 E8.35154
G1 E6.35154 F1200.00000
G92 E0
G1 Z0.700 F6000.000
G1 X93.517 Y91.698 F6000.000
G1 Z0.200 F6000.000
G1 E2.00000 F1200.00000
G1 F1800.000
G1 X93.134 Y91.976 E2.00912
G1 X92.701 Y92.169 E2.01824
G1 X92.237 Y92.268 E2.02736
G1 X91.763 Y92.268 E2.03648
G1 X91.299 Y92.169 E2.04560
G1 X90.866 Y91.976 E2.05473
G1 X90.483 Y91.698 E2.06385
G1 X90.165 Y91.345 E2.07297
G1 X89.928 Y90.935 E2.08209
G1 X89.782 Y90.484 E2.09121
G1 X89.732 Y90.012 E2.10033
G1 X89.782 Y89.541 E2.10945
G1 X89.928 Y89.090 E2.11857
G1 X90.165 Y88.679 E2.12769
G1 X90.483 Y88.327 E2.13681
G1 X90.866 Y88.048 E2.14594
G1 X91.299 Y87.856 E2.15506
G1 X91.763 Y87.757 E2.16418
G1 X92.237 Y87.757 E2.17330
G1 X92.701 Y87.856 E2.18242
G1 X93.134 Y88.048 E2.19154
G1 X93.517 Y88.327 E2.20066
G1 X93.835 Y88.679 E2.20978
G1 X94.072 Y89.090 E2.21891
G1 X94.218 Y89.541 E2.22803
G1 X94.268 Y90.012 E2.23715
G1 X94.218 Y90.484 E2.24627
G1 X94.072 Y90.935 E2.25539
G1 X93.835 Y91.345 E2.26451
G1 X93.558 Y91.653 E2.27248
G1 X93.344 Y91.506 F6000.000
G1 F1800.000
G1 X93.005 Y91.752 E2.28056
G1 X92.621 Y91.923 E2.28864
G1 X92.210 Y92.011 E2.29672
G1 X91.790 Y92.011 E2.30480
G1 X91.379 Y91.923 E2.31288
G1 X90.995 Y91.752 E2.32097
G1 X90.656 Y91.506 E2.32905
G1 X90.374 Y91.193 E2.33713
G1 X90.164 Y90.830 E2.34521
G1 X90.035 Y90.430 E2.35329
G1 X89.991 Y90.012 E2.36137
G1 X90.035 Y89.595 E2.36945
G1 X90.164 Y89.195 E2.37753
G1 X90.374 Y88.831 E2.38562
G1 X90.656 Y88.519 E2.39370
G1 X90.995 Y88.272 E2.40178
G1 X91.379 Y88.101 E2.40986
G1 X91.790 Y88.014 E2.41794
G1 X92.210 Y88.014 E2.42602
G1 X92.621 Y88.101 E2.43410
G1 X93.005 Y88.272 E2.44219
G1 X93.344 Y88.519 E2.45027
G1 X93.626 Y88.831 E2.45835
G1 X93.836 Y89.195 E2.46643
G1 X93.965 Y89.595 E2.47451
G1 X94.009 Y90.012 E2.48259
G1 X93.965 Y90.430 E2.49068
G1 X93.836 Y90.830 E2.49876
G1 X93.626 Y91.193 E2.50684
G1 X93.385 Y91.461 E2.51376
G1 X93.172 Y91.313 F6000.000
G1 F1800.000
G1 X92.875 Y91.529 E2.52081
G1 X92.541 Y91.677 E2.52785
G1 X92.183 Y91.754 E2.53489
G1 X91.817 Y91.754 E2.54193
G1 X91.459 Y91.677 E2.54897
G1 X91.125 Y91.529 E2.55602
G1 X90.828 Y91.313 E2.56306
G1 X90.584 Y91.042 E2.57010
G1 X90.401 Y90.724 E2.57714
G1 X90.287 Y90.376 E2.58418
G1 X90.249 Y90.012 E2.59122
G1 X90.287 Y89.648 E2.59827
G1 X90.401 Y89.300 E2.60531
G1 X90.584 Y88.983 E2.61235
G1 X90.828 Y88.711 E2.61939
G1 X91.125 Y88.496 E2.62643
G1 X91.459 Y88.347 E2.63347
G1 X91.817 Y88.271 E2.64052
G1 X92.183 Y88.271 E2.64756
G1 X92.541 Y88.347 E2.65460
G1 X92.875 Y88.496 E2.66164
G1 X93.172 Y88.711 E2.66868
G1 X93.416 Y88.983 E2.67572
G1 X93.599 Y89.300 E2.68277
G1 X93.713 Y89.648 E2.68981
G1 X93.751 Y90.012 E2.69685
G1 X93.713 Y90.376 E2.70389
G1 X93.599 Y90.724 E2.71093
G1 X93.416 Y91.042 E2.71798
G1 X93.212 Y91.269 E2.72386
G1 X93.248 Y91.671 F6000.000
G1 E0.72386 F1200.00000
G92 E0
G1 Z0.700 F6000.000
G1 X67.664 Y76.177 F6000.000
G1 Z0.200 F6000.000
G1 E2.00000 F1200.00000
G1 F1800.000
G1 X67.664 Y63.848 E2.23718
G1 X58.597 Y63.848 E2.41161
G1 X58.597 Y56.177 E2.55920
G1 X71.666 Y56.177 E2.81062
G1 X95.085 Y87.732 E3.56663
G1 X95.501 Y88.454 E3.58265
G1 X95.748 Y89.216 E3.59807
G1 X95.832 Y90.012 E3.61348
G1 X95.748 Y90.809 E3.62889
G1 X95.501 Y91.571 E3.64430
G1 X95.100 Y92.265 E3.65972
G1 X94.564 Y92.860 E3.67513
G1 X93.916 Y93.331 E3.69054
G1 X93.184 Y93.657 E3.70596
G1 X92.401 Y93.823 E3.72137
G1 X91.599 Y93.823 E3.73678
G1 X90.816 Y93.657 E3.75220
G1 X90.079 Y93.329 E3.76771
G1 X70.210 Y79.348 E4.23511
G1 X58.597 Y79.348 E4.45852
G1 X58.597 Y76.177 E4.51954
G1 X67.604 Y76.177 E4.69282
G1 X67.407 Y75.919 F6000.000
G1 F1800.000
G1 X67.407 Y64.105 E4.92011
G1 X58.340 Y64.105 E5.09454
G1 X58.340 Y55.919 E5.25202
G1 X71.795 Y55.919 E5.51087
G1 X95.300 Y87.591 E6.26966
G1 X95.737 Y88.349 E6.28648
G1 X96.001 Y89.162 E6.30294
G1 X96.091 Y90.012 E6.31939
G1 X96.001 Y90.863 E6.33584
G1 X95.737 Y91.676 E6.35229
G1 X95.309 Y92.417 E6.36875
G1 X94.737 Y93.052 E6.38520
G1 X94.045 Y93.555 E6.40165
G1 X93.264 Y93.903 E6.41810
G1 X92.428 Y94.081 E6.43456
G1 X91.572 Y94.081 E6.45101
G1 X90.736 Y93.903 E6.46746
G1 X89.952 Y93.554 E6.48397
G1 X70.129 Y79.605 E6.95029
G1 X58.340 Y79.605 E7.17709
G1 X58.340 Y75.919 E7.24800
G1 X67.347 Y75.919 E7.42127
G1 X67.150 Y75.662 F6000.000
G1 F1800.000
G1 X67.150 Y64.362 E7.63867
G1 X58.083 Y64.362 E7.81310
G1 X58.083 Y55.662 E7.98048
G1 X71.925 Y55.662 E8.24676
G1 X95.515 Y87.450 E9.00832
G1 X95.973 Y88.243 E9.02595
G1 X96.254 Y89.108 E9.04344
G1 X96.349 Y90.012 E9.06093
G1 X96.254 Y90.917 E9.07843
G1 X95.973 Y91.781 E9.09592
G1 X95.519 Y92.569 E9.11341
G1 X94.910 Y93.244 E9.13090
G1 X94.175 Y93.779 E9.14840
G1 X93.344 Y94.149 E9.16589
G1 X92.455 Y94.338 E9.18338
G1 X91.545 Y94.338 E9.20087
G1 X90.656 Y94.149 E9.21836
G1 X89.824 Y93.778 E9.23588
G1 X70.047 Y79.862 E9.70111
G1 X58.083 Y79.862 E9.93129
G1 X58.083 Y75.662 E10.01209
G1 X67.090 Y75.662 E10.18537
G1 X67.546 Y75.605 F6000.000
G1 X67.812 Y76.257 F6000.000
G1 F1800.000
G1 X78.504 Y65.566 E10.47686
G1 X78.349 Y65.357 E10.48188
G1 X67.812 Y75.893 E10.76915
G1 X67.812 Y75.529 E10.77617
G1 X78.193 Y65.148 E11.05921
G1 X78.038 Y64.938 E11.06423
G1 X67.812 Y75.164 E11.34303
G1 X67.812 Y74.800 E11.35005
G1 X77.883 Y64.729 E11.62463
G1 X77.728 Y64.520 E11.62965
G1 X67.812 Y74.436 E11.89999
G1 X67.812 Y74.072 E11.90701
G1 X77.573 Y64.311 E12.17312
G1 X77.417 Y64.102 E12.17814
G1 X67.812 Y73.707 E12.44002
G1 X67.812 Y73.343 E12.44704
G1 X77.262 Y63.893 E12.70469
G1 X77.107 Y63.684 E12.70971
G1 X67.812 Y72.979 E12.96312
G1 X67.812 Y72.614 E12.97015
G1 X76.952 Y63.475 E13.21933
G1 X76.797 Y63.265 E13.22435
G1 X67.812 Y72.250 E13.46931
G1 X67.812 Y71.886 E13.47633
G1 X76.641 Y63.056 E13.71705
G1 X76.486 Y62.847 E13.72207
G1 X67.812 Y71.521 E13.95856
G1 X67.812 Y71.157 E13.96559
G1 X76.331 Y62.638 E14.19784
G1 X76.176 Y62.429 E14.20286
G1 X67.812 Y70.793 E14.43089
G1 X67.812 Y70.428 E14.43792
G1 X76.021 Y62.220 E14.66171
G1 X75.865 Y62.011 E14.66673
G1 X67.812 Y70.064 E14.88630
G1 X67.812 Y69.700 E14.89332
G1 X75.710 Y61.802 E15.10866
G1 X75.555 Y61.592 E15.11368
G1 X67.812 Y69.335 E15.32478
G1 X67.812 Y68.971 E15.33180
G1 X75.400 Y61.383 E15.53867
G1 X75.245 Y61.174 E15.54369
G1 X67.812 Y68.607 E15.74633
G1 X67.812 Y68.242 E15.75336
G1 X75.089 Y60.965 E15.95177
G1 X74.934 Y60.756 E15.95679
G1 X67.812 Y67.878 E16.15096
G1 X67.812 Y67.514 E16.15799
G1 X74.779 Y60.547 E16.34793
G1 X74.624 Y60.338 E16.35295
G1 X67.812 Y67.149 E16.53867
G1 X67.812 Y66.785 E16.54569
G1 X74.469 Y60.129 E16.72718
G1 X74.313 Y59.919 E16.73220
G1 X67.812 Y66.421 E16.90945
G1 X67.812 Y66.056 E16.91647
G1 X74.158 Y59.710 E17.08949
G1 X74.003 Y59.501 E17.09451
G1 X67.812 Y65.692 E17.26330
G1 X67.812 Y65.328 E17.27033
G1 X73.848 Y59.292 E17.43489
G1 X73.693 Y59.083 E17.43991
G1 X67.812 Y64.964 E17.60023
G1 X67.812 Y64.599 E17.60726
G1 X73.537 Y58.874 E17.76335
G1 X73.382 Y58.665 E17.76837
G1 X67.812 Y64.235 E17.92024
G1 X67.812 Y63.871 E17.92726
G1 X73.227 Y58.456 E18.07489
G1 X73.072 Y58.246 E18.07992
G1 X67.618 Y63.700 E18.22861
G1 X67.254 Y63.700 E18.23563
G1 X72.917 Y58.037 E18.39002
G1 X72.762 Y57.828 E18.39504
G1 X66.890 Y63.700 E18.55514
G1 X66.525 Y63.700 E18.56216
G1 X72.606 Y57.619 E18.72795
G1 X72.451 Y57.410 E18.73297
G1 X66.161 Y63.700 E18.90447
G1 X65.797 Y63.700 E18.91149
G1 X72.296 Y57.201 E19.08869
G1 X72.141 Y56.992 E19.09371
G1 X65.432 Y63.700 E19.27661
G1 X65.068 Y63.700 E19.28364
G1 X71.986 Y56.783 E19.47224
G1 X71.830 Y56.573 E19.47726
G1 X64.704 Y63.700 E19.67156
G1 X64.339 Y63.700 E19.67858
G1 X71.675 Y56.364 E19.87859
G1 X71.646 Y56.324 E19.87954
G1 X71.351 Y56.324 E19.88523
G1 X63.975 Y63.700 E20.08632
G1 X63.611 Y63.700 E20.09334
G1 X70.986 Y56.324 E20.29443
G1 X70.622 Y56.324 E20.30146
G1 X63.246 Y63.700 E20.50255
G1 X62.882 Y63.700 E20.50957
G1 X70.258 Y56.324 E20.71066
G1 X69.893 Y56.324 E20.71769
G1 X62.518 Y63.700 E20.91878
G1 X62.153 Y63.700 E20.92580
G1 X69.529 Y56.324 E21.12689
G1 X69.165 Y56.324 E21.13392
G1 X61.789 Y63.700 E21.33501
G1 X61.425 Y63.700 E21.34203
G1 X68.800 Y56.324 E21.54312
G1 X68.436 Y56.324 E21.55015
G1 X61.060 Y63.700 E21.75124
G1 X60.696 Y63.700 E21.75826
G1 X68.072 Y56.324 E21.95935
G1 X67.707 Y56.324 E21.96638
G1 X60.332 Y63.700 E22.16747
G1 X59.967 Y63.700 E22.17449
G1 X67.343 Y56.324 E22.37558
G1 X66.979 Y56.324 E22.38260
G1 X59.603 Y63.700 E22.58370
G1 X59.239 Y63.700 E22.59072
G1 X66.615 Y56.324 E22.79181
G1 X66.250 Y56.324 E22.79883
G1 X58.875 Y63.700 E22.99993
G1 X58.745 Y63.700 E23.00241
G1 X58.745 Y63.465 E23.00695
G1 X65.886 Y56.324 E23.20163
G1 X65.522 Y56.324 E23.20865
G1 X58.745 Y63.101 E23.39339
G1 X58.745 Y62.736 E23.40042
G1 X65.157 Y56.324 E23.57523
G1 X64.793 Y56.324 E23.58225
G1 X58.745 Y62.372 E23.74713
G1 X58.745 Y62.008 E23.75416
G1 X64.429 Y56.324 E23.90910
G1 X64.064 Y56.324 E23.91613
G1 X58.745 Y61.643 E24.06114
G1 X58.745 Y61.279 E24.06816
G1 X63.700 Y56.324 E24.20324
G1 X63.336 Y56.324 E24.21027
G1 X58.745 Y60.915 E24.33541
G1 X58.745 Y60.550 E24.34244
G1 X62.971 Y56.324 E24.45765
G1 X62.607 Y56.324 E24.46468
G1 X58.745 Y60.186 E24.56996
G1 X58.745 Y59.822 E24.57698
G1 X62.243 Y56.324 E24.67233
G1 X61.878 Y56.324 E24.67936
G1 X58.745 Y59.457 E24.76477
G1 X58.745 Y59.093 E24.77180
G1 X61.514 Y56.324 E24.84728
G1 X61.150 Y56.324 E24.85430
G1 X58.745 Y58.729 E24.91985
G1 X58.745 Y58.364 E24.92688
G1 X60.785 Y56.324 E24.98249
G1 X60.421 Y56.324 E24.98952
G1 X58.745 Y58.000 E25.03520
G1 X58.745 Y57.636 E25.04223
G1 X60.057 Y56.324 E25.07798
G1 X59.692 Y56.324 E25.08500
G1 X58.745 Y57.272 E25.11082
G1 X58.745 Y56.907 E25.11785
G1 X59.328 Y56.324 E25.13373
G1 X58.964 Y56.324 E25.14076
G1 X58.746 Y56.543 E25.14670
G1 E23.14670 F1200.00000
G92 E0
G1 Z0.700 F6000.000
G1 X59.001 Y76.324 F6000.000
G1 Z0.200 F6000.000
G1 E2.00000 F1200.00000
G1 F1800.000
G1 X58.745 Y76.580 E2.00698
G1 X58.745 Y76.945 E2.01400
G1 X59.366 Y76.324 E2.03091
G1 X59.730 Y76.324 E2.03794
G1 X58.745 Y77.309 E2.06478
G1 X58.745 Y77.673 E2.07181
G1 X60.094 Y76.324 E2.10858
G1 X60.459 Y76.324 E2.11561
G1 X58.745 Y78.038 E2.16232
G1 X58.745 Y78.402 E2.16934
G1 X60.823 Y76.324 E2.22598
G1 X61.187 Y76.324 E2.23301
G1 X58.745 Y78.766 E2.29958
G1 X58.745 Y79.131 E2.30661
G1 X61.552 Y76.324 E2.38311
G1 X61.916 Y76.324 E2.39014
G1 X59.040 Y79.200 E2.46854
G1 X59.405 Y79.200 E2.47556
G1 X62.280 Y76.324 E2.55397
G1 X62.645 Y76.324 E2.56099
G1 X59.769 Y79.200 E2.63939
G1 X60.133 Y79.200 E2.64642
G1 X63.009 Y76.324 E2.72482
G1 X63.373 Y76.324 E2.73184
G1 X60.498 Y79.200 E2.81025
G1 X60.862 Y79.200 E2.81727
G1 X63.738 Y76.324 E2.89567
G1 X64.102 Y76.324 E2.90270
G1 X61.226 Y79.200 E2.98110
G1 X61.590 Y79.200 E2.98812
G1 X64.466 Y76.324 E3.06653
G1 X64.831 Y76.324 E3.07355
G1 X61.955 Y79.200 E3.15195
G1 X62.319 Y79.200 E3.15898
G1 X65.195 Y76.324 E3.23738
G1 X65.559 Y76.324 E3.24441
G1 X62.683 Y79.200 E3.32281
G1 X63.048 Y79.200 E3.32983
G1 X65.923 Y76.324 E3.40824
G1 X66.288 Y76.324 E3.41526
G1 X63.412 Y79.200 E3.49366
G1 X63.776 Y79.200 E3.50069
G1 X66.652 Y76.324 E3.57909
G1 X67.016 Y76.324 E3.58611
G1 X64.141 Y79.200 E3.66452
G1 X64.505 Y79.200 E3.67154
G1 X67.381 Y76.324 E3.74994
G1 X67.745 Y76.324 E3.75697
G1 X64.869 Y79.200 E3.83537
G1 X65.234 Y79.200 E3.84239
G1 X78.659 Y65.775 E4.20842
G1 X78.814 Y65.984 E4.21344
G1 X65.598 Y79.200 E4.57377
G1 X65.962 Y79.200 E4.58079
G1 X78.969 Y66.193 E4.93541
G1 X79.125 Y66.402 E4.94043
G1 X66.327 Y79.200 E5.28936
G1 X66.691 Y79.200 E5.29638
G1 X79.280 Y66.611 E5.63960
G1 X79.435 Y66.821 E5.64462
G1 X67.055 Y79.200 E5.98214
G1 X67.420 Y79.200 E5.98916
G1 X79.590 Y67.030 E6.32098
G1 X79.745 Y67.239 E6.32600
G1 X67.784 Y79.200 E6.65212
G1 X68.148 Y79.200 E6.65914
G1 X79.901 Y67.448 E6.97956
G1 X80.056 Y67.657 E6.98458
G1 X68.513 Y79.200 E7.29929
G1 X68.877 Y79.200 E7.30632
G1 X80.211 Y67.866 E7.61533
G1 X80.366 Y68.075 E7.62035
G1 X69.241 Y79.200 E7.92366
G1 X69.606 Y79.200 E7.93068
G1 X80.521 Y68.284 E8.22829
G1 X80.677 Y68.494 E8.23331
G1 X69.970 Y79.200 E8.52522
G1 X70.183 Y79.200 E8.52932
G1 X70.272 Y79.263 E8.53142
G1 X80.832 Y68.703 E8.81933
G1 X80.987 Y68.912 E8.82435
G1 X70.485 Y79.413 E9.11067
G1 X70.699 Y79.564 E9.11571
G1 X81.142 Y69.121 E9.40042
G1 X81.297 Y69.330 E9.40544
G1 X70.913 Y79.714 E9.68856
G1 X71.127 Y79.865 E9.69360
G1 X81.453 Y69.539 E9.97512
G1 X81.608 Y69.748 E9.98014
G1 X71.341 Y80.015 E10.26005
G1 X71.555 Y80.166 E10.26510
G1 X81.763 Y69.957 E10.54341
G1 X81.918 Y70.166 E10.54844
G1 X71.768 Y80.316 E10.82516
G1 X71.982 Y80.467 E10.83020
G1 X82.073 Y70.376 E11.10532
G1 X82.229 Y70.585 E11.11034
G1 X72.196 Y80.617 E11.38386
G1 X72.410 Y80.768 E11.38890
G1 X82.384 Y70.794 E11.66082
G1 X82.539 Y71.003 E11.66584
G1 X72.624 Y80.918 E11.93617
G1 X72.838 Y81.069 E11.94121
G1 X82.694 Y71.212 E12.20993
G1 X82.849 Y71.421 E12.21495
G1 X73.052 Y81.219 E12.48208
G1 X73.265 Y81.369 E12.48712
G1 X83.005 Y71.630 E12.75265
G1 X83.160 Y71.839 E12.75767
G1 X73.479 Y81.520 E13.02160
G1 X73.693 Y81.670 E13.02664
G1 X83.315 Y72.049 E13.28897
G1 X83.470 Y72.258 E13.29399
