; generated by Slic3r 1.3.0 on 2021-03-05 at 23:06:15

; external perimeters extrusion width = 0.44mm (2.86mm^3/s)
; perimeters extrusion width = 0.56mm (4.14mm^3/s)
; infill extrusion width = 0.50mm (5.48mm^3/s)
; solid infill extrusion width = 0.56mm (3.10mm^3/s)
; top infill extrusion width = 0.45mm (2.44mm^3/s)

M107
;D3D:START:START
T0
M104 S215 T0

G21
G90
M107
T0
G28
G29
M109 T0 S215 T0
G0 F3000
M107
T0
G92 E0
G0 X0 Y149 Z0.1 F3600
G1 Y49 E6.5 F1200
G0 Z1
G92 E0
; Filament gcode

G21 ; set units to millimeters
G90 ; use absolute coordinates
M82 ; use absolute distances for extrusion
G92 E0
G1 Z0.200 F6000.000
G1 E-2.00000 F1200.00000
G92 E0
G1 X72.831 Y46.152 F6000.000
G1 E2.00000 F1200.00000
G1 F1800
G1 X73.949 Y44.628 E2.03636
G1 X75.592 Y43.695 E2.07271
G1 X76.950 Y43.486 E2.09915
G1 X84.950 Y43.486 E2.25305
G1 X86.798 Y43.881 E2.28941
G1 X87.908 Y44.590 E2.31475
G1 X111.308 Y64.890 E2.91073
G1 X112.445 Y66.400 E2.94709
G1 X112.864 Y68.300 E2.98452
G1 X112.864 Y81.700 E3.24232
G1 X112.469 Y83.548 E3.27868
G1 X111.308 Y85.110 E3.31611
G1 X87.908 Y105.410 E3.91209
G1 X86.253 Y106.322 E3.94845
G1 X84.950 Y106.514 E3.97379
G1 X76.950 Y106.514 E4.12770
G1 X75.102 Y106.119 E4.16405
G1 X73.578 Y105.001 E4.20041
G1 X72.645 Y103.358 E4.23677
G1 X72.436 Y102.000 E4.26320
G1 X72.436 Y48.000 E5.30208
G1 X72.819 Y46.211 E5.33729
G1 X73.088 Y46.209 F6000.000
G1 F1800
G1 X74.201 Y44.750 E5.37258
G1 X75.824 Y43.895 E5.40788
G1 X76.950 Y43.743 E5.42974
G1 X84.950 Y43.743 E5.58365
G1 X86.741 Y44.138 E5.61894
G1 X87.740 Y44.784 E5.64182
G1 X111.140 Y65.084 E6.23780
G1 X112.234 Y66.557 E6.27309
G1 X112.607 Y68.300 E6.30739
G1 X112.607 Y81.700 E6.56518
G1 X112.212 Y83.491 E6.60048
G1 X111.140 Y84.916 E6.63477
G1 X87.740 Y105.216 E7.23075
G1 X86.127 Y106.091 E7.26605
G1 X84.950 Y106.257 E7.28892
G1 X76.950 Y106.257 E7.44283
G1 X75.159 Y105.862 E7.47813
G1 X73.700 Y104.749 E7.51342
G1 X72.845 Y103.126 E7.54872
G1 X72.693 Y102.000 E7.57058
G1 X72.693 Y48.000 E8.60947
G1 X73.075 Y46.267 E8.64361
G1 E6.64361 F1200.00000
G92 E0
G1 X105.047 Y79.658 F6000.000
G1 E2.00000 F1200.00000
G1 F1800
G1 X104.730 Y79.873 E2.00737
G1 X104.105 Y80.217 E2.02110
G1 X103.441 Y80.479 E2.03483
G1 X103.084 Y80.583 E2.04199
G1 X102.720 Y80.665 E2.04916
G1 X102.012 Y80.754 E2.06289
G1 X101.298 Y80.754 E2.07662
G1 X100.917 Y80.718 E2.08399
G1 X100.226 Y80.586 E2.09751
G1 X99.859 Y80.479 E2.10488
G1 X99.205 Y80.221 E2.11841
G1 X98.552 Y79.862 E2.13274
G1 X97.975 Y79.442 E2.14647
G1 X97.447 Y78.947 E2.16040
G1 X96.992 Y78.397 E2.17412
G1 X96.777 Y78.080 E2.18149
G1 X96.433 Y77.455 E2.19522
G1 X96.171 Y76.791 E2.20895
G1 X96.067 Y76.434 E2.21612
G1 X95.985 Y76.070 E2.22328
G1 X95.896 Y75.362 E2.23701
G1 X95.896 Y74.648 E2.25074
G1 X95.931 Y74.278 E2.25791
G1 X95.989 Y73.910 E2.26508
G1 X96.167 Y73.218 E2.27880
G1 X96.433 Y72.545 E2.29273
G1 X96.777 Y71.920 E2.30646
G1 X96.992 Y71.603 E2.31383
G1 X97.447 Y71.053 E2.32756
G1 X97.967 Y70.565 E2.34129
G1 X98.262 Y70.336 E2.34846
G1 X98.570 Y70.127 E2.35562
G1 X99.195 Y69.783 E2.36935
G1 X99.859 Y69.521 E2.38308
G1 X100.226 Y69.414 E2.39045
G1 X100.917 Y69.282 E2.40398
G1 X101.298 Y69.246 E2.41134
G1 X102.002 Y69.246 E2.42487
G1 X102.383 Y69.282 E2.43224
G1 X103.074 Y69.414 E2.44577
G1 X103.441 Y69.521 E2.45314
G1 X104.095 Y69.779 E2.46666
G1 X104.436 Y69.953 E2.47403
G1 X105.030 Y70.330 E2.48756
G1 X105.333 Y70.565 E2.49493
G1 X105.853 Y71.053 E2.50866
G1 X106.308 Y71.603 E2.52238
G1 X106.523 Y71.920 E2.52975
G1 X106.867 Y72.545 E2.54348
G1 X107.129 Y73.209 E2.55721
G1 X107.236 Y73.576 E2.56458
G1 X107.368 Y74.267 E2.57810
G1 X107.404 Y74.648 E2.58547
G1 X107.404 Y75.352 E2.59900
G1 X107.369 Y75.722 E2.60617
G1 X107.311 Y76.090 E2.61334
G1 X107.133 Y76.782 E2.62706
G1 X106.867 Y77.455 E2.64099
G1 X106.523 Y78.080 E2.65472
G1 X106.308 Y78.397 E2.66209
G1 X105.860 Y78.939 E2.67562
G1 X105.589 Y79.210 E2.68299
G1 X105.093 Y79.619 E2.69536
G1 X104.892 Y79.452 F6000.000
G1 F1800
G1 X104.596 Y79.654 E2.70226
G1 X103.995 Y79.984 E2.71545
G1 X103.358 Y80.236 E2.72863
G1 X103.020 Y80.334 E2.73541
G1 X102.676 Y80.411 E2.74219
G1 X101.996 Y80.497 E2.75537
G1 X101.311 Y80.497 E2.76856
G1 X100.953 Y80.463 E2.77546
G1 X100.287 Y80.336 E2.78852
G1 X99.942 Y80.236 E2.79542
G1 X99.311 Y79.986 E2.80848
G1 X98.694 Y79.647 E2.82203
G1 X98.139 Y79.244 E2.83522
G1 X97.635 Y78.770 E2.84852
G1 X97.198 Y78.242 E2.86171
G1 X96.996 Y77.946 E2.86861
G1 X96.666 Y77.345 E2.88179
G1 X96.414 Y76.708 E2.89498
G1 X96.316 Y76.370 E2.90176
G1 X96.239 Y76.026 E2.90854
G1 X96.153 Y75.346 E2.92172
G1 X96.153 Y74.661 E2.93490
G1 X96.186 Y74.310 E2.94168
G1 X96.241 Y73.962 E2.94846
G1 X96.412 Y73.298 E2.96165
G1 X96.666 Y72.655 E2.97495
G1 X96.996 Y72.054 E2.98814
G1 X97.198 Y71.758 E2.99504
G1 X97.635 Y71.230 E3.00822
G1 X98.134 Y70.760 E3.02141
G1 X98.413 Y70.545 E3.02819
G1 X98.704 Y70.346 E3.03497
G1 X99.305 Y70.016 E3.04815
G1 X99.942 Y69.764 E3.06133
G1 X100.287 Y69.664 E3.06824
G1 X100.953 Y69.537 E3.08130
G1 X101.311 Y69.503 E3.08820
G1 X101.989 Y69.503 E3.10126
G1 X102.347 Y69.537 E3.10816
G1 X103.013 Y69.664 E3.12122
G1 X103.358 Y69.764 E3.12812
G1 X103.989 Y70.014 E3.14118
G1 X104.309 Y70.177 E3.14809
G1 X104.882 Y70.541 E3.16115
G1 X105.166 Y70.760 E3.16805
G1 X105.665 Y71.230 E3.18123
G1 X106.102 Y71.758 E3.19442
G1 X106.304 Y72.054 E3.20132
G1 X106.634 Y72.655 E3.21450
G1 X106.886 Y73.292 E3.22769
G1 X106.986 Y73.637 E3.23459
G1 X107.113 Y74.303 E3.24765
G1 X107.147 Y74.661 E3.25455
G1 X107.147 Y75.339 E3.26761
G1 X107.114 Y75.690 E3.27439
G1 X107.059 Y76.038 E3.28117
G1 X106.888 Y76.702 E3.29435
G1 X106.634 Y77.345 E3.30766
G1 X106.304 Y77.946 E3.32085
G1 X106.102 Y78.242 E3.32775
G1 X105.669 Y78.765 E3.34081
G1 X105.415 Y79.019 E3.34771
G1 X104.939 Y79.414 E3.35962
G1 X104.738 Y79.246 F6000.000
G1 F1800
G1 X104.461 Y79.434 E3.36605
G1 X103.885 Y79.751 E3.37869
G1 X103.275 Y79.992 E3.39133
G1 X102.956 Y80.085 E3.39772
G1 X102.631 Y80.158 E3.40411
G1 X101.980 Y80.240 E3.41675
G1 X101.323 Y80.240 E3.42939
G1 X100.990 Y80.208 E3.43583
G1 X100.347 Y80.086 E3.44842
G1 X100.025 Y79.992 E3.45486
G1 X99.417 Y79.751 E3.46745
G1 X98.835 Y79.432 E3.48023
G1 X98.303 Y79.045 E3.49287
G1 X97.823 Y78.594 E3.50555
G1 X97.404 Y78.088 E3.51819
G1 X97.216 Y77.811 E3.52463
G1 X96.899 Y77.235 E3.53726
G1 X96.658 Y76.625 E3.54990
G1 X96.565 Y76.306 E3.55629
G1 X96.492 Y75.981 E3.56269
G1 X96.410 Y75.330 E3.57532
G1 X96.410 Y74.673 E3.58796
G1 X96.441 Y74.342 E3.59435
G1 X96.493 Y74.014 E3.60074
G1 X96.657 Y73.378 E3.61338
G1 X96.899 Y72.765 E3.62607
G1 X97.216 Y72.189 E3.63871
G1 X97.404 Y71.912 E3.64514
G1 X97.823 Y71.406 E3.65778
G1 X98.302 Y70.956 E3.67042
G1 X98.564 Y70.753 E3.67681
G1 X98.839 Y70.566 E3.68320
G1 X99.415 Y70.249 E3.69584
G1 X100.025 Y70.008 E3.70848
G1 X100.347 Y69.914 E3.71492
G1 X100.990 Y69.792 E3.72751
G1 X101.323 Y69.760 E3.73395
G1 X101.977 Y69.760 E3.74654
G1 X102.310 Y69.792 E3.75298
G1 X102.953 Y69.914 E3.76557
G1 X103.275 Y70.008 E3.77201
G1 X103.883 Y70.249 E3.78460
G1 X104.181 Y70.400 E3.79104
G1 X104.734 Y70.751 E3.80363
G1 X104.998 Y70.956 E3.81007
G1 X105.477 Y71.406 E3.82271
G1 X105.896 Y71.912 E3.83535
G1 X106.084 Y72.189 E3.84178
G1 X106.401 Y72.765 E3.85442
G1 X106.642 Y73.375 E3.86706
G1 X106.736 Y73.697 E3.87350
G1 X106.858 Y74.340 E3.88609
G1 X106.890 Y74.673 E3.89253
G1 X106.890 Y75.327 E3.90512
G1 X106.859 Y75.658 E3.91151
G1 X106.807 Y75.986 E3.91790
G1 X106.643 Y76.622 E3.93054
G1 X106.401 Y77.235 E3.94323
G1 X106.084 Y77.811 E3.95587
G1 X105.896 Y78.088 E3.96230
G1 X105.479 Y78.592 E3.97490
G1 X105.242 Y78.829 E3.98133
G1 X104.784 Y79.208 E3.99277
G1 X104.776 Y79.578 F6000.000
G1 E1.99277 F1200.00000
G92 E0
G1 X94.614 Y77.721 F6000.000
G1 E2.00000 F1200.00000
G1 F1800
G1 X92.414 Y77.721 E2.04232
G1 X92.414 Y80.164 E2.08933
G1 X85.934 Y80.164 E2.21399
G1 X87.164 Y76.967 E2.27990
G1 X87.075 Y76.896 E2.28208
G1 X86.951 Y76.981 E2.28496
G1 X86.684 Y77.106 E2.29064
G1 X86.403 Y77.198 E2.29631
G1 X86.003 Y77.261 E2.30412
G1 X85.708 Y77.261 E2.30979
G1 X85.415 Y77.224 E2.31547
G1 X85.015 Y77.108 E2.32347
G1 X84.635 Y76.914 E2.33168
G1 X84.298 Y76.653 E2.33989
G1 X84.016 Y76.333 E2.34810
G1 X83.799 Y75.965 E2.35631
G1 X83.654 Y75.564 E2.36452
G1 X83.587 Y75.142 E2.37273
G1 X83.601 Y74.716 E2.38094
G1 X83.694 Y74.299 E2.38915
G1 X83.859 Y73.917 E2.39716
G1 X84.017 Y73.668 E2.40283
G1 X84.205 Y73.441 E2.40850
G1 X84.517 Y73.166 E2.41651
G1 X84.885 Y72.949 E2.42472
G1 X85.286 Y72.804 E2.43293
G1 X85.708 Y72.737 E2.44114
G1 X86.134 Y72.751 E2.44935
G1 X86.551 Y72.844 E2.45756
G1 X86.942 Y73.013 E2.46577
G1 X87.075 Y73.104 E2.46886
G1 X87.164 Y73.033 E2.47104
G1 X85.934 Y69.836 E2.53694
G1 X92.414 Y69.836 E2.66160
G1 X92.414 Y72.279 E2.70861
G1 X94.614 Y72.279 E2.75093
G1 X94.614 Y77.661 E2.85447
G1 X94.357 Y77.464 F6000.000
G1 F1800
G1 X92.157 Y77.464 E2.89680
G1 X92.157 Y79.907 E2.94380
G1 X86.309 Y79.907 E3.05632
G1 X87.932 Y75.685 E3.14334
G1 X88.025 Y75.268 E3.15156
G1 X88.042 Y75.000 E3.15673
G1 X88.025 Y74.732 E3.16190
G1 X87.932 Y74.315 E3.17012
G1 X86.309 Y70.093 E3.25714
G1 X92.157 Y70.093 E3.36966
G1 X92.157 Y72.536 E3.41667
G1 X94.357 Y72.536 E3.45899
G1 X94.357 Y77.404 E3.55264
G1 X94.100 Y77.207 F6000.000
G1 F1800
G1 X91.900 Y77.207 E3.59496
G1 X91.900 Y79.650 E3.64197
G1 X86.683 Y79.650 E3.74234
G1 X88.179 Y75.760 E3.82252
G1 X88.281 Y75.305 E3.83150
G1 X88.300 Y75.000 E3.83737
G1 X88.281 Y74.695 E3.84324
G1 X88.179 Y74.240 E3.85222
G1 X86.683 Y70.350 E3.93240
G1 X91.900 Y70.350 E4.03277
G1 X91.900 Y72.793 E4.07978
G1 X94.100 Y72.793 E4.12210
G1 X94.100 Y77.147 E4.20586
G1 X94.161 Y77.602 F6000.000
G1 E2.20586 F1200.00000
G92 E0
G1 X87.761 Y75.621 F6000.000
G1 E2.00000 F1200.00000
G1 F1800
G1 X87.610 Y75.968 E2.00728
G1 X87.398 Y76.281 E2.01455
G1 X87.131 Y76.548 E2.02182
G1 X86.823 Y76.757 E2.02897
G1 X86.589 Y76.867 E2.03395
G1 X86.343 Y76.947 E2.03892
G1 X85.983 Y77.004 E2.04595
G1 X85.724 Y77.004 E2.05092
G1 X85.467 Y76.972 E2.05590
G1 X85.110 Y76.868 E2.06305
G1 X84.774 Y76.696 E2.07032
G1 X84.475 Y76.464 E2.07760
G1 X84.225 Y76.181 E2.08487
G1 X84.032 Y75.855 E2.09215
G1 X83.904 Y75.500 E2.09942
G1 X83.845 Y75.126 E2.10669
G1 X83.857 Y74.748 E2.11397
G1 X83.939 Y74.379 E2.12124
G1 X84.087 Y74.038 E2.12839
G1 X84.226 Y73.820 E2.13337
G1 X84.390 Y73.621 E2.13834
G1 X84.669 Y73.375 E2.14549
G1 X84.995 Y73.182 E2.15277
G1 X85.350 Y73.054 E2.16004
G1 X85.724 Y72.995 E2.16731
G1 X86.102 Y73.007 E2.17459
G1 X86.471 Y73.089 E2.18186
G1 X86.818 Y73.240 E2.18914
G1 X87.131 Y73.452 E2.19641
G1 X87.398 Y73.719 E2.20369
G1 X87.610 Y74.032 E2.21096
G1 X87.758 Y74.373 E2.21811
G1 X87.822 Y74.624 E2.22309
G1 X87.855 Y74.880 E2.22806
G1 X87.843 Y75.252 E2.23521
G1 X87.774 Y75.562 E2.24133
G1 X87.515 Y75.541 F6000.000
G1 F1800
G1 X87.384 Y75.843 E2.24767
G1 X87.199 Y76.116 E2.25401
G1 X86.966 Y76.349 E2.26035
G1 X86.695 Y76.533 E2.26664
G1 X86.494 Y76.627 E2.27092
G1 X86.283 Y76.696 E2.27519
G1 X85.962 Y76.747 E2.28144
G1 X85.740 Y76.747 E2.28571
G1 X85.520 Y76.719 E2.28999
G1 X85.206 Y76.628 E2.29628
G1 X84.912 Y76.478 E2.30262
G1 X84.652 Y76.276 E2.30896
G1 X84.434 Y76.029 E2.31530
G1 X84.266 Y75.745 E2.32164
G1 X84.154 Y75.435 E2.32798
G1 X84.103 Y75.110 E2.33432
G1 X84.113 Y74.781 E2.34066
G1 X84.185 Y74.459 E2.34699
G1 X84.315 Y74.159 E2.35329
G1 X84.434 Y73.971 E2.35756
G1 X84.576 Y73.800 E2.36184
G1 X84.821 Y73.584 E2.36813
G1 X85.105 Y73.416 E2.37447
G1 X85.415 Y73.304 E2.38081
G1 X85.740 Y73.253 E2.38715
G1 X86.069 Y73.263 E2.39349
G1 X86.391 Y73.335 E2.39983
G1 X86.693 Y73.466 E2.40617
G1 X86.966 Y73.651 E2.41251
G1 X87.199 Y73.884 E2.41884
G1 X87.384 Y74.157 E2.42518
G1 X87.514 Y74.457 E2.43148
G1 X87.569 Y74.672 E2.43575
G1 X87.597 Y74.892 E2.44003
G1 X87.587 Y75.219 E2.44632
G1 X87.528 Y75.482 E2.45150
G1 X87.735 Y75.786 F6000.000
G1 E0.45150 F1200.00000
G92 E0
G1 X79.714 Y80.164 F6000.000
G1 E2.00000 F1200.00000
G1 F1800
G1 X79.714 Y69.836 E2.19870
G1 X77.614 Y69.836 E2.23910
G1 X77.614 Y67.970 E2.27499
G1 X78.161 Y67.901 E2.28559
G1 X78.579 Y67.808 E2.29384
G1 X79.714 Y67.442 E2.31678
G1 X79.714 Y64.289 E2.37744
G1 X82.883 Y64.289 E2.43840
G1 X83.258 Y63.130 E2.46184
G1 X83.351 Y62.711 E2.47011
G1 X83.451 Y61.919 E2.48545
G1 X83.464 Y61.500 E2.49352
G1 X83.451 Y61.081 E2.50160
G1 X83.350 Y60.279 E2.51714
G1 X83.149 Y59.497 E2.53268
G1 X83.003 Y59.092 E2.54095
G1 X82.664 Y58.371 E2.55629
G1 X82.450 Y58.009 E2.56437
G1 X82.215 Y57.662 E2.57244
G1 X81.700 Y57.040 E2.58798
G1 X81.103 Y56.480 E2.60372
G1 X80.450 Y56.005 E2.61926
G1 X80.079 Y55.786 E2.62754
G1 X79.358 Y55.447 E2.64288
G1 X78.953 Y55.301 E2.65115
G1 X78.171 Y55.100 E2.66669
G1 X77.614 Y55.030 E2.67749
G1 X77.614 Y48.664 E2.79995
G1 X84.670 Y48.664 E2.93569
G1 X104.440 Y68.964 E3.48085
G1 X107.686 Y68.964 E3.54329
G1 X107.686 Y81.036 E3.77553
G1 X104.440 Y81.036 E3.83797
G1 X84.670 Y101.336 E4.38313
G1 X77.614 Y101.336 E4.51887
G1 X77.614 Y94.970 E4.64133
G1 X78.171 Y94.900 E4.65213
G1 X78.953 Y94.699 E4.66767
G1 X79.358 Y94.553 E4.67594
G1 X80.079 Y94.214 E4.69128
G1 X80.450 Y93.995 E4.69956
G1 X81.095 Y93.526 E4.71489
G1 X81.409 Y93.249 E4.72297
G1 X81.706 Y92.952 E4.73105
G1 X82.221 Y92.330 E4.74659
G1 X82.660 Y91.639 E4.76233
G1 X83.003 Y90.908 E4.77787
G1 X83.149 Y90.503 E4.78614
G1 X83.350 Y89.721 E4.80168
G1 X83.451 Y88.919 E4.81722
G1 X83.464 Y88.500 E4.82530
G1 X83.451 Y88.081 E4.83337
G1 X83.351 Y87.289 E4.84871
G1 X83.258 Y86.870 E4.85698
G1 X82.883 Y85.711 E4.88042
G1 X79.714 Y85.711 E4.94138
G1 X79.714 Y82.558 E5.00204
G1 X78.579 Y82.192 E5.02498
G1 X78.161 Y82.099 E5.03323
G1 X77.614 Y82.030 E5.04383
G1 X77.614 Y80.164 E5.07972
G1 X79.654 Y80.164 E5.11896
G1 X79.457 Y79.907 F6000.000
G1 F1800
G1 X79.457 Y70.093 E5.30777
G1 X77.357 Y70.093 E5.34818
G1 X77.357 Y67.744 E5.39337
G1 X78.116 Y67.648 E5.40809
G1 X78.512 Y67.559 E5.41589
G1 X79.457 Y67.255 E5.43499
G1 X79.457 Y64.032 E5.49700
G1 X82.696 Y64.032 E5.55931
G1 X83.009 Y63.062 E5.57892
G1 X83.098 Y62.666 E5.58672
G1 X83.195 Y61.899 E5.60160
G1 X83.207 Y61.500 E5.60928
G1 X83.195 Y61.101 E5.61697
G1 X83.097 Y60.327 E5.63196
G1 X82.903 Y59.572 E5.64696
G1 X82.766 Y59.191 E5.65477
G1 X82.437 Y58.491 E5.66964
G1 X82.233 Y58.147 E5.67733
G1 X82.009 Y57.817 E5.68501
G1 X81.512 Y57.216 E5.70001
G1 X80.939 Y56.678 E5.71513
G1 X80.308 Y56.220 E5.73012
G1 X79.959 Y56.013 E5.73793
G1 X79.259 Y55.684 E5.75280
G1 X78.878 Y55.547 E5.76061
G1 X78.123 Y55.353 E5.77561
G1 X77.357 Y55.256 E5.79045
G1 X77.357 Y48.407 E5.92222
G1 X84.778 Y48.407 E6.06499
G1 X104.549 Y68.707 E6.61015
G1 X107.943 Y68.707 E6.67545
G1 X107.943 Y81.293 E6.91759
G1 X104.549 Y81.293 E6.98289
G1 X84.778 Y101.593 E7.52804
G1 X77.357 Y101.593 E7.67082
G1 X77.357 Y94.744 E7.80258
G1 X78.123 Y94.647 E7.81743
G1 X78.878 Y94.453 E7.83242
G1 X79.259 Y94.316 E7.84023
G1 X79.959 Y93.987 E7.85511
G1 X80.308 Y93.780 E7.86291
G1 X80.934 Y93.326 E7.87779
G1 X81.233 Y93.061 E7.88547
G1 X81.516 Y92.779 E7.89316
G1 X82.013 Y92.178 E7.90815
G1 X82.434 Y91.515 E7.92327
G1 X82.766 Y90.809 E7.93827
G1 X82.903 Y90.428 E7.94608
G1 X83.097 Y89.673 E7.96107
G1 X83.195 Y88.899 E7.97607
G1 X83.207 Y88.500 E7.98375
G1 X83.195 Y88.101 E7.99144
G1 X83.098 Y87.334 E8.00631
G1 X83.009 Y86.938 E8.01412
G1 X82.696 Y85.968 E8.03373
G1 X79.457 Y85.968 E8.09604
G1 X79.457 Y82.745 E8.15804
G1 X78.512 Y82.441 E8.17715
G1 X78.116 Y82.352 E8.18494
G1 X77.357 Y82.256 E8.19967
G1 X77.357 Y79.907 E8.24486
G1 X79.397 Y79.907 E8.28411
G1 X79.200 Y79.650 F6000.000
G1 F1800
G1 X79.200 Y70.350 E8.46303
G1 X77.100 Y70.350 E8.50343
G1 X77.100 Y67.495 E8.55835
G1 X77.329 Y67.488 E8.56276
G1 X78.072 Y67.394 E8.57716
G1 X78.444 Y67.311 E8.58450
G1 X79.200 Y67.068 E8.59978
G1 X79.200 Y63.775 E8.66312
G1 X82.509 Y63.775 E8.72678
G1 X82.761 Y62.994 E8.74256
G1 X82.844 Y62.622 E8.74990
G1 X82.938 Y61.879 E8.76431
G1 X82.938 Y61.121 E8.77889
G1 X82.844 Y60.376 E8.79335
G1 X82.657 Y59.648 E8.80780
G1 X82.528 Y59.289 E8.81514
G1 X82.209 Y58.611 E8.82955
G1 X82.016 Y58.285 E8.83684
G1 X81.803 Y57.971 E8.84414
G1 X81.324 Y57.393 E8.85859
