; generated by Slic3r 1.3.1-dev (Build (Unknown revision)) on 2020-06-26 at 20:46:45

; external perimeters extrusion width = 0.80mm (4.11mm^3/s)
; perimeters extrusion width = 0.80mm (4.11mm^3/s)
; infill extrusion width = 0.80mm (8.22mm^3/s)
; solid infill extrusion width = 0.80mm (4.11mm^3/s)
; top infill extrusion width = 0.45mm (2.22mm^3/s)

M107
G92 E0
;D3D:START:START
T0
M104 S215 T0

G21
G90
M107
T0
G28
G29
M109 T0 S215 T0
G0 F3000
M107
T0
G92 E0
G0 X0 Y149 Z0.1 F3600
G1 Y49 E6.5 F1200
G0 Z1
G92 E0
; Filament gcode

G21 ; set units to millimeters
G90 ; use absolute coordinates
M82 ; use absolute distances for extrusion
G92 E0
G1 Z0.180 F6000.000
G1 E-2.00000 F1200.00000
G92 E0
G1 X26.688 Y31.320 F6000.000
G1 E2.00000 F1200.00000
G1 F900.000
G1 X26.873 Y31.163 E2.01386
G1 X27.897 Y30.476 E2.08410
G1 X28.135 Y30.352 E2.09940
G1 X29.029 Y29.983 E2.15451
G1 X29.326 Y29.890 E2.17222
G1 X29.975 Y29.728 E2.21034
G1 X30.336 Y29.662 E2.23124
G1 X30.768 Y29.599 E2.25613
G1 X31.475 Y29.533 E2.29658
G1 X58.864 Y28.244 E3.85889
G1 X61.667 Y28.159 E4.01863
G1 X64.430 Y28.128 E4.17611
G1 X67.469 Y28.158 E4.34928
G1 X70.390 Y28.247 E4.51574
G1 X73.268 Y28.389 E4.67996
G1 X76.065 Y28.578 E4.83970
G1 X78.742 Y28.809 E4.99279
G1 X81.262 Y29.078 E5.13717
G1 X83.593 Y29.383 E5.27115
G1 X85.718 Y29.726 E5.39379
G1 X87.337 Y30.049 E5.48781
G1 X89.004 Y30.472 E5.58581
G1 X90.565 Y30.985 E5.67945
G1 X91.005 Y31.155 E5.70634
G1 X92.047 Y31.610 E5.77111
G1 X92.476 Y31.819 E5.79831
G1 X93.443 Y32.345 E5.86100
G1 X93.789 Y32.550 E5.88396
G1 X94.965 Y33.313 E5.96380
G1 X96.063 Y34.100 E6.04075
G1 X97.153 Y34.919 E6.11848
G1 X100.696 Y37.642 E6.37307
G1 X107.047 Y42.791 E6.83894
G1 X109.471 Y44.894 E7.02177
G1 X111.068 Y46.351 E7.14491
G1 X112.616 Y47.838 E7.26725
G1 X114.112 Y49.368 E7.38914
G1 X115.703 Y51.133 E7.52453
G1 X117.079 Y52.817 E7.64846
G1 X118.369 Y54.579 E7.77287
G1 X119.380 Y56.133 E7.87851
G1 X120.628 Y58.359 E8.02391
G1 X121.557 Y60.352 E8.14922
G1 X122.234 Y62.079 E8.25491
G1 X122.911 Y64.166 E8.37988
G1 X123.454 Y66.280 E8.50428
G1 X123.869 Y68.414 E8.62815
G1 X124.161 Y70.561 E8.75158
G1 X124.336 Y72.711 E8.87452
G1 X124.399 Y75.141 E9.01298
G1 X124.336 Y77.289 E9.13547
G1 X124.161 Y79.440 E9.25843
G1 X123.869 Y81.587 E9.38187
G1 X123.453 Y83.721 E9.50575
G1 X122.910 Y85.836 E9.63015
G1 X122.233 Y87.922 E9.75512
G1 X121.417 Y89.971 E9.88077
G1 X120.461 Y91.965 E10.00678
G1 X119.380 Y93.868 E10.13148
G1 X118.191 Y95.678 E10.25485
G1 X116.909 Y97.401 E10.37725
G1 X115.545 Y99.049 E10.49913
G1 X114.111 Y100.633 E10.62083
G1 X112.616 Y102.162 E10.74272
G1 X111.171 Y103.552 E10.85694
G1 X109.471 Y105.106 E10.98820
G1 X107.048 Y107.208 E11.17098
G1 X100.696 Y112.358 E11.63688
G1 X98.416 Y114.119 E11.80104
G1 X95.956 Y115.979 E11.97675
G1 X94.739 Y116.840 E12.06168
G1 X93.443 Y117.655 E12.14893
G1 X92.476 Y118.181 E12.21162
G1 X92.047 Y118.390 E12.23882
G1 X91.005 Y118.845 E12.30359
G1 X90.565 Y119.015 E12.33048
G1 X89.004 Y119.528 E12.42412
G1 X87.636 Y119.882 E12.50462
G1 X85.718 Y120.274 E12.61614
G1 X83.436 Y120.640 E12.74788
G1 X81.135 Y120.937 E12.88006
G1 X78.742 Y121.191 E13.01714
G1 X75.963 Y121.430 E13.17609
G1 X73.168 Y121.617 E13.33571
G1 X70.390 Y121.753 E13.49419
G1 X67.469 Y121.842 E13.66065
G1 X64.548 Y121.872 E13.82710
G1 X61.667 Y121.841 E13.99130
G1 X58.777 Y121.753 E14.15603
G1 X31.198 Y120.446 E15.72914
G1 X30.768 Y120.401 E15.75379
G1 X29.975 Y120.272 E15.79958
G1 X29.326 Y120.110 E15.83769
G1 X29.029 Y120.017 E15.85541
G1 X28.135 Y119.648 E15.91052
G1 X27.897 Y119.524 E15.92582
G1 X26.873 Y118.837 E15.99605
G1 X26.688 Y118.680 E16.00991
G1 X25.830 Y117.766 E16.08135
G1 X25.691 Y117.580 E16.09456
G1 X25.116 Y116.617 E16.15847
G1 X25.019 Y116.409 E16.17156
G1 X24.698 Y115.536 E16.22454
G1 X24.636 Y115.312 E16.23777
G1 X24.457 Y114.357 E16.29313
G1 X24.410 Y113.789 E16.32564
G1 X24.399 Y113.379 E16.34898
G1 X24.402 Y36.447 E20.73237
G1 X24.457 Y35.643 E20.77833
G1 X24.636 Y34.688 E20.83368
G1 X24.698 Y34.464 E20.84692
G1 X25.019 Y33.591 E20.89989
G1 X25.116 Y33.383 E20.91298
G1 X25.691 Y32.420 E20.97689
G1 X25.830 Y32.234 E20.99011
G1 X26.647 Y31.364 E21.05812
G1 X27.180 Y31.901 F6000.000
G1 F900.000
G1 X27.366 Y31.744 E21.07198
G1 X28.248 Y31.151 E21.13253
G1 X28.486 Y31.027 E21.14784
G1 X29.257 Y30.709 E21.19535
G1 X30.113 Y30.477 E21.24590
G1 X30.474 Y30.410 E21.26680
G1 X31.516 Y30.293 E21.32652
G1 X58.887 Y29.005 E22.88783
G1 X61.675 Y28.921 E23.04674
G1 X64.541 Y28.889 E23.21001
G1 X67.446 Y28.919 E23.37559
G1 X70.263 Y29.004 E23.53615
G1 X73.217 Y29.148 E23.70467
G1 X76.000 Y29.336 E23.86360
G1 X78.662 Y29.566 E24.01581
G1 X81.054 Y29.820 E24.15289
G1 X83.338 Y30.115 E24.28407
G1 X85.383 Y30.439 E24.40209
G1 X87.187 Y30.796 E24.50686
G1 X89.146 Y31.308 E24.62221
G1 X90.321 Y31.706 E24.69292
G1 X90.701 Y31.853 E24.71610
G1 X91.743 Y32.307 E24.78087
G1 X92.112 Y32.488 E24.80432
G1 X93.079 Y33.014 E24.86701
G1 X94.522 Y33.933 E24.96449
G1 X95.605 Y34.708 E25.04040
G1 X96.696 Y35.528 E25.11813
G1 X100.228 Y38.243 E25.37198
G1 X106.554 Y43.372 E25.83600
G1 X108.969 Y45.467 E26.01814
G1 X110.554 Y46.913 E26.14040
G1 X112.088 Y48.387 E26.26162
G1 X113.566 Y49.899 E26.38212
G1 X115.116 Y51.618 E26.51395
G1 X116.468 Y53.271 E26.63562
G1 X117.732 Y54.996 E26.75747
G1 X118.742 Y56.548 E26.86299
G1 X119.941 Y58.686 E27.00269
G1 X120.850 Y60.633 E27.12507
G1 X121.525 Y62.357 E27.23056
G1 X122.185 Y64.397 E27.35272
G1 X122.715 Y66.466 E27.47445
G1 X123.121 Y68.556 E27.59576
G1 X123.407 Y70.660 E27.71675
G1 X123.577 Y72.770 E27.83735
G1 X123.637 Y75.121 E27.97135
G1 X123.577 Y77.231 E28.09159
G1 X123.407 Y79.341 E28.21221
G1 X123.121 Y81.445 E28.33321
G1 X122.715 Y83.535 E28.45453
G1 X122.185 Y85.605 E28.57626
G1 X121.524 Y87.644 E28.69842
G1 X120.729 Y89.646 E28.82111
G1 X119.797 Y91.592 E28.94409
G1 X118.741 Y93.453 E29.06596
G1 X117.578 Y95.225 E29.18675
G1 X116.321 Y96.917 E29.30688
G1 X114.980 Y98.539 E29.42678
G1 X113.566 Y100.101 E29.54681
G1 X112.088 Y101.613 E29.66730
G1 X110.643 Y103.003 E29.78152
G1 X108.969 Y104.534 E29.91078
G1 X106.555 Y106.628 E30.09288
G1 X100.228 Y111.757 E30.55692
G1 X97.955 Y113.514 E30.72063
G1 X95.513 Y115.359 E30.89502
G1 X94.327 Y116.199 E30.97781
G1 X93.079 Y116.986 E31.06190
G1 X92.112 Y117.512 E31.12458
G1 X91.743 Y117.693 E31.14803
G1 X90.701 Y118.147 E31.21281
G1 X90.321 Y118.294 E31.23598
G1 X88.813 Y118.791 E31.32647
G1 X87.445 Y119.145 E31.40696
G1 X85.569 Y119.528 E31.51608
G1 X83.338 Y119.885 E31.64484
G1 X81.054 Y120.180 E31.77602
G1 X78.662 Y120.434 E31.91310
G1 X75.912 Y120.671 E32.07036
G1 X73.131 Y120.857 E32.22919
G1 X70.352 Y120.992 E32.38767
G1 X67.446 Y121.081 E32.55332
G1 X64.541 Y121.111 E32.71890
G1 X61.675 Y121.079 E32.88217
G1 X58.812 Y120.992 E33.04538
G1 X31.277 Y119.688 E34.61600
G1 X30.847 Y119.644 E34.64066
G1 X30.113 Y119.523 E34.68301
G1 X29.257 Y119.291 E34.73356
G1 X28.486 Y118.973 E34.78108
G1 X28.248 Y118.849 E34.79638
G1 X27.366 Y118.256 E34.85693
G1 X27.180 Y118.099 E34.87079
G1 X26.440 Y117.311 E34.93238
G1 X26.302 Y117.125 E34.94559
G1 X25.806 Y116.295 E35.00069
G1 X25.708 Y116.087 E35.01378
G1 X25.432 Y115.335 E35.05945
G1 X25.243 Y114.488 E35.10884
G1 X25.171 Y113.765 E35.15028
G1 X25.161 Y113.379 E35.17226
G1 X25.163 Y36.471 E39.55428
G1 X25.211 Y35.745 E39.59576
G1 X25.370 Y34.889 E39.64533
G1 X25.432 Y34.665 E39.65856
G1 X25.708 Y33.913 E39.70424
G1 X25.806 Y33.705 E39.71733
G1 X26.302 Y32.875 E39.77242
G1 X26.440 Y32.689 E39.78564
G1 X27.139 Y31.945 E39.84380
G1 E37.84380 F1200.00000
G92 E0
G1 X30.570 Y111.648 F6000.000
G1 E2.00000 F1200.00000
G1 F900.000
G1 X30.320 Y112.392 E2.02775
G1 X30.212 Y112.942 E2.04757
G1 X30.177 Y113.391 E2.06349
G1 X30.180 Y113.599 E2.07086
G1 X30.207 Y113.798 E2.07796
G1 X30.336 Y114.152 E2.09126
G1 X30.443 Y114.294 E2.09754
G1 X30.585 Y114.415 E2.10413
G1 X30.778 Y114.516 E2.11185
G1 X31.025 Y114.594 E2.12100
G1 X31.386 Y114.661 E2.13396
G1 X32.287 Y114.726 E2.16590
G1 X37.318 Y114.767 E2.34380
G1 X38.595 Y114.792 E2.38894
G1 X41.589 Y114.891 E2.49486
G1 X45.104 Y115.086 E2.61932
G1 X51.510 Y115.553 E2.84639
G1 X56.431 Y115.865 E3.02072
G1 X59.042 Y115.986 E3.11313
G1 X61.732 Y116.068 E3.20828
G1 X64.493 Y116.100 E3.30589
G1 X67.298 Y116.072 E3.40507
G1 X70.110 Y115.987 E3.50453
G1 X72.884 Y115.851 E3.60270
G1 X75.574 Y115.671 E3.69802
G1 X78.135 Y115.451 E3.78890
G1 X80.522 Y115.197 E3.87377
G1 X82.685 Y114.916 E3.95090
G1 X84.590 Y114.613 E4.01909
G1 X86.190 Y114.293 E4.07677
G1 X87.549 Y113.941 E4.12639
G1 X88.716 Y113.546 E4.16995
G1 X89.728 Y113.104 E4.20900
G1 X90.685 Y112.583 E4.24751
G1 X91.614 Y111.986 E4.28654
G1 X92.596 Y111.284 E4.32925
G1 X96.900 Y108.000 E4.52064
G1 E2.52064 F1200.00000
G92 E0
G1 X103.086 Y47.000 F6000.000
G1 E2.00000 F1200.00000
G1 F900.000
G1 X105.663 Y49.233 E2.11774
G1 X107.174 Y50.613 E2.18844
G1 X108.611 Y51.995 E2.25731
G1 X109.971 Y53.390 E2.32459
G1 X111.255 Y54.814 E2.39079
G1 X112.447 Y56.262 E2.45556
G1 X113.543 Y57.746 E2.51927
G1 X114.536 Y59.273 E2.58220
G1 X115.417 Y60.844 E2.64440
G1 X116.194 Y62.487 E2.70716
G1 X116.855 Y64.175 E2.76978
G1 X117.407 Y65.909 E2.83263
G1 X117.853 Y67.681 E2.89574
G1 X118.196 Y69.484 E2.95910
G1 X118.435 Y71.316 E3.02294
G1 X118.580 Y73.151 E3.08649
G1 X118.627 Y75.000 E3.15037
G1 X118.580 Y76.849 E3.21426
G1 X118.437 Y78.690 E3.27804
G1 X118.196 Y80.516 E3.34164
G1 X117.853 Y82.319 E3.40501
G1 X117.407 Y84.091 E3.46812
G1 X116.855 Y85.825 E3.53097
G1 X116.194 Y87.513 E3.59359
G1 X115.417 Y89.156 E3.65635
G1 X114.536 Y90.727 E3.71855
G1 X113.543 Y92.254 E3.78148
G1 X112.447 Y93.738 E3.84519
G1 X111.255 Y95.186 E3.90996
G1 X109.971 Y96.610 E3.97616
G1 X108.611 Y98.005 E4.04344
G1 X107.174 Y99.387 E4.11231
G1 X105.663 Y100.767 E4.18299
G1 X103.088 Y103.000 E4.30069
G1 E2.30069 F1200.00000
G92 E0
G1 X96.898 Y42.000 F6000.000
G1 E2.00000 F1200.00000
G1 F900.000
G1 X92.597 Y38.716 E2.18894
G1 X91.614 Y38.014 E2.23112
G1 X90.685 Y37.417 E2.26966
G1 X89.728 Y36.896 E2.30769
G1 X88.716 Y36.454 E2.34625
G1 X87.549 Y36.059 E2.38926
G1 X86.190 Y35.707 E2.43826
G1 X84.590 Y35.387 E2.49521
G1 X82.685 Y35.084 E2.56255
G1 X80.522 Y34.803 E2.63872
G1 X78.135 Y34.549 E2.72252
G1 X75.574 Y34.329 E2.81226
G1 X72.884 Y34.149 E2.90638
G1 X70.110 Y34.013 E3.00332
G1 X67.298 Y33.928 E3.10153
G1 X64.493 Y33.900 E3.19947
G1 X61.735 Y33.932 E3.29577
G1 X59.042 Y34.014 E3.38982
G1 X56.431 Y34.135 E3.48108
G1 X51.513 Y34.451 E3.65312
G1 X45.104 Y34.914 E3.87743
G1 X41.589 Y35.109 E4.00033
G1 X38.595 Y35.212 E4.10491
G1 X36.186 Y35.246 E4.18904
G1 X32.869 Y35.256 E4.30483
G1 X31.788 Y35.297 E4.34260
G1 X31.376 Y35.340 E4.35707
G1 X31.055 Y35.399 E4.36847
G1 X30.779 Y35.484 E4.37855
G1 X30.585 Y35.585 E4.38618
G1 X30.443 Y35.706 E4.39269
G1 X30.336 Y35.848 E4.39889
G1 X30.264 Y36.016 E4.40527
G1 X30.207 Y36.202 E4.41204
G1 X30.180 Y36.401 E4.41905
G1 X30.206 Y37.030 E4.44104
G1 X30.312 Y37.588 E4.46088
G1 X30.570 Y38.352 E4.48903
G1 Z0.360 F6000.000
G1 E2.48903 F1200.00000
G92 E0
G1 X30.570 Y111.648 F6000.000
G1 E2.00000 F1200.00000
G1 F1800.000
G1 X30.320 Y112.392 E2.02775
G1 X30.212 Y112.942 E2.04757
G1 X30.177 Y113.391 E2.06349
G1 X30.180 Y113.599 E2.07086
G1 X30.207 Y113.798 E2.07796
G1 X30.336 Y114.152 E2.09126
G1 X30.443 Y114.294 E2.09754
G1 X30.585 Y114.415 E2.10413
G1 X30.778 Y114.516 E2.11185
G1 X31.025 Y114.594 E2.12100
G1 X31.385 Y114.661 E2.13395
G1 X32.286 Y114.726 E2.16586
G1 X37.314 Y114.767 E2.34366
G1 X38.593 Y114.792 E2.38888
G1 X41.593 Y114.891 E2.49497
G1 X45.109 Y115.086 E2.61949
G1 X51.511 Y115.553 E2.84644
G1 X56.431 Y115.865 E3.02073
G1 X59.042 Y115.986 E3.11313
G1 X61.732 Y116.068 E3.20828
G1 X64.493 Y116.100 E3.30589
G1 X67.298 Y116.072 E3.40507
G1 X70.110 Y115.987 E3.50453
G1 X72.884 Y115.851 E3.60270
G1 X75.574 Y115.671 E3.69802
G1 X78.135 Y115.451 E3.78890
G1 X80.522 Y115.197 E3.87376
G1 X82.685 Y114.916 E3.95089
G1 X84.590 Y114.613 E4.01908
G1 X86.190 Y114.293 E4.07676
G1 X87.548 Y113.941 E4.12637
G1 X88.715 Y113.546 E4.16992
G1 X89.727 Y113.104 E4.20897
G1 X90.684 Y112.583 E4.24748
G1 X91.613 Y111.986 E4.28651
G1 X92.596 Y111.284 E4.32924
G1 X96.900 Y108.000 E4.52064
G1 E2.52064 F1200.00000
G92 E0
G1 X103.087 Y47.000 F6000.000
G1 E2.00000 F1200.00000
G1 F1800.000
G1 X105.664 Y49.231 E2.11769
G1 X107.175 Y50.612 E2.18838
G1 X108.613 Y51.994 E2.25725
G1 X109.973 Y53.389 E2.32454
G1 X111.258 Y54.812 E2.39074
G1 X112.450 Y56.260 E2.45550
G1 X113.546 Y57.744 E2.51922
G1 X114.541 Y59.271 E2.58216
G1 X115.422 Y60.842 E2.64437
G1 X116.200 Y62.485 E2.70715
G1 X116.862 Y64.174 E2.76978
G1 X117.416 Y65.908 E2.83265
G1 X117.863 Y67.680 E2.89577
G1 X118.206 Y69.483 E2.95915
G1 X118.448 Y71.309 E3.02277
G1 X118.592 Y73.151 E3.08655
G1 X118.639 Y75.000 E3.15044
G1 X118.592 Y76.849 E3.21433
G1 X118.448 Y78.691 E3.27812
G1 X118.206 Y80.517 E3.34173
G1 X117.863 Y82.320 E3.40511
G1 X117.416 Y84.092 E3.46823
G1 X116.862 Y85.826 E3.53110
G1 X116.200 Y87.515 E3.59373
G1 X115.422 Y89.158 E3.65651
G1 X114.541 Y90.729 E3.71872
G1 X113.546 Y92.256 E3.78166
G1 X112.450 Y93.740 E3.84537
G1 X111.258 Y95.188 E3.91014
G1 X109.973 Y96.611 E3.97634
G1 X108.613 Y98.006 E4.04363
G1 X107.175 Y99.388 E4.11250
G1 X105.664 Y100.768 E4.18317
G1 X103.090 Y103.000 E4.30081
G1 E2.30081 F1200.00000
G92 E0
G1 X96.898 Y42.000 F6000.000
G1 E2.00000 F1200.00000
G1 F1800.000
G1 X92.596 Y38.716 E2.18897
G1 X91.613 Y38.014 E2.23115
G1 X90.684 Y37.417 E2.26970
G1 X89.727 Y36.896 E2.30772
G1 X88.715 Y36.454 E2.34628
G1 X87.548 Y36.059 E2.38928
G1 X86.190 Y35.707 E2.43828
G1 X84.590 Y35.387 E2.49523
G1 X82.685 Y35.084 E2.56257
G1 X80.522 Y34.803 E2.63873
G1 X78.135 Y34.549 E2.72254
G1 X75.574 Y34.329 E2.81228
G1 X72.884 Y34.149 E2.90640
G1 X70.110 Y34.013 E3.00335
G1 X67.298 Y33.928 E3.10156
G1 X64.493 Y33.900 E3.19950
G1 X61.735 Y33.932 E3.29581
G1 X59.042 Y34.014 E3.38985
G1 X56.431 Y34.135 E3.48111
G1 X51.514 Y34.451 E3.65312
G1 X45.109 Y34.914 E3.87731
G1 X41.593 Y35.109 E4.00027
G1 X38.593 Y35.212 E4.10504
G1 X36.181 Y35.246 E4.18925
G1 X32.867 Y35.256 E4.30496
G1 X31.787 Y35.297 E4.34268
G1 X31.375 Y35.340 E4.35714
G1 X31.054 Y35.399 E4.36853
G1 X30.778 Y35.484 E4.37862
G1 X30.585 Y35.585 E4.38624
G1 X30.443 Y35.706 E4.39275
G1 X30.336 Y35.848 E4.39896
G1 X30.264 Y36.016 E4.40533
G1 X30.207 Y36.202 E4.41211
G1 X30.180 Y36.401 E4.41912
G1 X30.206 Y37.030 E4.44111
G1 X30.312 Y37.588 E4.46094
G1 X30.570 Y38.352 E4.48910
G1 Z0.540 F6000.000
G1 E2.48910 F1200.00000
G92 E0
G1 X30.570 Y111.648 F6000.000
G1 E2.00000 F1200.00000
G1 F1800.000
G1 X30.320 Y112.392 E2.02775
G1 X30.212 Y112.942 E2.04757
G1 X30.177 Y113.391 E2.06349
G1 X30.180 Y113.599 E2.07086
G1 X30.207 Y113.798 E2.07796
G1 X30.336 Y114.152 E2.09126
G1 X30.443 Y114.294 E2.09754
G1 X30.585 Y114.415 E2.10413
G1 X30.778 Y114.516 E2.11185
G1 X31.025 Y114.594 E2.12099
G1 X31.385 Y114.661 E2.13394
G1 X32.284 Y114.726 E2.16582
G1 X37.310 Y114.767 E2.34352
G1 X38.591 Y114.791 E2.38881
G1 X41.597 Y114.891 E2.49512
G1 X45.114 Y115.086 E2.61966
G1 X51.512 Y115.553 E2.84648
G1 X56.432 Y115.865 E3.02074
G1 X59.042 Y115.986 E3.11313
G1 X61.732 Y116.068 E3.20828
G1 X64.493 Y116.100 E3.30590
G1 X67.298 Y116.072 E3.40507
G1 X70.110 Y115.987 E3.50453
G1 X72.884 Y115.851 E3.60270
G1 X75.574 Y115.671 E3.69802
G1 X78.135 Y115.451 E3.78890
G1 X80.522 Y115.197 E3.87376
G1 X82.685 Y114.916 E3.95089
G1 X84.590 Y114.613 E4.01907
G1 X86.189 Y114.293 E4.07674
G1 X87.548 Y113.941 E4.12636
G1 X88.714 Y113.546 E4.16990
G1 X89.726 Y113.104 E4.20894
G1 X90.683 Y112.583 E4.24745
G1 X91.612 Y111.986 E4.28648
G1 X92.595 Y111.284 E4.32921
G1 X96.900 Y108.000 E4.52063
G1 E2.52063 F1200.00000
G92 E0
G1 X103.089 Y47.000 F6000.000
G1 E2.00000 F1200.00000
G1 F1800.000
G1 X105.660 Y49.232 E2.11754
G1 X107.177 Y50.610 E2.18832
G1 X108.615 Y51.992 E2.25719
G1 X109.976 Y53.387 E2.32447
G1 X111.261 Y54.810 E2.39067
G1 X112.453 Y56.257 E2.45544
G1 X113.550 Y57.741 E2.51916
G1 X114.545 Y59.269 E2.58211
G1 X115.428 Y60.840 E2.64433
G1 X116.206 Y62.483 E2.70712
G1 X116.870 Y64.172 E2.76977
G1 X117.424 Y65.906 E2.83264
