; generated by Slic3r 1.3.0 on 2020-08-21 at 15:26:27

; external perimeters extrusion width = 0.45mm (4.34mm^3/s)
; perimeters extrusion width = 0.45mm (5.78mm^3/s)
; infill extrusion width = 0.45mm (7.52mm^3/s)
; solid infill extrusion width = 0.45mm (2.31mm^3/s)
; top infill extrusion width = 0.45mm (1.74mm^3/s)

; external perimeters extrusion width = 0.45mm (4.34mm^3/s)
; perimeters extrusion width = 0.45mm (5.78mm^3/s)
; infill extrusion width = 0.45mm (7.52mm^3/s)
; solid infill extrusion width = 0.45mm (2.31mm^3/s)
; top infill extrusion width = 0.45mm (1.74mm^3/s)

;D3D:START:START
T0
M104 S215 T0

G21
G90
M107
T0
G28
G29
M109 T0 S215 T0
G0 F3000
M107
T0
G92 E0
G0 X0 Y149 Z0.1 F3600
G1 Y49 E6.5 F1200
G0 Z1
G92 E0
; Filament gcode

G21 ; set units to millimeters
G90 ; use absolute coordinates
M82 ; use absolute distances for extrusion
G92 E0
G1 Z0.300 F6000.000
G1 E-0.50000 F1200.00000
G92 E0
G1 X51.006 Y65.980 F6000.000
G1 E0.52000 F1200.00000
G1 F1080
G1 X52.916 Y65.389 E0.57406
G1 X59.032 Y64.948 E0.73982
G1 X66.019 Y64.476 E0.92917
G1 X71.064 Y64.159 E1.06584
G1 X75.540 Y63.909 E1.18705
G1 X78.541 Y63.769 E1.26827
G1 X82.158 Y63.635 E1.36613
G1 X84.940 Y63.557 E1.44137
G1 X87.572 Y63.518 E1.51255
G1 X89.485 Y63.523 E1.56425
G1 X91.275 Y63.563 E1.61266
G1 X92.957 Y63.645 E1.65821
G1 X94.466 Y63.767 E1.69912
G1 X95.517 Y63.889 E1.72774
G1 X96.818 Y64.099 E1.76338
G1 X97.688 Y64.289 E1.78745
G1 X98.527 Y64.524 E1.81099
G1 X99.366 Y64.830 E1.83516
G1 X100.047 Y65.149 E1.85548
G1 X100.686 Y65.529 E1.87557
G1 X101.147 Y65.867 E1.89103
G1 X101.628 Y66.298 E1.90848
G1 X102.098 Y66.830 E1.92769
G1 X102.539 Y67.491 E1.94917
G1 X102.855 Y68.150 E1.96893
G1 X102.907 Y68.288 E1.97292
G1 X103.144 Y69.175 E1.99774
G1 X103.221 Y70.000 E2.02015
G1 X103.160 Y70.877 E2.04391
G1 X101.134 Y81.030 E2.32384
G1 X100.386 Y82.755 E2.37468
G1 X98.994 Y84.020 E2.42553
G1 X97.084 Y84.611 E2.47959
G1 X91.519 Y85.013 E2.63042
G1 X84.669 Y85.479 E2.81605
G1 X79.673 Y85.796 E2.95141
G1 X75.205 Y86.052 E3.07242
G1 X72.206 Y86.199 E3.15360
G1 X68.561 Y86.341 E3.25222
G1 X65.746 Y86.427 E3.32836
G1 X63.076 Y86.477 E3.40056
G1 X61.135 Y86.482 E3.45304
G1 X59.311 Y86.454 E3.50236
G1 X57.591 Y86.387 E3.54888
G1 X55.983 Y86.275 E3.59248
G1 X54.971 Y86.172 E3.61997
G1 X54.006 Y86.043 E3.64630
G1 X53.081 Y85.881 E3.67168
G1 X52.317 Y85.713 E3.69284
G1 X51.474 Y85.476 E3.71652
G1 X50.866 Y85.263 E3.73393
G1 X50.206 Y84.978 E3.75336
G1 X49.769 Y84.750 E3.76670
G1 X49.318 Y84.474 E3.78099
G1 X48.853 Y84.133 E3.79658
G1 X48.375 Y83.706 E3.81391
G1 X47.903 Y83.172 E3.83317
G1 X47.461 Y82.509 E3.85472
G1 X47.147 Y81.854 E3.87436
G1 X46.883 Y80.969 E3.89932
G1 X46.779 Y80.000 E3.92568
G1 X46.840 Y79.123 E3.94944
G1 X48.866 Y68.970 E4.22937
G1 X49.614 Y67.245 E4.28021
G1 X50.962 Y66.020 E4.32944
G1 X51.211 Y66.135 F6000.000
G1 F1080
G1 X52.934 Y65.624 E4.37804
G1 X59.048 Y65.183 E4.54377
G1 X66.035 Y64.712 E4.73309
G1 X71.078 Y64.394 E4.86973
G1 X75.552 Y64.144 E4.99088
G1 X78.551 Y64.004 E5.07203
G1 X82.157 Y63.870 E5.16961
G1 X84.930 Y63.792 E5.24462
G1 X86.947 Y63.759 E5.29914
G1 X88.863 Y63.753 E5.35096
G1 X90.682 Y63.781 E5.40015
G1 X92.395 Y63.848 E5.44649
G1 X93.995 Y63.959 E5.48986
G1 X95.412 Y64.113 E5.52837
G1 X96.334 Y64.251 E5.55358
G1 X97.316 Y64.443 E5.58063
G1 X98.186 Y64.666 E5.60493
G1 X99.050 Y64.957 E5.62957
G1 X99.694 Y65.236 E5.64855
G1 X100.392 Y65.619 E5.67007
G1 X100.862 Y65.943 E5.68552
G1 X101.464 Y66.466 E5.70707
G1 X101.914 Y66.977 E5.72548
G1 X102.336 Y67.610 E5.74603
G1 X102.634 Y68.234 E5.76474
G1 X102.687 Y68.371 E5.76872
G1 X102.913 Y69.218 E5.79242
G1 X102.986 Y70.000 E5.81365
G1 X102.928 Y70.838 E5.83635
G1 X100.903 Y80.984 E6.11608
G1 X100.165 Y82.658 E6.16555
G1 X98.789 Y83.865 E6.21503
G1 X97.066 Y84.376 E6.26363
G1 X90.951 Y84.817 E6.42939
G1 X83.963 Y85.289 E6.61875
G1 X78.922 Y85.606 E6.75531
G1 X74.442 Y85.856 E6.87662
G1 X71.449 Y85.996 E6.95762
G1 X67.843 Y86.130 E7.05520
G1 X65.070 Y86.208 E7.13021
G1 X63.053 Y86.241 E7.18473
G1 X61.137 Y86.247 E7.23655
G1 X59.318 Y86.219 E7.28573
G1 X57.605 Y86.152 E7.33208
G1 X56.005 Y86.041 E7.37544
G1 X55.000 Y85.938 E7.40274
G1 X54.044 Y85.810 E7.42884
G1 X53.129 Y85.651 E7.45394
G1 X52.371 Y85.483 E7.47493
G1 X51.542 Y85.251 E7.49820
G1 X50.953 Y85.044 E7.51507
G1 X50.306 Y84.764 E7.53415
G1 X49.881 Y84.543 E7.54709
G1 X49.446 Y84.276 E7.56090
G1 X48.998 Y83.947 E7.57592
G1 X48.539 Y83.536 E7.59257
G1 X48.087 Y83.025 E7.61102
G1 X47.664 Y82.390 E7.63164
G1 X47.367 Y81.770 E7.65025
G1 X47.114 Y80.925 E7.67409
G1 X47.014 Y80.000 E7.69924
G1 X47.072 Y79.162 E7.72195
G1 X49.097 Y69.016 E8.00167
G1 X49.835 Y67.342 E8.05115
G1 X51.166 Y66.175 E8.09900
G1 E7.59900 F1200.00000
G92 E0
G1 X66.723 Y81.131 F6000.000
G1 E0.52000 F1200.00000
G1 F1080
G1 X66.323 Y81.106 E0.53082
G1 X66.116 Y81.052 E0.53662
G1 X65.753 Y80.882 E0.54744
G1 X65.584 Y80.759 E0.55312
G1 X65.431 Y80.615 E0.55879
G1 X65.193 Y80.287 E0.56974
G1 X65.043 Y79.910 E0.58072
G1 X65.002 Y79.672 E0.58725
G1 X65.003 Y79.295 E0.59745
G1 X65.105 Y78.898 E0.60851
G1 X65.300 Y78.543 E0.61946
G1 X65.437 Y78.378 E0.62527
G1 X65.746 Y78.123 E0.63609
G1 X65.934 Y78.020 E0.64189
G1 X66.314 Y77.896 E0.65271
G1 X66.527 Y77.869 E0.65851
G1 X66.927 Y77.894 E0.66933
G1 X67.134 Y77.948 E0.67513
G1 X67.501 Y78.120 E0.68608
G1 X67.817 Y78.381 E0.69716
G1 X68.055 Y78.709 E0.70811
G1 X68.144 Y78.899 E0.71378
G1 X68.209 Y79.098 E0.71946
G1 X68.260 Y79.500 E0.73041
G1 X68.209 Y79.902 E0.74135
G1 X68.144 Y80.101 E0.74703
G1 X68.055 Y80.291 E0.75270
G1 X67.817 Y80.619 E0.76365
G1 X67.504 Y80.877 E0.77460
G1 X67.316 Y80.980 E0.78040
G1 X66.936 Y81.104 E0.79122
G1 X66.782 Y81.123 E0.79540
G1 E0.29540 F1200.00000
G92 E0
G1 X54.033 Y81.339 F6000.000
G1 E0.52000 F1200.00000
G1 F1080
G1 X54.328 Y81.357 E0.52799
G1 X54.725 Y81.281 E0.53894
G1 X54.925 Y81.202 E0.54473
G1 X55.240 Y81.004 E0.55480
G1 X55.416 Y80.844 E0.56123
G1 X55.565 Y80.658 E0.56766
G1 X55.745 Y80.327 E0.57786
G1 X55.809 Y80.078 E0.58481
G1 X55.891 Y80.283 E0.59078
G1 X56.006 Y80.464 E0.59658
G1 X56.283 Y80.759 E0.60751
G1 X56.600 Y80.963 E0.61771
G1 X56.823 Y81.055 E0.62424
G1 X57.218 Y81.130 E0.63509
G1 X57.432 Y81.130 E0.64090
G1 X57.825 Y81.055 E0.65172
G1 X58.025 Y80.977 E0.65751
G1 X58.340 Y80.779 E0.66758
G1 X58.515 Y80.619 E0.67398
G1 X58.650 Y80.457 E0.67968
G1 X58.845 Y80.102 E0.69063
G1 X58.947 Y79.705 E0.70170
G1 X58.948 Y79.328 E0.71190
G1 X58.907 Y79.090 E0.71843
G1 X58.759 Y78.717 E0.72928
G1 X58.644 Y78.536 E0.73508
G1 X58.367 Y78.241 E0.74602
G1 X58.050 Y78.037 E0.75622
G1 X57.827 Y77.945 E0.76274
G1 X57.432 Y77.870 E0.77360
G1 X57.218 Y77.870 E0.77940
G1 X56.825 Y77.945 E0.79022
G1 X56.625 Y78.024 E0.79602
G1 X56.283 Y78.241 E0.80697
G1 X56.006 Y78.536 E0.81792
G1 X55.891 Y78.717 E0.82372
G1 X55.735 Y79.134 E0.83577
G1 X55.659 Y78.943 E0.84134
G1 X55.544 Y78.762 E0.84714
G1 X55.267 Y78.466 E0.85809
G1 X54.925 Y78.249 E0.86904
G1 X54.725 Y78.170 E0.87484
G1 X54.332 Y78.095 E0.88566
G1 X54.118 Y78.095 E0.89147
G1 X53.730 Y78.169 E0.90214
G1 X54.082 Y78.031 E0.91236
G1 X55.231 Y77.677 E0.94488
G1 X56.101 Y77.457 E0.96914
G1 X57.552 Y77.155 E1.00921
G1 X58.609 Y76.977 E1.03818
G1 X60.321 Y76.749 E1.08489
G1 X61.538 Y76.626 E1.11796
G1 X63.465 Y76.488 E1.17020
G1 X64.813 Y76.428 E1.20666
G1 X66.199 Y76.395 E1.24416
G1 X67.619 Y76.389 E1.28256
G1 X69.073 Y76.410 E1.32186
G1 X71.284 Y76.488 E1.38169
G1 X73.519 Y76.612 E1.44220
G1 X75.766 Y76.773 E1.50310
G1 X78.004 Y76.968 E1.56385
G1 X80.214 Y77.191 E1.62390
G1 X82.376 Y77.438 E1.68272
G1 X85.150 Y77.793 E1.75834
G1 X87.760 Y78.166 E1.82963
G1 X90.732 Y78.635 E1.91097
G1 X93.776 Y79.167 E1.99453
G1 X96.600 Y79.709 E2.07227
G1 X96.600 Y80.013 E2.08047
G1 X91.199 Y80.403 E2.22688
G1 X84.365 Y80.867 E2.41207
G1 X79.394 Y81.183 E2.54674
G1 X74.964 Y81.437 E2.66671
G1 X71.272 Y81.614 E2.76665
G1 X67.695 Y81.746 E2.86343
G1 X64.305 Y81.837 E2.95511
G1 X61.776 Y81.863 E3.02349
G1 X59.449 Y81.835 E3.08641
G1 X57.359 Y81.745 E3.14296
G1 X55.539 Y81.586 E3.19238
G1 X54.368 Y81.420 E3.22434
G1 X53.688 Y81.288 E3.24307
G1 X53.091 Y81.138 E3.25972
G1 X52.580 Y80.971 E3.27423
G1 X52.160 Y80.790 E3.28661
G1 X51.833 Y80.596 E3.29688
G1 X51.597 Y80.391 E3.30534
G1 X51.522 Y80.297 E3.30860
G1 X51.418 Y80.083 E3.31503
G1 X51.401 Y79.992 E3.31754
G1 X51.419 Y79.765 E3.32369
G1 X51.453 Y79.665 E3.32655
G1 X51.601 Y79.421 E3.33425
G1 X51.703 Y79.304 E3.33845
G1 X51.992 Y79.049 E3.34887
G1 X52.374 Y78.792 E3.36131
G1 X53.126 Y78.406 E3.38419
G1 X53.524 Y78.250 E3.39573
G1 X53.187 Y78.464 E3.40651
G1 X53.034 Y78.607 E3.41219
G1 X52.900 Y78.769 E3.41786
G1 X52.705 Y79.124 E3.42881
G1 X52.603 Y79.521 E3.43988
G1 X52.602 Y79.898 E3.45007
G1 X52.643 Y80.136 E3.45660
G1 X52.791 Y80.509 E3.46745
G1 X52.906 Y80.690 E3.47326
G1 X53.183 Y80.985 E3.48420
G1 X53.500 Y81.189 E3.49439
G1 X53.719 Y81.279 E3.50079
G1 X53.973 Y81.335 E3.50782
G1 E3.00782 F1200.00000
G92 E0
G1 X63.243 Y80.085 F6000.000
G1 E0.52000 F1200.00000
G1 F1080
G1 X63.243 Y80.419 E0.52908
G1 X64.925 Y78.737 E0.59364
G1 X64.884 Y78.811 E0.59593
G1 X64.780 Y79.216 E0.60729
G1 X63.243 Y80.754 E0.66630
G1 X63.243 Y81.088 E0.67538
G1 X64.767 Y79.564 E0.73386
G1 X64.766 Y79.692 E0.73731
G1 X64.797 Y79.869 E0.74219
G1 X63.243 Y81.423 E0.80183
G1 X63.243 Y81.612 E0.80697
G1 X63.389 Y81.611 E0.81094
G1 X64.875 Y80.125 E0.86796
G1 X64.970 Y80.365 E0.87496
G1 X63.727 Y81.607 E0.92264
G1 X64.065 Y81.604 E0.93182
G1 X65.103 Y80.565 E0.97166
G1 X65.244 Y80.759 E0.97816
G1 X64.405 Y81.598 E1.01037
G1 X64.748 Y81.589 E1.01970
G1 X65.415 Y80.923 E1.04527
G1 X65.606 Y81.066 E1.05175
G1 X65.092 Y81.580 E1.07148
G1 X65.436 Y81.571 E1.08081
G1 X65.829 Y81.178 E1.09589
G1 X66.060 Y81.281 E1.10276
G1 X65.779 Y81.562 E1.11352
G1 X66.123 Y81.553 E1.12285
G1 X66.333 Y81.343 E1.13091
G1 X66.648 Y81.362 E1.13947
G1 X66.467 Y81.543 E1.14642
G1 X66.810 Y81.534 E1.15575
G1 X67.020 Y81.324 E1.16381
G1 X67.410 Y81.198 E1.17494
G1 X67.568 Y81.111 E1.17983
G1 X67.154 Y81.525 E1.19573
G1 E0.69573 F1200.00000
G92 E0
G1 X63.243 Y76.740 F6000.000
G1 E0.52000 F1200.00000
G1 F1080
G1 X63.600 Y76.718 E0.52970
G1 X63.243 Y77.075 E0.54340
G1 X63.243 Y77.409 E0.55247
G1 X63.950 Y76.702 E0.57960
G1 X64.300 Y76.687 E0.58911
G1 X63.243 Y77.744 E0.62967
G1 X63.243 Y78.078 E0.63875
G1 X64.650 Y76.671 E0.69274
G1 X64.996 Y76.659 E0.70215
G1 X63.243 Y78.412 E0.76943
G1 X63.243 Y78.747 E0.77850
G1 X65.338 Y76.651 E0.85893
G1 X65.681 Y76.643 E0.86824
G1 X63.243 Y79.081 E0.96182
G1 X63.243 Y79.416 E0.97089
G1 X66.024 Y76.635 E1.07762
G1 X66.363 Y76.630 E1.08683
G1 X63.243 Y79.750 E1.20659
G1 X63.243 Y80.085 E1.21567
G1 X66.699 Y76.629 E1.34832
G1 X67.035 Y76.627 E1.35743
G1 X65.869 Y77.793 E1.40217
G1 X66.263 Y77.665 E1.41339
G1 X66.342 Y77.655 E1.41555
G1 X67.371 Y76.626 E1.45506
G1 X67.705 Y76.626 E1.46413
G1 X66.688 Y77.643 E1.50317
G1 X66.997 Y77.669 E1.51158
G1 X68.035 Y76.630 E1.55143
G1 X68.365 Y76.635 E1.56038
G1 X67.256 Y77.744 E1.60294
G1 X67.483 Y77.851 E1.60976
G1 X68.694 Y76.640 E1.65625
G1 X69.024 Y76.645 E1.66520
G1 X67.694 Y77.974 E1.71624
G1 X67.878 Y78.126 E1.72269
G1 X69.348 Y76.655 E1.77913
G1 X69.671 Y76.667 E1.78790
G1 X68.044 Y78.294 E1.85034
G1 X68.185 Y78.487 E1.85683
G1 X69.994 Y76.678 E1.92627
G1 X70.317 Y76.690 E1.93504
G1 X68.309 Y78.697 E2.01208
G1 X68.404 Y78.937 E2.01908
G1 X70.640 Y76.701 E2.10489
G1 X70.963 Y76.713 E2.11366
G1 X68.461 Y79.215 E2.20968
G1 X68.495 Y79.515 E2.21788
G1 X71.286 Y76.724 E2.32498
G1 X71.603 Y76.742 E2.33360
G1 X68.447 Y79.898 E2.45472
G1 X68.363 Y80.188 E2.46292
G1 X68.234 Y80.445 E2.47071
G1 X71.920 Y76.759 E2.61216
G1 X72.237 Y76.777 E2.62077
G1 X67.498 Y81.516 E2.80265
G1 X67.843 Y81.505 E2.81203
G1 X72.554 Y76.794 E2.99283
G1 X72.871 Y76.812 E3.00144
G1 X68.190 Y81.492 E3.18107
G1 X68.537 Y81.479 E3.19051
G1 X73.188 Y76.829 E3.36898
G1 X73.505 Y76.847 E3.37759
G1 X68.885 Y81.467 E3.55490
G1 X69.232 Y81.454 E3.56433
G1 X73.817 Y76.869 E3.74028
G1 X74.129 Y76.892 E3.74877
G1 X69.579 Y81.441 E3.92337
G1 X69.927 Y81.428 E3.93280
G1 X74.441 Y76.914 E4.10604
G1 X74.753 Y76.936 E4.11453
G1 X70.274 Y81.415 E4.28642
G1 X70.621 Y81.402 E4.29586
G1 X75.065 Y76.959 E4.46639
G1 X75.377 Y76.981 E4.47488
G1 X70.969 Y81.389 E4.64407
G1 X71.317 Y81.376 E4.65352
G1 X75.689 Y77.004 E4.82132
G1 X75.997 Y77.030 E4.82972
G1 X71.668 Y81.359 E4.99589
G1 X72.019 Y81.342 E5.00543
G1 X76.305 Y77.056 E5.16992
G1 X76.613 Y77.083 E5.17830
G1 X72.370 Y81.326 E5.34112
G1 X72.722 Y81.309 E5.35066
G1 X76.920 Y77.110 E5.51181
G1 X77.228 Y77.137 E5.52019
G1 X73.073 Y81.292 E5.67966
G1 X73.424 Y81.275 E5.68920
G1 X77.536 Y77.164 E5.84700
G1 X77.843 Y77.190 E5.85538
G1 X73.776 Y81.258 E6.01150
G1 X74.127 Y81.242 E6.02105
G1 X78.149 Y77.219 E6.17542
G1 X78.453 Y77.250 E6.18370
G1 X74.478 Y81.225 E6.33625
G1 X74.829 Y81.208 E6.34579
G1 X78.756 Y77.281 E6.49651
G1 X79.060 Y77.312 E6.50479
G1 X75.183 Y81.189 E6.65360
G1 X75.538 Y81.168 E6.66325
G1 X79.364 Y77.342 E6.81009
G1 X79.668 Y77.373 E6.81838
G1 X75.893 Y81.148 E6.96327
G1 X76.247 Y81.128 E6.97291
G1 X79.971 Y77.404 E7.11584
G1 X80.274 Y77.435 E7.12410
G1 X76.602 Y81.107 E7.26503
G1 X76.957 Y81.087 E7.27468
G1 X80.574 Y77.470 E7.41351
G1 X80.875 Y77.504 E7.42171
G1 X77.312 Y81.067 E7.55846
G1 X77.667 Y81.046 E7.56810
G1 X81.175 Y77.538 E7.70275
G1 X81.475 Y77.572 E7.71095
G1 X78.021 Y81.026 E7.84350
G1 X78.376 Y81.006 E7.85314
G1 X81.775 Y77.607 E7.98360
G1 X82.076 Y77.641 E7.99180
G1 X78.731 Y80.985 E8.12016
G1 X79.086 Y80.965 E8.12980
G1 X82.375 Y77.675 E8.25605
G1 X82.672 Y77.713 E8.26416
G1 X79.441 Y80.944 E8.38816
G1 X79.798 Y80.922 E8.39788
G1 X82.968 Y77.751 E8.51955
G1 X83.265 Y77.789 E8.52766
G1 X80.155 Y80.899 E8.64700
G1 X80.513 Y80.876 E8.65671
G1 X83.561 Y77.827 E8.77372
G1 X83.858 Y77.865 E8.78184
G1 X80.870 Y80.853 E8.89652
G1 X81.227 Y80.831 E8.90623
G1 X84.154 Y77.903 E9.01859
G1 X84.451 Y77.941 E9.02670
G1 X81.584 Y80.808 E9.13673
G1 X81.941 Y80.785 E9.14644
G1 X84.747 Y77.979 E9.25414
G1 X85.044 Y78.017 E9.26225
G1 X82.298 Y80.763 E9.36762
G1 X82.656 Y80.740 E9.37733
G1 X85.338 Y78.058 E9.48026
G1 X85.630 Y78.100 E9.48828
G1 X83.013 Y80.717 E9.58874
G1 X83.370 Y80.694 E9.59845
G1 X85.923 Y78.142 E9.69643
G1 X86.216 Y78.183 E9.70445
G1 X83.727 Y80.672 E9.79996
G1 X84.084 Y80.649 E9.80967
G1 X86.508 Y78.225 E9.90270
G1 X86.801 Y78.267 E9.91072
G1 X84.442 Y80.626 E10.00126
G1 X84.801 Y80.602 E10.01102
G1 X87.094 Y78.309 E10.09901
G1 X87.386 Y78.351 E10.10704
G1 X85.160 Y80.577 E10.19249
G1 X85.518 Y80.553 E10.20225
G1 X87.679 Y78.392 E10.28517
G1 X87.968 Y78.437 E10.29312
G1 X85.877 Y80.528 E10.37338
G1 X86.236 Y80.504 E10.38314
G1 X88.257 Y78.483 E10.46070
G1 X88.546 Y78.529 E10.46864
G1 X86.595 Y80.480 E10.54352
G1 X86.954 Y80.455 E10.55328
G1 X88.835 Y78.574 E10.62548
G1 X89.124 Y78.620 E10.63341
G1 X87.313 Y80.431 E10.70292
G1 X87.671 Y80.407 E10.71268
G1 X89.413 Y78.665 E10.77950
G1 X89.701 Y78.711 E10.78744
G1 X88.030 Y80.382 E10.85157
G1 X88.389 Y80.358 E10.86134
G1 X89.990 Y78.757 E10.92278
G1 X90.279 Y78.802 E10.93072
G1 X88.748 Y80.333 E10.98948
G1 X89.107 Y80.309 E10.99924
G1 X90.568 Y78.848 E11.05532
G1 X90.854 Y78.896 E11.06320
G1 X89.466 Y80.285 E11.11650
G1 X89.825 Y80.260 E11.12626
G1 X91.139 Y78.946 E11.17672
G1 X91.424 Y78.995 E11.18456
G1 X90.183 Y80.236 E11.23217
G1 X90.542 Y80.212 E11.24193
G1 X91.709 Y79.045 E11.28670
G1 X91.993 Y79.095 E11.29455
G1 X90.901 Y80.187 E11.33647
G1 X91.260 Y80.162 E11.34624
G1 X92.278 Y79.145 E11.38531
G1 X92.563 Y79.194 E11.39315
G1 X91.621 Y80.136 E11.42931
G1 X91.981 Y80.110 E11.43912
G1 X92.848 Y79.244 E11.47237
G1 X93.132 Y79.294 E11.48021
G1 X92.342 Y80.084 E11.51055
G1 X92.702 Y80.058 E11.52036
G1 X93.417 Y79.344 E11.54780
G1 X93.702 Y79.393 E11.55564
G1 X93.063 Y80.032 E11.58017
G1 X93.423 Y80.006 E11.58998
G1 X93.983 Y79.447 E11.61145
G1 X94.263 Y79.501 E11.61920
G1 X93.784 Y79.980 E11.63761
G1 X94.144 Y79.954 E11.64742
G1 X94.544 Y79.554 E11.66276
G1 X94.825 Y79.608 E11.67052
G1 X94.505 Y79.928 E11.68279
G1 X94.865 Y79.902 E11.69260
