; generated by Slic3r 1.3.1-dev (Build (Unknown revision)) on 2020-05-21 at 22:24:22

; external perimeters extrusion width = 0.44mm (2.86mm^3/s)
; perimeters extrusion width = 0.56mm (4.14mm^3/s)
; infill extrusion width = 0.50mm (5.48mm^3/s)
; solid infill extrusion width = 0.56mm (3.10mm^3/s)
; top infill extrusion width = 0.45mm (2.44mm^3/s)

M107
G92 E0
;D3D:START:START
T0
M104 S215 T0

G21
G90
M107
T0
G28
G29
M109 T0 S215 T0
G0 F3000
M107
T0
G92 E0
G0 X0 Y149 Z0.1 F3600
G1 Y49 E6.5 F1200
G0 Z1
G92 E0
; Filament gcode

G21 ; set units to millimeters
G90 ; use absolute coordinates
M82 ; use absolute distances for extrusion
G92 E0
G1 Z0.200 F6000.000
G1 E-2.00000 F1200.00000
G92 E0
G1 X39.848 Y34.257 F6000.000
G1 E2.00000 F1200.00000
G1 F1800.000
G1 X40.305 Y33.750 E2.01314
G1 X40.636 Y33.419 E2.02214
G1 X58.628 Y17.189 E2.48831
G1 X58.998 Y16.889 E2.49748
G1 X60.013 Y16.152 E2.52161
G1 X60.831 Y15.680 E2.53977
G1 X61.977 Y15.170 E2.56390
G1 X62.874 Y14.878 E2.58205
G1 X64.101 Y14.617 E2.60618
G1 X65.018 Y14.519 E2.62394
G1 X126.313 Y14.234 E3.80317
G1 X128.162 Y14.621 E3.83953
G1 X129.692 Y15.731 E3.87588
G1 X130.632 Y17.370 E3.91224
G1 X130.848 Y18.748 E3.93907
G1 X130.848 Y131.252 E6.10349
G1 X130.452 Y133.100 E6.13984
G1 X129.335 Y134.624 E6.17620
G1 X127.691 Y135.557 E6.21256
G1 X126.313 Y135.766 E6.23939
G1 X65.018 Y135.481 E7.41862
G1 X64.101 Y135.383 E7.43637
G1 X62.874 Y135.122 E7.46050
G1 X61.977 Y134.830 E7.47865
G1 X60.831 Y134.320 E7.50278
G1 X60.013 Y133.848 E7.52094
G1 X58.998 Y133.111 E7.54508
G1 X58.628 Y132.811 E7.55424
G1 X40.636 Y116.581 E8.02041
G1 X40.305 Y116.250 E8.02941
G1 X39.885 Y115.784 E8.04148
G1 X21.039 Y94.330 E8.59086
G1 X20.521 Y93.608 E8.60796
G1 X20.103 Y92.884 E8.62404
G1 X19.719 Y92.022 E8.64220
G1 X19.461 Y91.227 E8.65829
G1 X19.264 Y90.303 E8.67644
G1 X19.177 Y89.472 E8.69253
G1 X19.152 Y89.000 E8.70162
G1 X19.152 Y61.000 E9.24030
G1 X19.177 Y60.528 E9.24939
G1 X19.264 Y59.697 E9.26548
G1 X19.461 Y58.773 E9.28364
G1 X19.719 Y57.978 E9.29972
G1 X20.103 Y57.116 E9.31788
G1 X20.521 Y56.392 E9.33397
G1 X21.039 Y55.670 E9.35106
G1 X39.808 Y34.303 E9.89821
G1 X40.041 Y34.427 F6000.000
G1 F1800.000
G1 X40.496 Y33.922 E9.91130
G1 X40.808 Y33.609 E9.91979
G1 X58.800 Y17.380 E10.38595
G1 X59.149 Y17.097 E10.39460
G1 X60.164 Y16.360 E10.41873
G1 X60.935 Y15.915 E10.43586
G1 X62.081 Y15.405 E10.45999
G1 X62.927 Y15.130 E10.47710
G1 X64.154 Y14.869 E10.50123
G1 X65.020 Y14.776 E10.51798
G1 X126.314 Y14.491 E11.69721
G1 X128.107 Y14.878 E11.73250
G1 X129.571 Y15.984 E11.76780
G1 X130.434 Y17.603 E11.80309
G1 X130.591 Y18.748 E11.82533
G1 X130.591 Y131.252 E13.98975
G1 X130.195 Y133.043 E14.02504
G1 X129.083 Y134.502 E14.06034
G1 X127.460 Y135.357 E14.09563
G1 X126.314 Y135.509 E14.11787
G1 X65.020 Y135.224 E15.29710
G1 X64.154 Y135.131 E15.31384
G1 X62.927 Y134.870 E15.33798
G1 X62.081 Y134.595 E15.35509
G1 X60.935 Y134.085 E15.37922
G1 X60.164 Y133.640 E15.39635
G1 X59.149 Y132.903 E15.42048
G1 X58.800 Y132.620 E15.42913
G1 X40.808 Y116.390 E15.89529
G1 X40.496 Y116.078 E15.90378
G1 X40.076 Y115.612 E15.91585
G1 X21.232 Y94.161 E16.46517
G1 X20.744 Y93.480 E16.48129
G1 X20.326 Y92.755 E16.49738
G1 X19.964 Y91.942 E16.51450
G1 X19.705 Y91.147 E16.53059
G1 X19.520 Y90.277 E16.54771
G1 X19.433 Y89.445 E16.56380
G1 X19.409 Y89.000 E16.57237
G1 X19.409 Y61.000 E17.11105
G1 X19.433 Y60.555 E17.11963
G1 X19.520 Y59.723 E17.13571
G1 X19.705 Y58.853 E17.15284
G1 X19.964 Y58.058 E17.16892
G1 X20.326 Y57.245 E17.18605
G1 X20.744 Y56.520 E17.20213
G1 X21.232 Y55.839 E17.21825
G1 X40.001 Y34.472 E17.76541
G1 E15.76541 F1200.00000
G92 E0
G1 X54.509 Y113.339 F6000.000
G1 E2.00000 F1200.00000
G1 F1800.000
G1 X78.824 Y113.339 E2.46779
G1 X79.222 Y113.468 E2.47583
G1 X79.476 Y113.653 E2.48189
G1 X79.744 Y114.020 E2.49063
G1 X79.845 Y114.500 E2.50007
G1 X79.744 Y114.980 E2.50950
G1 X79.499 Y115.316 E2.51750
G1 X67.396 Y126.410 E2.83337
G1 X67.031 Y126.621 E2.84148
G1 X66.543 Y126.673 E2.85092
G1 X66.111 Y126.532 E2.85965
G1 X65.911 Y126.387 E2.86441
G1 X53.834 Y115.316 E3.17961
G1 X53.611 Y115.009 E3.18692
G1 X53.513 Y114.709 E3.19298
G1 X53.513 Y114.291 E3.20103
G1 X53.611 Y113.991 E3.20709
G1 X53.857 Y113.653 E3.21514
G1 X54.111 Y113.468 E3.22119
G1 X54.452 Y113.357 E3.22808
G1 X53.842 Y114.109 F6000.000
G1 F1800.000
G1 X54.041 Y113.837 E3.23457
G1 X54.229 Y113.700 E3.23906
G1 X54.550 Y113.596 E3.24554
G1 X78.783 Y113.596 E3.71176
G1 X79.104 Y113.700 E3.71824
G1 X79.292 Y113.837 E3.72273
G1 X79.504 Y114.127 E3.72963
G1 X79.583 Y114.500 E3.73696
G1 X79.504 Y114.873 E3.74429
G1 X79.306 Y115.144 E3.75075
G1 X67.243 Y126.202 E4.06558
G1 X66.950 Y126.371 E4.07210
G1 X66.571 Y126.411 E4.07943
G1 X66.229 Y126.300 E4.08633
G1 X66.074 Y126.187 E4.09003
G1 X54.027 Y115.144 E4.40444
G1 X53.842 Y114.890 E4.41047
G1 X53.770 Y114.668 E4.41497
G1 X53.770 Y114.332 E4.42145
G1 X53.824 Y114.167 E4.42478
G1 X54.074 Y114.228 F6000.000
G1 F1800.000
G1 X54.225 Y114.021 E4.42970
G1 X54.348 Y113.932 E4.43262
G1 X54.590 Y113.853 E4.43754
G1 X78.743 Y113.853 E4.90219
G1 X78.985 Y113.932 E4.90710
G1 X79.108 Y114.021 E4.91003
G1 X79.263 Y114.234 E4.91510
G1 X79.320 Y114.500 E4.92033
G1 X79.263 Y114.766 E4.92555
G1 X79.114 Y114.972 E4.93046
G1 X67.090 Y125.993 E5.24425
G1 X66.868 Y126.121 E5.24918
G1 X66.598 Y126.150 E5.25440
G1 X66.348 Y126.068 E5.25947
G1 X66.237 Y125.988 E5.26210
G1 X54.219 Y114.972 E5.57574
G1 X54.074 Y114.772 E5.58049
G1 X54.027 Y114.628 E5.58342
G1 X54.027 Y114.372 E5.58833
G1 X54.056 Y114.285 E5.59010
G1 X53.932 Y114.015 F6000.000
G1 E3.59010 F1200.00000
G92 E0
G1 X52.111 Y111.746 F6000.000
G1 E2.00000 F1200.00000
G1 F1800.000
G1 X51.880 Y111.913 E2.00547
G1 X51.631 Y112.050 E2.01095
G1 X51.367 Y112.155 E2.01642
G1 X51.091 Y112.225 E2.02190
G1 X50.809 Y112.261 E2.02737
G1 X50.524 Y112.261 E2.03284
G1 X50.242 Y112.225 E2.03831
G1 X49.966 Y112.155 E2.04379
G1 X49.702 Y112.050 E2.04926
G1 X49.453 Y111.913 E2.05473
G1 X49.223 Y111.746 E2.06021
G1 X49.015 Y111.551 E2.06568
G1 X48.834 Y111.332 E2.07115
G1 X48.681 Y111.091 E2.07663
G1 X48.560 Y110.834 E2.08210
G1 X48.472 Y110.563 E2.08757
G1 X48.419 Y110.284 E2.09305
G1 X48.401 Y110.000 E2.09852
G1 X48.419 Y109.716 E2.10399
G1 X48.472 Y109.437 E2.10947
G1 X48.560 Y109.166 E2.11494
G1 X48.681 Y108.909 E2.12041
G1 X48.834 Y108.668 E2.12589
G1 X49.015 Y108.449 E2.13136
G1 X49.223 Y108.254 E2.13684
G1 X49.453 Y108.087 E2.14231
G1 X49.702 Y107.950 E2.14778
G1 X49.966 Y107.845 E2.15325
G1 X50.242 Y107.775 E2.15873
G1 X50.524 Y107.739 E2.16420
G1 X50.809 Y107.739 E2.16967
G1 X51.091 Y107.775 E2.17515
G1 X51.367 Y107.845 E2.18062
G1 X51.631 Y107.950 E2.18610
G1 X51.880 Y108.087 E2.19157
G1 X52.111 Y108.254 E2.19704
G1 X52.318 Y108.449 E2.20251
G1 X52.499 Y108.668 E2.20799
G1 X52.652 Y108.909 E2.21346
G1 X52.773 Y109.166 E2.21894
G1 X52.861 Y109.437 E2.22441
G1 X52.914 Y109.716 E2.22988
G1 X52.932 Y110.000 E2.23536
G1 X52.914 Y110.284 E2.24083
G1 X52.861 Y110.563 E2.24630
G1 X52.773 Y110.834 E2.25177
G1 X52.652 Y111.091 E2.25725
G1 X52.499 Y111.332 E2.26272
G1 X52.318 Y111.551 E2.26820
G1 X52.154 Y111.704 E2.27251
G1 X51.946 Y111.547 F6000.000
G1 F1800.000
G1 X51.742 Y111.695 E2.27737
G1 X51.521 Y111.817 E2.28222
G1 X51.287 Y111.910 E2.28707
G1 X51.043 Y111.972 E2.29192
G1 X50.793 Y112.004 E2.29677
G1 X50.540 Y112.004 E2.30162
G1 X50.290 Y111.972 E2.30647
G1 X50.046 Y111.910 E2.31132
G1 X49.812 Y111.817 E2.31617
G1 X49.591 Y111.695 E2.32102
G1 X49.387 Y111.547 E2.32587
G1 X49.203 Y111.375 E2.33073
G1 X49.042 Y111.180 E2.33558
G1 X48.907 Y110.967 E2.34043
G1 X48.800 Y110.739 E2.34528
G1 X48.722 Y110.499 E2.35013
G1 X48.674 Y110.252 E2.35498
G1 X48.659 Y110.000 E2.35983
G1 X48.674 Y109.748 E2.36468
G1 X48.722 Y109.501 E2.36954
G1 X48.800 Y109.261 E2.37439
G1 X48.907 Y109.033 E2.37924
G1 X49.042 Y108.820 E2.38409
G1 X49.203 Y108.625 E2.38894
G1 X49.387 Y108.453 E2.39379
G1 X49.591 Y108.305 E2.39864
G1 X49.812 Y108.183 E2.40349
G1 X50.046 Y108.090 E2.40834
G1 X50.290 Y108.028 E2.41320
G1 X50.540 Y107.996 E2.41805
G1 X50.793 Y107.996 E2.42290
G1 X51.043 Y108.028 E2.42775
G1 X51.287 Y108.090 E2.43260
G1 X51.521 Y108.183 E2.43745
G1 X51.742 Y108.305 E2.44230
G1 X51.946 Y108.453 E2.44715
G1 X52.130 Y108.625 E2.45200
G1 X52.291 Y108.820 E2.45685
G1 X52.426 Y109.033 E2.46171
G1 X52.533 Y109.261 E2.46656
G1 X52.611 Y109.501 E2.47141
G1 X52.659 Y109.748 E2.47626
G1 X52.674 Y110.000 E2.48111
G1 X52.659 Y110.252 E2.48596
G1 X52.611 Y110.499 E2.49081
G1 X52.533 Y110.739 E2.49566
G1 X52.426 Y110.967 E2.50051
G1 X52.291 Y111.180 E2.50537
G1 X52.130 Y111.375 E2.51022
G1 X51.990 Y111.506 E2.51391
G1 X51.782 Y111.349 F6000.000
G1 F1800.000
G1 X51.604 Y111.478 E2.51814
G1 X51.412 Y111.584 E2.52237
G1 X51.207 Y111.665 E2.52660
G1 X50.994 Y111.719 E2.53083
G1 X50.776 Y111.747 E2.53506
G1 X50.557 Y111.747 E2.53928
G1 X50.339 Y111.719 E2.54351
G1 X50.126 Y111.665 E2.54774
G1 X49.921 Y111.584 E2.55197
G1 X49.729 Y111.478 E2.55620
G1 X49.551 Y111.349 E2.56043
G1 X49.391 Y111.198 E2.56466
G1 X49.250 Y111.029 E2.56889
G1 X49.133 Y110.843 E2.57311
G1 X49.039 Y110.644 E2.57734
G1 X48.971 Y110.435 E2.58157
G1 X48.930 Y110.219 E2.58580
G1 X48.916 Y110.000 E2.59003
G1 X48.930 Y109.781 E2.59426
G1 X48.971 Y109.565 E2.59849
G1 X49.039 Y109.356 E2.60272
G1 X49.133 Y109.157 E2.60694
G1 X49.250 Y108.971 E2.61117
G1 X49.391 Y108.802 E2.61540
G1 X49.551 Y108.651 E2.61963
G1 X49.729 Y108.522 E2.62386
G1 X49.921 Y108.416 E2.62809
G1 X50.126 Y108.335 E2.63232
G1 X50.339 Y108.281 E2.63655
G1 X50.557 Y108.253 E2.64077
G1 X50.776 Y108.253 E2.64500
G1 X50.994 Y108.281 E2.64923
G1 X51.207 Y108.335 E2.65346
G1 X51.412 Y108.416 E2.65769
G1 X51.604 Y108.522 E2.66192
G1 X51.782 Y108.651 E2.66615
G1 X51.942 Y108.802 E2.67037
G1 X52.082 Y108.971 E2.67460
G1 X52.200 Y109.157 E2.67883
G1 X52.294 Y109.356 E2.68306
G1 X52.362 Y109.565 E2.68729
G1 X52.403 Y109.781 E2.69152
G1 X52.417 Y110.000 E2.69575
G1 X52.403 Y110.219 E2.69998
G1 X52.362 Y110.435 E2.70420
G1 X52.294 Y110.644 E2.70843
G1 X52.200 Y110.843 E2.71266
G1 X52.082 Y111.029 E2.71689
G1 X51.826 Y111.308 E2.72418
G1 X51.819 Y111.565 F6000.000
G1 E0.72418 F1200.00000
G92 E0
G1 X58.419 Y110.284 F6000.000
G1 E2.00000 F1200.00000
G1 F1800.000
G1 X58.401 Y110.000 E2.00547
G1 X58.419 Y109.716 E2.01095
G1 X58.472 Y109.437 E2.01642
G1 X58.560 Y109.166 E2.02189
G1 X58.681 Y108.909 E2.02737
G1 X58.834 Y108.668 E2.03284
G1 X59.015 Y108.449 E2.03831
G1 X59.223 Y108.254 E2.04379
G1 X59.453 Y108.087 E2.04926
G1 X59.702 Y107.950 E2.05473
G1 X59.966 Y107.845 E2.06021
G1 X60.242 Y107.775 E2.06568
G1 X60.524 Y107.739 E2.07116
G1 X60.809 Y107.739 E2.07663
G1 X61.091 Y107.775 E2.08210
G1 X61.367 Y107.845 E2.08758
G1 X61.631 Y107.950 E2.09305
G1 X61.880 Y108.087 E2.09852
G1 X62.111 Y108.254 E2.10399
G1 X62.318 Y108.449 E2.10947
G1 X62.499 Y108.668 E2.11494
G1 X62.652 Y108.909 E2.12042
G1 X62.773 Y109.166 E2.12589
G1 X62.861 Y109.437 E2.13136
G1 X62.914 Y109.716 E2.13683
G1 X62.932 Y110.000 E2.14231
G1 X62.914 Y110.284 E2.14778
G1 X62.861 Y110.563 E2.15326
G1 X62.773 Y110.834 E2.15873
G1 X62.652 Y111.091 E2.16420
G1 X62.499 Y111.332 E2.16968
G1 X62.318 Y111.551 E2.17515
G1 X62.111 Y111.746 E2.18062
G1 X61.880 Y111.913 E2.18610
G1 X61.631 Y112.050 E2.19157
G1 X61.367 Y112.155 E2.19704
G1 X61.091 Y112.225 E2.20252
G1 X60.809 Y112.261 E2.20799
G1 X60.524 Y112.261 E2.21346
G1 X60.242 Y112.225 E2.21893
G1 X59.966 Y112.155 E2.22441
G1 X59.702 Y112.050 E2.22988
G1 X59.453 Y111.913 E2.23535
G1 X59.223 Y111.746 E2.24083
G1 X59.015 Y111.551 E2.24630
G1 X58.834 Y111.332 E2.25178
G1 X58.681 Y111.091 E2.25725
G1 X58.560 Y110.834 E2.26272
G1 X58.472 Y110.563 E2.26819
G1 X58.430 Y110.343 E2.27251
G1 X58.674 Y110.252 F6000.000
G1 F1800.000
G1 X58.659 Y110.000 E2.27737
G1 X58.674 Y109.748 E2.28222
G1 X58.722 Y109.501 E2.28707
G1 X58.800 Y109.261 E2.29192
G1 X58.907 Y109.033 E2.29677
G1 X59.042 Y108.820 E2.30162
G1 X59.203 Y108.625 E2.30647
G1 X59.387 Y108.453 E2.31132
G1 X59.591 Y108.305 E2.31617
G1 X59.812 Y108.183 E2.32102
G1 X60.046 Y108.090 E2.32587
G1 X60.290 Y108.028 E2.33073
G1 X60.540 Y107.996 E2.33558
G1 X60.793 Y107.996 E2.34043
G1 X61.043 Y108.028 E2.34528
G1 X61.287 Y108.090 E2.35013
G1 X61.521 Y108.183 E2.35498
G1 X61.742 Y108.305 E2.35983
G1 X61.946 Y108.453 E2.36468
G1 X62.130 Y108.625 E2.36953
G1 X62.291 Y108.820 E2.37438
G1 X62.426 Y109.033 E2.37924
G1 X62.533 Y109.261 E2.38409
G1 X62.611 Y109.501 E2.38894
G1 X62.659 Y109.748 E2.39379
G1 X62.674 Y110.000 E2.39864
G1 X62.659 Y110.252 E2.40349
G1 X62.611 Y110.499 E2.40834
G1 X62.533 Y110.739 E2.41319
G1 X62.426 Y110.967 E2.41804
G1 X62.291 Y111.180 E2.42290
G1 X62.130 Y111.375 E2.42775
G1 X61.946 Y111.547 E2.43260
G1 X61.742 Y111.695 E2.43745
G1 X61.521 Y111.817 E2.44230
G1 X61.287 Y111.910 E2.44715
G1 X61.043 Y111.972 E2.45200
G1 X60.793 Y112.004 E2.45685
G1 X60.540 Y112.004 E2.46170
G1 X60.290 Y111.972 E2.46655
G1 X60.046 Y111.910 E2.47141
G1 X59.812 Y111.817 E2.47626
G1 X59.591 Y111.695 E2.48111
G1 X59.387 Y111.547 E2.48596
G1 X59.203 Y111.375 E2.49081
G1 X59.042 Y111.180 E2.49566
G1 X58.907 Y110.967 E2.50051
G1 X58.800 Y110.739 E2.50536
G1 X58.722 Y110.499 E2.51021
G1 X58.686 Y110.311 E2.51391
G1 X58.930 Y110.219 F6000.000
G1 F1800.000
G1 X58.916 Y110.000 E2.51814
G1 X58.930 Y109.781 E2.52237
G1 X58.971 Y109.565 E2.52660
G1 X59.039 Y109.356 E2.53083
G1 X59.133 Y109.157 E2.53505
G1 X59.250 Y108.971 E2.53928
G1 X59.391 Y108.802 E2.54351
G1 X59.551 Y108.651 E2.54774
G1 X59.729 Y108.522 E2.55197
G1 X59.921 Y108.416 E2.55620
G1 X60.126 Y108.335 E2.56043
G1 X60.339 Y108.281 E2.56466
G1 X60.557 Y108.253 E2.56888
G1 X60.776 Y108.253 E2.57311
G1 X60.994 Y108.281 E2.57734
G1 X61.207 Y108.335 E2.58157
G1 X61.412 Y108.416 E2.58580
G1 X61.604 Y108.522 E2.59003
G1 X61.782 Y108.651 E2.59426
G1 X61.942 Y108.802 E2.59848
G1 X62.082 Y108.971 E2.60271
G1 X62.200 Y109.157 E2.60694
G1 X62.294 Y109.356 E2.61117
G1 X62.362 Y109.565 E2.61540
G1 X62.403 Y109.781 E2.61963
G1 X62.417 Y110.000 E2.62386
G1 X62.403 Y110.219 E2.62809
G1 X62.362 Y110.435 E2.63232
G1 X62.294 Y110.644 E2.63654
G1 X62.200 Y110.843 E2.64077
G1 X62.082 Y111.029 E2.64500
G1 X61.942 Y111.198 E2.64923
G1 X61.782 Y111.349 E2.65346
G1 X61.604 Y111.478 E2.65769
G1 X61.412 Y111.584 E2.66192
G1 X61.207 Y111.665 E2.66614
G1 X60.994 Y111.719 E2.67037
G1 X60.776 Y111.747 E2.67460
G1 X60.557 Y111.747 E2.67883
G1 X60.339 Y111.719 E2.68306
G1 X60.126 Y111.665 E2.68729
G1 X59.921 Y111.584 E2.69152
G1 X59.729 Y111.478 E2.69575
G1 X59.551 Y111.349 E2.69997
G1 X59.391 Y111.198 E2.70420
G1 X59.250 Y111.029 E2.70843
G1 X59.133 Y110.843 E2.71266
G1 X59.039 Y110.644 E2.71689
G1 X58.941 Y110.278 E2.72418
G1 X58.727 Y110.134 F6000.000
G1 E0.72418 F1200.00000
G92 E0
G1 X68.401 Y110.000 F6000.000
G1 E2.00000 F1200.00000
G1 F1800.000
G1 X68.419 Y109.716 E2.00547
G1 X68.472 Y109.437 E2.01095
G1 X68.560 Y109.166 E2.01642
G1 X68.681 Y108.909 E2.02189
G1 X68.834 Y108.668 E2.02737
G1 X69.015 Y108.449 E2.03284
G1 X69.223 Y108.254 E2.03832
G1 X69.453 Y108.087 E2.04379
G1 X69.702 Y107.950 E2.04926
G1 X69.966 Y107.845 E2.05473
G1 X70.242 Y107.775 E2.06021
G1 X70.524 Y107.739 E2.06568
G1 X70.809 Y107.739 E2.07115
G1 X71.091 Y107.775 E2.07663
G1 X71.367 Y107.845 E2.08210
G1 X71.631 Y107.950 E2.08757
G1 X71.880 Y108.087 E2.09305
G1 X72.111 Y108.254 E2.09852
G1 X72.318 Y108.449 E2.10399
G1 X72.499 Y108.668 E2.10947
G1 X72.652 Y108.909 E2.11494
G1 X72.773 Y109.166 E2.12041
G1 X72.861 Y109.437 E2.12589
G1 X72.914 Y109.716 E2.13136
G1 X72.932 Y110.000 E2.13683
G1 X72.914 Y110.284 E2.14231
G1 X72.861 Y110.563 E2.14778
G1 X72.773 Y110.834 E2.15325
G1 X72.652 Y111.091 E2.15873
G1 X72.499 Y111.332 E2.16420
G1 X72.318 Y111.551 E2.16968
G1 X72.111 Y111.746 E2.17515
G1 X71.880 Y111.913 E2.18062
G1 X71.631 Y112.050 E2.18609
G1 X71.367 Y112.155 E2.19157
G1 X71.091 Y112.225 E2.19704
G1 X70.809 Y112.261 E2.20252
G1 X70.524 Y112.261 E2.20799
G1 X70.242 Y112.225 E2.21346
G1 X69.966 Y112.155 E2.21894
G1 X69.702 Y112.050 E2.22441
G1 X69.453 Y111.913 E2.22988
G1 X69.223 Y111.746 E2.23535
G1 X69.015 Y111.551 E2.24083
