; generated by Slic3r 1.3.1-dev (Build (Unknown revision)) on 2020-07-17 at 16:58:05

; external perimeters extrusion width = 0.42mm (4.00mm^3/s)
; perimeters extrusion width = 0.40mm (5.03mm^3/s)
; infill extrusion width = 0.42mm (6.93mm^3/s)
; solid infill extrusion width = 0.42mm (2.13mm^3/s)
; top infill extrusion width = 0.42mm (1.60mm^3/s)

; external perimeters extrusion width = 0.42mm (4.00mm^3/s)
; perimeters extrusion width = 0.40mm (5.03mm^3/s)
; infill extrusion width = 0.42mm (6.93mm^3/s)
; solid infill extrusion width = 0.42mm (2.13mm^3/s)
; top infill extrusion width = 0.42mm (1.60mm^3/s)

G92 E0
;D3D:START:START
T0
M104 S215 T0

G21
G90
M107
T0
G28
G29
M109 T0 S215 T0
G0 F3000
M107
T0
G92 E0
G0 X0 Y149 Z0.1 F3600
G1 Y49 E6.5 F1200
G0 Z1
G92 E0
; Filament gcode

G21 ; set units to millimeters
G90 ; use absolute coordinates
M82 ; use absolute distances for extrusion
G92 E0
G1 Z0.300 F6000.000
G1 E-0.50000 F1200.00000
G92 E0
G1 X50.995 Y65.987 F6000.000
G1 E0.60000 F1200.00000
G1 F1080.000
G1 X52.917 Y65.389 E0.65445
G1 X59.607 Y64.908 E0.83578
G1 X67.425 Y64.385 E1.04761
G1 X73.282 Y64.030 E1.20626
G1 X76.275 Y63.872 E1.28730
G1 X82.175 Y63.634 E1.44694
G1 X84.906 Y63.557 E1.52082
G1 X87.543 Y63.518 E1.59212
G1 X90.018 Y63.531 E1.65904
G1 X92.304 Y63.608 E1.72088
G1 X94.381 Y63.760 E1.77719
G1 X96.245 Y63.999 E1.82798
G1 X96.622 Y64.066 E1.83835
G1 X97.916 Y64.352 E1.87418
G1 X98.517 Y64.530 E1.89112
G1 X99.474 Y64.888 E1.91876
G1 X100.494 Y65.429 E1.94997
G1 X101.098 Y65.857 E1.96998
G1 X102.542 Y67.568 E2.03051
G1 X102.780 Y68.064 E2.04538
G1 X103.220 Y69.892 E2.09623
G1 X103.137 Y70.864 E2.12260
G1 X101.137 Y81.017 E2.40236
G1 X100.393 Y82.744 E2.45321
G1 X99.005 Y84.013 E2.50406
G1 X97.082 Y84.611 E2.55850
G1 X85.344 Y85.434 E2.87665
G1 X76.708 Y85.970 E3.11060
G1 X73.714 Y86.128 E3.19164
G1 X70.736 Y86.261 E3.27225
G1 X65.094 Y86.443 E3.42487
G1 X62.457 Y86.482 E3.49617
G1 X59.982 Y86.469 E3.56309
G1 X57.516 Y86.382 E3.62980
G1 X55.364 Y86.214 E3.68816
G1 X53.755 Y86.001 E3.73204
G1 X53.378 Y85.934 E3.74240
G1 X52.084 Y85.648 E3.77823
G1 X51.483 Y85.470 E3.79517
G1 X50.526 Y85.112 E3.82281
G1 X49.506 Y84.571 E3.85402
G1 X48.902 Y84.143 E3.87403
G1 X47.458 Y82.432 E3.93456
G1 X47.220 Y81.936 E3.94944
G1 X46.780 Y80.108 E4.00028
G1 X46.863 Y79.136 E4.02666
G1 X48.863 Y68.983 E4.30642
G1 X49.607 Y67.256 E4.35726
G1 X50.950 Y66.027 E4.40649
G1 X51.199 Y66.142 F6000.000
G1 F1080.000
G1 X52.935 Y65.624 E4.45546
G1 X59.617 Y65.144 E4.63659
G1 X67.440 Y64.621 E4.84856
G1 X73.296 Y64.266 E5.00717
G1 X76.288 Y64.107 E5.08818
G1 X82.181 Y63.870 E5.24766
G1 X84.913 Y63.793 E5.32153
G1 X87.547 Y63.754 E5.39275
G1 X90.017 Y63.767 E5.45954
G1 X92.296 Y63.843 E5.52119
G1 X94.364 Y63.995 E5.57725
G1 X96.214 Y64.233 E5.62768
G1 X96.571 Y64.296 E5.63750
G1 X97.865 Y64.582 E5.67333
G1 X98.435 Y64.751 E5.68938
G1 X99.392 Y65.109 E5.71701
G1 X100.358 Y65.621 E5.74658
G1 X100.962 Y66.049 E5.76659
G1 X102.330 Y67.670 E5.82393
G1 X102.568 Y68.166 E5.83881
G1 X102.906 Y70.819 E5.91111
G1 X100.906 Y80.971 E6.19087
G1 X100.173 Y82.648 E6.24034
G1 X98.801 Y83.858 E6.28982
G1 X97.065 Y84.376 E6.33879
G1 X90.368 Y84.857 E6.52030
G1 X82.550 Y85.380 E6.73216
G1 X76.694 Y85.735 E6.89078
G1 X73.702 Y85.893 E6.97179
G1 X67.809 Y86.131 E7.13125
G1 X65.087 Y86.207 E7.20486
G1 X62.453 Y86.246 E7.27608
G1 X59.983 Y86.233 E7.34287
G1 X57.704 Y86.157 E7.40452
G1 X55.636 Y86.005 E7.46058
G1 X53.786 Y85.767 E7.51101
G1 X52.135 Y85.418 E7.55665
G1 X51.565 Y85.249 E7.57270
G1 X50.608 Y84.891 E7.60033
G1 X49.642 Y84.379 E7.62990
G1 X49.038 Y83.951 E7.64991
G1 X47.670 Y82.330 E7.70725
G1 X47.432 Y81.834 E7.72213
G1 X47.094 Y79.181 E7.79443
G1 X49.094 Y69.029 E8.07419
G1 X49.827 Y67.352 E8.12366
G1 X51.154 Y66.181 E8.17152
G1 E7.67152 F1200.00000
G92 E0
G1 X54.683 Y81.126 F6000.000
G1 E0.60000 F1200.00000
G1 F1080.000
G1 X54.505 Y81.148 E0.60484
G1 X54.177 Y81.128 E0.61374
G1 X54.003 Y81.083 E0.61858
G1 X53.701 Y80.941 E0.62761
G1 X53.440 Y80.725 E0.63677
G1 X53.244 Y80.455 E0.64580
G1 X53.116 Y80.131 E0.65520
G1 X53.074 Y79.800 E0.66423
G1 X53.116 Y79.469 E0.67326
G1 X53.244 Y79.145 E0.68267
G1 X53.440 Y78.875 E0.69170
G1 X53.697 Y78.662 E0.70072
G1 X53.854 Y78.576 E0.70557
G1 X54.167 Y78.474 E0.71446
G1 X54.345 Y78.452 E0.71931
G1 X54.673 Y78.472 E0.72821
G1 X54.847 Y78.517 E0.73305
G1 X55.149 Y78.659 E0.74207
G1 X55.410 Y78.875 E0.75123
G1 X55.606 Y79.145 E0.76026
G1 X55.734 Y79.469 E0.76967
G1 X55.776 Y79.800 E0.77870
G1 X55.734 Y80.131 E0.78772
G1 X55.606 Y80.455 E0.79713
G1 X55.410 Y80.725 E0.80616
G1 X55.153 Y80.938 E0.81519
G1 X54.996 Y81.024 E0.82003
G1 X54.740 Y81.107 E0.82730
G1 X57.583 Y80.826 F6000.000
G1 F1080.000
G1 X57.405 Y80.848 E0.83215
G1 X57.077 Y80.828 E0.84105
G1 X56.903 Y80.783 E0.84589
G1 X56.601 Y80.641 E0.85492
G1 X56.340 Y80.425 E0.86407
G1 X56.144 Y80.155 E0.87310
G1 X56.016 Y79.831 E0.88251
G1 X55.974 Y79.500 E0.89154
G1 X56.016 Y79.169 E0.90057
G1 X56.144 Y78.845 E0.90997
G1 X56.340 Y78.575 E0.91900
G1 X56.597 Y78.362 E0.92803
G1 X56.754 Y78.276 E0.93287
G1 X57.067 Y78.174 E0.94177
G1 X57.245 Y78.152 E0.94661
G1 X57.573 Y78.172 E0.95551
G1 X57.747 Y78.217 E0.96035
G1 X58.049 Y78.359 E0.96938
G1 X58.310 Y78.575 E0.97854
G1 X58.506 Y78.845 E0.98757
G1 X58.634 Y79.169 E0.99697
G1 X58.676 Y79.500 E1.00600
G1 X58.634 Y79.831 E1.01503
G1 X58.506 Y80.155 E1.02443
G1 X58.310 Y80.425 E1.03346
G1 X58.053 Y80.638 E1.04249
G1 X57.896 Y80.724 E1.04733
G1 X57.640 Y80.807 E1.05461
G1 E0.55461 F1200.00000
G92 E0
G1 X66.715 Y80.848 F6000.000
G1 E0.60000 F1200.00000
G1 F1080.000
G1 X66.535 Y80.848 E0.60484
G1 X66.212 Y80.786 E0.61374
G1 X66.046 Y80.720 E0.61858
G1 X65.768 Y80.544 E0.62748
G1 X65.637 Y80.421 E0.63232
G1 X65.441 Y80.151 E0.64135
G1 X65.318 Y79.840 E0.65038
G1 X65.284 Y79.665 E0.65522
G1 X65.284 Y79.335 E0.66412
G1 X65.318 Y79.160 E0.66896
G1 X65.441 Y78.849 E0.67799
G1 X65.637 Y78.579 E0.68702
G1 X65.768 Y78.456 E0.69186
G1 X66.046 Y78.280 E0.70076
G1 X66.212 Y78.214 E0.70560
G1 X66.535 Y78.152 E0.71450
G1 X66.715 Y78.152 E0.71934
G1 X67.043 Y78.215 E0.72837
G1 X67.345 Y78.357 E0.73739
G1 X67.486 Y78.460 E0.74211
G1 X67.613 Y78.579 E0.74682
G1 X67.809 Y78.849 E0.75585
G1 X67.932 Y79.160 E0.76488
G1 X67.966 Y79.335 E0.76972
G1 X67.966 Y79.665 E0.77862
G1 X67.932 Y79.840 E0.78346
G1 X67.809 Y80.151 E0.79249
G1 X67.613 Y80.421 E0.80151
G1 X67.482 Y80.544 E0.80636
G1 X67.204 Y80.720 E0.81525
G1 X67.038 Y80.786 E0.82010
G1 X66.773 Y80.836 E0.82737
G1 E0.32737 F1200.00000
G92 E0
G1 X96.600 Y80.012 F6000.000
G1 E0.60000 F1200.00000
G1 F1080.000
G1 X85.035 Y80.823 E0.91344
G1 X76.437 Y81.357 E1.14635
G1 X73.472 Y81.514 E1.22664
G1 X67.685 Y81.747 E1.38323
G1 X64.965 Y81.823 E1.45679
G1 X62.391 Y81.861 E1.52640
G1 X60.010 Y81.848 E1.59077
G1 X57.858 Y81.774 E1.64899
G1 X55.967 Y81.632 E1.70024
G1 X54.369 Y81.420 E1.74383
G1 X53.092 Y81.138 E1.77920
G1 X52.163 Y80.790 E1.80602
G1 X51.607 Y80.396 E1.82445
G1 X51.409 Y79.984 E1.83680
G1 X51.522 Y79.542 E1.84914
G1 X51.995 Y79.048 E1.86763
G1 X52.854 Y78.534 E1.89470
G1 X54.082 Y78.031 E1.93058
G1 X55.657 Y77.565 E1.97499
G1 X57.552 Y77.155 E2.02740
G1 X59.734 Y76.819 E2.08711
G1 X62.168 Y76.573 E2.15325
G1 X64.813 Y76.428 E2.22485
G1 X67.622 Y76.389 E2.30080
G1 X70.546 Y76.457 E2.37989
G1 X73.519 Y76.612 E2.46038
G1 X76.514 Y76.834 E2.54157
G1 X79.482 Y77.114 E2.62217
G1 X82.376 Y77.438 E2.70091
G1 X85.150 Y77.793 E2.77652
G1 X87.761 Y78.166 E2.84782
G1 X90.167 Y78.542 E2.91366
G1 X92.331 Y78.908 E2.97302
G1 X94.221 Y79.249 E3.02494
G1 X96.600 Y79.710 E3.09045
G1 X96.600 Y79.952 E3.09700
G1 X95.941 Y79.822 F6000.000
G1 F1080.000
G1 X95.661 Y79.768 E3.10474
G1 X95.582 Y79.848 E3.10779
G1 X95.222 Y79.873 E3.11756
G1 X95.381 Y79.714 E3.12366
G1 X95.101 Y79.660 E3.13140
G1 X94.863 Y79.898 E3.14054
G1 X94.503 Y79.923 E3.15032
G1 X94.821 Y79.605 E3.16251
G1 X94.541 Y79.551 E3.17025
G1 X94.144 Y79.948 E3.18549
G1 X93.784 Y79.974 E3.19527
G1 X94.261 Y79.497 E3.21356
G1 X93.978 Y79.446 E3.22136
G1 X93.425 Y79.999 E3.24258
G1 X93.065 Y80.024 E3.25235
G1 X93.693 Y79.396 E3.27643
G1 X93.408 Y79.347 E3.28427
G1 X92.706 Y80.049 E3.31122
G1 X92.346 Y80.074 E3.32100
G1 X93.124 Y79.297 E3.35082
G1 X92.839 Y79.247 E3.35866
G1 X91.987 Y80.100 E3.39135
G1 X91.627 Y80.125 E3.40113
G1 X92.554 Y79.198 E3.43669
G1 X92.270 Y79.148 E3.44453
G1 X91.268 Y80.150 E3.48296
G1 X90.908 Y80.175 E3.49274
G1 X91.985 Y79.098 E3.53404
G1 X91.700 Y79.049 E3.54188
G1 X90.549 Y80.200 E3.58605
G1 X90.189 Y80.226 E3.59583
G1 X91.415 Y78.999 E3.64287
G1 X91.131 Y78.950 E3.65071
G1 X89.830 Y80.251 E3.70063
G1 X89.470 Y80.276 E3.71040
G1 X90.846 Y78.900 E3.76319
G1 X90.561 Y78.850 E3.77103
G1 X89.111 Y80.301 E3.82668
G1 X88.751 Y80.326 E3.83646
G1 X90.277 Y78.801 E3.89498
G1 X89.990 Y78.753 E3.90287
G1 X88.392 Y80.352 E3.96418
G1 X88.032 Y80.377 E3.97396
G1 X89.701 Y78.708 E4.03798
G1 X89.412 Y78.663 E4.04591
G1 X87.673 Y80.402 E4.11263
G1 X87.313 Y80.427 E4.12241
G1 X89.123 Y78.618 E4.19182
G1 X88.834 Y78.572 E4.19976
G1 X86.954 Y80.452 E4.27188
G1 X86.594 Y80.478 E4.28166
G1 X88.545 Y78.527 E4.35648
G1 X88.256 Y78.482 E4.36442
G1 X86.235 Y80.503 E4.44194
G1 X85.875 Y80.528 E4.45171
G1 X87.966 Y78.437 E4.53194
G1 X87.677 Y78.392 E4.53989
G1 X85.516 Y80.553 E4.62279
G1 X85.156 Y80.578 E4.63257
G1 X87.384 Y78.350 E4.71804
G1 X87.092 Y78.308 E4.72605
G1 X84.799 Y80.602 E4.81402
G1 X84.442 Y80.624 E4.82371
G1 X86.799 Y78.267 E4.91413
G1 X86.507 Y78.225 E4.92215
G1 X84.086 Y80.646 E5.01502
G1 X83.729 Y80.668 E5.02470
G1 X86.214 Y78.183 E5.12003
G1 X85.922 Y78.141 E5.12804
G1 X83.373 Y80.690 E5.22581
G1 X83.016 Y80.712 E5.23550
G1 X85.629 Y78.100 E5.33573
G1 X85.337 Y78.058 E5.34374
G1 X82.660 Y80.734 E5.44642
G1 X82.303 Y80.757 E5.45610
G1 X85.043 Y78.017 E5.56119
G1 X84.747 Y77.979 E5.56930
G1 X81.947 Y80.779 E5.67669
G1 X81.591 Y80.801 E5.68638
G1 X84.450 Y77.941 E5.79608
G1 X84.154 Y77.903 E5.80418
G1 X81.234 Y80.823 E5.91619
G1 X80.878 Y80.845 E5.92587
G1 X83.858 Y77.865 E6.04018
G1 X83.561 Y77.827 E6.04828
G1 X80.521 Y80.867 E6.16490
G1 X80.165 Y80.889 E6.17458
G1 X83.265 Y77.789 E6.29350
G1 X82.969 Y77.751 E6.30160
G1 X79.808 Y80.912 E6.42282
G1 X79.452 Y80.934 E6.43251
G1 X82.672 Y77.714 E6.55604
G1 X82.376 Y77.676 E6.56414
G1 X79.096 Y80.956 E6.68997
G1 X78.739 Y80.978 E6.69966
G1 X82.076 Y77.641 E6.82764
G1 X81.775 Y77.608 E6.83585
G1 X78.383 Y81.000 E6.96597
G1 X78.026 Y81.022 E6.97566
G1 X81.474 Y77.574 E7.10793
G1 X81.174 Y77.541 E7.11613
G1 X77.670 Y81.044 E7.25054
G1 X77.313 Y81.066 E7.26022
G1 X80.873 Y77.507 E7.39677
G1 X80.572 Y77.473 E7.40497
G1 X76.957 Y81.089 E7.54366
G1 X76.601 Y81.111 E7.55335
G1 X80.272 Y77.440 E7.69417
G1 X79.971 Y77.406 E7.70238
G1 X76.246 Y81.131 E7.84527
G1 X75.893 Y81.150 E7.85486
G1 X79.670 Y77.372 E7.99976
G1 X79.368 Y77.340 E8.00800
G1 X75.540 Y81.168 E8.15486
G1 X75.187 Y81.187 E8.16445
G1 X79.063 Y77.311 E8.31312
G1 X78.757 Y77.282 E8.32144
G1 X74.834 Y81.206 E8.47194
G1 X74.481 Y81.224 E8.48152
G1 X78.452 Y77.254 E8.63384
G1 X78.146 Y77.225 E8.64216
G1 X74.128 Y81.243 E8.79629
G1 X73.775 Y81.262 E8.80588
G1 X77.841 Y77.196 E8.96183
G1 X77.535 Y77.167 E8.97015
G1 X73.423 Y81.280 E9.12791
G1 X73.075 Y81.294 E9.13736
G1 X77.230 Y77.139 E9.29676
G1 X76.924 Y77.110 E9.30508
G1 X72.726 Y81.308 E9.46612
G1 X72.378 Y81.322 E9.47557
G1 X76.619 Y77.081 E9.63825
G1 X76.310 Y77.056 E9.64666
G1 X72.030 Y81.336 E9.81085
G1 X71.681 Y81.350 E9.82031
G1 X75.999 Y77.032 E9.98593
G1 X75.688 Y77.009 E9.99439
G1 X71.333 Y81.364 E10.16144
G1 X70.985 Y81.378 E10.17089
G1 X75.376 Y76.986 E10.33936
G1 X75.065 Y76.963 E10.34783
G1 X70.636 Y81.392 E10.51773
G1 X70.288 Y81.406 E10.52718
G1 X74.754 Y76.940 E10.69851
G1 X74.443 Y76.917 E10.70697
G1 X69.940 Y81.420 E10.87973
G1 X69.591 Y81.434 E10.88918
G1 X74.132 Y76.893 E11.06336
G1 X73.821 Y76.870 E11.07182
G1 X69.243 Y81.448 E11.24743
G1 X68.895 Y81.462 E11.25689
G1 X73.510 Y76.847 E11.43392
G1 X73.192 Y76.830 E11.44254
G1 X68.546 Y81.476 E11.62075
G1 X68.198 Y81.490 E11.63021
G1 X72.874 Y76.814 E11.80959
G1 X72.556 Y76.797 E11.81823
G1 X67.850 Y81.504 E11.99878
G1 X67.503 Y81.516 E12.00818
G1 X72.239 Y76.781 E12.18982
G1 X71.921 Y76.764 E12.19845
G1 X67.159 Y81.526 E12.38111
G1 X66.815 Y81.535 E12.39044
G1 X67.608 Y80.743 E12.42084
G1 X67.312 Y80.931 E12.43036
G1 X67.104 Y81.013 E12.43642
G1 X66.980 Y81.037 E12.43985
G1 X66.471 Y81.545 E12.45935
G1 X66.127 Y81.555 E12.46868
G1 X66.599 Y81.083 E12.48677
G1 X66.305 Y81.043 E12.49484
G1 X65.784 Y81.564 E12.51482
G1 X65.440 Y81.574 E12.52416
G1 X66.042 Y80.972 E12.54726
G1 X65.822 Y80.857 E12.55398
G1 X65.096 Y81.584 E12.58185
G1 X64.754 Y81.591 E12.59111
G1 X65.618 Y80.727 E12.62425
G1 X65.449 Y80.562 E12.63067
G1 X64.415 Y81.596 E12.67031
G1 X64.076 Y81.601 E12.67951
G1 X65.308 Y80.369 E12.72677
G1 X65.233 Y80.265 E12.73023
G1 X65.189 Y80.154 E12.73349
G1 X63.737 Y81.606 E12.78919
G1 X63.397 Y81.611 E12.79840
G1 X65.094 Y79.914 E12.86347
G1 X65.049 Y79.625 E12.87142
G1 X63.243 Y81.431 E12.94070
G1 X63.243 Y81.096 E12.94977
G1 X65.054 Y79.285 E13.01925
G1 X65.091 Y79.094 E13.02454
G1 X65.208 Y78.797 E13.03320
G1 X63.243 Y80.762 E13.10860
G1 X63.243 Y80.428 E13.11767
G1 X67.038 Y76.633 E13.26325
G1 X66.699 Y76.637 E13.27245
G1 X63.243 Y80.094 E13.40502
G1 X63.243 Y79.759 E13.41409
G1 X66.360 Y76.642 E13.53367
G1 X66.021 Y76.647 E13.54286
G1 X63.243 Y79.425 E13.64943
G1 X63.243 Y79.091 E13.65850
G1 X65.682 Y76.652 E13.75206
G1 X65.343 Y76.656 E13.76126
G1 X63.243 Y78.756 E13.84182
G1 X63.243 Y78.422 E13.85088
G1 X65.004 Y76.661 E13.91844
G1 X64.658 Y76.673 E13.92782
G1 X63.243 Y78.088 E13.98211
G1 X63.243 Y77.753 E13.99118
G1 X64.304 Y76.692 E14.03190
G1 X63.951 Y76.711 E14.04151
G1 X63.243 Y77.419 E14.06866
G1 X63.243 Y77.085 E14.07773
G1 X63.597 Y76.731 E14.09131
G1 X63.243 Y76.750 E14.10092
G1 X65.208 Y78.797 F6000.000
G1 F1080.000
G1 X65.233 Y78.735 E14.10273
G1 X65.460 Y78.422 E14.11319
G1 X65.623 Y78.269 E14.11926
G1 X65.932 Y78.073 E14.12919
G1 X67.377 Y76.628 E14.18463
G1 X67.713 Y76.627 E14.19373
G1 X66.401 Y77.938 E14.24403
G1 X66.513 Y77.917 E14.24713
G1 X66.754 Y77.920 E14.25365
G1 X68.039 Y76.634 E14.30297
G1 X68.366 Y76.642 E14.31183
G1 X67.034 Y77.974 E14.36292
G1 X67.116 Y77.989 E14.36517
G1 X67.277 Y78.065 E14.37001
G1 X68.693 Y76.649 E14.42431
G1 X69.019 Y76.657 E14.43317
G1 X67.499 Y78.178 E14.49151
G1 X67.686 Y78.325 E14.49797
G1 X69.346 Y76.665 E14.56165
G1 X69.673 Y76.672 E14.57051
G1 X67.846 Y78.499 E14.64060
G1 X67.987 Y78.693 E14.64709
G1 X70.000 Y76.680 E14.72431
G1 X70.326 Y76.687 E14.73317
G1 X68.091 Y78.922 E14.81891
G1 X68.174 Y79.174 E14.82609
G1 X70.650 Y76.698 E14.92105
G1 X70.968 Y76.715 E14.92968
G1 X68.201 Y79.481 E15.03581
G1 X68.201 Y79.687 E15.04139
G1 X68.171 Y79.846 E15.04577
G1 X71.285 Y76.731 E15.16525
G1 X71.603 Y76.748 E15.17388
G1 X67.835 Y80.516 E15.31842
G1 E14.81842 F1200.00000
G92 E0
G1 X63.007 Y81.616 F6000.000
G1 E0.60000 F1200.00000
G1 F1080.000
G1 X63.007 Y81.279 E0.61000
G1 X62.665 Y81.621 E0.62434
G1 X62.324 Y81.625 E0.63444
G1 X63.007 Y80.942 E0.66308
G1 X63.007 Y80.604 E0.67307
G1 X61.988 Y81.623 E0.71575
G1 X61.653 Y81.621 E0.72569
G1 X63.007 Y80.267 E0.78242
G1 X63.007 Y79.930 E0.79241
G1 X61.318 Y81.619 E0.86320
G1 X60.982 Y81.617 E0.87314
G1 X63.007 Y79.593 E0.95798
G1 X63.007 Y79.255 E0.96797
G1 X60.647 Y81.616 E1.06686
G1 X60.312 Y81.614 E1.07680
G1 X63.007 Y78.918 E1.18974
G1 X63.007 Y78.581 E1.19973
G1 X59.977 Y81.611 E1.32668
G1 X59.651 Y81.600 E1.33635
G1 X63.007 Y78.244 E1.47696
G1 X63.007 Y77.906 E1.48695
G1 X59.325 Y81.588 E1.64123
G1 X58.999 Y81.577 E1.65089
G1 X63.007 Y77.569 E1.81883
G1 X63.007 Y77.232 E1.82882
G1 X58.673 Y81.566 E2.01041
G1 X58.347 Y81.555 E2.02008
G1 X63.007 Y76.894 E2.21534
G1 X63.007 Y76.763 E2.21922
G1 X62.789 Y76.775 E2.22569
G1 X58.021 Y81.543 E2.42547
G1 X57.701 Y81.526 E2.43495
G1 X62.432 Y76.795 E2.63317
G1 X62.070 Y76.820 E2.64393
G1 X58.776 Y80.114 E2.78194
G1 X58.864 Y79.890 E2.78907
G1 X58.894 Y79.659 E2.79598
G1 X61.694 Y76.858 E2.91333
G1 X61.319 Y76.896 E2.92450
