; generated by Slic3r 1.3.0 on 2020-04-24 at 13:32:24

; external perimeters extrusion width = 0.44mm (2.86mm^3/s)
; perimeters extrusion width = 0.56mm (4.14mm^3/s)
; infill extrusion width = 0.50mm (4.57mm^3/s)
; solid infill extrusion width = 0.56mm (3.10mm^3/s)
; top infill extrusion width = 0.45mm (2.44mm^3/s)

M107
;D3D:START:START
T0
M104 S215 T0

G21
G90
M107
T0
G28
G29
M109 T0 S215 T0
G0 F3000
M107
T0
G92 E0
G0 X0 Y149 Z0.1 F3600
G1 Y49 E6.5 F1200
G0 Z1
G92 E0
; Filament gcode

G21 ; set units to millimeters
G90 ; use absolute coordinates
M82 ; use absolute distances for extrusion
G92 E0
G1 Z0.200 F6000.000
G1 E-2.00000 F1200.00000
G92 E0
G1 Z0.700 F6000.000
G1 X55.670 Y68.093 F6000.000
G1 Z0.200 F6000.000
G1 E2.00000 F1200.00000
G1 F1800
G1 X88.330 Y68.093 E2.62834
G1 X88.330 Y81.907 E2.89410
G1 X55.670 Y81.907 E3.52244
G1 X55.670 Y68.153 E3.78705
G1 X55.927 Y68.350 F6000.000
G1 F1800
G1 X88.073 Y68.350 E4.40550
G1 X88.073 Y81.650 E4.66137
G1 X55.927 Y81.650 E5.27982
G1 X55.927 Y68.410 E5.53454
G1 X55.774 Y67.980 F6000.000
G1 X55.393 Y67.355 F6000.000
G1 F1800
G1 X62.539 Y67.336 E5.67202
G1 X69.816 Y67.393 E5.81203
G1 X78.105 Y67.538 E5.97153
G1 X86.373 Y67.751 E6.13064
G1 X94.301 Y68.012 E6.28325
G1 X102.221 Y68.324 E6.43573
G1 X110.058 Y68.679 E6.58666
G1 X117.771 Y69.069 E6.73524
G1 X125.391 Y69.489 E6.88205
G1 X132.866 Y69.933 E7.02613
G1 X145.637 Y70.762 E7.27234
G1 X146.077 Y71.172 E7.28391
G1 X146.524 Y71.713 E7.29741
G1 X146.901 Y72.306 E7.31092
G1 X147.200 Y72.941 E7.32443
G1 X147.416 Y73.609 E7.33794
G1 X147.548 Y74.299 E7.35146
G1 X147.592 Y75.000 E7.36496
G1 X147.548 Y75.701 E7.37847
G1 X147.416 Y76.391 E7.39199
G1 X147.200 Y77.059 E7.40550
G1 X146.901 Y77.694 E7.41900
G1 X146.524 Y78.287 E7.43252
G1 X146.077 Y78.828 E7.44601
G1 X145.637 Y79.238 E7.45759
G1 X132.866 Y80.066 E7.70380
G1 X125.391 Y80.511 E7.84787
G1 X117.771 Y80.931 E7.99468
G1 X110.058 Y81.321 E8.14327
G1 X102.296 Y81.672 E8.29274
G1 X94.347 Y81.986 E8.44580
G1 X86.065 Y82.259 E8.60522
G1 X78.266 Y82.458 E8.75530
G1 X70.013 Y82.604 E8.91411
G1 X62.384 Y82.665 E9.06088
G1 X55.393 Y82.645 E9.19539
G1 X48.697 Y82.547 E9.32422
G1 X42.406 Y82.370 E9.44530
G1 X36.381 Y82.109 E9.56131
G1 X30.820 Y81.772 E9.66849
G1 X25.606 Y81.351 E9.76913
G1 X20.852 Y80.854 E9.86110
G1 X16.636 Y80.294 E9.94291
G1 X12.876 Y79.662 E10.01628
G1 X9.704 Y78.982 E10.07869
G1 X7.042 Y78.240 E10.13185
G1 X4.972 Y77.459 E10.17441
G1 X3.522 Y76.658 E10.20628
G1 X2.714 Y75.886 E10.22779
G1 X2.422 Y75.006 E10.24563
G1 X2.713 Y74.116 E10.26365
G1 X3.522 Y73.342 E10.28518
G1 X4.972 Y72.541 E10.31706
G1 X7.042 Y71.760 E10.35961
G1 X9.704 Y71.018 E10.41277
G1 X12.876 Y70.338 E10.47518
G1 X16.636 Y69.706 E10.54855
G1 X20.852 Y69.146 E10.63037
G1 X25.606 Y68.649 E10.72233
G1 X30.820 Y68.228 E10.82297
G1 X36.381 Y67.891 E10.93015
G1 X42.406 Y67.630 E11.04617
G1 X48.697 Y67.453 E11.16724
G1 X55.333 Y67.356 E11.29492
G1 X55.391 Y67.098 F6000.000
G1 F1800
G1 X62.539 Y67.079 E11.43246
G1 X69.820 Y67.136 E11.57252
G1 X78.111 Y67.281 E11.73206
G1 X86.381 Y67.494 E11.89121
G1 X94.311 Y67.755 E12.04386
G1 X102.232 Y68.067 E12.19637
G1 X110.070 Y68.422 E12.34732
G1 X117.785 Y68.812 E12.49593
G1 X125.405 Y69.233 E12.64276
G1 X132.882 Y69.677 E12.78686
G1 X145.746 Y70.511 E13.03486
G1 X146.265 Y70.996 E13.04851
G1 X146.732 Y71.562 E13.06264
G1 X147.126 Y72.182 E13.07677
G1 X147.439 Y72.847 E13.09091
G1 X147.665 Y73.545 E13.10504
G1 X147.804 Y74.267 E13.11917
G1 X147.850 Y75.000 E13.13330
G1 X147.804 Y75.733 E13.14744
G1 X147.665 Y76.455 E13.16157
G1 X147.439 Y77.153 E13.17570
G1 X147.126 Y77.818 E13.18983
G1 X146.732 Y78.438 E13.20397
G1 X146.265 Y79.004 E13.21810
G1 X145.746 Y79.489 E13.23175
G1 X132.882 Y80.323 E13.47974
G1 X125.405 Y80.767 E13.62385
G1 X117.785 Y81.188 E13.77068
G1 X110.070 Y81.578 E13.91928
G1 X102.307 Y81.929 E14.06878
G1 X94.356 Y82.243 E14.22188
G1 X86.072 Y82.516 E14.38133
G1 X78.272 Y82.715 E14.53145
G1 X70.016 Y82.861 E14.69030
G1 X62.385 Y82.922 E14.83713
G1 X55.391 Y82.902 E14.97168
G1 X48.691 Y82.804 E15.10058
G1 X42.397 Y82.627 E15.22173
G1 X36.368 Y82.366 E15.33782
G1 X30.802 Y82.028 E15.44510
G1 X25.582 Y81.607 E15.54585
G1 X20.822 Y81.109 E15.63794
G1 X16.598 Y80.549 E15.71991
G1 X12.827 Y79.914 E15.79347
G1 X9.642 Y79.231 E15.85614
G1 X6.962 Y78.485 E15.90967
G1 X4.864 Y77.693 E15.95280
G1 X3.368 Y76.867 E15.98568
G1 X2.490 Y76.027 E16.00906
G1 X2.155 Y75.020 E16.02948
G1 X2.194 Y74.844 E16.03295
G1 X2.489 Y73.973 E16.05063
G1 X3.368 Y73.133 E16.07403
G1 X4.864 Y72.307 E16.10690
G1 X6.962 Y71.515 E16.15003
G1 X9.642 Y70.769 E16.20356
G1 X12.827 Y70.086 E16.26623
G1 X16.598 Y69.451 E16.33979
G1 X20.822 Y68.891 E16.42176
G1 X25.582 Y68.393 E16.51386
G1 X30.802 Y67.972 E16.61461
G1 X36.368 Y67.634 E16.72188
G1 X42.397 Y67.373 E16.83798
G1 X48.691 Y67.196 E16.95912
G1 X55.331 Y67.099 E17.08686
G1 X55.594 Y67.442 F6000.000
G1 X55.304 Y68.276 F6000.000
G1 F1800
G1 X55.304 Y67.945 E17.09326
G1 X55.635 Y67.945 E17.09965
G1 X56.078 Y67.501 E17.11178
G1 X56.444 Y67.500 E17.11886
G1 X56.000 Y67.945 E17.13101
G1 X56.365 Y67.945 E17.13807
G1 X56.811 Y67.499 E17.15025
G1 X57.177 Y67.498 E17.15733
G1 X56.730 Y67.945 E17.16953
G1 X57.096 Y67.945 E17.17659
G1 X57.543 Y67.497 E17.18882
G1 X57.909 Y67.496 E17.19590
G1 X57.461 Y67.945 E17.20816
G1 X57.826 Y67.945 E17.21522
G1 X58.276 Y67.495 E17.22750
G1 X58.642 Y67.495 E17.23458
G1 X58.191 Y67.945 E17.24689
G1 X58.557 Y67.945 E17.25395
G1 X59.008 Y67.494 E17.26629
G1 X59.374 Y67.493 E17.27337
G1 X58.922 Y67.945 E17.28573
G1 X59.287 Y67.945 E17.29279
G1 X59.740 Y67.492 E17.30518
G1 X60.107 Y67.491 E17.31226
G1 X59.652 Y67.945 E17.32467
G1 X60.018 Y67.945 E17.33173
G1 X60.473 Y67.490 E17.34417
G1 X60.839 Y67.489 E17.35125
G1 X60.383 Y67.945 E17.36372
G1 X60.748 Y67.945 E17.37078
G1 X61.205 Y67.488 E17.38328
G1 X61.571 Y67.487 E17.39035
G1 X61.113 Y67.945 E17.40287
G1 X61.478 Y67.945 E17.40993
G1 X61.938 Y67.486 E17.42248
G1 X62.304 Y67.485 E17.42956
G1 X61.844 Y67.945 E17.44213
G1 X62.209 Y67.945 E17.44919
G1 X62.670 Y67.484 E17.46179
G1 X63.032 Y67.487 E17.46879
G1 X62.574 Y67.945 E17.48131
G1 X62.939 Y67.945 E17.48837
G1 X63.394 Y67.490 E17.50080
G1 X63.757 Y67.493 E17.50781
G1 X63.305 Y67.945 E17.52017
G1 X63.670 Y67.945 E17.52723
G1 X64.119 Y67.496 E17.53951
G1 X64.482 Y67.498 E17.54651
G1 X64.035 Y67.945 E17.55872
G1 X64.400 Y67.945 E17.56578
G1 X64.844 Y67.501 E17.57790
G1 X65.206 Y67.504 E17.58491
G1 X64.766 Y67.945 E17.59696
G1 X65.131 Y67.945 E17.60402
G1 X65.569 Y67.507 E17.61599
G1 X65.931 Y67.510 E17.62299
G1 X65.496 Y67.945 E17.63488
G1 X65.861 Y67.945 E17.64194
G1 X66.294 Y67.513 E17.65376
G1 X66.656 Y67.516 E17.66076
G1 X66.227 Y67.945 E17.67250
G1 X66.592 Y67.945 E17.67956
G1 X67.018 Y67.518 E17.69122
G1 X67.381 Y67.521 E17.69822
G1 X66.957 Y67.945 E17.70980
G1 X67.322 Y67.945 E17.71686
G1 X67.743 Y67.524 E17.72836
G1 X68.106 Y67.527 E17.73537
G1 X67.688 Y67.945 E17.74679
G1 X68.053 Y67.945 E17.75385
G1 X68.468 Y67.530 E17.76520
G1 X68.830 Y67.533 E17.77220
G1 X68.418 Y67.945 E17.78347
G1 X68.783 Y67.945 E17.79053
G1 X69.193 Y67.535 E17.80172
G1 X69.555 Y67.538 E17.80873
G1 X69.149 Y67.945 E17.81984
G1 X69.514 Y67.945 E17.82690
G1 X69.918 Y67.541 E17.83794
G1 X70.277 Y67.547 E17.84488
G1 X69.879 Y67.945 E17.85574
G1 X70.244 Y67.945 E17.86280
G1 X70.636 Y67.554 E17.87350
G1 X70.995 Y67.560 E17.88044
G1 X70.609 Y67.945 E17.89096
G1 X70.975 Y67.945 E17.89802
G1 X71.354 Y67.566 E17.90837
G1 X71.667 Y67.572 E17.91443
G1 X71.667 Y67.618 E17.91534
G1 X71.340 Y67.945 E17.92426
G1 E15.92426 F1200.00000
G92 E0
G1 Z0.700 F6000.000
G1 X71.466 Y82.428 F6000.000
G1 Z0.200 F6000.000
G1 E2.00000 F1200.00000
G1 F1800
G1 X71.684 Y82.210 E2.00597
G1 X71.683 Y82.055 E2.00896
G1 X71.474 Y82.055 E2.01300
G1 X71.094 Y82.435 E2.02338
G1 X70.722 Y82.442 E2.03057
G1 X71.109 Y82.055 E2.04113
G1 X70.744 Y82.055 E2.04819
G1 X70.351 Y82.448 E2.05893
G1 X69.979 Y82.455 E2.06612
G1 X70.378 Y82.055 E2.07704
G1 X70.013 Y82.055 E2.08410
G1 X69.610 Y82.458 E2.09513
G1 X69.242 Y82.461 E2.10224
G1 X69.648 Y82.055 E2.11335
G1 X69.283 Y82.055 E2.12040
G1 X68.874 Y82.464 E2.13159
G1 X68.505 Y82.467 E2.13870
G1 X68.918 Y82.055 E2.14997
G1 X68.552 Y82.055 E2.15703
G1 X68.137 Y82.470 E2.16837
G1 X67.769 Y82.473 E2.17548
G1 X68.187 Y82.055 E2.18691
G1 X67.822 Y82.055 E2.19397
G1 X67.401 Y82.476 E2.20547
G1 X67.033 Y82.479 E2.21258
G1 X67.457 Y82.055 E2.22417
G1 X67.091 Y82.055 E2.23123
G1 X66.665 Y82.482 E2.24289
G1 X66.296 Y82.485 E2.25001
G1 X66.726 Y82.055 E2.26175
G1 X66.361 Y82.055 E2.26881
G1 X65.928 Y82.488 E2.28063
G1 X65.560 Y82.491 E2.28775
G1 X65.996 Y82.055 E2.29965
G1 X65.630 Y82.055 E2.30671
G1 X65.192 Y82.493 E2.31869
G1 X64.824 Y82.496 E2.32581
G1 X65.265 Y82.055 E2.33787
G1 X64.900 Y82.055 E2.34493
G1 X64.456 Y82.499 E2.35707
G1 X64.087 Y82.502 E2.36419
G1 X64.535 Y82.055 E2.37641
G1 X64.169 Y82.055 E2.38347
G1 X63.719 Y82.505 E2.39577
G1 X63.351 Y82.508 E2.40289
G1 X63.804 Y82.055 E2.41527
G1 X63.439 Y82.055 E2.42233
G1 X62.983 Y82.511 E2.43479
G1 X62.615 Y82.514 E2.44191
G1 X63.074 Y82.055 E2.45445
G1 X62.708 Y82.055 E2.46151
G1 X62.247 Y82.517 E2.47412
G1 X61.883 Y82.516 E2.48116
G1 X62.343 Y82.055 E2.49375
G1 X61.978 Y82.055 E2.50081
G1 X61.518 Y82.515 E2.51336
G1 X61.154 Y82.514 E2.52040
G1 X61.613 Y82.055 E2.53294
G1 X61.247 Y82.055 E2.53999
G1 X60.790 Y82.513 E2.55250
G1 X60.426 Y82.512 E2.55954
G1 X60.882 Y82.055 E2.57201
G1 X60.517 Y82.055 E2.57907
G1 X60.062 Y82.510 E2.59152
G1 X59.697 Y82.509 E2.59856
G1 X60.152 Y82.055 E2.61098
G1 X59.787 Y82.055 E2.61804
G1 X59.333 Y82.508 E2.63043
G1 X58.969 Y82.507 E2.63747
G1 X59.421 Y82.055 E2.64984
G1 X59.056 Y82.055 E2.65690
G1 X58.605 Y82.506 E2.66923
G1 X58.240 Y82.505 E2.67627
G1 X58.691 Y82.055 E2.68858
G1 X58.326 Y82.055 E2.69564
G1 X57.876 Y82.504 E2.70792
G1 X57.512 Y82.503 E2.71496
G1 X57.960 Y82.055 E2.72722
G1 X57.595 Y82.055 E2.73428
G1 X57.148 Y82.502 E2.74650
G1 X56.784 Y82.501 E2.75354
G1 X57.230 Y82.055 E2.76574
G1 X56.865 Y82.055 E2.77280
G1 X56.419 Y82.500 E2.78497
G1 X56.055 Y82.499 E2.79201
G1 X56.499 Y82.055 E2.80416
G1 X56.134 Y82.055 E2.81122
G1 X55.691 Y82.498 E2.82333
G1 X55.327 Y82.497 E2.83037
G1 X55.769 Y82.055 E2.84246
G1 X55.522 Y82.055 E2.84723
G1 X55.522 Y81.937 E2.84952
G1 X54.966 Y82.493 E2.86471
G1 X54.606 Y82.487 E2.87167
G1 X55.522 Y81.572 E2.89669
G1 X55.522 Y81.206 E2.90375
G1 X54.246 Y82.482 E2.93862
G1 X53.886 Y82.477 E2.94558
G1 X55.522 Y80.841 E2.99028
G1 X55.522 Y80.476 E2.99734
G1 X53.526 Y82.471 E3.05188
G1 X53.166 Y82.466 E3.05884
G1 X55.522 Y80.111 E3.12322
G1 X55.522 Y79.745 E3.13028
G1 X52.806 Y82.461 E3.20450
G1 X52.447 Y82.455 E3.21146
G1 X55.522 Y79.380 E3.29552
G1 X55.522 Y79.015 E3.30258
G1 X52.087 Y82.450 E3.39647
G1 X51.727 Y82.445 E3.40343
G1 X55.522 Y78.650 E3.50717
G1 X55.522 Y78.284 E3.51423
G1 X51.367 Y82.440 E3.62780
G1 X51.007 Y82.434 E3.63476
G1 X55.522 Y77.919 E3.75817
G1 X55.522 Y77.554 E3.76523
G1 X50.647 Y82.429 E3.89848
G1 X50.287 Y82.424 E3.90544
G1 X55.522 Y77.189 E4.04853
G1 X55.522 Y76.823 E4.05558
G1 X49.927 Y82.418 E4.20851
G1 X49.567 Y82.413 E4.21547
G1 X55.522 Y76.458 E4.37824
G1 X55.522 Y76.093 E4.38529
G1 X49.207 Y82.408 E4.55790
G1 X48.847 Y82.403 E4.56486
G1 X55.522 Y75.728 E4.74730
G1 X55.522 Y75.362 E4.75436
G1 X48.488 Y82.396 E4.94660
G1 X48.133 Y82.386 E4.95347
G1 X55.522 Y74.997 E5.15542
G1 X55.522 Y74.632 E5.16248
G1 X47.778 Y82.376 E5.37415
G1 X47.423 Y82.366 E5.38102
G1 X55.522 Y74.267 E5.60239
G1 X55.522 Y73.902 E5.60945
G1 X47.067 Y82.356 E5.84053
G1 X46.712 Y82.346 E5.84740
G1 X55.522 Y73.536 E6.08820
G1 X55.522 Y73.171 E6.09525
G1 X46.357 Y82.336 E6.34576
G1 X46.002 Y82.326 E6.35263
G1 X55.522 Y72.806 E6.61284
G1 X55.522 Y72.441 E6.61990
G1 X45.646 Y82.316 E6.88983
G1 X45.291 Y82.306 E6.89670
G1 X55.522 Y72.075 E7.17633
G1 X55.522 Y71.710 E7.18339
G1 X44.936 Y82.296 E7.47273
G1 X44.581 Y82.286 E7.47960
G1 X55.522 Y71.345 E7.77866
G1 X55.522 Y70.980 E7.78572
G1 X44.225 Y82.276 E8.09448
G1 X43.870 Y82.266 E8.10135
G1 X55.522 Y70.614 E8.41983
G1 X55.522 Y70.249 E8.42689
G1 X43.515 Y82.256 E8.75507
G1 X43.160 Y82.246 E8.76194
G1 X55.522 Y69.884 E9.09984
G1 X55.522 Y69.519 E9.10690
G1 X42.804 Y82.236 E9.45450
G1 X42.449 Y82.226 E9.46137
G1 X55.522 Y69.153 E9.81869
G1 X55.522 Y68.788 E9.82575
G1 X42.097 Y82.213 E10.19269
G1 X41.747 Y82.198 E10.19946
G1 X55.522 Y68.423 E10.57598
G1 X55.522 Y68.058 E10.58304
G1 X41.397 Y82.183 E10.96912
G1 X41.047 Y82.168 E10.97589
G1 X55.712 Y67.502 E11.37674
G1 X55.344 Y67.505 E11.38385
G1 X40.697 Y82.152 E11.78421
G1 X40.346 Y82.137 E11.79098
G1 X54.973 Y67.511 E12.19077
G1 X54.603 Y67.516 E12.19794
G1 X39.996 Y82.122 E12.59716
G1 X39.646 Y82.107 E12.60394
G1 X54.232 Y67.521 E13.00260
G1 X53.861 Y67.527 E13.00977
G1 X39.296 Y82.092 E13.40787
G1 X38.946 Y82.077 E13.41464
G1 X53.490 Y67.532 E13.81218
G1 X53.120 Y67.538 E13.81935
G1 X38.596 Y82.062 E14.21632
G1 X38.246 Y82.046 E14.22310
G1 X52.749 Y67.543 E14.61951
G1 X52.378 Y67.549 E14.62667
G1 X37.896 Y82.031 E15.02252
G1 X37.546 Y82.016 E15.02930
G1 X52.008 Y67.554 E15.42458
G1 X51.637 Y67.560 E15.43175
G1 X37.196 Y82.001 E15.82647
G1 X36.846 Y81.986 E15.83325
G1 X51.266 Y67.565 E16.22741
G1 X50.896 Y67.571 E16.23457
G1 X36.495 Y81.971 E16.62817
G1 X36.148 Y81.953 E16.63490
G1 X50.525 Y67.576 E17.02787
G1 X50.154 Y67.581 E17.03504
G1 X35.803 Y81.932 E17.42729
G1 X35.459 Y81.911 E17.43395
G1 X49.784 Y67.587 E17.82549
G1 X49.413 Y67.592 E17.83265
G1 X35.115 Y81.891 E18.22346
G1 X34.770 Y81.870 E18.23013
G1 X49.042 Y67.598 E18.62022
G1 X48.670 Y67.605 E18.62742
G1 X34.426 Y81.849 E19.01674
G1 X34.082 Y81.828 E19.02341
G1 X48.294 Y67.616 E19.41186
G1 X47.918 Y67.626 E19.41913
G1 X33.737 Y81.807 E19.80673
G1 X33.393 Y81.786 E19.81339
G1 X47.542 Y67.637 E20.20013
G1 X47.166 Y67.647 E20.20740
G1 X33.049 Y81.765 E20.59328
G1 X32.704 Y81.744 E20.59994
G1 X46.791 Y67.658 E20.98496
G1 X46.415 Y67.669 E20.99223
G1 X32.360 Y81.723 E21.37638
G1 X32.016 Y81.702 E21.38305
G1 X46.039 Y67.679 E21.76635
G1 X45.663 Y67.690 E21.77361
G1 X31.671 Y81.681 E22.15605
G1 X31.327 Y81.661 E22.16272
G1 X45.287 Y67.700 E22.54429
G1 X44.912 Y67.711 E22.55156
G1 X30.983 Y81.640 E22.93228
G1 X30.640 Y81.617 E22.93891
G1 X44.536 Y67.721 E23.31873
G1 X44.160 Y67.732 E23.32599
G1 X30.302 Y81.590 E23.70477
G1 X29.964 Y81.563 E23.71132
G1 X43.784 Y67.742 E24.08907
G1 X43.408 Y67.753 E24.09633
G1 X29.626 Y81.535 E24.47304
G1 X29.288 Y81.508 E24.47960
G1 X43.033 Y67.764 E24.85527
G1 X42.657 Y67.774 E24.86254
G1 X28.950 Y81.481 E25.23718
G1 X28.612 Y81.454 E25.24373
G1 X42.277 Y67.789 E25.61724
G1 X41.895 Y67.805 E25.62462
G1 X28.274 Y81.426 E25.99693
G1 X27.936 Y81.399 E26.00348
G1 X41.514 Y67.822 E26.37459
G1 X41.132 Y67.838 E26.38197
G1 X27.598 Y81.372 E26.75189
G1 X27.260 Y81.344 E26.75844
G1 X40.750 Y67.855 E27.12716
G1 X40.368 Y67.871 E27.13454
G1 X26.922 Y81.317 E27.50206
G1 X26.584 Y81.290 E27.50861
G1 X39.987 Y67.888 E27.87494
G1 X39.605 Y67.904 E27.88232
G1 X26.246 Y81.263 E28.24745
G1 X25.908 Y81.235 E28.25400
G1 X39.223 Y67.921 E28.61793
G1 X38.841 Y67.937 E28.62531
G1 X25.570 Y81.208 E28.98805
G1 X25.239 Y81.175 E28.99449
G1 X38.459 Y67.954 E29.35586
G1 X38.078 Y67.970 E29.36324
G1 X24.908 Y81.140 E29.72321
G1 X24.577 Y81.106 E29.72964
G1 X37.696 Y67.987 E30.08821
G1 X37.314 Y68.003 E30.09559
G1 X24.247 Y81.071 E30.45277
G1 X23.916 Y81.036 E30.45920
G1 X36.932 Y68.020 E30.81498
G1 X36.551 Y68.036 E30.82236
G1 X23.585 Y81.002 E31.17675
G1 X23.255 Y80.967 E31.18317
G1 X36.163 Y68.059 E31.53599
G1 X35.774 Y68.083 E31.54352
G1 X22.924 Y80.933 E31.89475
G1 X22.593 Y80.898 E31.90117
G1 X35.385 Y68.106 E32.25081
G1 X34.996 Y68.130 E32.25834
G1 X22.262 Y80.864 E32.60639
G1 X21.932 Y80.829 E32.61281
G1 X34.607 Y68.154 E32.95927
G1 X34.218 Y68.177 E32.96680
G1 X21.601 Y80.794 E33.31167
G1 X21.270 Y80.760 E33.31810
G1 X33.830 Y68.201 E33.66138
G1 X33.441 Y68.224 E33.66890
G1 X20.940 Y80.725 E34.01059
G1 X20.613 Y80.687 E34.01695
G1 X33.052 Y68.248 E34.35694
G1 X32.663 Y68.272 E34.36447
G1 X20.291 Y80.644 E34.70264
