; generated by Slic3r 1.3.0 on 2021-03-05 at 22:37:38

; external perimeters extrusion width = 0.44mm (2.86mm^3/s)
; perimeters extrusion width = 0.56mm (4.14mm^3/s)
; infill extrusion width = 0.50mm (4.57mm^3/s)
; solid infill extrusion width = 0.56mm (3.10mm^3/s)
; top infill extrusion width = 0.45mm (2.44mm^3/s)

M107
;D3D:START:START
T0
M104 S215 T0

G21
G90
M107
T0
G28
G29
M109 T0 S215 T0
G0 F3000
M107
T0
G92 E0
G0 X0 Y149 Z0.1 F3600
G1 Y49 E6.5 F1200
G0 Z1
G92 E0
; Filament gcode

G21 ; set units to millimeters
G90 ; use absolute coordinates
M82 ; use absolute distances for extrusion
G92 E0
G1 Z0.200 F6000.000
G1 E-2.00000 F1200.00000
G92 E0
G1 Z0.700 F6000.000
G1 X16.782 Y74.776 F6000.000
G1 Z0.200 F6000.000
G1 E2.00000 F1200.00000
G1 F1800
G1 X35.669 Y74.776 E2.36336
G1 X35.669 Y75.224 E2.37200
G1 X16.782 Y75.224 E2.73536
G1 X16.782 Y74.836 E2.74284
G1 X16.525 Y74.519 F6000.000
G1 F1800
G1 X35.926 Y74.519 E3.11609
G1 X35.926 Y75.481 E3.13462
G1 X16.525 Y75.481 E3.50787
G1 X16.525 Y74.579 E3.52524
G1 X16.925 Y74.525 F6000.000
G1 X16.911 Y75.000 F6000.000
G1 F1800
G1 X35.541 Y75.000 E3.73269
G1 X37.111 Y74.776 F6000.000
G1 F1800
G1 X52.981 Y74.776 E4.03801
G1 X52.967 Y75.000 E4.04233
G1 X52.981 Y75.224 E4.04665
G1 X37.111 Y75.224 E4.35197
G1 X37.111 Y74.836 E4.35943
G1 X36.854 Y74.519 F6000.000
G1 F1800
G1 X53.255 Y74.519 E4.67497
G1 X53.225 Y75.000 E4.68425
G1 X53.255 Y75.481 E4.69352
G1 X36.854 Y75.481 E5.00906
G1 X36.854 Y74.579 E5.02642
G1 X37.254 Y74.527 F6000.000
G1 X37.240 Y75.000 F6000.000
G1 F1800
G1 X52.743 Y75.000 E5.19832
G1 Z0.400 F6000.000
G1 X52.838 Y73.783 F6000.000

G1 F2400
G1 X52.764 Y74.169 E5.21680

G1 F2400
G1 X52.741 Y74.288 E5.22151
G1 X52.697 Y75.000 E5.24910
G1 X52.741 Y75.712 E5.27670
G1 X52.764 Y75.831 E5.28140

G1 F2400
G1 X52.838 Y76.217 E5.29989
G1 X17.052 Y76.217 E6.98255
G1 X17.052 Y75.831 E7.00069

G1 F2400
G1 X17.052 Y74.169 E7.06504

G1 F2400
G1 X17.052 Y73.783 E7.08319
G1 X52.778 Y73.783 E8.76303

G1 X53.445 Y73.326 F6000.000

G1 F2400
G1 X53.319 Y73.701 E8.78163
G1 X53.229 Y74.169 E8.80405

G1 F2160
G1 X53.196 Y74.346 E8.80940
G1 X53.155 Y75.000 E8.82888
G1 X53.196 Y75.654 E8.84836
G1 X53.229 Y75.831 E8.85371

G1 F2400
G1 X53.319 Y76.299 E8.87613
G1 X53.445 Y76.674 E8.89473
G1 X16.595 Y76.674 E10.62744
G1 X16.595 Y75.831 E10.66708

G1 F2160
G1 X16.595 Y74.169 E10.71649

G1 F2400
G1 X16.595 Y73.326 E10.75613
G1 X53.385 Y73.326 E12.48602

G1 X52.548 Y74.266 F6000.000

G1 F2400
G1 X17.245 Y74.266 E14.48685
G1 X17.245 Y74.755 E14.51457
G1 X52.518 Y74.755 E16.51366
G1 X52.502 Y75.000 E16.52755
G1 X52.518 Y75.245 E16.54144
G1 X17.245 Y75.245 E18.54052
G1 X17.245 Y75.734 E18.56825
G1 X52.548 Y75.734 E20.56908
G1 X17.826 Y75.734 E22.53702

G1 Z0.600 F6000.000
G1 E20.53702 F1200.00000
G92 E0
G1 Z1.100 F6000.000
G1 X52.944 Y73.375 F6000.000
G1 Z0.600 F6000.000
G1 E2.00000 F1200.00000
G1 F2400
G1 X52.875 Y73.588 E2.00864
G1 X52.741 Y74.288 E2.03624
G1 X52.697 Y75.000 E2.06383
G1 X52.741 Y75.712 E2.09142
G1 X52.875 Y76.412 E2.11902
G1 X52.944 Y76.625 E2.12766
G1 X17.052 Y76.625 E3.51653
G1 X17.052 Y73.375 E3.64226
G1 X52.884 Y73.375 E5.02881
G1 X53.573 Y72.918 F6000.000
G1 F2160
G1 X53.319 Y73.702 E5.05328
G1 X53.196 Y74.346 E5.07276
G1 X53.155 Y75.000 E5.09224
G1 X53.196 Y75.654 E5.11173
G1 X53.319 Y76.298 E5.13121
G1 X53.573 Y77.082 E5.15568
G1 X16.595 Y77.082 E6.25451
G1 X16.595 Y72.918 E6.37823
G1 X53.513 Y72.918 E7.47527
G1 X53.305 Y73.216 F6000.000
G1 E5.47527 F1200.00000
G92 E0
G1 Z1.100 F6000.000
G1 X52.071 Y76.327 F6000.000
G1 Z0.600 F6000.000
G1 E2.00000 F1200.00000
G1 F1800
G1 X52.510 Y75.888 E2.02426
G1 X52.468 Y75.670 E2.03293
G1 X52.454 Y75.670 E2.03349
G1 X52.426 Y75.233 E2.05063
G1 X51.332 Y76.327 E2.11111
G1 X50.594 Y76.327 E2.13999
G1 X52.415 Y74.505 E2.24070
G1 X52.454 Y73.891 E2.26476
G1 X52.468 Y73.891 E2.26532
G1 X52.510 Y73.673 E2.27399
G1 X49.855 Y76.327 E2.42074
G1 X49.116 Y76.327 E2.44961
G1 X51.770 Y73.673 E2.59633
G1 X51.031 Y73.673 E2.62520
G1 X48.377 Y76.327 E2.77191
G1 X47.639 Y76.327 E2.80079
G1 X50.292 Y73.673 E2.94750
G1 X49.554 Y73.673 E2.97638
G1 X46.900 Y76.327 E3.12309
G1 X46.161 Y76.327 E3.15197
G1 X48.815 Y73.673 E3.29868
G1 X48.076 Y73.673 E3.32756
G1 X45.422 Y76.327 E3.47427
G1 X44.684 Y76.327 E3.50315
G1 X47.338 Y73.673 E3.64986
G1 X46.599 Y73.673 E3.67874
G1 X43.945 Y76.327 E3.82545
G1 X43.206 Y76.327 E3.85433
G1 X45.860 Y73.673 E4.00104
G1 X45.121 Y73.673 E4.02991
G1 X42.468 Y76.327 E4.17663
G1 X41.729 Y76.327 E4.20551
G1 X44.383 Y73.673 E4.35222
G1 X43.644 Y73.673 E4.38110
G1 X40.990 Y76.327 E4.52781
G1 X40.251 Y76.327 E4.55669
G1 X42.905 Y73.673 E4.70340
G1 X42.167 Y73.673 E4.73228
G1 X39.513 Y76.327 E4.87899
G1 X38.774 Y76.327 E4.90787
G1 X41.428 Y73.673 E5.05458
G1 X40.689 Y73.673 E5.08346
G1 X38.035 Y76.327 E5.23017
G1 X37.296 Y76.327 E5.25905
G1 X39.950 Y73.673 E5.40577
G1 X39.212 Y73.673 E5.43464
G1 X36.558 Y76.327 E5.58136
G1 X35.819 Y76.327 E5.61023
G1 X38.473 Y73.673 E5.75695
G1 X37.734 Y73.673 E5.78583
G1 X35.080 Y76.327 E5.93254
G1 X34.342 Y76.327 E5.96142
G1 X36.995 Y73.673 E6.10813
G1 X36.257 Y73.673 E6.13701
G1 X33.603 Y76.327 E6.28373
G1 X32.864 Y76.327 E6.31260
G1 X35.518 Y73.673 E6.45932
G1 X34.779 Y73.673 E6.48820
G1 X32.125 Y76.327 E6.63491
G1 X31.387 Y76.327 E6.66379
G1 X34.041 Y73.673 E6.81051
G1 X33.302 Y73.673 E6.83939
G1 X30.648 Y76.327 E6.98610
G1 X29.909 Y76.327 E7.01498
G1 X32.563 Y73.673 E7.16170
G1 X31.824 Y73.673 E7.19057
G1 X29.170 Y76.327 E7.33729
G1 X28.432 Y76.327 E7.36617
G1 X31.086 Y73.673 E7.51289
G1 X30.347 Y73.673 E7.54176
G1 X27.693 Y76.327 E7.68848
G1 X26.954 Y76.327 E7.71736
G1 X29.608 Y73.673 E7.86408
G1 X28.870 Y73.673 E7.89295
G1 X26.216 Y76.327 E8.03967
G1 X25.477 Y76.327 E8.06855
G1 X28.131 Y73.673 E8.21527
G1 X27.392 Y73.673 E8.24414
G1 X24.738 Y76.327 E8.39086
G1 X23.999 Y76.327 E8.41974
G1 X26.653 Y73.673 E8.56646
G1 X25.915 Y73.673 E8.59533
G1 X23.261 Y76.327 E8.74205
G1 X22.522 Y76.327 E8.77093
G1 X25.176 Y73.673 E8.91765
G1 X24.437 Y73.673 E8.94653
G1 X21.783 Y76.327 E9.09324
G1 X21.045 Y76.327 E9.12212
G1 X23.698 Y73.673 E9.26884
G1 X22.960 Y73.673 E9.29772
G1 X20.306 Y76.327 E9.44444
G1 X19.567 Y76.327 E9.47331
G1 X22.221 Y73.673 E9.62003
G1 X21.482 Y73.673 E9.64891
G1 X18.828 Y76.327 E9.79563
G1 X18.090 Y76.327 E9.82451
G1 X20.744 Y73.673 E9.97123
G1 X20.005 Y73.673 E10.00010
G1 X17.350 Y76.327 E10.14685
G1 X17.350 Y75.589 E10.17569
G1 X19.266 Y73.673 E10.28163
G1 X18.527 Y73.673 E10.31051
G1 X17.350 Y74.851 E10.37561
G1 X17.350 Y74.112 E10.40449
G1 X17.789 Y73.673 E10.42876
G1 Z0.800 F6000.000
G1 E8.42876 F1200.00000
G92 E0
G1 Z1.300 F6000.000
G1 X53.072 Y72.983 F6000.000
G1 Z0.800 F6000.000
G1 E2.00000 F1200.00000
G1 F2400
G1 X52.875 Y73.588 E2.02461
G1 X52.741 Y74.288 E2.05221
G1 X52.697 Y75.000 E2.07980
G1 X52.741 Y75.712 E2.10739
G1 X52.875 Y76.412 E2.13499
G1 X53.072 Y77.017 E2.15960
G1 X17.052 Y77.017 E3.55340
G1 X17.052 Y72.983 E3.70951
G1 X53.012 Y72.983 E5.10099
G1 X53.781 Y72.526 F6000.000
G1 F2160
G1 X53.521 Y73.078 E5.11913
G1 X53.319 Y73.702 E5.13862
G1 X53.196 Y74.346 E5.15810
G1 X53.155 Y75.000 E5.17758
G1 X53.196 Y75.654 E5.19706
G1 X53.319 Y76.298 E5.21654
G1 X53.521 Y76.922 E5.23602
G1 X53.781 Y77.474 E5.25416
G1 X16.595 Y77.474 E6.35917
G1 X16.595 Y72.526 E6.50622
G1 X53.721 Y72.526 E7.60944
G1 X53.490 Y72.800 F6000.000
G1 X52.585 Y73.719 F6000.000
G1 F1800
G1 X52.146 Y73.281 E7.63378
G1 X51.405 Y73.281 E7.66284
G1 X52.454 Y74.330 E7.72103
G1 X52.410 Y75.027 E7.74843
G1 X50.664 Y73.281 E7.84528
G1 X49.923 Y73.281 E7.87434
G1 X52.434 Y75.792 E8.01362
G1 X52.454 Y76.109 E8.02608
G1 X52.468 Y76.109 E8.02665
G1 X52.576 Y76.675 E8.04927
G1 X49.181 Y73.281 E8.23755
G1 X48.440 Y73.281 E8.26661
G1 X51.879 Y76.719 E8.45733
G1 X51.138 Y76.719 E8.48640
G1 X47.699 Y73.281 E8.67712
G1 X46.958 Y73.281 E8.70618
G1 X50.397 Y76.719 E8.89690
G1 X49.656 Y76.719 E8.92597
G1 X46.217 Y73.281 E9.11669
G1 X45.476 Y73.281 E9.14575
G1 X48.915 Y76.719 E9.33647
G1 X48.174 Y76.719 E9.36554
G1 X44.735 Y73.281 E9.55626
G1 X43.994 Y73.281 E9.58532
G1 X47.433 Y76.719 E9.77605
G1 X46.692 Y76.719 E9.80511
G1 X43.253 Y73.281 E9.99583
G1 X42.512 Y73.281 E10.02489
G1 X45.950 Y76.719 E10.21562
G1 X45.209 Y76.719 E10.24468
G1 X41.770 Y73.281 E10.43540
G1 X41.029 Y73.281 E10.46447
G1 X44.468 Y76.719 E10.65519
G1 X43.727 Y76.719 E10.68425
G1 X40.288 Y73.281 E10.87498
G1 X39.547 Y73.281 E10.90404
G1 X42.986 Y76.719 E11.09476
G1 X42.245 Y76.719 E11.12382
G1 X38.806 Y73.281 E11.31455
G1 X38.065 Y73.281 E11.34361
G1 X41.504 Y76.719 E11.53433
G1 X40.763 Y76.719 E11.56340
G1 X37.324 Y73.281 E11.75412
G1 X36.583 Y73.281 E11.78318
G1 X40.022 Y76.719 E11.97391
G1 X39.281 Y76.719 E12.00297
G1 X35.842 Y73.281 E12.19369
G1 X35.101 Y73.281 E12.22276
G1 X38.539 Y76.719 E12.41348
G1 X37.798 Y76.719 E12.44254
G1 X34.359 Y73.281 E12.63327
G1 X33.618 Y73.281 E12.66233
G1 X37.057 Y76.719 E12.85305
G1 X36.316 Y76.719 E12.88212
G1 X32.877 Y73.281 E13.07284
G1 X32.136 Y73.281 E13.10191
G1 X35.575 Y76.719 E13.29263
G1 X34.834 Y76.719 E13.32169
G1 X31.395 Y73.281 E13.51242
G1 X30.654 Y73.281 E13.54148
G1 X34.093 Y76.719 E13.73220
G1 X33.352 Y76.719 E13.76127
G1 X29.913 Y73.281 E13.95199
G1 X29.172 Y73.281 E13.98105
G1 X32.611 Y76.719 E14.17178
G1 X31.870 Y76.719 E14.20084
G1 X28.431 Y73.281 E14.39157
G1 X27.690 Y73.281 E14.42063
G1 X31.128 Y76.719 E14.61135
G1 X30.387 Y76.719 E14.64042
G1 X26.948 Y73.281 E14.83114
G1 X26.207 Y73.281 E14.86020
G1 X29.646 Y76.719 E15.05093
G1 X28.905 Y76.719 E15.07999
G1 X25.466 Y73.281 E15.27072
G1 X24.725 Y73.281 E15.29978
G1 X28.164 Y76.719 E15.49050
G1 X27.423 Y76.719 E15.51957
G1 X23.984 Y73.281 E15.71029
G1 X23.243 Y73.281 E15.73936
G1 X26.682 Y76.719 E15.93008
G1 X25.941 Y76.719 E15.95914
G1 X22.502 Y73.281 E16.14987
G1 X21.761 Y73.281 E16.17893
G1 X25.200 Y76.719 E16.36966
G1 X24.459 Y76.719 E16.39872
G1 X21.020 Y73.281 E16.58945
G1 X20.279 Y73.281 E16.61851
G1 X23.717 Y76.719 E16.80923
G1 X22.976 Y76.719 E16.83830
G1 X19.537 Y73.281 E17.02902
G1 X18.796 Y73.281 E17.05809
G1 X22.235 Y76.719 E17.24881
G1 X21.494 Y76.719 E17.27788
G1 X18.055 Y73.281 E17.46860
G1 X17.350 Y73.281 E17.49627
G1 X17.350 Y73.316 E17.49766
G1 X20.753 Y76.719 E17.68641
G1 X20.012 Y76.719 E17.71548
G1 X17.350 Y74.057 E17.86312
G1 X17.350 Y74.798 E17.89219
G1 X19.271 Y76.719 E17.99873
G1 X18.530 Y76.719 E18.02780
G1 X17.350 Y75.539 E18.09324
G1 X17.350 Y76.281 E18.12230
G1 X17.789 Y76.719 E18.14664
M106 S255
G1 Z1.000 F6000.000
G1 E16.14664 F1200.00000
G92 E0
G1 Z1.500 F6000.000
G1 X53.246 Y72.590 F6000.000
G1 Z1.000 F6000.000
G1 E2.00000 F1200.00000
G1 F2400
G1 X53.095 Y72.910 E2.01365
G1 X52.875 Y73.588 E2.04125
G1 X52.741 Y74.288 E2.06884
G1 X52.697 Y75.000 E2.09644
G1 X52.741 Y75.712 E2.12403
G1 X52.875 Y76.412 E2.15163
G1 X53.095 Y77.090 E2.17922
G1 X53.246 Y77.410 E2.19287
G1 X17.052 Y77.410 E3.59341
G1 X17.052 Y72.590 E3.77990
G1 X53.186 Y72.590 E5.17811
G1 X54.024 Y72.133 F6000.000
G1 F2160
G1 X53.800 Y72.485 E5.19049
G1 X53.521 Y73.078 E5.20997
G1 X53.319 Y73.702 E5.22945
G1 X53.196 Y74.346 E5.24894
G1 X53.155 Y75.000 E5.26842
G1 X53.196 Y75.654 E5.28790
G1 X53.319 Y76.298 E5.30738
G1 X53.521 Y76.922 E5.32686
G1 X53.800 Y77.515 E5.34634
G1 X54.024 Y77.867 E5.35872
G1 X16.595 Y77.867 E6.47093
G1 X16.595 Y72.133 E6.64130
G1 X53.964 Y72.133 E7.75173
G1 X53.723 Y72.397 F6000.000
G1 E5.75173 F1200.00000
G92 E0
G1 Z1.500 F6000.000
G1 X52.367 Y77.144 F6000.000
G1 Z1.000 F6000.000
G1 E2.00000 F1200.00000
G1 F1800
G1 X52.759 Y76.751 E2.01706
G1 X52.619 Y76.311 E2.03129
G1 X51.786 Y77.144 E2.06752
G1 X51.204 Y77.144 E2.08540
G1 X52.526 Y75.823 E2.14287
G1 X52.478 Y75.574 E2.15066
G1 X52.461 Y75.306 E2.15892
G1 X50.623 Y77.144 E2.23887
G1 X50.042 Y77.144 E2.25675
G1 X52.433 Y74.753 E2.36075
G1 X52.472 Y74.132 E2.37987
G1 X49.461 Y77.144 E2.51085
G1 X48.879 Y77.144 E2.52873
G1 X52.593 Y73.430 E2.69028
G1 X52.623 Y73.277 E2.69507
G1 X52.759 Y72.856 E2.70866
G1 X52.585 Y72.856 E2.71400
G1 X48.298 Y77.144 E2.90049
G1 X47.717 Y77.144 E2.91837
G1 X52.004 Y72.856 E3.10486
G1 X51.423 Y72.856 E3.12273
G1 X47.136 Y77.144 E3.30922
G1 X46.554 Y77.144 E3.32710
G1 X50.842 Y72.856 E3.51359
G1 X50.260 Y72.856 E3.53146
G1 X45.973 Y77.144 E3.71795
G1 X45.392 Y77.144 E3.73583
G1 X49.679 Y72.856 E3.92232
G1 X49.098 Y72.856 E3.94020
G1 X44.811 Y77.144 E4.12668
G1 X44.229 Y77.144 E4.14456
G1 X48.517 Y72.856 E4.33105
G1 X47.935 Y72.856 E4.34893
G1 X43.648 Y77.144 E4.53541
G1 X43.067 Y77.144 E4.55329
G1 X47.354 Y72.856 E4.73978
G1 X46.773 Y72.856 E4.75766
G1 X42.486 Y77.144 E4.94414
G1 X41.904 Y77.144 E4.96202
G1 X46.192 Y72.856 E5.14851
G1 X45.610 Y72.856 E5.16639
G1 X41.323 Y77.144 E5.35288
G1 X40.742 Y77.144 E5.37075
G1 X45.029 Y72.856 E5.55724
G1 X44.448 Y72.856 E5.57512
G1 X40.161 Y77.144 E5.76161
G1 X39.579 Y77.144 E5.77948
G1 X43.867 Y72.856 E5.96597
G1 X43.285 Y72.856 E5.98385
G1 X38.998 Y77.144 E6.17034
G1 X38.417 Y77.144 E6.18821
G1 X42.704 Y72.856 E6.37470
G1 X42.123 Y72.856 E6.39258
G1 X37.836 Y77.144 E6.57907
G1 X37.254 Y77.144 E6.59695
G1 X41.542 Y72.856 E6.78343
G1 X40.960 Y72.856 E6.80131
G1 X36.673 Y77.144 E6.98780
G1 X36.092 Y77.144 E7.00568
G1 X40.379 Y72.856 E7.19216
G1 X39.798 Y72.856 E7.21004
G1 X35.511 Y77.144 E7.39653
G1 X34.929 Y77.144 E7.41441
G1 X39.217 Y72.856 E7.60089
G1 X38.635 Y72.856 E7.61877
G1 X34.348 Y77.144 E7.80526
G1 X33.767 Y77.144 E7.82314
G1 X38.054 Y72.856 E8.00962
G1 X37.473 Y72.856 E8.02750
G1 X33.186 Y77.144 E8.21399
G1 X32.604 Y77.144 E8.23187
G1 X36.892 Y72.856 E8.41836
G1 X36.310 Y72.856 E8.43623
G1 X32.023 Y77.144 E8.62272
G1 X31.442 Y77.144 E8.64060
G1 X35.729 Y72.856 E8.82709
G1 X35.148 Y72.856 E8.84496
G1 X30.861 Y77.144 E9.03145
G1 X30.279 Y77.144 E9.04933
G1 X34.567 Y72.856 E9.23582
G1 X33.985 Y72.856 E9.25369
G1 X29.698 Y77.144 E9.44018
G1 X29.117 Y77.144 E9.45806
G1 X33.404 Y72.856 E9.64455
G1 X32.823 Y72.856 E9.66243
G1 X28.536 Y77.144 E9.84891
G1 X27.954 Y77.144 E9.86679
G1 X32.242 Y72.856 E10.05328
G1 X31.660 Y72.856 E10.07116
G1 X27.373 Y77.144 E10.25764
G1 X26.792 Y77.144 E10.27552
G1 X31.079 Y72.856 E10.46201
G1 X30.498 Y72.856 E10.47989
G1 X26.211 Y77.144 E10.66637
G1 X25.629 Y77.144 E10.68425
G1 X29.917 Y72.856 E10.87074
G1 X29.335 Y72.856 E10.88862
G1 X25.048 Y77.144 E11.07511
G1 X24.467 Y77.144 E11.09298
G1 X28.754 Y72.856 E11.27947
G1 X28.173 Y72.856 E11.29735
G1 X23.886 Y77.144 E11.48384
G1 X23.304 Y77.144 E11.50171
G1 X27.592 Y72.856 E11.68820
G1 X27.010 Y72.856 E11.70608
G1 X22.723 Y77.144 E11.89257
G1 X22.142 Y77.144 E11.91044
G1 X26.429 Y72.856 E12.09693
G1 X25.848 Y72.856 E12.11481
G1 X21.561 Y77.144 E12.30130
G1 X20.979 Y77.144 E12.31917
G1 X25.267 Y72.856 E12.50566
G1 X24.685 Y72.856 E12.52354
G1 X20.398 Y77.144 E12.71003
G1 X19.817 Y77.144 E12.72791
G1 X24.104 Y72.856 E12.91439
G1 X23.523 Y72.856 E12.93227
G1 X19.236 Y77.144 E13.11876
G1 X18.654 Y77.144 E13.13664
G1 X22.942 Y72.856 E13.32312
G1 X22.360 Y72.856 E13.34100
G1 X18.073 Y77.144 E13.52749
G1 X17.492 Y77.144 E13.54537
G1 X21.779 Y72.856 E13.73185
G1 X21.198 Y72.856 E13.74973
G1 X17.318 Y76.736 E13.91850
G1 X17.318 Y76.155 E13.93637
G1 X20.617 Y72.856 E14.07986
G1 X20.035 Y72.856 E14.09773
G1 X17.318 Y75.574 E14.21593
G1 X17.318 Y74.992 E14.23381
G1 X19.454 Y72.856 E14.32672
G1 X18.873 Y72.856 E14.34460
G1 X17.318 Y74.411 E14.41223
G1 X17.318 Y73.830 E14.43011
G1 X18.292 Y72.856 E14.47246
G1 X17.710 Y72.856 E14.49034
G1 X17.318 Y73.248 E14.50739
G1 Z1.200 F6000.000
G1 E12.50739 F1200.00000
G92 E0
G1 Z1.700 F6000.000
G1 X52.948 Y76.638 F6000.000
G1 Z1.200 F6000.000
G1 E2.00000 F1200.00000
G1 F2400
G1 X53.095 Y77.090 E2.01840
G1 X53.430 Y77.802 E2.04885
G1 X17.052 Y77.802 E3.45653
G1 X17.052 Y76.638 E3.50158
G1 X52.888 Y76.638 E4.88829
G1 X53.296 Y76.181 F6000.000
G1 F2160
G1 X53.319 Y76.298 E4.89184
G1 X53.521 Y76.922 E4.91132
G1 X53.800 Y77.515 E4.93081
G1 X54.273 Y78.259 E4.95700
G1 X16.595 Y78.259 E6.07661
G1 X16.595 Y76.181 E6.13837
G1 X53.236 Y76.181 E7.22718
G1 X53.252 Y76.292 F6000.000
G1 X52.871 Y77.220 F6000.000
G1 F1200
G1 X17.311 Y77.220 E8.83489
G1 E6.83489 F1200.00000
G92 E0
