; generated by Slic3r 1.3.0 on 2021-03-06 at 11:20:56

; external perimeters extrusion width = 0.44mm (2.86mm^3/s)
; perimeters extrusion width = 0.56mm (4.14mm^3/s)
; infill extrusion width = 0.50mm (3.66mm^3/s)
; solid infill extrusion width = 0.56mm (3.10mm^3/s)
; top infill extrusion width = 0.45mm (2.44mm^3/s)

M107
;D3D:START:START
T0
M104 S215 T0

G21
G90
M107
T0
G28
G29
M109 T0 S215 T0
G0 F3000
M107
T0
G92 E0
G0 X0 Y149 Z0.1 F3600
G1 Y49 E6.5 F1200
G0 Z1
G92 E0
; Filament gcode

G21 ; set units to millimeters
G90 ; use absolute coordinates
M82 ; use absolute distances for extrusion
G92 E0
G1 Z0.300 F6000.000
G1 E-2.00000 F1200.00000
G92 E0
G1 Z0.800 F6000.000
G1 X51.951 Y51.066 F6000.000
G1 Z0.300 F6000.000
G1 E2.00000 F1200.00000
G1 F1800
G1 X53.665 Y49.821 E2.09477
G1 X54.780 Y49.253 E2.15074
G1 X55.263 Y49.030 E2.17452
G1 X71.173 Y42.440 E2.94480
G1 X72.705 Y42.008 E3.01599
G1 X73.941 Y41.812 E3.07198
G1 X76.059 Y41.812 E3.16674
G1 X77.295 Y42.008 E3.22272
G1 X78.827 Y42.440 E3.29391
G1 X94.737 Y49.030 E4.06420
G1 X95.220 Y49.253 E4.08797
G1 X96.335 Y49.821 E4.14395
G1 X98.049 Y51.066 E4.23871
G1 X98.934 Y51.951 E4.29470
G1 X100.179 Y53.665 E4.38946
G1 X100.747 Y54.780 E4.44544
G1 X100.970 Y55.263 E4.46921
G1 X107.560 Y71.173 E5.23950
G1 X107.992 Y72.705 E5.31069
G1 X108.188 Y73.941 E5.36667
G1 X108.188 Y76.059 E5.46144
G1 X107.992 Y77.295 E5.51742
G1 X107.560 Y78.827 E5.58861
G1 X100.970 Y94.737 E6.35889
G1 X100.747 Y95.220 E6.38267
G1 X100.179 Y96.335 E6.43864
G1 X98.934 Y98.049 E6.53341
G1 X98.049 Y98.934 E6.58939
G1 X96.335 Y100.179 E6.68415
G1 X95.220 Y100.747 E6.74013
G1 X94.737 Y100.970 E6.76391
G1 X78.827 Y107.560 E7.53419
G1 X77.296 Y107.992 E7.60538
G1 X76.059 Y108.188 E7.66136
G1 X73.941 Y108.188 E7.75613
G1 X72.705 Y107.992 E7.81211
G1 X71.173 Y107.560 E7.88331
G1 X55.263 Y100.970 E8.65359
G1 X54.780 Y100.747 E8.67736
G1 X53.665 Y100.179 E8.73334
G1 X51.951 Y98.934 E8.82810
G1 X51.066 Y98.049 E8.88409
G1 X49.821 Y96.335 E8.97885
G1 X49.253 Y95.220 E9.03483
G1 X49.030 Y94.737 E9.05860
G1 X42.440 Y78.827 E9.82889
G1 X42.008 Y77.296 E9.90008
G1 X41.812 Y76.059 E9.95606
G1 X41.812 Y73.941 E10.05083
G1 X42.008 Y72.705 E10.10681
G1 X42.440 Y71.173 E10.17800
G1 X49.030 Y55.263 E10.94828
G1 X49.253 Y54.780 E10.97206
G1 X49.821 Y53.665 E11.02804
G1 X51.066 Y51.951 E11.12280
G1 X51.909 Y51.108 E11.17610
G1 X52.224 Y51.339 F6000.000
G1 F1800
G1 X53.840 Y50.164 E11.26547
G1 X54.955 Y49.596 E11.32144
G1 X55.410 Y49.386 E11.34386
G1 X71.320 Y42.796 E12.11415
G1 X72.765 Y42.389 E12.18129
G1 X74.001 Y42.193 E12.23727
G1 X75.999 Y42.193 E12.32664
G1 X77.235 Y42.389 E12.38262
G1 X78.680 Y42.796 E12.44976
G1 X94.590 Y49.386 E13.22004
G1 X95.045 Y49.596 E13.24246
G1 X96.160 Y50.164 E13.29844
G1 X97.776 Y51.339 E13.38780
G1 X98.661 Y52.224 E13.44379
G1 X99.836 Y53.840 E13.53315
G1 X100.404 Y54.955 E13.58913
G1 X100.614 Y55.410 E13.61155
G1 X107.204 Y71.320 E14.38184
G1 X107.611 Y72.765 E14.44897
G1 X107.807 Y74.001 E14.50495
G1 X107.807 Y75.999 E14.59433
G1 X107.611 Y77.235 E14.65031
G1 X107.204 Y78.680 E14.71744
G1 X100.614 Y94.590 E15.48773
G1 X100.404 Y95.045 E15.51015
G1 X99.836 Y96.160 E15.56612
G1 X98.661 Y97.776 E15.65549
G1 X97.776 Y98.661 E15.71147
G1 X96.160 Y99.836 E15.80084
G1 X95.045 Y100.404 E15.85682
G1 X94.590 Y100.614 E15.87924
G1 X78.680 Y107.204 E16.64952
G1 X77.235 Y107.611 E16.71666
G1 X75.999 Y107.807 E16.77264
G1 X74.001 Y107.807 E16.86201
G1 X72.765 Y107.611 E16.91799
G1 X71.320 Y107.204 E16.98513
G1 X55.410 Y100.614 E17.75541
G1 X54.955 Y100.404 E17.77784
G1 X53.840 Y99.836 E17.83381
G1 X52.224 Y98.661 E17.92318
G1 X51.339 Y97.776 E17.97916
G1 X50.164 Y96.160 E18.06853
G1 X49.596 Y95.045 E18.12450
G1 X49.386 Y94.590 E18.14693
G1 X42.796 Y78.680 E18.91721
G1 X42.389 Y77.235 E18.98435
G1 X42.193 Y75.999 E19.04033
G1 X42.193 Y74.001 E19.12970
G1 X42.389 Y72.765 E19.18568
G1 X42.796 Y71.320 E19.25282
G1 X49.386 Y55.410 E20.02310
G1 X49.596 Y54.955 E20.04552
G1 X50.164 Y53.840 E20.10150
G1 X51.339 Y52.224 E20.19087
G1 X52.181 Y51.381 E20.24417
G1 E18.24417 F1200.00000
G92 E0
G1 Z0.800 F6000.000
G1 X97.500 Y78.560 F6000.000
G1 Z0.300 F6000.000
G1 E2.00000 F1200.00000
G1 F1800
G1 X94.417 Y76.780 E2.15923
G1 X94.417 Y75.168 E2.23134
G1 X94.204 Y75.151 E2.24091
G1 X94.022 Y76.298 E2.29283
G1 X91.359 Y82.727 E2.60411
G1 X90.771 Y83.882 E2.66208
G1 X89.836 Y84.817 E2.72124
G1 X88.659 Y85.416 E2.78028
G1 X88.066 Y85.525 E2.80728
G1 X87.273 Y85.882 E2.84617
G1 X86.493 Y86.493 E2.89049
G1 X85.882 Y87.273 E2.93482
G1 X85.525 Y88.066 E2.97370
G1 X85.416 Y88.659 E3.00070
G1 X84.817 Y89.836 E3.05974
G1 X83.882 Y90.771 E3.11891
G1 X82.727 Y91.359 E3.17688
G1 X76.298 Y94.022 E3.48815
G1 X75.151 Y94.204 E3.54008
G1 X75.168 Y94.417 E3.54964
G1 X76.780 Y94.417 E3.62175
G1 X78.560 Y97.500 E3.78098
G1 X76.780 Y100.583 E3.94021
G1 X73.220 Y100.583 E4.09944
G1 X71.440 Y97.500 E4.25867
G1 X73.220 Y94.417 E4.41790
G1 X74.832 Y94.417 E4.49001
G1 X74.849 Y94.204 E4.49958
G1 X73.702 Y94.022 E4.55151
G1 X67.273 Y91.359 E4.86278
G1 X66.118 Y90.771 E4.92075
G1 X65.183 Y89.836 E4.97992
G1 X64.584 Y88.659 E5.03896
G1 X64.475 Y88.066 E5.06596
G1 X64.118 Y87.273 E5.10484
G1 X63.507 Y86.493 E5.14917
G1 X62.727 Y85.882 E5.19349
G1 X61.934 Y85.525 E5.23237
G1 X61.341 Y85.416 E5.25937
G1 X60.164 Y84.817 E5.31842
G1 X59.229 Y83.882 E5.37758
G1 X58.641 Y82.727 E5.43555
G1 X55.978 Y76.298 E5.74683
G1 X55.796 Y75.151 E5.79875
G1 X55.583 Y75.168 E5.80832
G1 X55.583 Y76.780 E5.88043
G1 X52.500 Y78.560 E6.03966
G1 X49.417 Y76.780 E6.19889
G1 X49.417 Y73.220 E6.35812
G1 X52.500 Y71.440 E6.51735
G1 X55.583 Y73.220 E6.67658
G1 X55.583 Y74.832 E6.74869
G1 X55.796 Y74.849 E6.75826
G1 X55.978 Y73.702 E6.81018
G1 X58.641 Y67.273 E7.12146
G1 X59.229 Y66.118 E7.17943
G1 X60.164 Y65.183 E7.23859
G1 X61.341 Y64.584 E7.29764
G1 X61.934 Y64.475 E7.32464
G1 X62.727 Y64.118 E7.36352
G1 X63.507 Y63.507 E7.40784
G1 X64.118 Y62.727 E7.45217
G1 X64.475 Y61.934 E7.49105
G1 X64.584 Y61.341 E7.51805
G1 X65.183 Y60.164 E7.57709
G1 X66.118 Y59.229 E7.63626
G1 X67.273 Y58.641 E7.69423
G1 X73.702 Y55.978 E8.00550
G1 X74.849 Y55.796 E8.05743
G1 X74.832 Y55.583 E8.06700
G1 X73.220 Y55.583 E8.13911
G1 X71.440 Y52.500 E8.29834
G1 X73.220 Y49.417 E8.45757
G1 X76.780 Y49.417 E8.61680
G1 X78.560 Y52.500 E8.77603
G1 X76.780 Y55.583 E8.93526
G1 X75.168 Y55.583 E9.00737
G1 X75.151 Y55.796 E9.01693
G1 X76.298 Y55.978 E9.06886
G1 X82.727 Y58.641 E9.38014
G1 X83.882 Y59.229 E9.43810
G1 X84.817 Y60.164 E9.49727
G1 X85.416 Y61.341 E9.55631
G1 X85.525 Y61.934 E9.58331
G1 X85.882 Y62.727 E9.62219
G1 X86.493 Y63.507 E9.66652
G1 X87.273 Y64.118 E9.71084
G1 X88.066 Y64.475 E9.74973
G1 X88.659 Y64.584 E9.77673
G1 X89.836 Y65.183 E9.83577
G1 X90.771 Y66.118 E9.89494
G1 X91.359 Y67.273 E9.95290
G1 X94.022 Y73.702 E10.26418
G1 X94.204 Y74.849 E10.31611
G1 X94.417 Y74.832 E10.32567
G1 X94.417 Y73.220 E10.39778
G1 X97.500 Y71.440 E10.55701
G1 X100.583 Y73.220 E10.71624
G1 X100.583 Y76.780 E10.87547
G1 X97.552 Y78.530 E11.03202
G1 X97.300 Y78.906 F6000.000
G1 E9.03202 F1200.00000
G92 E0
G1 Z0.800 F6000.000
G1 X70.550 Y52.500 F6000.000
G1 Z0.300 F6000.000
G1 E2.00000 F1200.00000
G1 F1800
G1 X72.390 Y55.687 E2.16460
G1 X66.950 Y57.940 E2.42795
G1 X65.659 Y58.597 E2.49274
G1 X64.551 Y59.706 E2.56283
G1 X63.845 Y61.091 E2.63238
G1 X63.733 Y61.703 E2.66023
G1 X63.453 Y62.325 E2.69073
G1 X62.958 Y62.958 E2.72668
G1 X62.325 Y63.453 E2.76262
G1 X61.703 Y63.733 E2.79313
G1 X61.091 Y63.845 E2.82098
G1 X59.706 Y64.551 E2.89052
G1 X58.597 Y65.659 E2.96062
G1 X57.940 Y66.950 E3.02540
G1 X55.687 Y72.390 E3.28876
G1 X52.500 Y70.550 E3.45336
G1 X50.891 Y71.479 E3.53648
G1 X50.766 Y71.370 E3.54390
G1 X56.191 Y58.271 E4.17805
G1 X56.670 Y57.332 E4.22521
G1 X57.332 Y56.670 E4.26708
G1 X58.271 Y56.191 E4.31424
G1 X71.370 Y50.766 E4.94839
G1 X71.479 Y50.891 E4.95581
G1 X70.580 Y52.448 E5.03625
G1 X70.995 Y52.500 F6000.000
G1 F1800
G1 X72.943 Y55.875 E5.21056
G1 X67.112 Y58.290 E5.49290
G1 X65.889 Y58.913 E5.55428
G1 X64.867 Y59.935 E5.61891
G1 X64.215 Y61.216 E5.68321
G1 X64.104 Y61.819 E5.71063
G1 X63.786 Y62.526 E5.74532
G1 X63.232 Y63.232 E5.78546
G1 X62.526 Y63.786 E5.82560
G1 X61.819 Y64.104 E5.86029
G1 X61.216 Y64.215 E5.88771
G1 X59.935 Y64.867 E5.95201
G1 X58.913 Y65.889 E6.01664
G1 X58.290 Y67.112 E6.07801
G1 X55.875 Y72.943 E6.36036
G1 X52.500 Y70.995 E6.53467
G1 X50.100 Y72.381 E6.65865
G1 X49.975 Y72.271 E6.66606
G1 X55.841 Y58.110 E7.35170
G1 X56.354 Y57.102 E7.40228
G1 X57.102 Y56.354 E7.44961
G1 X58.110 Y55.841 E7.50018
G1 X72.271 Y49.975 E8.18582
G1 X72.381 Y50.100 E8.19324
G1 X71.025 Y52.448 E8.31454
G1 E6.31454 F1200.00000
G92 E0
G1 Z0.800 F6000.000
G1 X79.450 Y52.500 F6000.000
G1 Z0.300 F6000.000
G1 E2.00000 F1200.00000
G1 F1800
G1 X78.529 Y50.903 E2.08247
G1 X78.638 Y50.779 E2.08988
G1 X91.729 Y56.191 E2.72352
G1 X92.668 Y56.670 E2.77067
G1 X93.330 Y57.332 E2.81254
G1 X93.809 Y58.271 E2.85971
G1 X99.234 Y71.370 E3.49386
G1 X99.109 Y71.479 E3.50127
G1 X97.500 Y70.550 E3.58440
G1 X94.313 Y72.390 E3.74899
G1 X92.060 Y66.950 E4.01235
G1 X91.403 Y65.659 E4.07714
G1 X90.294 Y64.551 E4.14723
G1 X88.909 Y63.845 E4.21677
G1 X88.297 Y63.733 E4.24462
G1 X87.675 Y63.453 E4.27513
G1 X87.042 Y62.958 E4.31108
G1 X86.547 Y62.325 E4.34702
G1 X86.267 Y61.703 E4.37753
G1 X86.154 Y61.091 E4.40538
G1 X85.449 Y59.706 E4.47492
G1 X84.341 Y58.597 E4.54501
G1 X83.050 Y57.940 E4.60980
G1 X77.610 Y55.687 E4.87316
G1 X79.420 Y52.552 E5.03507
G1 X79.005 Y52.500 F6000.000
G1 F1800
G1 X77.627 Y50.113 E5.15834
G1 X77.736 Y49.989 E5.16575
G1 X91.890 Y55.841 E5.85084
G1 X92.898 Y56.354 E5.90140
G1 X93.646 Y57.102 E5.94873
G1 X94.159 Y58.110 E5.99931
G1 X100.025 Y72.271 E6.68495
G1 X99.900 Y72.381 E6.69236
G1 X97.500 Y70.995 E6.81634
G1 X94.125 Y72.943 E6.99065
G1 X91.710 Y67.112 E7.27300
G1 X91.087 Y65.889 E7.33437
G1 X90.065 Y64.867 E7.39900
G1 X88.784 Y64.215 E7.46330
G1 X88.181 Y64.104 E7.49072
G1 X87.474 Y63.786 E7.52542
G1 X86.768 Y63.232 E7.56555
G1 X86.214 Y62.526 E7.60569
G1 X85.896 Y61.819 E7.64038
G1 X85.785 Y61.216 E7.66781
G1 X85.133 Y59.935 E7.73210
G1 X84.111 Y58.913 E7.79673
G1 X82.888 Y58.290 E7.85811
G1 X77.057 Y55.875 E8.14045
G1 X78.975 Y52.552 E8.31208
G1 E6.31208 F1200.00000
G92 E0
G1 Z0.800 F6000.000
G1 X94.313 Y77.610 F6000.000
G1 Z0.300 F6000.000
G1 E2.00000 F1200.00000
G1 F1800
G1 X97.500 Y79.450 E2.16460
G1 X99.109 Y78.521 E2.24772
G1 X99.234 Y78.630 E2.25514
G1 X93.809 Y91.729 E2.88929
G1 X93.330 Y92.668 E2.93645
G1 X92.668 Y93.330 E2.97832
G1 X91.729 Y93.809 E3.02548
G1 X78.630 Y99.234 E3.65963
G1 X78.521 Y99.109 E3.66705
G1 X79.450 Y97.500 E3.75017
G1 X77.610 Y94.313 E3.91477
G1 X83.050 Y92.060 E4.17813
G1 X84.341 Y91.403 E4.24291
G1 X85.449 Y90.294 E4.31301
G1 X86.155 Y88.909 E4.38255
G1 X86.267 Y88.297 E4.41040
G1 X86.547 Y87.675 E4.44091
G1 X87.042 Y87.042 E4.47685
G1 X87.675 Y86.547 E4.51280
G1 X88.297 Y86.267 E4.54331
G1 X88.909 Y86.154 E4.57115
G1 X90.294 Y85.449 E4.64070
G1 X91.403 Y84.341 E4.71079
G1 X92.060 Y83.050 E4.77558
G1 X94.290 Y77.666 E5.03625
G1 X94.125 Y77.057 F6000.000
G1 F1800
G1 X97.500 Y79.005 E5.21056
G1 X99.900 Y77.619 E5.33454
G1 X100.025 Y77.729 E5.34195
G1 X94.159 Y91.890 E6.02759
G1 X93.646 Y92.898 E6.07817
G1 X92.898 Y93.646 E6.12550
G1 X91.890 Y94.159 E6.17607
G1 X77.729 Y100.025 E6.86171
G1 X77.619 Y99.900 E6.86913
G1 X79.005 Y97.500 E6.99311
G1 X77.057 Y94.125 E7.16741
G1 X82.888 Y91.710 E7.44976
G1 X84.111 Y91.087 E7.51114
G1 X85.133 Y90.065 E7.57577
G1 X85.785 Y88.784 E7.64006
G1 X85.896 Y88.181 E7.66749
G1 X86.214 Y87.474 E7.70218
G1 X86.768 Y86.768 E7.74232
G1 X87.474 Y86.214 E7.78245
G1 X88.181 Y85.896 E7.81715
G1 X88.784 Y85.785 E7.84457
G1 X90.065 Y85.133 E7.90887
G1 X91.087 Y84.111 E7.97349
G1 X91.710 Y82.888 E8.03487
G1 X94.102 Y77.112 E8.31454
G1 E6.31454 F1200.00000
G92 E0
G1 Z0.800 F6000.000
G1 X72.390 Y94.313 F6000.000
G1 Z0.300 F6000.000
G1 E2.00000 F1200.00000
G1 F1800
G1 X70.550 Y97.500 E2.16460
G1 X71.479 Y99.109 E2.24772
G1 X71.370 Y99.234 E2.25514
G1 X58.271 Y93.809 E2.88929
G1 X57.332 Y93.330 E2.93645
G1 X56.670 Y92.668 E2.97832
G1 X56.191 Y91.729 E3.02548
G1 X50.766 Y78.630 E3.65963
G1 X50.891 Y78.521 E3.66705
G1 X52.500 Y79.450 E3.75018
G1 X55.687 Y77.610 E3.91477
G1 X57.940 Y83.050 E4.17813
G1 X58.597 Y84.341 E4.24291
G1 X59.706 Y85.449 E4.31301
G1 X61.091 Y86.154 E4.38255
G1 X61.703 Y86.267 E4.41040
G1 X62.325 Y86.547 E4.44091
G1 X62.958 Y87.042 E4.47685
G1 X63.453 Y87.675 E4.51280
G1 X63.733 Y88.297 E4.54331
G1 X63.845 Y88.909 E4.57115
G1 X64.551 Y90.294 E4.64070
G1 X65.659 Y91.403 E4.71079
G1 X66.950 Y92.060 E4.77558
G1 X72.334 Y94.290 E5.03625
G1 X72.943 Y94.125 F6000.000
G1 F1800
G1 X70.995 Y97.500 E5.21056
G1 X72.381 Y99.900 E5.33454
G1 X72.271 Y100.025 E5.34195
G1 X58.110 Y94.159 E6.02759
G1 X57.102 Y93.646 E6.07817
G1 X56.354 Y92.898 E6.12550
G1 X55.841 Y91.890 E6.17607
G1 X49.975 Y77.729 E6.86171
G1 X50.100 Y77.619 E6.86913
G1 X52.500 Y79.005 E6.99311
G1 X55.875 Y77.057 E7.16741
G1 X58.290 Y82.888 E7.44976
G1 X58.913 Y84.111 E7.51114
G1 X59.935 Y85.133 E7.57577
G1 X61.216 Y85.785 E7.64006
G1 X61.819 Y85.896 E7.66749
G1 X62.526 Y86.214 E7.70218
G1 X63.232 Y86.768 E7.74232
G1 X63.786 Y87.474 E7.78245
G1 X64.104 Y88.181 E7.81715
G1 X64.215 Y88.784 E7.84457
G1 X64.867 Y90.065 E7.90887
G1 X65.889 Y91.087 E7.97349
G1 X67.112 Y91.710 E8.03487
G1 X72.888 Y94.102 E8.31454
G1 E6.31454 F1200.00000
G92 E0
G1 Z0.800 F6000.000
G1 X73.173 Y100.816 F6000.000
G1 Z0.300 F6000.000
G1 E2.00000 F1200.00000
G1 F1800
G1 X57.948 Y94.510 E2.73713
G1 X56.873 Y93.962 E2.79111
G1 X56.038 Y93.127 E2.84391
G1 X55.490 Y92.052 E2.89789
G1 X48.914 Y76.175 E3.66659
G1 X48.728 Y75.000 E3.71978
G1 X48.914 Y73.825 E3.77298
G1 X55.490 Y57.948 E4.54167
G1 X56.038 Y56.873 E4.59566
G1 X56.873 Y56.038 E4.64845
G1 X57.948 Y55.490 E4.70244
G1 X73.825 Y48.914 E5.47113
G1 X75.000 Y48.728 E5.52433
G1 X76.128 Y48.907 E5.57542
G1 X92.052 Y55.490 E6.34616
G1 X93.127 Y56.038 E6.40014
G1 X93.962 Y56.873 E6.45294
G1 X94.510 Y57.948 E6.50692
G1 X101.086 Y73.825 E7.27562
G1 X101.272 Y75.000 E7.32881
G1 X101.086 Y76.175 E7.38200
G1 X94.510 Y92.052 E8.15070
G1 X93.962 Y93.127 E8.20468
G1 X93.127 Y93.962 E8.25748
G1 X92.052 Y94.510 E8.31146
G1 X76.175 Y101.086 E9.08016
G1 X75.000 Y101.272 E9.13335
G1 X73.825 Y101.086 E9.18655
G1 X73.229 Y100.839 E9.21543
G1 X73.102 Y100.423 F6000.000
G1 X73.689 Y100.797 F6000.000
G1 F1800
G1 X73.792 Y100.818 E9.21574
G1 F1800
G1 X74.171 Y100.860 E9.22037
G1 F1800
G1 X75.000 Y100.925 E9.23883
G1 X75.552 Y100.882 E9.25114
G1 F1800
G1 X76.105 Y100.838 E9.25787
G1 F1800
G1 X76.311 Y100.797 E9.25848
G1 E7.25848 F1200.00000
G92 E0
G1 Z0.800 F6000.000
G1 X70.392 Y98.855 F6000.000
G1 Z0.300 F6000.000
G1 E2.00000 F1200.00000
G1 F1800
G1 X71.019 Y98.228 E2.04001
G1 X70.818 Y97.880 E2.05817
G1 X70.003 Y98.694 E2.11014
G1 X69.614 Y98.533 E2.12913
G1 X70.617 Y97.531 E2.19306
G1 X70.418 Y97.186 E2.21100
G1 X70.427 Y97.171 E2.21182
G1 X69.226 Y98.372 E2.28845
G1 X68.837 Y98.211 E2.30744
G1 X71.178 Y95.870 E2.45679
G1 X71.929 Y94.569 E2.52456
G1 X68.448 Y98.050 E2.74664
G1 X68.059 Y97.889 E2.76563
G1 X71.874 Y94.074 E3.00900
G1 X71.485 Y93.913 E3.02798
G1 X67.670 Y97.728 E3.27135
G1 X67.281 Y97.567 E3.29034
G1 X71.097 Y93.752 E3.53371
G1 X70.708 Y93.591 E3.55269
G1 X66.892 Y97.406 E3.79606
G1 X66.504 Y97.245 E3.81504
G1 X70.319 Y93.429 E4.05841
G1 X69.930 Y93.268 E4.07740
G1 X66.115 Y97.084 E4.32077
G1 X65.726 Y96.923 E4.33975
G1 X69.541 Y93.107 E4.58312
G1 X69.152 Y92.946 E4.60211
G1 X65.337 Y96.761 E4.84548
G1 X64.948 Y96.600 E4.86446
G1 X68.763 Y92.785 E5.10783
G1 X68.375 Y92.624 E5.12682
G1 X64.559 Y96.439 E5.37019
G1 X64.170 Y96.278 E5.38917
G1 X67.986 Y92.463 E5.63254
G1 X67.597 Y92.302 E5.65152
G1 X63.782 Y96.117 E5.89489
G1 X63.393 Y95.956 E5.91388
G1 X67.208 Y92.141 E6.15725
G1 X66.837 Y91.962 E6.17583
G1 X63.004 Y95.795 E6.42033
G1 X62.615 Y95.634 E6.43932
G1 X66.473 Y91.776 E6.68539
G1 X66.108 Y91.591 E6.70384
G1 X62.226 Y95.473 E6.95148
G1 X61.837 Y95.312 E6.97046
G1 X65.744 Y91.405 E7.21967
G1 X65.469 Y91.130 E7.23721
