; generated by Slic3r 1.3.1-dev (Build (Unknown revision)) on 2020-10-01 at 11:05:57

; external perimeters extrusion width = 0.44mm (2.86mm^3/s)
; perimeters extrusion width = 0.56mm (4.14mm^3/s)
; infill extrusion width = 0.50mm (3.66mm^3/s)
; solid infill extrusion width = 0.56mm (3.10mm^3/s)
; top infill extrusion width = 0.45mm (2.44mm^3/s)

M107
G92 E0
;D3D:START:START
T0
M104 S215 T0

G21
G90
M107
T0
G28
G29
M109 T0 S215 T0
G0 F3000
M107
T0
G92 E0
G0 X0 Y149 Z0.1 F3600
G1 Y49 E6.5 F1200
G0 Z1
G92 E0
; Filament gcode

G21 ; set units to millimeters
G90 ; use absolute coordinates
M82 ; use absolute distances for extrusion
G92 E0
G1 Z0.300 F6000.000
G1 E-2.00000 F1200.00000
G92 E0
G1 Z0.800 F6000.000
G1 X52.770 Y55.199 F6000.000
G1 Z0.300 F6000.000
G1 E2.00000 F1200.00000
G1 F1800.000
G1 X54.528 Y53.687 E2.10372
G1 X56.693 Y52.856 E2.20744
G1 X58.000 Y52.729 E2.26617
G1 X92.000 Y52.729 E3.78698
G1 X94.285 Y53.126 E3.89070
G1 X96.301 Y54.270 E3.99442
G1 X97.813 Y56.028 E4.09815
G1 X98.644 Y58.193 E4.20187
G1 X98.771 Y59.500 E4.26059
G1 X98.771 Y84.500 E5.37884
G1 X98.374 Y86.785 E5.48256
G1 X97.230 Y88.801 E5.58628
G1 X95.472 Y90.313 E5.69000
G1 X93.307 Y91.144 E5.79372
G1 X92.000 Y91.271 E5.85245
G1 X58.000 Y91.271 E7.37326
G1 X55.715 Y90.874 E7.47698
G1 X53.699 Y89.730 E7.58070
G1 X52.187 Y87.972 E7.68442
G1 X51.356 Y85.807 E7.78815
G1 X51.229 Y84.500 E7.84687
G1 X51.229 Y59.500 E8.96512
G1 X51.626 Y57.215 E9.06884
G1 X52.741 Y55.251 E9.16988
G1 X53.153 Y55.343 F6000.000
G1 F1800.000
G1 X54.896 Y53.919 E9.27058
G1 X58.000 Y53.114 E9.41400
G1 X92.000 Y53.114 E10.93481
G1 X94.216 Y53.511 E11.03551
G1 X96.157 Y54.653 E11.13621
G1 X97.581 Y56.396 E11.23692
G1 X98.386 Y59.500 E11.38034
G1 X98.386 Y84.500 E12.49858
G1 X97.989 Y86.716 E12.59928
G1 X96.847 Y88.657 E12.69998
G1 X95.104 Y90.081 E12.80069
G1 X92.000 Y90.886 E12.94411
G1 X58.000 Y90.886 E14.46492
G1 X55.784 Y90.489 E14.56562
G1 X53.843 Y89.347 E14.66632
G1 X52.419 Y87.604 E14.76702
G1 X51.614 Y84.500 E14.91044
G1 X51.614 Y59.500 E16.02869
G1 X52.011 Y57.284 E16.12939
G1 X53.122 Y55.395 E16.22741
G1 E14.22741 F1200.00000
G92 E0
G1 Z0.800 F6000.000
G1 X90.611 Y82.111 F6000.000
G1 Z0.300 F6000.000
G1 E2.00000 F1200.00000
G1 F1800.000
G1 X59.389 Y82.111 E3.39652
G1 X59.389 Y61.889 E4.30101
G1 X90.611 Y61.889 E5.69753
G1 X90.611 Y82.051 E6.59934
G1 X90.225 Y81.725 F6000.000
G1 F1800.000
G1 X59.775 Y81.725 E7.96136
G1 X59.775 Y62.275 E8.83136
G1 X90.225 Y62.275 E10.19338
G1 X90.225 Y81.665 E11.06069
G1 X90.356 Y82.103 F6000.000
G1 E9.06069 F1200.00000
G92 E0
G1 Z0.800 F6000.000
G1 X91.004 Y61.504 F6000.000
G1 Z0.300 F6000.000
G1 E2.00000 F1200.00000
G1 F1800.000
G1 X58.996 Y61.504 E3.43169
G1 X58.996 Y60.496 E3.47676
G1 X91.004 Y60.496 E4.90845
G1 X91.004 Y61.444 E4.95083
G1 E2.95083 F1200.00000
G92 E0
G1 Z0.800 F6000.000
G1 X91.004 Y82.496 F6000.000
G1 Z0.300 F6000.000
G1 E2.00000 F1200.00000
G1 F1800.000
G1 X91.004 Y83.504 E2.04507
G1 X58.996 Y83.504 E3.47676
G1 X58.996 Y82.496 E3.52182
G1 X90.944 Y82.496 E4.95083
G1 X91.389 Y83.889 F6000.000
G1 F1800.000
G1 X58.611 Y83.889 E6.41702
G1 X58.611 Y60.111 E7.48064
G1 X91.389 Y60.111 E8.94683
G1 X91.389 Y83.829 E10.00776
G1 X91.775 Y84.275 F6000.000
G1 F1800.000
G1 X58.225 Y84.275 E11.50845
G1 X58.225 Y59.725 E12.60657
G1 X91.775 Y59.725 E14.10725
G1 X91.775 Y84.215 E15.20268
G1 X91.384 Y84.191 F6000.000
G1 X90.304 Y83.432 F6000.000
G1 F1800.000
G1 X90.932 Y82.804 E15.24286
G1 X90.932 Y82.568 E15.25356
G1 X90.616 Y82.568 E15.26787
G1 X89.752 Y83.432 E15.32317
G1 X89.200 Y83.432 E15.34817
G1 X90.064 Y82.568 E15.40347
G1 X89.511 Y82.568 E15.42848
G1 X88.648 Y83.432 E15.48378
G1 X88.096 Y83.432 E15.50879
G1 X88.959 Y82.568 E15.56409
G1 X88.407 Y82.568 E15.58910
G1 X87.544 Y83.432 E15.64440
G1 X86.992 Y83.432 E15.66940
G1 X87.855 Y82.568 E15.72471
G1 X87.303 Y82.568 E15.74971
G1 X86.439 Y83.432 E15.80501
G1 X85.887 Y83.432 E15.83002
G1 X86.751 Y82.568 E15.88532
G1 X86.199 Y82.568 E15.91033
G1 X85.335 Y83.432 E15.96563
G1 X84.783 Y83.432 E15.99063
G1 X85.646 Y82.568 E16.04594
G1 X85.094 Y82.568 E16.07094
G1 X84.231 Y83.432 E16.12624
G1 X83.679 Y83.432 E16.15125
G1 X84.542 Y82.568 E16.20655
G1 X83.990 Y82.568 E16.23156
G1 X83.127 Y83.432 E16.28686
G1 X82.574 Y83.432 E16.31186
G1 X83.438 Y82.568 E16.36717
G1 X82.886 Y82.568 E16.39217
G1 X82.022 Y83.432 E16.44747
G1 X81.470 Y83.432 E16.47248
G1 X82.334 Y82.568 E16.52778
G1 X81.781 Y82.568 E16.55279
G1 X80.918 Y83.432 E16.60809
G1 X80.366 Y83.432 E16.63309
G1 X81.229 Y82.568 E16.68840
G1 X80.677 Y82.568 E16.71340
G1 X79.814 Y83.432 E16.76870
G1 X79.262 Y83.432 E16.79371
G1 X80.125 Y82.568 E16.84901
G1 X79.573 Y82.568 E16.87402
G1 X78.709 Y83.432 E16.92932
G1 X78.157 Y83.432 E16.95432
G1 X79.021 Y82.568 E17.00963
G1 X78.469 Y82.568 E17.03463
G1 X77.605 Y83.432 E17.08993
G1 X77.053 Y83.432 E17.11494
G1 X77.916 Y82.568 E17.17024
G1 X77.364 Y82.568 E17.19525
G1 X76.501 Y83.432 E17.25055
G1 X75.949 Y83.432 E17.27555
G1 X76.812 Y82.568 E17.33086
G1 X76.260 Y82.568 E17.35586
G1 X75.397 Y83.432 E17.41116
G1 X74.844 Y83.432 E17.43617
G1 X75.708 Y82.568 E17.49147
G1 X75.156 Y82.568 E17.51648
G1 X74.292 Y83.432 E17.57178
G1 X73.740 Y83.432 E17.59678
G1 X74.604 Y82.568 E17.65209
G1 X74.051 Y82.568 E17.67709
G1 X73.188 Y83.432 E17.73239
G1 X72.636 Y83.432 E17.75740
G1 X73.499 Y82.568 E17.81270
G1 X72.947 Y82.568 E17.83771
G1 X72.084 Y83.432 E17.89301
G1 X71.531 Y83.432 E17.91801
G1 X72.395 Y82.568 E17.97332
G1 X71.843 Y82.568 E17.99832
G1 X70.979 Y83.432 E18.05362
G1 X70.427 Y83.432 E18.07863
G1 X71.291 Y82.568 E18.13393
G1 X70.739 Y82.568 E18.15894
G1 X69.875 Y83.432 E18.21424
G1 X69.323 Y83.432 E18.23924
G1 X70.186 Y82.568 E18.29455
G1 X69.634 Y82.568 E18.31955
G1 X68.771 Y83.432 E18.37485
G1 X68.219 Y83.432 E18.39986
G1 X69.082 Y82.568 E18.45516
G1 X68.530 Y82.568 E18.48017
G1 X67.666 Y83.432 E18.53547
G1 X67.114 Y83.432 E18.56047
G1 X67.978 Y82.568 E18.61578
G1 X67.426 Y82.568 E18.64078
G1 X66.562 Y83.432 E18.69608
G1 X66.010 Y83.432 E18.72109
G1 X66.874 Y82.568 E18.77639
G1 X66.321 Y82.568 E18.80140
G1 X65.458 Y83.432 E18.85670
G1 X64.906 Y83.432 E18.88170
G1 X65.769 Y82.568 E18.93701
G1 X65.217 Y82.568 E18.96201
G1 X64.354 Y83.432 E19.01731
G1 X63.801 Y83.432 E19.04232
G1 X64.665 Y82.568 E19.09762
G1 X64.113 Y82.568 E19.12263
G1 X63.249 Y83.432 E19.17793
G1 X62.697 Y83.432 E19.20293
G1 X63.561 Y82.568 E19.25824
G1 X63.008 Y82.568 E19.28324
G1 X62.145 Y83.432 E19.33854
G1 X61.593 Y83.432 E19.36355
G1 X62.456 Y82.568 E19.41885
G1 X61.904 Y82.568 E19.44386
G1 X61.041 Y83.432 E19.49916
G1 X60.489 Y83.432 E19.52416
G1 X61.352 Y82.568 E19.57947
G1 X60.800 Y82.568 E19.60447
G1 X59.936 Y83.432 E19.65977
G1 X59.384 Y83.432 E19.68478
G1 X60.248 Y82.568 E19.74008
G1 X59.696 Y82.568 E19.76509
G1 X59.068 Y83.195 E19.80525
G1 X59.000 Y82.303 F6000.000
G1 F1800.000
G1 X59.000 Y61.697 E20.59109
G1 X59.068 Y61.195 F6000.000
G1 F1800.000
G1 X59.696 Y60.568 E20.63126
G1 X60.248 Y60.568 E20.65626
G1 X59.384 Y61.432 E20.71156
G1 X59.936 Y61.432 E20.73657
G1 X60.800 Y60.568 E20.79187
G1 X61.352 Y60.568 E20.81688
G1 X60.489 Y61.432 E20.87218
G1 X61.041 Y61.432 E20.89718
G1 X61.904 Y60.568 E20.95249
G1 X62.456 Y60.568 E20.97749
G1 X61.593 Y61.432 E21.03279
G1 X62.145 Y61.432 E21.05780
G1 X63.008 Y60.568 E21.11310
G1 X63.561 Y60.568 E21.13811
G1 X62.697 Y61.432 E21.19341
G1 X63.249 Y61.432 E21.21841
G1 X64.113 Y60.568 E21.27372
G1 X64.665 Y60.568 E21.29872
G1 X63.801 Y61.432 E21.35402
G1 X64.354 Y61.432 E21.37903
G1 X65.217 Y60.568 E21.43433
G1 X65.769 Y60.568 E21.45934
G1 X64.906 Y61.432 E21.51464
G1 X65.458 Y61.432 E21.53965
G1 X66.321 Y60.568 E21.59495
G1 X66.874 Y60.568 E21.61995
G1 X66.010 Y61.432 E21.67525
G1 X66.562 Y61.432 E21.70026
G1 X67.426 Y60.568 E21.75556
G1 X67.978 Y60.568 E21.78057
G1 X67.114 Y61.432 E21.83587
G1 X67.666 Y61.432 E21.86088
G1 X68.530 Y60.568 E21.91618
G1 X69.082 Y60.568 E21.94118
G1 X68.219 Y61.432 E21.99648
G1 X68.771 Y61.432 E22.02149
G1 X69.634 Y60.568 E22.07679
G1 X70.186 Y60.568 E22.10180
G1 X69.323 Y61.432 E22.15710
G1 X69.875 Y61.432 E22.18211
G1 X70.739 Y60.568 E22.23741
G1 X71.291 Y60.568 E22.26241
G1 X70.427 Y61.432 E22.31771
G1 X70.979 Y61.432 E22.34272
G1 X71.843 Y60.568 E22.39802
G1 X72.395 Y60.568 E22.42303
G1 X71.531 Y61.432 E22.47833
G1 X72.084 Y61.432 E22.50334
G1 X72.947 Y60.568 E22.55864
G1 X73.499 Y60.568 E22.58364
G1 X72.636 Y61.432 E22.63895
G1 X73.188 Y61.432 E22.66395
G1 X74.051 Y60.568 E22.71925
G1 X74.604 Y60.568 E22.74426
G1 X73.740 Y61.432 E22.79956
G1 X74.292 Y61.432 E22.82457
G1 X75.156 Y60.568 E22.87987
G1 X75.708 Y60.568 E22.90487
G1 X74.844 Y61.432 E22.96018
G1 X75.397 Y61.432 E22.98518
G1 X76.260 Y60.568 E23.04048
G1 X76.812 Y60.568 E23.06549
G1 X75.949 Y61.432 E23.12079
G1 X76.501 Y61.432 E23.14580
G1 X77.364 Y60.568 E23.20110
G1 X77.916 Y60.568 E23.22610
G1 X77.053 Y61.432 E23.28141
G1 X77.605 Y61.432 E23.30641
G1 X78.469 Y60.568 E23.36171
G1 X79.021 Y60.568 E23.38672
G1 X78.157 Y61.432 E23.44202
G1 X78.709 Y61.432 E23.46703
G1 X79.573 Y60.568 E23.52233
G1 X80.125 Y60.568 E23.54733
G1 X79.262 Y61.432 E23.60264
G1 X79.814 Y61.432 E23.62764
G1 X80.677 Y60.568 E23.68294
G1 X81.229 Y60.568 E23.70795
G1 X80.366 Y61.432 E23.76325
G1 X80.918 Y61.432 E23.78826
G1 X81.781 Y60.568 E23.84356
G1 X82.334 Y60.568 E23.86856
G1 X81.470 Y61.432 E23.92387
G1 X82.022 Y61.432 E23.94887
G1 X82.886 Y60.568 E24.00417
G1 X83.438 Y60.568 E24.02918
G1 X82.574 Y61.432 E24.08448
G1 X83.127 Y61.432 E24.10949
G1 X83.990 Y60.568 E24.16479
G1 X84.542 Y60.568 E24.18979
G1 X83.679 Y61.432 E24.24510
G1 X84.231 Y61.432 E24.27010
G1 X85.094 Y60.568 E24.32540
G1 X85.646 Y60.568 E24.35041
G1 X84.783 Y61.432 E24.40571
G1 X85.335 Y61.432 E24.43072
G1 X86.199 Y60.568 E24.48602
G1 X86.751 Y60.568 E24.51102
G1 X85.887 Y61.432 E24.56633
G1 X86.439 Y61.432 E24.59133
G1 X87.303 Y60.568 E24.64663
G1 X87.855 Y60.568 E24.67164
G1 X86.992 Y61.432 E24.72694
G1 X87.544 Y61.432 E24.75195
G1 X88.407 Y60.568 E24.80725
G1 X88.959 Y60.568 E24.83225
G1 X88.096 Y61.432 E24.88756
G1 X88.648 Y61.432 E24.91256
G1 X89.511 Y60.568 E24.96786
G1 X90.064 Y60.568 E24.99287
G1 X89.200 Y61.432 E25.04817
G1 X89.752 Y61.432 E25.07318
G1 X90.616 Y60.568 E25.12848
G1 X90.932 Y60.568 E25.14279
G1 X90.932 Y60.804 E25.15348
G1 X90.304 Y61.432 E25.19366
G1 X91.000 Y61.697 F6000.000
G1 F1800.000
G1 X91.000 Y82.303 E25.97950
G1 Z0.500 F6000.000
G1 X90.677 Y82.177 F6000.000
G1 F2400.000
G1 X59.323 Y82.177 E27.23321
G1 X59.323 Y61.823 E28.04709
G1 X90.677 Y61.823 E29.30081
G1 X90.677 Y82.117 E30.11228
G1 X90.220 Y81.720 F6000.000
G1 F2160.000
G1 X59.780 Y81.720 E31.04698
G1 X59.780 Y62.280 E31.64390
G1 X90.220 Y62.280 E32.57860
G1 X90.220 Y81.660 E33.17368
G1 X90.351 Y82.098 F6000.000
G1 E31.17368 F1200.00000
G92 E0
G1 Z1.000 F6000.000
G1 X90.806 Y61.306 F6000.000
G1 Z0.500 F6000.000
G1 E2.00000 F1200.00000
G1 F2400.000
G1 X59.194 Y61.306 E3.26401
G1 X59.194 Y60.694 E3.28847
G1 X90.806 Y60.694 E4.55249
G1 X90.806 Y61.246 E4.57455
G1 E2.57455 F1200.00000
G92 E0
G1 Z1.000 F6000.000
G1 X90.806 Y82.694 F6000.000
G1 Z0.500 F6000.000
G1 E2.00000 F1200.00000
G1 F2400.000
G1 X90.806 Y83.306 E2.02446
G1 X59.194 Y83.306 E3.28847
G1 X59.194 Y82.694 E3.31293
G1 X90.746 Y82.694 E4.57455
G1 X91.323 Y83.823 F6000.000
G1 F2400.000
G1 X58.677 Y83.823 E5.87991
G1 X58.677 Y60.177 E6.82541
G1 X91.323 Y60.177 E8.13077
G1 X91.323 Y83.763 E9.07387
G1 X91.780 Y84.280 F6000.000
G1 F2160.000
G1 X58.220 Y84.280 E10.10437
G1 X58.220 Y59.720 E10.85851
G1 X91.780 Y59.720 E11.88901
G1 X91.780 Y84.220 E12.64130
G1 X91.389 Y84.196 F6000.000
G1 X90.547 Y83.000 F6000.000
G1 F1200.000
G1 X59.453 Y83.000 E12.76559
G1 X59.000 Y82.436 F6000.000
G1 F1200.000
G1 X59.000 Y61.564 E12.90414
G1 X59.453 Y61.000 F6000.000
G1 F1200.000
G1 X90.547 Y61.000 E13.02843
G1 X91.000 Y61.564 F6000.000
G1 F1200.000
G1 X91.000 Y82.436 E13.16698
G1 Z0.700 F6000.000
G1 X90.677 Y82.177 F6000.000
G1 F2400.000
G1 X59.323 Y82.177 E14.42070
G1 X59.323 Y61.823 E15.23457
G1 X90.677 Y61.823 E16.48829
G1 X90.677 Y82.117 E17.29976
G1 X90.220 Y81.720 F6000.000
G1 F2160.000
G1 X59.780 Y81.720 E18.23446
G1 X59.780 Y62.280 E18.83138
G1 X90.220 Y62.280 E19.76608
G1 X90.220 Y81.660 E20.36116
G1 X90.351 Y82.098 F6000.000
G1 E18.36116 F1200.00000
G92 E0
G1 Z1.200 F6000.000
G1 X90.806 Y61.306 F6000.000
G1 Z0.700 F6000.000
G1 E2.00000 F1200.00000
G1 F2400.000
G1 X59.194 Y61.306 E3.26401
G1 X59.194 Y60.694 E3.28847
G1 X90.806 Y60.694 E4.55249
G1 X90.806 Y61.246 E4.57455
G1 E2.57455 F1200.00000
G92 E0
G1 Z1.200 F6000.000
G1 X90.806 Y82.694 F6000.000
G1 Z0.700 F6000.000
G1 E2.00000 F1200.00000
G1 F2400.000
G1 X90.806 Y83.306 E2.02446
G1 X59.194 Y83.306 E3.28847
G1 X59.194 Y82.694 E3.31293
G1 X90.746 Y82.694 E4.57455
G1 X91.323 Y83.823 F6000.000
G1 F2400.000
G1 X58.677 Y83.823 E5.87991
G1 X58.677 Y60.177 E6.82541
G1 X91.323 Y60.177 E8.13077
G1 X91.323 Y83.763 E9.07387
G1 X91.780 Y84.280 F6000.000
G1 F2160.000
G1 X58.220 Y84.280 E10.10437
G1 X58.220 Y59.720 E10.85851
G1 X91.780 Y59.720 E11.88901
G1 X91.780 Y84.220 E12.64130
G1 X91.389 Y84.196 F6000.000
G1 X90.547 Y83.000 F6000.000
G1 F1200.000
G1 X59.453 Y83.000 E12.76559
G1 X59.000 Y82.436 F6000.000
G1 F1200.000
G1 X59.000 Y61.564 E12.90414
G1 X59.453 Y61.000 F6000.000
G1 F1200.000
G1 X90.547 Y61.000 E13.02843
G1 X91.000 Y61.564 F6000.000
G1 F1200.000
G1 X91.000 Y82.436 E13.16698
G1 Z0.900 F6000.000
G1 X90.677 Y82.177 F6000.000
G1 F2400.000
G1 X59.323 Y82.177 E14.42070
G1 X59.323 Y61.823 E15.23457
G1 X90.677 Y61.823 E16.48829
G1 X90.677 Y82.117 E17.29976
G1 X90.220 Y81.720 F6000.000
G1 F2160.000
G1 X59.780 Y81.720 E18.23446
G1 X59.780 Y62.280 E18.83138
G1 X90.220 Y62.280 E19.76608
G1 X90.220 Y81.660 E20.36116
G1 X90.351 Y82.098 F6000.000
G1 E18.36116 F1200.00000
G92 E0
G1 Z1.400 F6000.000
G1 X90.806 Y61.306 F6000.000
G1 Z0.900 F6000.000
G1 E2.00000 F1200.00000
G1 F2400.000
G1 X59.194 Y61.306 E3.26401
G1 X59.194 Y60.694 E3.28847
G1 X90.806 Y60.694 E4.55249
G1 X90.806 Y61.246 E4.57455
G1 E2.57455 F1200.00000
G92 E0
G1 Z1.400 F6000.000
G1 X90.806 Y82.694 F6000.000
G1 Z0.900 F6000.000
G1 E2.00000 F1200.00000
G1 F2400.000
G1 X90.806 Y83.306 E2.02446
G1 X59.194 Y83.306 E3.28847
G1 X59.194 Y82.694 E3.31293
G1 X90.746 Y82.694 E4.57455
G1 X91.323 Y83.823 F6000.000
G1 F2400.000
G1 X58.677 Y83.823 E5.87991
G1 X58.677 Y60.177 E6.82541
G1 X91.323 Y60.177 E8.13077
G1 X91.323 Y83.763 E9.07387
G1 X91.780 Y84.280 F6000.000
G1 F2160.000
G1 X58.220 Y84.280 E10.10437
G1 X58.220 Y59.720 E10.85851
G1 X91.780 Y59.720 E11.88901
G1 X91.780 Y84.220 E12.64130
G1 X91.389 Y84.196 F6000.000
G1 X90.547 Y83.000 F6000.000
G1 F1200.000
G1 X59.453 Y83.000 E12.76559
G1 X59.000 Y82.436 F6000.000
G1 F1200.000
G1 X59.000 Y61.564 E12.90414
G1 X59.453 Y61.000 F6000.000
G1 F1200.000
G1 X90.547 Y61.000 E13.02843
G1 X91.000 Y61.564 F6000.000
G1 F1200.000
G1 X91.000 Y82.436 E13.16698
M106 S255
G1 Z1.100 F6000.000
G1 X90.677 Y82.177 F6000.000
G1 F2400.000
G1 X59.323 Y82.177 E14.42070
G1 X59.323 Y61.823 E15.23457
G1 X90.677 Y61.823 E16.48829
G1 X90.677 Y82.117 E17.29976
G1 X90.220 Y81.720 F6000.000
G1 F2160.000
G1 X59.780 Y81.720 E18.23446
G1 X59.780 Y62.280 E18.83138
G1 X90.220 Y62.280 E19.76608
G1 X90.220 Y81.660 E20.36116
G1 X90.351 Y82.098 F6000.000
G1 E18.36116 F1200.00000
G92 E0
G1 Z1.600 F6000.000
G1 X90.806 Y61.306 F6000.000
G1 Z1.100 F6000.000
G1 E2.00000 F1200.00000
G1 F2400.000
G1 X59.194 Y61.306 E3.26401
G1 X59.194 Y60.694 E3.28847
G1 X90.806 Y60.694 E4.55249
G1 X90.806 Y61.246 E4.57455
G1 E2.57455 F1200.00000
G92 E0
G1 Z1.600 F6000.000
G1 X90.806 Y82.694 F6000.000
G1 Z1.100 F6000.000
G1 E2.00000 F1200.00000
G1 F2400.000
G1 X90.806 Y83.306 E2.02446
G1 X59.194 Y83.306 E3.28847
G1 X59.194 Y82.694 E3.31293
G1 X90.746 Y82.694 E4.57455
G1 X91.323 Y83.823 F6000.000
G1 F2400.000
G1 X58.677 Y83.823 E5.87991
G1 X58.677 Y60.177 E6.82541
G1 X91.323 Y60.177 E8.13077
G1 X91.323 Y83.763 E9.07387
G1 X91.780 Y84.280 F6000.000
G1 F2160.000
G1 X58.220 Y84.280 E10.10437
G1 X58.220 Y59.720 E10.85851
G1 X91.780 Y59.720 E11.88901
G1 X91.780 Y84.220 E12.64130
