; generated by Slic3r 1.3.0 on 2021-03-05 at 22:49:11

; external perimeters extrusion width = 0.44mm (2.86mm^3/s)
; perimeters extrusion width = 0.56mm (4.14mm^3/s)
; infill extrusion width = 0.50mm (5.48mm^3/s)
; solid infill extrusion width = 0.56mm (3.10mm^3/s)
; top infill extrusion width = 0.45mm (2.44mm^3/s)

M107
;D3D:START:START
T0
M104 S215 T0

G21
G90
M107
T0
G28
G29
M109 T0 S215 T0
G0 F3000
M107
T0
G92 E0
G0 X0 Y149 Z0.1 F3600
G1 Y49 E6.5 F1200
G0 Z1
G92 E0
; Filament gcode

G21 ; set units to millimeters
G90 ; use absolute coordinates
M82 ; use absolute distances for extrusion
G92 E0
G1 Z0.300 F6000.000
G1 E-2.00000 F1200.00000
G92 E0
G1 X67.937 Y47.294 F6000.000
G1 E2.00000 F1200.00000
G1 F1800
G1 X69.437 Y46.058 E2.08693
G1 X71.241 Y45.528 E2.17106
G1 X102.300 Y42.813 E3.56561
G1 X104.230 Y43.042 E3.65254
G1 X105.909 Y44.021 E3.73947
G1 X107.058 Y45.589 E3.82640
G1 X107.487 Y47.567 E3.91692
G1 X107.487 Y72.567 E5.03517
G1 X107.389 Y73.529 E5.07843
G1 X102.965 Y95.017 E6.05977
G1 X102.193 Y96.801 E6.14670
G1 X100.775 Y98.129 E6.23363
G1 X99.247 Y98.730 E6.30705
G1 X62.454 Y106.250 E7.98682
G1 X55.973 Y107.159 E8.27956
G1 X55.317 Y107.205 E8.30898
G1 X54.213 Y107.205 E8.35836
G1 X53.221 Y107.100 E8.40297
G1 X52.141 Y106.871 E8.45235
G1 X51.193 Y106.563 E8.49695
G1 X50.184 Y106.114 E8.54632
G1 X49.320 Y105.615 E8.59096
G1 X48.427 Y104.966 E8.64034
G1 X47.686 Y104.299 E8.68494
G1 X46.777 Y103.278 E8.74608
G1 X43.568 Y99.293 E8.97492
G1 X42.683 Y97.563 E9.06185
G1 X42.617 Y95.309 E9.16272
G1 X47.148 Y73.996 E10.13736
G1 X48.095 Y72.000 E10.23617
G1 X67.899 Y47.340 E11.65086
G1 X68.237 Y47.535 F6000.000
G1 F1800
G1 X69.685 Y46.364 E11.73417
G1 X71.275 Y45.912 E11.80808
G1 X102.334 Y43.198 E13.20264
G1 X104.181 Y43.433 E13.28594
G1 X105.764 Y44.414 E13.36925
G1 X106.798 Y45.963 E13.45255
G1 X107.101 Y47.567 E13.52554
G1 X107.101 Y72.567 E14.64378
G1 X107.011 Y73.451 E14.68354
G1 X102.587 Y94.940 E15.66489
G1 X101.833 Y96.642 E15.74819
G1 X100.440 Y97.879 E15.83150
G1 X99.170 Y98.352 E15.89213
G1 X62.377 Y105.872 E17.57189
G1 X55.920 Y106.777 E17.86353
G1 X55.317 Y106.819 E17.89058
G1 X54.213 Y106.819 E17.93995
G1 X53.301 Y106.723 E17.98096
G1 X52.221 Y106.494 E18.03034
G1 X51.349 Y106.211 E18.07134
G1 X50.341 Y105.762 E18.12071
G1 X49.547 Y105.303 E18.16174
G1 X48.654 Y104.654 E18.21112
G1 X47.973 Y104.041 E18.25211
G1 X47.077 Y103.036 E18.31230
G1 X43.869 Y99.052 E18.54114
G1 X43.035 Y97.386 E18.62444
G1 X42.995 Y95.389 E18.71378
G1 X47.525 Y74.076 E19.68843
G1 X48.395 Y72.241 E19.77925
G1 X68.200 Y47.582 E21.19394
G1 E19.19394 F1200.00000
G92 E0
G1 X57.359 Y96.910 F6000.000
G1 E2.00000 F1200.00000
G1 F1800
G1 X57.316 Y97.725 E2.03651
G1 X57.024 Y98.487 E2.07301
G1 X56.510 Y99.121 E2.10952
G1 X55.826 Y99.566 E2.14603
G1 X55.037 Y99.777 E2.18253
G1 X54.222 Y99.734 E2.21904
G1 X53.460 Y99.442 E2.25555
G1 X52.826 Y98.928 E2.29206
G1 X52.382 Y98.243 E2.32857
G1 X52.170 Y97.455 E2.36507
G1 X52.213 Y96.640 E2.40158
G1 X52.505 Y95.878 E2.43809
G1 X53.019 Y95.244 E2.47460
G1 X53.704 Y94.799 E2.51110
G1 X54.451 Y94.599 E2.54571
G1 X55.298 Y94.627 E2.58362
G1 X56.069 Y94.923 E2.62056
G1 X56.703 Y95.437 E2.65706
G1 X57.148 Y96.121 E2.69357
G1 X57.343 Y96.852 E2.72739
G1 X56.971 Y96.951 F6000.000
G1 F1800
G1 X56.934 Y97.644 E2.75844
G1 X56.686 Y98.291 E2.78948
G1 X56.249 Y98.831 E2.82052
G1 X55.667 Y99.209 E2.85157
G1 X54.997 Y99.389 E2.88261
G1 X54.303 Y99.352 E2.91365
G1 X53.656 Y99.104 E2.94470
G1 X53.116 Y98.667 E2.97574
G1 X52.738 Y98.085 E3.00679
G1 X52.559 Y97.414 E3.03783
G1 X52.595 Y96.721 E3.06887
G1 X52.844 Y96.073 E3.09991
G1 X53.280 Y95.534 E3.13096
G1 X53.862 Y95.156 E3.16200
G1 X54.496 Y94.986 E3.19132
G1 X55.220 Y95.011 E3.22375
G1 X55.874 Y95.261 E3.25506
G1 X56.413 Y95.698 E3.28611
G1 X56.791 Y96.280 E3.31715
G1 X56.955 Y96.893 E3.34551
G1 X56.582 Y96.991 F6000.000
G1 F1800
G1 X56.553 Y97.562 E3.37109
G1 X56.348 Y98.096 E3.39667
G1 X55.988 Y98.541 E3.42225
G1 X55.508 Y98.852 E3.44783
G1 X54.956 Y99.000 E3.47341
G1 X54.385 Y98.970 E3.49898
G1 X53.851 Y98.765 E3.52456
G1 X53.406 Y98.406 E3.55014
G1 X53.095 Y97.926 E3.57573
G1 X52.947 Y97.374 E3.60130
G1 X52.977 Y96.802 E3.62688
G1 X53.182 Y96.268 E3.65246
G1 X53.542 Y95.824 E3.67804
G1 X54.021 Y95.513 E3.70362
G1 X54.540 Y95.374 E3.72764
G1 X55.143 Y95.394 E3.75461
G1 X55.679 Y95.600 E3.78029
G1 X56.123 Y95.959 E3.80587
G1 X56.434 Y96.439 E3.83145
G1 X56.567 Y96.933 E3.85435
G1 X56.948 Y97.154 F6000.000
G1 E1.85435 F1200.00000
G92 E0
G1 X56.929 Y90.876 F6000.000
G1 E2.00000 F1200.00000
G1 F1800
G1 X56.114 Y90.833 E2.03650
G1 X55.352 Y90.540 E2.07301
G1 X54.718 Y90.027 E2.10952
G1 X54.274 Y89.342 E2.14602
G1 X54.062 Y88.554 E2.18253
G1 X54.105 Y87.739 E2.21904
G1 X54.398 Y86.977 E2.25555
G1 X54.911 Y86.343 E2.29205
G1 X55.596 Y85.898 E2.32856
G1 X56.350 Y85.696 E2.36351
G1 X57.192 Y85.727 E2.40116
G1 X57.961 Y86.022 E2.43803
G1 X58.595 Y86.536 E2.47453
G1 X59.040 Y87.220 E2.51104
G1 X59.251 Y88.009 E2.54755
G1 X59.208 Y88.832 E2.58442
G1 X58.894 Y89.613 E2.62207
G1 X58.402 Y90.220 E2.65701
G1 X57.718 Y90.664 E2.69352
G1 X56.987 Y90.860 E2.72735
G1 X56.888 Y90.487 F6000.000
G1 F1800
G1 X56.195 Y90.451 E2.75839
G1 X55.548 Y90.202 E2.78943
G1 X55.008 Y89.766 E2.82047
G1 X54.630 Y89.184 E2.85151
G1 X54.451 Y88.513 E2.88256
G1 X54.487 Y87.820 E2.91360
G1 X54.736 Y87.172 E2.94465
G1 X55.172 Y86.633 E2.97569
G1 X55.754 Y86.255 E3.00673
G1 X56.394 Y86.083 E3.03636
G1 X57.113 Y86.110 E3.06854
G1 X57.766 Y86.360 E3.09981
G1 X58.305 Y86.797 E3.13085
G1 X58.683 Y87.379 E3.16189
G1 X58.863 Y88.049 E3.19294
G1 X58.826 Y88.747 E3.22420
G1 X58.558 Y89.415 E3.25639
G1 X58.141 Y89.930 E3.28601
G1 X57.559 Y90.308 E3.31705
G1 X56.946 Y90.472 E3.34541
G1 X56.848 Y90.099 F6000.000
G1 F1800
G1 X56.277 Y90.069 E3.37099
G1 X55.743 Y89.864 E3.39657
G1 X55.298 Y89.504 E3.42215
G1 X54.987 Y89.025 E3.44773
G1 X54.839 Y88.472 E3.47331
G1 X54.869 Y87.901 E3.49889
G1 X55.074 Y87.367 E3.52447
G1 X55.434 Y86.923 E3.55004
G1 X55.913 Y86.611 E3.57563
G1 X56.438 Y86.471 E3.59992
G1 X57.035 Y86.493 E3.62665
G1 X57.571 Y86.698 E3.65231
G1 X58.015 Y87.058 E3.67789
G1 X58.326 Y87.538 E3.70346
G1 X58.474 Y88.090 E3.72905
G1 X58.444 Y88.663 E3.75471
G1 X58.222 Y89.217 E3.78143
G1 X57.880 Y89.640 E3.80573
G1 X57.400 Y89.951 E3.83131
G1 X56.906 Y90.084 E3.85420
G1 X56.685 Y90.464 F6000.000
G1 E1.85420 F1200.00000
G92 E0
G1 X58.944 Y76.052 F6000.000
G1 E2.00000 F1200.00000
G1 F1800
G1 X58.944 Y76.820 E2.03439
G1 X59.082 Y76.825 E2.04057
G1 X59.853 Y77.121 E2.07751
G1 X60.487 Y77.635 E2.11402
G1 X60.932 Y78.319 E2.15053
G1 X61.143 Y79.107 E2.18704
G1 X61.100 Y79.922 E2.22354
G1 X60.808 Y80.685 E2.26005
G1 X60.294 Y81.319 E2.29656
G1 X59.610 Y81.763 E2.33306
G1 X58.812 Y81.977 E2.37000
G1 X57.967 Y81.917 E2.40791
G1 X57.244 Y81.639 E2.44252
G1 X56.610 Y81.126 E2.47903
G1 X56.166 Y80.441 E2.51554
G1 X55.954 Y79.653 E2.55204
G1 X55.997 Y78.838 E2.58855
G1 X56.289 Y78.076 E2.62505
G1 X56.803 Y77.442 E2.66156
G1 X58.893 Y76.084 E2.77305
G1 X58.558 Y76.762 F6000.000
G1 F1800
G1 X58.558 Y77.193 E2.79236
G1 X59.004 Y77.208 E2.81232
G1 X59.658 Y77.459 E2.84363
G1 X60.197 Y77.896 E2.87467
G1 X60.575 Y78.478 E2.90572
G1 X60.755 Y79.148 E2.93676
G1 X60.718 Y79.841 E2.96780
G1 X60.470 Y80.489 E2.99885
G1 X60.033 Y81.029 E3.02989
G1 X59.451 Y81.407 E3.06093
G1 X58.775 Y81.588 E3.09224
G1 X58.051 Y81.536 E3.12468
G1 X57.440 Y81.301 E3.15400
G1 X56.900 Y80.864 E3.18504
G1 X56.522 Y80.282 E3.21609
G1 X56.343 Y79.612 E3.24713
G1 X56.379 Y78.919 E3.27817
G1 X56.628 Y78.271 E3.30921
G1 X57.064 Y77.732 E3.34026
G1 X58.508 Y76.794 E3.41724
G1 X58.173 Y77.472 F6000.000
G1 F1800
G1 X58.173 Y77.612 E3.42351
G1 X58.324 Y77.571 E3.43052
G1 X58.927 Y77.591 E3.45749
G1 X59.463 Y77.797 E3.48317
G1 X59.907 Y78.157 E3.50875
G1 X60.218 Y78.637 E3.53433
G1 X60.366 Y79.189 E3.55991
G1 X60.337 Y79.760 E3.58549
G1 X60.132 Y80.294 E3.61107
G1 X59.772 Y80.739 E3.63665
G1 X59.292 Y81.050 E3.66222
G1 X58.738 Y81.199 E3.68790
G1 X58.136 Y81.156 E3.71487
G1 X57.635 Y80.963 E3.73890
G1 X57.190 Y80.603 E3.76447
G1 X56.879 Y80.124 E3.79006
G1 X56.731 Y79.571 E3.81563
G1 X56.761 Y79.000 E3.84121
G1 X56.966 Y78.466 E3.86679
G1 X57.326 Y78.022 E3.89237
G1 X58.122 Y77.505 E3.93486
G1 X58.309 Y77.440 F6000.000
G1 E1.93486 F1200.00000
G92 E0
G1 X52.582 Y76.169 F6000.000
G1 E2.00000 F1200.00000
G1 F1800
G1 X55.211 Y76.728 E2.12023
G1 X55.686 Y76.201 E2.15195
G1 X56.410 Y75.675 E2.19196
G1 X57.227 Y75.311 E2.23196
G1 X58.101 Y75.125 E2.27197
G1 X58.996 Y75.125 E2.31198
G1 X59.841 Y75.305 E2.35064
G1 X60.690 Y75.677 E2.39209
G1 X61.411 Y76.201 E2.43196
G1 X62.010 Y76.866 E2.47197
G1 X62.457 Y77.640 E2.51198
G1 X62.733 Y78.491 E2.55198
G1 X62.803 Y79.148 E2.58156
G1 X64.920 Y80.687 E2.69864
G1 X60.731 Y100.394 E3.59980
G1 X58.102 Y99.835 E3.72003
G1 X57.627 Y100.362 E3.75174
G1 X56.904 Y100.888 E3.79175
G1 X56.087 Y101.251 E3.83176
G1 X55.212 Y101.437 E3.87177
G1 X54.317 Y101.437 E3.91177
G1 X53.443 Y101.251 E3.95178
G1 X52.626 Y100.888 E3.99178
G1 X51.902 Y100.362 E4.03179
G1 X51.303 Y99.697 E4.07180
G1 X50.856 Y98.923 E4.11181
G1 X50.580 Y98.072 E4.15181
G1 X50.511 Y97.414 E4.18139
G1 X48.393 Y95.875 E4.29847
G1 X52.570 Y76.228 E5.19694
G1 X52.285 Y75.712 F6000.000
G1 F1800
G1 X55.074 Y76.304 E5.32446
G1 X55.426 Y75.913 E5.34803
G1 X56.216 Y75.339 E5.39167
G1 X57.107 Y74.943 E5.43530
G1 X58.061 Y74.740 E5.47893
G1 X59.036 Y74.740 E5.52257
G1 X59.960 Y74.936 E5.56480
G1 X60.883 Y75.340 E5.60988
G1 X61.671 Y75.913 E5.65343
G1 X62.324 Y76.638 E5.69706
G1 X62.811 Y77.482 E5.74070
G1 X63.113 Y78.410 E5.78433
G1 X63.168 Y78.937 E5.80804
G1 X65.349 Y80.522 E5.92864
G1 X61.028 Y100.851 E6.85824
G1 X58.239 Y100.258 E6.98577
G1 X57.887 Y100.650 E7.00934
G1 X57.098 Y101.223 E7.05297
G1 X56.207 Y101.620 E7.09660
G1 X55.252 Y101.823 E7.14024
G1 X54.277 Y101.823 E7.18387
G1 X53.323 Y101.620 E7.22750
G1 X52.432 Y101.223 E7.27113
G1 X51.642 Y100.650 E7.31477
G1 X50.990 Y99.925 E7.35840
G1 X50.502 Y99.080 E7.40203
G1 X50.201 Y98.153 E7.44566
G1 X50.145 Y97.625 E7.46938
G1 X47.964 Y96.040 E7.58998
G1 X52.273 Y75.770 E8.51690
G1 X51.988 Y75.254 F6000.000
G1 F1800
G1 X54.936 Y75.881 E8.65171
G1 X55.167 Y75.625 E8.66714
G1 X56.022 Y75.003 E8.71440
G1 X56.987 Y74.574 E8.76165
G1 X58.020 Y74.354 E8.80891
G1 X59.077 Y74.354 E8.85617
G1 X60.079 Y74.567 E8.90198
G1 X61.076 Y75.004 E8.95068
G1 X61.930 Y75.625 E8.99791
G1 X62.637 Y76.410 E9.04517
G1 X63.165 Y77.325 E9.09243
G1 X63.492 Y78.329 E9.13969
G1 X63.534 Y78.726 E9.15754
G1 X65.778 Y80.358 E9.28166
G1 X61.325 Y101.308 E10.23971
G1 X58.377 Y100.682 E10.37452
G1 X58.146 Y100.938 E10.38995
G1 X57.292 Y101.559 E10.43721
G1 X56.326 Y101.989 E10.48446
G1 X55.293 Y102.208 E10.53172
G1 X54.236 Y102.208 E10.57898
G1 X53.203 Y101.989 E10.62624
G1 X52.238 Y101.559 E10.67349
G1 X51.383 Y100.938 E10.72075
G1 X50.676 Y100.153 E10.76801
G1 X50.148 Y99.238 E10.81527
G1 X49.821 Y98.233 E10.86253
G1 X49.780 Y97.836 E10.88038
G1 X47.535 Y96.205 E11.00450
G1 X51.976 Y75.313 E11.95986
G1 X52.295 Y75.511 F6000.000
G1 X53.206 Y76.299 F6000.000
G1 F1800
G1 X52.552 Y76.954 E12.00171
G1 X52.403 Y77.654 E12.03406
G1 X53.661 Y76.396 E12.11448
G1 X54.116 Y76.492 E12.13549
G1 X52.254 Y78.354 E12.25448
G1 X52.106 Y79.054 E12.28683
G1 X54.570 Y76.589 E12.44440
G1 X55.025 Y76.686 E12.46541
G1 X51.957 Y79.754 E12.66155
G1 X51.808 Y80.453 E12.69389
G1 X55.479 Y76.782 E12.92861
G1 X55.676 Y76.824 E12.93770
G1 X56.273 Y76.162 E12.97799
G1 X56.931 Y75.684 E13.01476
G1 X57.288 Y75.524 E13.03245
G1 X51.659 Y81.153 E13.39232
G1 X51.510 Y81.853 E13.42467
G1 X58.102 Y75.262 E13.84607
G1 X58.469 Y75.184 E13.86304
G1 X58.731 Y75.184 E13.87488
G1 X56.847 Y77.068 E13.99536
G1 X56.227 Y77.688 F6000.000
G1 F1800
G1 X51.362 Y82.553 E14.30640
G1 X51.213 Y83.253 E14.33875
G1 X55.937 Y78.529 E14.64077
G1 X55.907 Y79.111 E14.66710
G1 X51.064 Y83.953 E14.97669
G1 X50.915 Y84.653 E15.00903
G1 X55.958 Y79.610 E15.33144
G1 X56.075 Y80.045 E15.35179
G1 X50.767 Y85.353 E15.69115
G1 X50.618 Y86.053 E15.72350
G1 X56.239 Y80.431 E16.08288
G1 X56.456 Y80.766 E16.10089
G1 X50.469 Y86.753 E16.48365
G1 X50.320 Y87.453 E16.51600
G1 X56.684 Y81.089 E16.92282
G1 X56.988 Y81.336 E16.94053
G1 X50.171 Y88.153 E17.37633
G1 X50.023 Y88.853 E17.40868
G1 X57.293 Y81.583 E17.87346
G1 X57.376 Y81.650 E17.87832
G1 X57.665 Y81.761 E17.89231
G1 X49.874 Y89.552 E18.39042
G1 X49.725 Y90.252 E18.42277
G1 X58.064 Y81.914 E18.95585
G1 X58.209 Y81.970 E18.96290
G1 X58.535 Y81.993 E18.97769
G1 X49.576 Y90.952 E19.55045
G1 X49.428 Y91.652 E19.58279
G1 X53.583 Y87.496 E19.84848
G1 X53.732 Y87.109 E19.86724
G1 X54.323 Y86.380 E19.90965
G1 X55.110 Y85.869 E19.95208
G1 X55.248 Y85.832 E19.95857
G1 X59.050 Y82.030 E20.20160
G1 X59.176 Y82.039 E20.20734
G1 X59.744 Y81.887 E20.23391
G1 X55.995 Y85.636 E20.47361
G1 X56.526 Y85.656 E20.49766
G1 X62.988 Y79.195 E20.91073
G1 X63.307 Y79.427 E20.92857
G1 X57.029 Y85.704 E21.32991
G1 X57.427 Y85.857 E21.34919
G1 X63.626 Y79.658 E21.74548
G1 X63.945 Y79.890 E21.76332
G1 X57.826 Y86.010 E22.15454
G1 X58.131 Y86.256 E22.17227
G1 X64.264 Y80.122 E22.56438
G1 X64.584 Y80.354 E22.58222
G1 X58.436 Y86.502 E22.97527
G1 X58.558 Y86.602 E22.98240
G1 X58.688 Y86.801 E22.99316
G1 X64.778 Y80.711 E23.38253
G1 X64.630 Y81.411 E23.41488
G1 X58.905 Y87.135 E23.78087
G1 X59.069 Y87.389 E23.79452
G1 X59.097 Y87.494 E23.79945
G1 X64.481 Y82.111 E24.14361
G1 X64.332 Y82.811 E24.17595
G1 X59.214 Y87.929 E24.50316
G1 X59.312 Y88.295 E24.52031
G1 X59.307 Y88.386 E24.52444
G1 X64.183 Y83.510 E24.83617
G1 X64.034 Y84.210 E24.86851
G1 X59.277 Y88.968 E25.17267
G1 X59.262 Y89.243 E25.18513
G1 X59.067 Y89.729 E25.20880
G1 X63.886 Y84.910 E25.51685
G1 X63.737 Y85.610 E25.54920
G1 X54.785 Y94.562 E26.12152
G1 X55.048 Y94.571 E26.13345
G1 X55.250 Y94.649 E26.14320
G1 X63.588 Y86.310 E26.67628
G1 X63.439 Y87.010 E26.70863
G1 X55.648 Y94.801 E27.20673
G1 X55.937 Y94.912 E27.22072
G1 X56.021 Y94.980 E27.22559
G1 X63.291 Y87.710 E27.69036
G1 X63.142 Y88.410 E27.72271
G1 X56.325 Y95.227 E28.15851
G1 X56.630 Y95.473 E28.17622
G1 X62.993 Y89.110 E28.58304
G1 X62.844 Y89.810 E28.61539
G1 X56.857 Y95.797 E28.99815
G1 X57.074 Y96.131 E29.01616
G1 X62.695 Y90.510 E29.37554
G1 X62.547 Y91.210 E29.40789
G1 X57.238 Y96.518 E29.74725
G1 X57.355 Y96.953 E29.76760
G1 X62.398 Y91.910 E30.09001
G1 X62.249 Y92.610 E30.12235
G1 X57.407 Y97.452 E30.43194
G1 X57.376 Y98.034 E30.45827
G1 X62.100 Y93.309 E30.76029
G1 X61.952 Y94.009 E30.79264
G1 X57.086 Y98.875 E31.10368
G1 E29.10368 F1200.00000
G92 E0
G1 X60.107 Y100.263 F6000.000
G1 E2.00000 F1200.00000
G1 F1800
G1 X60.761 Y99.609 E2.04185
G1 X60.910 Y98.909 E2.07419
G1 X59.652 Y100.167 E2.15461
G1 X59.198 Y100.070 E2.17562
G1 X61.059 Y98.209 E2.29462
G1 X61.208 Y97.509 E2.32696
G1 X58.743 Y99.974 E2.48453
G1 X58.289 Y99.877 E2.50554
G1 X61.357 Y96.809 E2.70168
G1 X61.505 Y96.109 E2.73402
G1 X57.834 Y99.781 E2.96873
G1 X57.637 Y99.739 E2.97783
G1 X57.041 Y100.401 E3.01812
G1 X56.383 Y100.879 E3.05489
G1 X56.025 Y101.038 E3.07258
G1 X61.654 Y95.409 E3.43245
G1 X61.803 Y94.709 E3.46479
G1 X55.211 Y101.301 E3.88619
G1 X54.844 Y101.379 E3.90316
G1 X54.582 Y101.379 E3.91501
G1 X56.467 Y99.494 E4.03549
G1 X56.312 Y99.595 E4.04384
G1 X55.633 Y99.777 E4.07560
G1 X54.031 Y101.379 E4.17803
G1 X53.576 Y101.282 E4.19903
G1 X55.040 Y99.819 E4.29259
G1 X54.516 Y99.791 E4.31630
G1 X53.140 Y101.167 E4.40428
G1 X52.759 Y100.998 E4.42315
G1 X54.107 Y99.650 E4.50931
G1 X53.708 Y99.497 E4.52860
G1 X52.396 Y100.809 E4.61249
G1 X52.077 Y100.577 E4.63032
G1 X53.376 Y99.278 E4.71340
G1 X53.072 Y99.031 E4.73112
G1 X51.772 Y100.331 E4.81425
G1 X51.510 Y100.041 E4.83189
G1 X52.795 Y98.757 E4.91400
G1 X52.578 Y98.423 E4.93201
G1 X51.259 Y99.742 E5.01636
G1 X51.057 Y99.393 E5.03460
G1 X52.361 Y98.089 E5.11797
G1 X52.240 Y97.658 E5.13819
G1 X50.864 Y99.034 E5.22615
G1 X50.729 Y98.618 E5.24592
G1 X52.124 Y97.223 E5.33509
G1 X52.109 Y97.169 E5.33764
G1 X52.136 Y96.660 E5.36066
G1 X50.617 Y98.179 E5.45775
G1 X50.565 Y97.680 E5.48042
G1 X52.249 Y95.996 E5.58808
