; generated by Slic3r 1.3.0 on 2021-03-05 at 22:57:40

; external perimeters extrusion width = 0.44mm (1.51mm^3/s)
; perimeters extrusion width = 0.56mm (2.15mm^3/s)
; infill extrusion width = 0.50mm (2.87mm^3/s)
; solid infill extrusion width = 0.56mm (1.62mm^3/s)
; top infill extrusion width = 0.45mm (1.29mm^3/s)

M107
;D3D:START:START
T0
M104 S215 T0

G21
G90
M107
T0
G28
G29
M109 T0 S215 T0
G0 F3000
M107
T0
G92 E0
G0 X0 Y149 Z0.1 F3600
G1 Y49 E6.5 F1200
G0 Z1
G92 E0
; Filament gcode

G21 ; set units to millimeters
G90 ; use absolute coordinates
M82 ; use absolute distances for extrusion
G92 E0
G1 Z0.300 F6000.000
G1 E-2.00000 F1200.00000
G92 E0
G1 X56.309 Y51.522 F6000.000
G1 E2.00000 F1200.00000
G1 F1800
G1 X57.971 Y50.514 E2.08413
G1 X59.256 Y50.251 E2.14090
G1 X85.516 Y48.556 E3.28002
G1 X87.441 Y48.829 E3.36415
G1 X89.097 Y49.846 E3.44827
G1 X90.489 Y52.316 E3.57100
G1 X95.076 Y73.680 E4.51687
G1 X95.182 Y74.682 E4.56047
G1 X95.182 Y96.682 E5.51279
G1 X94.786 Y98.585 E5.59691
G1 X93.664 Y100.172 E5.68104
G1 X92.003 Y101.180 E5.76516
G1 X89.999 Y101.435 E5.85259
G1 X59.151 Y98.765 E7.19290
G1 X57.290 Y98.207 E7.27703
G1 X55.805 Y96.953 E7.36115
G1 X54.944 Y95.210 E7.44528
G1 X54.792 Y94.012 E7.49757
G1 X54.792 Y55.012 E9.18576
G1 X55.187 Y53.109 E9.26989
G1 X56.274 Y51.571 E9.35141
G1 X56.688 Y51.700 F6000.000
G1 F1800
G1 X58.321 Y50.806 E9.43203
G1 X59.280 Y50.635 E9.47421
G1 X85.541 Y48.941 E10.61332
G1 X87.383 Y49.218 E10.69394
G1 X88.943 Y50.235 E10.77456
G1 X90.112 Y52.397 E10.88092
G1 X94.699 Y73.761 E11.82680
G1 X94.796 Y74.682 E11.86688
G1 X94.796 Y96.682 E12.81919
G1 X94.401 Y98.502 E12.89981
G1 X93.286 Y99.994 E12.98042
G1 X91.652 Y100.888 E13.06104
G1 X90.033 Y101.051 E13.13151
G1 X59.185 Y98.381 E14.47182
G1 X57.406 Y97.830 E14.55244
G1 X56.016 Y96.591 E14.63305
G1 X55.177 Y94.012 E14.75044
G1 X55.177 Y55.012 E16.43863
G1 X55.573 Y53.192 E16.51924
G1 X56.652 Y51.748 E16.59726
G1 E14.59726 F1200.00000
G92 E0
G1 X67.644 Y86.318 F6000.000
G1 E2.00000 F1200.00000
G1 F1800
G1 X67.273 Y87.045 E2.03533
G1 X66.696 Y87.622 E2.07066
G1 X65.969 Y87.993 E2.10599
G1 X65.152 Y88.122 E2.14180
G1 X64.313 Y87.971 E2.17868
G1 X63.629 Y87.622 E2.21191
G1 X63.052 Y87.045 E2.24724
G1 X62.682 Y86.318 E2.28256
G1 X62.554 Y85.512 E2.31789
G1 X62.682 Y84.706 E2.35322
G1 X63.052 Y83.979 E2.38855
G1 X63.629 Y83.402 E2.42388
G1 X64.357 Y83.031 E2.45921
G1 X65.115 Y82.911 E2.49244
G1 X65.959 Y83.026 E2.52932
G1 X66.696 Y83.402 E2.56513
G1 X67.273 Y83.979 E2.60046
G1 X67.644 Y84.706 E2.63579
G1 X67.771 Y85.512 E2.67112
G1 X67.653 Y86.259 E2.70385
G1 X67.272 Y86.197 F6000.000
G1 F1800
G1 X66.957 Y86.816 E2.73389
G1 X66.467 Y87.307 E2.76393
G1 X65.848 Y87.622 E2.79398
G1 X65.156 Y87.731 E2.82431
G1 X64.438 Y87.602 E2.85590
G1 X63.859 Y87.307 E2.88403
G1 X63.368 Y86.816 E2.91407
G1 X63.053 Y86.197 E2.94411
G1 X62.945 Y85.512 E2.97415
G1 X63.053 Y84.827 E3.00420
G1 X63.368 Y84.208 E3.03424
G1 X63.859 Y83.717 E3.06428
G1 X64.477 Y83.402 E3.09432
G1 X65.119 Y83.301 E3.12245
G1 X65.842 Y83.399 E3.15404
G1 X66.467 Y83.717 E3.18437
G1 X66.957 Y84.208 E3.21442
G1 X67.272 Y84.827 E3.24446
G1 X67.381 Y85.512 E3.27450
G1 X67.282 Y86.138 E3.30194
G1 X66.901 Y86.077 F6000.000
G1 F1800
G1 X66.641 Y86.586 E3.32670
G1 X66.237 Y86.991 E3.35145
G1 X65.728 Y87.250 E3.37621
G1 X65.160 Y87.340 E3.40107
G1 X64.562 Y87.232 E3.42738
G1 X64.088 Y86.991 E3.45040
G1 X63.684 Y86.586 E3.47515
G1 X63.424 Y86.077 E3.49991
G1 X63.335 Y85.512 E3.52466
G1 X63.424 Y84.947 E3.54941
G1 X63.684 Y84.438 E3.57417
G1 X64.088 Y84.033 E3.59892
G1 X64.598 Y83.774 E3.62368
G1 X65.123 Y83.690 E3.64670
G1 X65.725 Y83.773 E3.67300
G1 X66.237 Y84.033 E3.69787
G1 X66.641 Y84.438 E3.72262
G1 X66.901 Y84.947 E3.74737
G1 X66.991 Y85.512 E3.77213
G1 X66.910 Y86.018 E3.79429
G1 X67.169 Y86.374 F6000.000
G1 E1.79429 F1200.00000
G92 E0
G1 X76.719 Y85.512 F6000.000
G1 E2.00000 F1200.00000
G1 F1800
G1 X76.847 Y84.706 E2.03533
G1 X77.217 Y83.979 E2.07066
G1 X77.794 Y83.402 E2.10599
G1 X78.522 Y83.031 E2.14132
G1 X79.280 Y82.911 E2.17454
G1 X80.124 Y83.026 E2.21142
G1 X80.861 Y83.402 E2.24724
G1 X81.438 Y83.979 E2.28256
G1 X81.809 Y84.706 E2.31789
G1 X81.936 Y85.512 E2.35322
G1 X81.809 Y86.318 E2.38855
G1 X81.438 Y87.045 E2.42388
G1 X80.861 Y87.622 E2.45921
G1 X80.134 Y87.993 E2.49454
G1 X79.328 Y88.121 E2.52987
G1 X78.522 Y87.993 E2.56520
G1 X77.794 Y87.622 E2.60053
G1 X77.217 Y87.045 E2.63586
G1 X76.847 Y86.318 E2.67119
G1 X76.728 Y85.571 E2.70392
G1 X77.110 Y85.512 F6000.000
G1 F1800
G1 X77.218 Y84.827 E2.73396
G1 X77.533 Y84.208 E2.76400
G1 X78.024 Y83.717 E2.79404
G1 X78.642 Y83.402 E2.82409
G1 X79.284 Y83.301 E2.85221
G1 X80.007 Y83.399 E2.88380
G1 X80.632 Y83.717 E2.91414
G1 X81.122 Y84.208 E2.94418
G1 X81.437 Y84.827 E2.97422
G1 X81.546 Y85.512 E3.00427
G1 X81.437 Y86.197 E3.03431
G1 X81.122 Y86.816 E3.06435
G1 X80.632 Y87.307 E3.09439
G1 X80.013 Y87.622 E3.12444
G1 X79.328 Y87.730 E3.15448
G1 X78.642 Y87.622 E3.18452
G1 X78.024 Y87.307 E3.21456
G1 X77.533 Y86.816 E3.24460
G1 X77.218 Y86.197 E3.27464
G1 X77.119 Y85.571 E3.30209
G1 X77.500 Y85.512 F6000.000
G1 F1800
G1 X77.589 Y84.947 E3.32684
G1 X77.849 Y84.438 E3.35160
G1 X78.253 Y84.033 E3.37635
G1 X78.763 Y83.774 E3.40111
G1 X79.288 Y83.690 E3.42413
G1 X79.890 Y83.773 E3.45043
G1 X80.402 Y84.033 E3.47530
G1 X80.806 Y84.438 E3.50005
G1 X81.066 Y84.947 E3.52480
G1 X81.156 Y85.512 E3.54956
G1 X81.066 Y86.077 E3.57431
G1 X80.806 Y86.586 E3.59907
G1 X80.402 Y86.991 E3.62382
G1 X79.893 Y87.250 E3.64857
G1 X79.328 Y87.340 E3.67333
G1 X78.763 Y87.250 E3.69808
G1 X78.253 Y86.991 E3.72284
G1 X77.849 Y86.586 E3.74759
G1 X77.589 Y86.077 E3.77234
G1 X77.509 Y85.571 E3.79450
G1 X77.154 Y85.312 F6000.000
G1 E1.79450 F1200.00000
G92 E0
G1 X85.058 Y76.499 F6000.000
G1 E2.00000 F1200.00000
G1 F1800
G1 X89.114 Y95.388 E2.83627
G1 X77.961 Y93.016 E3.32983
G1 X60.559 Y93.016 E4.08312
G1 X60.559 Y78.008 E4.73275
G1 X77.961 Y78.008 E5.48604
G1 X85.000 Y76.511 E5.79752
G1 X85.355 Y76.042 F6000.000
G1 F1800
G1 X89.616 Y95.889 E6.67622
G1 X77.921 Y93.401 E7.19379
G1 X60.173 Y93.401 E7.96202
G1 X60.173 Y77.623 E8.64503
G1 X77.921 Y77.623 E9.41326
G1 X85.296 Y76.054 E9.73965
G1 X85.651 Y75.584 F6000.000
G1 F1800
G1 X90.118 Y96.390 E10.66077
G1 X77.880 Y93.787 E11.20234
G1 X59.788 Y93.787 E11.98551
G1 X59.788 Y77.237 E12.70191
G1 X77.880 Y77.237 E13.48507
G1 X85.592 Y75.597 E13.82636
G1 X85.509 Y75.959 F6000.000
G1 E11.82636 F1200.00000
G92 E0
G1 X88.448 Y95.050 F6000.000
G1 E2.00000 F1200.00000
G1 F1800
G1 X88.776 Y94.723 E2.02028
G1 X88.678 Y94.269 E2.04064
G1 X87.993 Y94.953 E2.08308
G1 X87.538 Y94.857 E2.10347
G1 X88.580 Y93.814 E2.16807
G1 X88.483 Y93.360 E2.18844
G1 X87.083 Y94.760 E2.27520
G1 X86.627 Y94.663 E2.29559
G1 X88.385 Y92.905 E2.40451
G1 X88.288 Y92.451 E2.42487
G1 X86.172 Y94.566 E2.55595
G1 X85.717 Y94.469 E2.57634
G1 X88.190 Y91.996 E2.72957
G1 X88.093 Y91.542 E2.74994
G1 X85.262 Y94.373 E2.92534
G1 X84.807 Y94.276 E2.94573
G1 X87.995 Y91.088 E3.14328
G1 X87.897 Y90.633 E3.16365
G1 X84.351 Y94.179 E3.38336
G1 X83.896 Y94.082 E3.40375
G1 X87.800 Y90.179 E3.64562
G1 X87.702 Y89.724 E3.66599
G1 X83.441 Y93.985 E3.93002
G1 X82.986 Y93.889 E3.95041
G1 X87.605 Y89.270 E4.23661
G1 X87.507 Y88.815 E4.25697
G1 X82.531 Y93.792 E4.56532
G1 X82.076 Y93.695 E4.58571
G1 X87.410 Y88.361 E4.91623
G1 X87.312 Y87.907 E4.93659
G1 X81.620 Y93.598 E5.28926
G1 X81.165 Y93.501 E5.30965
G1 X87.214 Y87.452 E5.68448
G1 X87.117 Y86.998 E5.70485
G1 X80.710 Y93.405 E6.10184
G1 X80.255 Y93.308 E6.12223
G1 X87.019 Y86.543 E6.54138
G1 X86.922 Y86.089 E6.56174
G1 X79.800 Y93.211 E7.00305
G1 X79.344 Y93.114 E7.02344
G1 X86.824 Y85.634 E7.48691
G1 X86.727 Y85.180 E7.50727
G1 X78.889 Y93.017 E7.99290
G1 X78.434 Y92.920 E8.01329
G1 X86.629 Y84.726 E8.52108
G1 X86.531 Y84.271 E8.54144
G1 X77.979 Y92.824 E9.07139
G1 X77.838 Y92.794 E9.07768
G1 X77.457 Y92.794 E9.09440
G1 X86.434 Y83.817 E9.65065
G1 X86.336 Y83.362 E9.67102
G1 X76.905 Y92.794 E10.25543
G1 X76.353 Y92.794 E10.27961
G1 X86.239 Y82.908 E10.89218
G1 X86.141 Y82.453 E10.91254
G1 X82.021 Y86.574 E11.16784
G1 X82.125 Y85.918 E11.19694
G1 X86.044 Y81.999 E11.43975
G1 X85.946 Y81.545 E11.46012
G1 X82.116 Y85.375 E11.69746
G1 X82.040 Y84.898 E11.71860
G1 X85.848 Y81.090 E11.95458
G1 X85.751 Y80.636 E11.97494
G1 X81.889 Y84.498 E12.21426
G1 X81.702 Y84.132 E12.23224
G1 X85.653 Y80.181 E12.47706
G1 X85.556 Y79.727 E12.49743
G1 X81.480 Y83.802 E12.74997
G1 X81.204 Y83.526 E12.76707
G1 X85.458 Y79.272 E13.03067
G1 X85.361 Y78.818 E13.05103
G1 X80.928 Y83.250 E13.32568
G1 X80.563 Y83.064 E13.34366
G1 X85.263 Y78.364 E13.63490
G1 X85.165 Y77.909 E13.65526
G1 X80.197 Y82.877 E13.96312
G1 X80.077 Y82.816 E13.96902
G1 X79.751 Y82.772 E13.98345
G1 X85.068 Y77.455 E14.31292
G1 X84.970 Y77.000 E14.33329
G1 X79.265 Y82.706 E14.68681
G1 X79.112 Y82.685 E14.69358
G1 X78.663 Y82.756 E14.71351
G1 X84.545 Y76.873 E15.07801
G1 X83.844 Y77.023 E15.10942
G1 X77.842 Y83.025 E15.48135
G1 X77.401 Y83.249 E15.50300
G1 X76.738 Y83.913 E15.54411
G1 X76.514 Y84.353 E15.56576
G1 X68.073 Y92.794 E16.08878
G1 X67.521 Y92.794 E16.11296
G1 X83.143 Y77.172 E17.08096
G1 X82.442 Y77.321 E17.11237
G1 X66.969 Y92.794 E18.07113
G1 X66.417 Y92.794 E18.09531
G1 X81.741 Y77.470 E19.04483
G1 X81.040 Y77.619 E19.07624
G1 X65.865 Y92.794 E20.01652
G1 X65.313 Y92.794 E20.04070
G1 X80.338 Y77.768 E20.97175
G1 X79.637 Y77.917 E21.00315
G1 X64.761 Y92.794 E21.92495
G1 X64.209 Y92.794 E21.94914
G1 X78.936 Y78.066 E22.86170
G1 X78.235 Y78.215 E22.89311
G1 X63.657 Y92.794 E23.79643
G1 X63.105 Y92.794 E23.82062
G1 X77.668 Y78.230 E24.72302
G1 X77.116 Y78.230 E24.74721
G1 X62.553 Y92.794 E25.64961
G1 X62.001 Y92.794 E25.67380
G1 X66.948 Y87.847 E25.98034
G1 X66.253 Y88.201 E26.01451
G1 X66.002 Y88.240 E26.02564
G1 X61.449 Y92.794 E26.30778
G1 X60.897 Y92.794 E26.33197
G1 X65.346 Y88.344 E26.60767
G1 X64.869 Y88.270 E26.62885
G1 X60.781 Y92.358 E26.88214
G1 X60.781 Y91.806 E26.90632
G1 X64.401 Y88.185 E27.13064
G1 X64.353 Y88.177 E27.13280
G1 X64.025 Y88.010 E27.14892
G1 X60.781 Y91.254 E27.34992
G1 X60.781 Y90.702 E27.37410
G1 X63.659 Y87.823 E27.55245
G1 X63.564 Y87.775 E27.55715
G1 X63.360 Y87.571 E27.56978
G1 X60.781 Y90.150 E27.72957
G1 X60.781 Y89.598 E27.75375
G1 X63.084 Y87.295 E27.89644
G1 X62.900 Y87.111 E27.90782
G1 X62.838 Y86.989 E27.91383
G1 X60.781 Y89.046 E28.04128
G1 X60.781 Y88.494 E28.06546
G1 X62.651 Y86.623 E28.18136
G1 X62.470 Y86.252 E28.19945
G1 X60.781 Y87.942 E28.30413
G1 X60.781 Y87.390 E28.32832
G1 X62.395 Y85.776 E28.42833
G1 X62.327 Y85.348 E28.44728
G1 X62.338 Y85.281 E28.45029
G1 X60.781 Y86.838 E28.54677
G1 X60.781 Y86.286 E28.57095
G1 X62.442 Y84.625 E28.67387
G1 X62.474 Y84.422 E28.68288
G1 X62.870 Y83.645 E28.72108
G1 X60.781 Y85.734 E28.85052
G1 X60.781 Y85.182 E28.87471
G1 X67.732 Y78.230 E29.30544
G1 X67.180 Y78.230 E29.32963
G1 X60.781 Y84.630 E29.72616
G1 X60.781 Y84.078 E29.75034
G1 X66.628 Y78.230 E30.11267
G1 X66.076 Y78.230 E30.13685
G1 X60.781 Y83.526 E30.46498
G1 X60.781 Y82.974 E30.48916
G1 X65.524 Y78.230 E30.78308
G1 X64.972 Y78.230 E30.80726
G1 X60.781 Y82.422 E31.06698
G1 X60.781 Y81.870 E31.09117
G1 X64.420 Y78.230 E31.31668
G1 X63.868 Y78.230 E31.34086
G1 X60.781 Y81.318 E31.53217
G1 X60.781 Y80.766 E31.55636
G1 X63.316 Y78.230 E31.71346
G1 X62.764 Y78.230 E31.73765
G1 X60.781 Y80.214 E31.86055
G1 X60.781 Y79.662 E31.88473
G1 X62.212 Y78.230 E31.97343
G1 X61.660 Y78.230 E31.99761
G1 X60.781 Y79.110 E32.05211
G1 X60.781 Y78.558 E32.07629
G1 X61.108 Y78.230 E32.09658
G1 E30.09658 F1200.00000
G92 E0
G1 X62.543 Y83.972 F6000.000
G1 E2.00000 F1200.00000
G1 F1800
G1 X62.573 Y83.913 E2.00291
G1 X63.236 Y83.249 E2.04402
G1 X63.295 Y83.219 E2.04692
G1 X68.284 Y78.230 E2.35606
G1 X68.836 Y78.230 E2.38024
G1 X64.275 Y82.791 E2.66285
G1 X64.931 Y82.687 E2.69195
G1 X69.388 Y78.230 E2.96812
G1 X69.940 Y78.230 E2.99231
G1 X65.421 Y82.749 E3.27233
G1 X65.907 Y82.816 E3.29381
G1 X70.492 Y78.230 E3.57794
G1 X71.044 Y78.230 E3.60213
G1 X66.274 Y83.001 E3.89772
G1 X66.640 Y83.187 E3.91570
G1 X71.596 Y78.230 E4.22284
G1 X72.148 Y78.230 E4.24702
G1 X66.946 Y83.433 E4.56940
G1 X67.222 Y83.709 E4.58650
G1 X72.700 Y78.230 E4.92599
G1 X73.252 Y78.230 E4.95017
G1 X67.474 Y84.008 E5.30821
G1 X67.660 Y84.374 E5.32619
G1 X73.804 Y78.230 E5.70688
G1 X74.356 Y78.230 E5.73107
G1 X67.847 Y84.740 E6.13442
G1 X67.925 Y85.214 E6.15546
G1 X74.908 Y78.230 E6.58817
G1 X75.460 Y78.230 E6.61236
G1 X67.995 Y85.696 E7.07494
G1 X67.891 Y86.351 E7.10403
G1 X76.012 Y78.230 E7.60725
G1 X76.564 Y78.230 E7.63143
G1 X67.497 Y87.297 E8.19325
G1 E6.19325 F1200.00000
G92 E0
G1 X68.073 Y92.794 F6000.000
G1 E2.00000 F1200.00000
G1 F1800
G1 X68.625 Y92.794 E2.02419
G1 X76.572 Y84.847 E2.51660
G1 X76.492 Y85.348 E2.53885
G1 X76.510 Y85.460 E2.54383
G1 X69.177 Y92.794 E2.99822
G1 X69.729 Y92.794 E3.02241
G1 X76.586 Y85.937 E3.44727
G1 X76.639 Y86.275 E3.46227
G1 X76.693 Y86.381 E3.46750
G1 X70.281 Y92.794 E3.86483
G1 X70.833 Y92.794 E3.88902
G1 X76.880 Y86.747 E4.26369
G1 X77.066 Y87.112 E4.28167
G1 X71.385 Y92.794 E4.63371
G1 X71.937 Y92.794 E4.65789
G1 X77.342 Y87.388 E4.99283
G1 X77.618 Y87.664 E5.00993
G1 X72.489 Y92.794 E5.32777
G1 X73.041 Y92.794 E5.35195
G1 X77.948 Y87.887 E5.65602
G1 X78.314 Y88.073 E5.67401
G1 X73.593 Y92.794 E5.96653
G1 X74.145 Y92.794 E5.99072
G1 X78.714 Y88.224 E6.27385
G1 X79.191 Y88.300 E6.29499
G1 X74.697 Y92.794 E6.57345
G1 X75.249 Y92.794 E6.59764
G1 X79.733 Y88.309 E6.87552
G1 X80.389 Y88.205 E6.90462
G1 X75.801 Y92.794 E7.18894
G1 E5.18894 F1200.00000
G92 E0
G1 X80.861 Y65.622 F6000.000
G1 E2.00000 F1200.00000
G1 F1800
G1 X80.134 Y65.993 E2.03533
G1 X79.328 Y66.121 E2.07066
G1 X78.522 Y65.993 E2.10599
G1 X77.794 Y65.622 E2.14132
G1 X77.217 Y65.045 E2.17665
G1 X76.847 Y64.318 E2.21198
G1 X76.719 Y63.512 E2.24731
G1 X76.847 Y62.706 E2.28264
G1 X77.217 Y61.979 E2.31797
G1 X77.794 Y61.402 E2.35329
G1 X78.522 Y61.031 E2.38863
G1 X79.280 Y60.911 E2.42185
G1 X80.124 Y61.026 E2.45873
G1 X80.861 Y61.402 E2.49455
G1 X81.438 Y61.979 E2.52987
G1 X81.809 Y62.706 E2.56520
G1 X81.936 Y63.512 E2.60053
G1 X81.809 Y64.318 E2.63586
G1 X81.438 Y65.045 E2.67119
G1 X80.904 Y65.580 E2.70392
G1 X80.632 Y65.307 F6000.000
G1 F1800
G1 X80.013 Y65.622 E2.73397
G1 X79.328 Y65.730 E2.76401
G1 X78.642 Y65.622 E2.79405
G1 X78.024 Y65.307 E2.82409
G1 X77.533 Y64.816 E2.85413
G1 X77.218 Y64.197 E2.88417
G1 X77.110 Y63.512 E2.91421
G1 X77.218 Y62.827 E2.94426
G1 X77.533 Y62.208 E2.97430
G1 X78.024 Y61.717 E3.00434
G1 X78.642 Y61.402 E3.03438
G1 X79.284 Y61.301 E3.06251
G1 X80.007 Y61.399 E3.09410
G1 X80.632 Y61.717 E3.12444
G1 X81.122 Y62.208 E3.15447
G1 X81.437 Y62.827 E3.18452
G1 X81.546 Y63.512 E3.21456
G1 X81.437 Y64.197 E3.24460
G1 X81.122 Y64.816 E3.27465
G1 X80.674 Y65.264 E3.30209
G1 X80.402 Y64.991 F6000.000
G1 F1800
G1 X79.893 Y65.250 E3.32684
G1 X79.328 Y65.340 E3.35160
G1 X78.763 Y65.250 E3.37635
G1 X78.253 Y64.991 E3.40111
G1 X77.849 Y64.586 E3.42586
G1 X77.589 Y64.077 E3.45062
G1 X77.500 Y63.512 E3.47537
G1 X77.589 Y62.947 E3.50012
G1 X77.849 Y62.438 E3.52488
G1 X78.253 Y62.033 E3.54963
G1 X78.763 Y61.774 E3.57439
G1 X79.288 Y61.690 E3.59741
G1 X79.890 Y61.773 E3.62371
G1 X80.402 Y62.033 E3.64858
G1 X80.806 Y62.438 E3.67333
G1 X81.066 Y62.947 E3.69808
G1 X81.156 Y63.512 E3.72284
G1 X81.066 Y64.077 E3.74759
G1 X80.806 Y64.586 E3.77235
G1 X80.445 Y64.948 E3.79450
G1 X80.444 Y65.389 F6000.000
G1 E1.79450 F1200.00000
G92 E0
G1 X67.771 Y63.512 F6000.000
G1 E2.00000 F1200.00000
G1 F1800
G1 X67.644 Y64.318 E2.03533
G1 X67.273 Y65.045 E2.07066
G1 X66.696 Y65.622 E2.10599
G1 X65.969 Y65.993 E2.14132
G1 X65.163 Y66.121 E2.17665
G1 X64.357 Y65.993 E2.21198
G1 X63.629 Y65.622 E2.24731
G1 X63.052 Y65.045 E2.28263
G1 X62.682 Y64.318 E2.31797
G1 X62.554 Y63.512 E2.35329
G1 X62.682 Y62.706 E2.38862
G1 X63.052 Y61.979 E2.42395
G1 X63.629 Y61.402 E2.45928
G1 X64.357 Y61.031 E2.49461
G1 X65.115 Y60.911 E2.52784
G1 X65.959 Y61.026 E2.56472
G1 X66.696 Y61.402 E2.60053
G1 X67.273 Y61.979 E2.63586
G1 X67.644 Y62.706 E2.67119
G1 X67.762 Y63.453 E2.70392
