; generated by Slic3r 1.3.1-dev (Build (Unknown revision)) on 2020-06-18 at 22:21:51

; external perimeters extrusion width = 0.44mm (2.86mm^3/s)
; perimeters extrusion width = 0.56mm (4.14mm^3/s)
; infill extrusion width = 0.50mm (3.66mm^3/s)
; solid infill extrusion width = 0.56mm (3.10mm^3/s)
; top infill extrusion width = 0.45mm (2.44mm^3/s)

M107
G92 E0
;D3D:START:START
T0
M104 S215 T0

G21
G90
M107
T0
G28
G29
M109 T0 S215 T0
G0 F3000
M107
T0
G92 E0
G0 X0 Y149 Z0.1 F3600
G1 Y49 E6.5 F1200
G0 Z1
G92 E0
; Filament gcode

G21 ; set units to millimeters
G90 ; use absolute coordinates
M82 ; use absolute distances for extrusion
G92 E0
G1 Z0.200 F6000.000
G1 E-2.00000 F1200.00000
G92 E0
G1 Z0.700 F6000.000
G1 X5.000 Y33.486 F6000.000
G1 Z0.200 F6000.000
G1 E2.00000 F1200.00000
G1 F1800.000
G1 X145.000 Y33.486 E4.69341
G1 X147.239 Y33.883 E4.73716
G1 X149.205 Y35.025 E4.78091
G1 X150.659 Y36.774 E4.82466
G1 X151.514 Y40.000 E4.88887
G1 X151.514 Y110.000 E6.23557
G1 X151.117 Y112.239 E6.27932
G1 X149.975 Y114.205 E6.32307
G1 X148.226 Y115.659 E6.36682
G1 X145.000 Y116.514 E6.43103
G1 X5.000 Y116.514 E9.12444
G1 X2.761 Y116.117 E9.16819
G1 X0.795 Y114.975 E9.21194
G1 X-0.659 Y113.226 E9.25569
G1 X-1.514 Y110.000 E9.31990
G1 X-1.514 Y40.000 E10.66660
G1 X-1.117 Y37.761 E10.71035
G1 X0.025 Y35.795 E10.75410
G1 X1.774 Y34.341 E10.79785
G1 X4.942 Y33.501 E10.86090
G1 X5.000 Y33.743 F6000.000
G1 F1800.000
G1 X145.000 Y33.743 E13.55431
G1 X147.193 Y34.140 E13.59718
G1 X149.107 Y35.280 E13.64005
G1 X150.501 Y37.019 E13.68293
G1 X151.257 Y40.000 E13.74210
G1 X151.257 Y110.000 E15.08880
G1 X150.860 Y112.193 E15.13167
G1 X149.720 Y114.107 E15.17455
G1 X147.981 Y115.501 E15.21742
G1 X145.000 Y116.257 E15.27659
G1 X5.000 Y116.257 E17.97000
G1 X2.807 Y115.860 E18.01287
G1 X0.893 Y114.720 E18.05574
G1 X-0.501 Y112.981 E18.09861
G1 X-1.257 Y110.000 E18.15779
G1 X-1.257 Y40.000 E19.50449
G1 X-0.860 Y37.807 E19.54736
G1 X0.280 Y35.893 E19.59023
G1 X2.019 Y34.499 E19.63310
G1 X4.942 Y33.758 E19.69112
G1 E17.69112 F1200.00000
G92 E0
G1 Z0.700 F6000.000
G1 X127.493 Y79.987 F6000.000
G1 Z0.200 F6000.000
G1 E2.00000 F1200.00000
G1 F1800.000
G1 X127.512 Y79.686 E2.00581
G1 X127.571 Y79.377 E2.01185
G1 X127.668 Y79.077 E2.01792
G1 X127.803 Y78.792 E2.02399
G1 X127.971 Y78.526 E2.03004
G1 X128.172 Y78.283 E2.03610
G1 X128.401 Y78.068 E2.04216
G1 X128.657 Y77.882 E2.04823
G1 X128.932 Y77.731 E2.05428
G1 X129.225 Y77.615 E2.06033
G1 X129.530 Y77.537 E2.06639
G1 X129.842 Y77.497 E2.07245
G1 X140.158 Y77.497 E2.27090
G1 X140.470 Y77.537 E2.27697
G1 X140.775 Y77.615 E2.28302
G1 X141.068 Y77.731 E2.28908
G1 X141.343 Y77.882 E2.29513
G1 X141.599 Y78.068 E2.30120
G1 X141.828 Y78.283 E2.30726
G1 X142.029 Y78.526 E2.31332
G1 X142.197 Y78.792 E2.31937
G1 X142.332 Y79.077 E2.32543
G1 X142.429 Y79.377 E2.33151
G1 X142.488 Y79.686 E2.33755
G1 X142.507 Y79.987 E2.34336
G1 X142.507 Y100.013 E2.72864
G1 X142.488 Y100.314 E2.73444
G1 X142.429 Y100.623 E2.74048
G1 X142.332 Y100.923 E2.74656
G1 X142.197 Y101.208 E2.75263
G1 X142.029 Y101.474 E2.75867
G1 X141.828 Y101.717 E2.76473
G1 X141.599 Y101.932 E2.77079
G1 X141.343 Y102.118 E2.77687
G1 X141.068 Y102.269 E2.78291
G1 X140.775 Y102.385 E2.78897
G1 X140.471 Y102.463 E2.79502
G1 X140.158 Y102.503 E2.80109
G1 X129.842 Y102.503 E2.99954
G1 X129.529 Y102.463 E3.00561
G1 X129.225 Y102.385 E3.01166
G1 X128.932 Y102.269 E3.01771
G1 X128.657 Y102.118 E3.02376
G1 X128.401 Y101.932 E3.02984
G1 X128.172 Y101.717 E3.03590
G1 X127.971 Y101.474 E3.04196
G1 X127.803 Y101.208 E3.04800
G1 X127.668 Y100.923 E3.05407
G1 X127.571 Y100.623 E3.06014
G1 X127.512 Y100.314 E3.06619
G1 X127.493 Y100.013 E3.07199
G1 X127.493 Y80.047 E3.45612
G1 X127.750 Y79.995 F6000.000
G1 F1800.000
G1 X127.768 Y79.718 E3.46146
G1 X127.820 Y79.441 E3.46689
G1 X127.907 Y79.172 E3.47233
G1 X128.028 Y78.916 E3.47777
G1 X128.179 Y78.677 E3.48320
G1 X128.359 Y78.460 E3.48864
G1 X128.565 Y78.266 E3.49408
G1 X128.795 Y78.100 E3.49952
G1 X129.042 Y77.964 E3.50496
G1 X129.305 Y77.860 E3.51039
G1 X129.578 Y77.790 E3.51582
G1 X129.859 Y77.754 E3.52126
G1 X140.141 Y77.754 E3.71909
G1 X140.422 Y77.790 E3.72453
G1 X140.695 Y77.860 E3.72996
G1 X140.958 Y77.964 E3.73540
G1 X141.205 Y78.100 E3.74083
G1 X141.435 Y78.266 E3.74628
G1 X141.641 Y78.460 E3.75171
G1 X141.821 Y78.677 E3.75715
G1 X141.972 Y78.916 E3.76258
G1 X142.093 Y79.172 E3.76802
G1 X142.180 Y79.441 E3.77346
G1 X142.232 Y79.718 E3.77889
G1 X142.250 Y79.995 E3.78424
G1 X142.250 Y100.005 E4.16919
G1 X142.232 Y100.282 E4.17454
G1 X142.180 Y100.559 E4.17997
G1 X142.093 Y100.828 E4.18541
G1 X141.972 Y101.084 E4.19085
G1 X141.821 Y101.323 E4.19628
G1 X141.641 Y101.540 E4.20172
G1 X141.435 Y101.734 E4.20715
G1 X141.205 Y101.900 E4.21260
G1 X140.958 Y102.036 E4.21803
G1 X140.696 Y102.140 E4.22347
G1 X140.422 Y102.210 E4.22889
G1 X140.141 Y102.246 E4.23434
G1 X129.859 Y102.246 E4.43217
G1 X129.578 Y102.210 E4.43761
G1 X129.304 Y102.140 E4.44304
G1 X129.042 Y102.036 E4.44847
G1 X128.795 Y101.900 E4.45391
G1 X128.565 Y101.734 E4.45935
G1 X128.359 Y101.540 E4.46479
G1 X128.179 Y101.323 E4.47023
G1 X128.028 Y101.084 E4.47565
G1 X127.907 Y100.828 E4.48110
G1 X127.820 Y100.559 E4.48654
G1 X127.768 Y100.282 E4.49197
G1 X127.750 Y100.005 E4.49731
G1 X127.750 Y80.055 E4.88112
G1 X127.516 Y79.846 F6000.000
G1 E2.88112 F1200.00000
G92 E0
G1 Z0.700 F6000.000
G1 X125.866 Y83.188 F6000.000
G1 Z0.200 F6000.000
G1 E2.00000 F1200.00000
G1 F1800.000
G1 X126.282 Y83.451 E2.00946
G1 X126.617 Y83.809 E2.01889
G1 X126.759 Y84.032 E2.02398
G1 X126.867 Y84.261 E2.02884
G1 X126.949 Y84.513 E2.03395
G1 X127.010 Y85.000 E2.04339
G1 X126.949 Y85.487 E2.05283
G1 X126.867 Y85.739 E2.05794
G1 X126.754 Y85.979 E2.06305
G1 X126.473 Y86.366 E2.07223
G1 X126.271 Y86.556 E2.07757
G1 X125.856 Y86.819 E2.08703
G1 X125.389 Y86.971 E2.09647
G1 X125.125 Y87.004 E2.10158
G1 X124.875 Y87.004 E2.10641
G1 X124.624 Y86.972 E2.11127
G1 X124.380 Y86.910 E2.11612
G1 X124.133 Y86.812 E2.12121
G1 X123.718 Y86.549 E2.13067
G1 X123.383 Y86.191 E2.14010
G1 X123.241 Y85.968 E2.14520
G1 X123.133 Y85.739 E2.15006
G1 X123.051 Y85.487 E2.15517
G1 X122.990 Y85.000 E2.16461
G1 X123.051 Y84.513 E2.17405
G1 X123.133 Y84.261 E2.17916
G1 X123.246 Y84.021 E2.18426
G1 X123.527 Y83.635 E2.19345
G1 X123.729 Y83.444 E2.19879
G1 X124.144 Y83.181 E2.20824
G1 X124.611 Y83.029 E2.21768
G1 X124.874 Y82.996 E2.22279
G1 X125.126 Y82.996 E2.22762
G1 X125.376 Y83.028 E2.23249
G1 X125.620 Y83.090 E2.23733
G1 X125.811 Y83.166 E2.24127
G1 X125.749 Y83.418 F6000.000
G1 F1800.000
G1 X126.116 Y83.651 E2.24963
G1 X126.413 Y83.967 E2.25798
G1 X126.534 Y84.157 E2.26230
G1 X126.628 Y84.356 E2.26653
G1 X126.697 Y84.569 E2.27086
G1 X126.751 Y85.000 E2.27921
G1 X126.697 Y85.431 E2.28756
G1 X126.628 Y85.644 E2.29188
G1 X126.532 Y85.848 E2.29621
G1 X126.279 Y86.195 E2.30447
G1 X126.112 Y86.352 E2.30887
G1 X125.745 Y86.584 E2.31723
G1 X125.333 Y86.719 E2.32558
G1 X125.109 Y86.747 E2.32991
G1 X124.891 Y86.747 E2.33412
G1 X124.672 Y86.719 E2.33836
G1 X124.460 Y86.665 E2.34258
G1 X124.251 Y86.582 E2.34690
G1 X123.884 Y86.349 E2.35526
G1 X123.587 Y86.033 E2.36360
G1 X123.466 Y85.843 E2.36792
G1 X123.372 Y85.644 E2.37216
G1 X123.303 Y85.431 E2.37648
G1 X123.249 Y85.000 E2.38483
G1 X123.303 Y84.569 E2.39318
G1 X123.372 Y84.356 E2.39751
G1 X123.468 Y84.152 E2.40183
G1 X123.721 Y83.805 E2.41009
G1 X123.888 Y83.648 E2.41450
G1 X124.255 Y83.415 E2.42286
G1 X124.667 Y83.281 E2.43120
G1 X124.891 Y83.253 E2.43554
G1 X125.109 Y83.253 E2.43975
G1 X125.328 Y83.281 E2.44399
G1 X125.694 Y83.396 E2.45136
G1 X126.087 Y83.204 F6000.000
G1 E0.45136 F1200.00000
G92 E0
G1 Z0.700 F6000.000
G1 X122.507 Y79.987 F6000.000
G1 Z0.200 F6000.000
G1 E2.00000 F1200.00000
G1 F1800.000
G1 X122.507 Y100.013 E2.38528
G1 X122.488 Y100.314 E2.39109
G1 X122.429 Y100.623 E2.39713
G1 X122.332 Y100.923 E2.40320
G1 X122.197 Y101.208 E2.40927
G1 X122.029 Y101.474 E2.41531
G1 X121.828 Y101.717 E2.42137
G1 X121.599 Y101.932 E2.42744
G1 X121.343 Y102.118 E2.43351
G1 X121.068 Y102.269 E2.43956
G1 X120.775 Y102.385 E2.44561
G1 X120.471 Y102.463 E2.45166
G1 X120.158 Y102.503 E2.45773
G1 X109.842 Y102.503 E2.65618
G1 X109.529 Y102.463 E2.66225
G1 X109.225 Y102.385 E2.66830
G1 X108.932 Y102.269 E2.67436
G1 X108.657 Y102.118 E2.68041
G1 X108.401 Y101.932 E2.68648
G1 X108.172 Y101.717 E2.69254
G1 X107.971 Y101.474 E2.69860
G1 X107.803 Y101.208 E2.70464
G1 X107.668 Y100.923 E2.71071
G1 X107.571 Y100.623 E2.71679
G1 X107.512 Y100.314 E2.72283
G1 X107.493 Y100.013 E2.72864
G1 X107.493 Y79.987 E3.11391
G1 X107.512 Y79.686 E3.11972
G1 X107.571 Y79.377 E3.12576
G1 X107.668 Y79.077 E3.13184
G1 X107.803 Y78.792 E3.13790
G1 X107.971 Y78.526 E3.14395
G1 X108.172 Y78.283 E3.15001
G1 X108.401 Y78.068 E3.15607
G1 X108.657 Y77.882 E3.16214
G1 X108.932 Y77.731 E3.16819
G1 X109.225 Y77.615 E3.17425
G1 X109.530 Y77.537 E3.18030
G1 X109.842 Y77.497 E3.18637
G1 X120.158 Y77.497 E3.38482
G1 X120.470 Y77.537 E3.39088
G1 X120.775 Y77.615 E3.39694
G1 X121.068 Y77.731 E3.40299
G1 X121.343 Y77.882 E3.40904
G1 X121.599 Y78.068 E3.41511
G1 X121.828 Y78.283 E3.42118
G1 X122.029 Y78.526 E3.42723
G1 X122.197 Y78.792 E3.43328
G1 X122.332 Y79.077 E3.43935
G1 X122.429 Y79.377 E3.44542
G1 X122.488 Y79.686 E3.45146
G1 X122.503 Y79.927 E3.45612
G1 X122.250 Y79.995 F6000.000
G1 F1800.000
G1 X122.250 Y100.005 E3.84108
G1 X122.232 Y100.282 E3.84642
G1 X122.180 Y100.559 E3.85185
G1 X122.093 Y100.828 E3.85729
G1 X121.972 Y101.084 E3.86273
G1 X121.821 Y101.323 E3.86816
G1 X121.641 Y101.540 E3.87360
G1 X121.435 Y101.734 E3.87903
G1 X121.205 Y101.900 E3.88448
G1 X120.958 Y102.036 E3.88991
G1 X120.695 Y102.140 E3.89535
G1 X120.422 Y102.210 E3.90078
G1 X120.141 Y102.246 E3.90622
G1 X109.859 Y102.246 E4.10405
G1 X109.578 Y102.210 E4.10949
G1 X109.304 Y102.140 E4.11492
G1 X109.042 Y102.036 E4.12035
G1 X108.795 Y101.900 E4.12579
G1 X108.565 Y101.734 E4.13123
G1 X108.359 Y101.540 E4.13667
G1 X108.179 Y101.323 E4.14211
G1 X108.028 Y101.084 E4.14754
G1 X107.907 Y100.828 E4.15298
G1 X107.820 Y100.559 E4.15842
G1 X107.768 Y100.282 E4.16385
G1 X107.750 Y100.005 E4.16919
G1 X107.750 Y79.995 E4.55415
G1 X107.768 Y79.718 E4.55950
G1 X107.820 Y79.441 E4.56493
G1 X107.907 Y79.172 E4.57037
G1 X108.028 Y78.916 E4.57581
G1 X108.179 Y78.677 E4.58124
G1 X108.359 Y78.460 E4.58668
G1 X108.565 Y78.266 E4.59211
G1 X108.795 Y78.100 E4.59756
G1 X109.042 Y77.964 E4.60299
G1 X109.305 Y77.860 E4.60842
G1 X109.578 Y77.790 E4.61385
G1 X109.859 Y77.754 E4.61930
G1 X120.141 Y77.754 E4.81713
G1 X120.422 Y77.790 E4.82257
G1 X120.695 Y77.860 E4.82800
G1 X120.958 Y77.964 E4.83343
G1 X121.205 Y78.100 E4.83886
G1 X121.435 Y78.266 E4.84431
G1 X121.641 Y78.460 E4.84975
G1 X121.821 Y78.677 E4.85518
G1 X121.972 Y78.916 E4.86061
G1 X122.093 Y79.172 E4.86606
G1 X122.180 Y79.441 E4.87150
G1 X122.232 Y79.718 E4.87693
G1 X122.246 Y79.935 E4.88112
G1 X122.605 Y80.180 F6000.000
G1 E2.88112 F1200.00000
G92 E0
G1 Z0.700 F6000.000
G1 X106.949 Y84.513 F6000.000
G1 Z0.200 F6000.000
G1 E2.00000 F1200.00000
G1 F1800.000
G1 X107.010 Y85.000 E2.00944
G1 X106.949 Y85.487 E2.01888
G1 X106.867 Y85.739 E2.02399
G1 X106.754 Y85.979 E2.02910
G1 X106.473 Y86.366 E2.03828
G1 X106.271 Y86.556 E2.04362
G1 X105.856 Y86.819 E2.05308
G1 X105.389 Y86.971 E2.06252
G1 X105.125 Y87.004 E2.06763
G1 X104.874 Y87.004 E2.07247
G1 X104.624 Y86.972 E2.07732
G1 X104.379 Y86.910 E2.08217
G1 X104.145 Y86.817 E2.08702
G1 X103.924 Y86.695 E2.09187
G1 X103.720 Y86.547 E2.09672
G1 X103.536 Y86.375 E2.10157
G1 X103.376 Y86.180 E2.10642
G1 X103.240 Y85.967 E2.11128
G1 X103.133 Y85.739 E2.11613
G1 X103.055 Y85.499 E2.12098
G1 X103.008 Y85.252 E2.12583
G1 X102.992 Y85.000 E2.13068
G1 X103.008 Y84.748 E2.13553
G1 X103.055 Y84.501 E2.14038
G1 X103.133 Y84.261 E2.14523
G1 X103.240 Y84.033 E2.15008
G1 X103.376 Y83.820 E2.15493
G1 X103.536 Y83.626 E2.15978
G1 X103.720 Y83.453 E2.16464
G1 X103.924 Y83.305 E2.16949
G1 X104.145 Y83.183 E2.17434
G1 X104.380 Y83.090 E2.17919
G1 X104.624 Y83.028 E2.18404
G1 X104.874 Y82.996 E2.18889
G1 X105.126 Y82.996 E2.19373
G1 X105.376 Y83.028 E2.19860
G1 X105.620 Y83.090 E2.20344
G1 X105.866 Y83.188 E2.20854
G1 X106.282 Y83.451 E2.21799
G1 X106.617 Y83.809 E2.22743
G1 X106.759 Y84.032 E2.23252
G1 X106.867 Y84.261 E2.23738
G1 X106.931 Y84.456 E2.24133
G1 X106.697 Y84.569 F6000.000
G1 F1800.000
G1 X106.751 Y85.000 E2.24969
G1 X106.697 Y85.431 E2.25804
G1 X106.628 Y85.644 E2.26236
G1 X106.532 Y85.848 E2.26668
G1 X106.279 Y86.195 E2.27494
G1 X106.112 Y86.352 E2.27935
G1 X105.745 Y86.584 E2.28771
G1 X105.333 Y86.719 E2.29606
G1 X105.109 Y86.747 E2.30039
G1 X104.890 Y86.747 E2.30461
G1 X104.672 Y86.719 E2.30884
G1 X104.459 Y86.665 E2.31306
G1 X104.255 Y86.584 E2.31729
G1 X104.062 Y86.478 E2.32152
G1 X103.884 Y86.349 E2.32575
G1 X103.724 Y86.198 E2.32998
G1 X103.584 Y86.029 E2.33421
G1 X103.466 Y85.843 E2.33844
G1 X103.373 Y85.644 E2.34267
G1 X103.305 Y85.435 E2.34689
G1 X103.263 Y85.219 E2.35112
G1 X103.250 Y85.000 E2.35535
G1 X103.263 Y84.781 E2.35958
G1 X103.305 Y84.565 E2.36381
G1 X103.373 Y84.356 E2.36804
G1 X103.466 Y84.157 E2.37227
G1 X103.584 Y83.971 E2.37650
G1 X103.724 Y83.802 E2.38072
G1 X103.884 Y83.651 E2.38495
G1 X104.062 Y83.522 E2.38918
G1 X104.255 Y83.416 E2.39341
G1 X104.459 Y83.335 E2.39764
G1 X104.672 Y83.281 E2.40187
G1 X104.890 Y83.253 E2.40610
G1 X105.109 Y83.253 E2.41032
G1 X105.328 Y83.281 E2.41456
G1 X105.540 Y83.335 E2.41878
G1 X105.749 Y83.418 E2.42310
G1 X106.116 Y83.651 E2.43146
G1 X106.413 Y83.967 E2.43980
G1 X106.534 Y84.157 E2.44412
G1 X106.679 Y84.512 E2.45151
G1 X107.077 Y84.693 F6000.000
G1 E0.45151 F1200.00000
G92 E0
G1 Z0.700 F6000.000
G1 X102.507 Y79.987 F6000.000
G1 Z0.200 F6000.000
G1 E2.00000 F1200.00000
G1 F1800.000
G1 X102.507 Y100.013 E2.38527
G1 X102.488 Y100.314 E2.39108
G1 X102.429 Y100.624 E2.39714
G1 X102.332 Y100.923 E2.40320
G1 X102.198 Y101.208 E2.40926
G1 X102.029 Y101.474 E2.41531
G1 X101.828 Y101.717 E2.42137
G1 X101.599 Y101.932 E2.42743
G1 X101.344 Y102.118 E2.43349
G1 X101.068 Y102.269 E2.43955
G1 X100.775 Y102.385 E2.44561
G1 X100.470 Y102.463 E2.45167
G1 X100.158 Y102.503 E2.45773
G1 X89.842 Y102.503 E2.65617
G1 X89.530 Y102.463 E2.66223
G1 X89.225 Y102.385 E2.66829
G1 X88.932 Y102.269 E2.67435
G1 X88.656 Y102.118 E2.68041
G1 X88.401 Y101.932 E2.68647
G1 X88.172 Y101.717 E2.69253
G1 X87.971 Y101.474 E2.69859
G1 X87.802 Y101.208 E2.70464
G1 X87.668 Y100.923 E2.71070
G1 X87.571 Y100.624 E2.71676
G1 X87.512 Y100.314 E2.72282
G1 X87.493 Y100.013 E2.72863
G1 X87.493 Y79.987 E3.11390
G1 X87.512 Y79.686 E3.11971
G1 X87.571 Y79.376 E3.12577
G1 X87.668 Y79.077 E3.13183
G1 X87.802 Y78.792 E3.13789
G1 X87.971 Y78.526 E3.14395
G1 X88.172 Y78.283 E3.15001
G1 X88.401 Y78.068 E3.15607
G1 X88.656 Y77.883 E3.16213
G1 X88.932 Y77.731 E3.16818
G1 X89.225 Y77.615 E3.17424
G1 X89.530 Y77.537 E3.18030
G1 X89.842 Y77.497 E3.18636
G1 X100.158 Y77.497 E3.38481
G1 X100.470 Y77.537 E3.39087
G1 X100.775 Y77.615 E3.39692
G1 X101.068 Y77.731 E3.40298
G1 X101.344 Y77.883 E3.40904
G1 X101.599 Y78.068 E3.41510
G1 X101.828 Y78.283 E3.42116
G1 X102.029 Y78.526 E3.42722
G1 X102.198 Y78.792 E3.43328
G1 X102.332 Y79.077 E3.43934
G1 X102.429 Y79.376 E3.44540
G1 X102.488 Y79.686 E3.45145
G1 X102.503 Y79.927 E3.45611
G1 X102.250 Y79.995 F6000.000
G1 F1800.000
G1 X102.250 Y100.005 E3.84107
G1 X102.233 Y100.282 E3.84641
G1 X102.180 Y100.560 E3.85185
G1 X102.092 Y100.828 E3.85729
G1 X101.972 Y101.084 E3.86272
G1 X101.820 Y101.323 E3.86816
G1 X101.640 Y101.540 E3.87360
G1 X101.434 Y101.734 E3.87903
G1 X101.206 Y101.900 E3.88447
G1 X100.958 Y102.036 E3.88991
G1 X100.695 Y102.140 E3.89534
G1 X100.422 Y102.210 E3.90078
G1 X100.141 Y102.246 E3.90622
G1 X89.859 Y102.246 E4.10404
G1 X89.578 Y102.210 E4.10948
G1 X89.305 Y102.140 E4.11491
G1 X89.042 Y102.036 E4.12035
G1 X88.794 Y101.900 E4.12578
G1 X88.566 Y101.734 E4.13122
G1 X88.360 Y101.540 E4.13666
G1 X88.180 Y101.323 E4.14210
G1 X88.028 Y101.084 E4.14753
G1 X87.908 Y100.828 E4.15297
G1 X87.820 Y100.560 E4.15841
G1 X87.767 Y100.282 E4.16384
G1 X87.750 Y100.005 E4.16919
