; generated by Slic3r 1.3.1-dev (Build (Unknown revision)) on 2020-11-29 at 21:26:45

; external perimeters extrusion width = 0.44mm (2.86mm^3/s)
; perimeters extrusion width = 0.56mm (4.14mm^3/s)
; infill extrusion width = 0.50mm (3.66mm^3/s)
; solid infill extrusion width = 0.56mm (3.10mm^3/s)
; top infill extrusion width = 0.45mm (2.44mm^3/s)

M107
G92 E0
;D3D:START:START
T0
M104 S215 T0

G21
G90
M107
T0
G28
G29
M109 T0 S215 T0
G0 F3000
M107
T0
G92 E0
G0 X0 Y149 Z0.1 F3600
G1 Y49 E6.5 F1200
G0 Z1
G92 E0
; Filament gcode

G21 ; set units to millimeters
G90 ; use absolute coordinates
M82 ; use absolute distances for extrusion
G92 E0
G1 Z0.300 F6000.000
G1 E-2.00000 F1200.00000
G92 E0
G1 Z0.800 F6000.000
G1 X42.770 Y45.749 F6000.000
G1 Z0.300 F6000.000
G1 E2.00000 F1200.00000
G1 F1800.000
G1 X44.528 Y44.237 E2.10372
G1 X46.693 Y43.406 E2.20744
G1 X48.000 Y43.279 E2.26617
G1 X58.194 Y43.279 E2.72212
G1 X60.478 Y43.676 E2.82584
G1 X62.079 Y44.504 E2.90648
G1 X62.584 Y44.877 E2.93454
G1 X63.016 Y45.252 E2.96014
G1 X63.469 Y45.715 E2.98910
G1 X63.708 Y45.997 E3.00563
G1 X63.972 Y46.347 E3.02524
G1 X64.233 Y46.741 E3.04641
G1 X64.506 Y47.227 E3.07133
G1 X64.783 Y47.843 E3.10154
G1 X65.044 Y48.646 E3.13929
G1 X65.231 Y49.699 E3.18713
G1 X65.264 Y50.367 E3.21705
G1 X65.264 Y87.447 E4.87564
G1 X65.230 Y88.127 E4.90611
G1 X64.989 Y89.368 E4.96264
G1 X64.597 Y90.395 E5.01181
G1 X64.134 Y91.218 E5.05405
G1 X63.649 Y91.869 E5.09035
G1 X63.157 Y92.398 E5.12266
G1 X62.710 Y92.794 E5.14939
G1 X62.271 Y93.124 E5.17396
G1 X61.853 Y93.392 E5.19618
G1 X61.454 Y93.612 E5.21654
G1 X60.706 Y93.939 E5.25304
G1 X60.334 Y94.065 E5.27060
G1 X59.658 Y94.238 E5.30184
G1 X59.019 Y94.339 E5.33078
G1 X58.383 Y94.380 E5.35929
G1 X48.123 Y94.380 E5.81819
G1 X47.290 Y94.312 E5.85557
G1 X46.721 Y94.208 E5.88145
G1 X46.370 Y94.122 E5.89762
G1 X44.248 Y93.187 E6.00134
G1 X42.566 Y91.590 E6.10507
G1 X41.522 Y89.520 E6.20879
G1 X41.229 Y87.550 E6.29789
G1 X41.229 Y50.050 E7.97526
G1 X41.626 Y47.765 E8.07898
G1 X42.741 Y45.801 E8.18001
G1 X43.153 Y45.893 F6000.000
G1 F1800.000
G1 X44.896 Y44.469 E8.28072
G1 X48.000 Y43.664 E8.42414
G1 X58.194 Y43.664 E8.88009
G1 X60.410 Y44.061 E8.98079
G1 X61.858 Y44.820 E9.05393
G1 X62.342 Y45.177 E9.08085
G1 X62.752 Y45.533 E9.10511
G1 X63.181 Y45.971 E9.13254
G1 X63.407 Y46.238 E9.14819
G1 X63.658 Y46.570 E9.16681
G1 X63.905 Y46.944 E9.18683
G1 X64.162 Y47.403 E9.21039
G1 X64.425 Y47.985 E9.23893
G1 X64.671 Y48.743 E9.27459
G1 X64.847 Y49.736 E9.31969
G1 X64.878 Y50.367 E9.34795
G1 X64.878 Y87.447 E11.00654
G1 X64.846 Y88.089 E11.03527
G1 X64.619 Y89.259 E11.08863
G1 X64.249 Y90.229 E11.13504
G1 X63.812 Y91.006 E11.17492
G1 X63.354 Y91.621 E11.20920
G1 X62.888 Y92.121 E11.23977
G1 X62.467 Y92.495 E11.26497
G1 X62.052 Y92.807 E11.28819
G1 X61.657 Y93.060 E11.30920
G1 X61.279 Y93.268 E11.32845
G1 X60.556 Y93.583 E11.36377
G1 X60.220 Y93.697 E11.37962
G1 X59.580 Y93.861 E11.40915
G1 X58.977 Y93.956 E11.43649
G1 X58.364 Y93.995 E11.46396
G1 X48.132 Y93.994 E11.92162
G1 X47.345 Y93.930 E11.95697
G1 X46.806 Y93.832 E11.98144
G1 X46.463 Y93.748 E11.99726
G1 X44.408 Y92.829 E12.09796
G1 X42.799 Y91.254 E12.19866
G1 X41.836 Y89.219 E12.29936
G1 X41.614 Y87.550 E12.37468
G1 X41.614 Y50.050 E14.05205
G1 X42.011 Y47.834 E14.15275
G1 X43.122 Y45.945 E14.25077
G1 E12.25077 F1200.00000
G92 E0
G1 Z0.800 F6000.000
G1 X55.377 Y76.108 F6000.000
G1 Z0.300 F6000.000
G1 E2.00000 F1200.00000
G1 F1800.000
G1 X55.105 Y76.579 E2.02433
G1 X54.741 Y76.983 E2.04866
G1 X54.301 Y77.303 E2.07298
G1 X53.804 Y77.524 E2.09731
G1 X53.272 Y77.637 E2.12165
G1 X52.728 Y77.637 E2.14597
G1 X52.196 Y77.524 E2.17030
G1 X51.699 Y77.303 E2.19463
G1 X51.259 Y76.983 E2.21896
G1 X50.895 Y76.579 E2.24328
G1 X50.623 Y76.108 E2.26762
G1 X50.455 Y75.591 E2.29194
G1 X50.398 Y75.050 E2.31627
G1 X50.455 Y74.509 E2.34061
G1 X50.623 Y73.992 E2.36493
G1 X50.895 Y73.521 E2.38927
G1 X51.259 Y73.117 E2.41359
G1 X51.699 Y72.797 E2.43792
G1 X52.196 Y72.576 E2.46225
G1 X52.728 Y72.463 E2.48658
G1 X53.272 Y72.463 E2.51090
G1 X53.804 Y72.576 E2.53523
G1 X54.301 Y72.797 E2.55957
G1 X54.741 Y73.117 E2.58389
G1 X55.105 Y73.521 E2.60822
G1 X55.377 Y73.992 E2.63255
G1 X55.545 Y74.509 E2.65688
G1 X55.602 Y75.050 E2.68121
G1 X55.545 Y75.591 E2.70554
G1 X55.395 Y76.051 E2.72718
G1 X55.023 Y75.951 F6000.000
G1 F1800.000
G1 X54.791 Y76.351 E2.74789
G1 X54.481 Y76.695 E2.76859
G1 X54.107 Y76.967 E2.78929
G1 X53.684 Y77.156 E2.80999
G1 X53.231 Y77.252 E2.83070
G1 X52.769 Y77.252 E2.85140
G1 X52.316 Y77.156 E2.87210
G1 X51.893 Y76.967 E2.89281
G1 X51.519 Y76.695 E2.91351
G1 X51.209 Y76.351 E2.93421
G1 X50.977 Y75.951 E2.95491
G1 X50.834 Y75.510 E2.97562
G1 X50.786 Y75.050 E2.99632
G1 X50.834 Y74.590 E3.01703
G1 X50.977 Y74.149 E3.03773
G1 X51.209 Y73.749 E3.05843
G1 X51.519 Y73.405 E3.07914
G1 X51.893 Y73.133 E3.09984
G1 X52.316 Y72.944 E3.12054
G1 X52.769 Y72.848 E3.14125
G1 X53.231 Y72.848 E3.16194
G1 X53.684 Y72.944 E3.18265
G1 X54.107 Y73.133 E3.20336
G1 X54.481 Y73.405 E3.22405
G1 X54.791 Y73.749 E3.24476
G1 X55.023 Y74.149 E3.26546
G1 X55.166 Y74.590 E3.28616
G1 X55.214 Y75.050 E3.30687
G1 X55.166 Y75.510 E3.32757
G1 X55.041 Y75.893 E3.34559
G1 X54.668 Y75.793 F6000.000
G1 F1800.000
G1 X54.477 Y76.123 E3.36267
G1 X54.222 Y76.407 E3.37975
G1 X53.913 Y76.632 E3.39682
G1 X53.564 Y76.787 E3.41390
G1 X53.191 Y76.866 E3.43098
G1 X52.809 Y76.866 E3.44805
G1 X52.436 Y76.787 E3.46513
G1 X52.087 Y76.632 E3.48221
G1 X51.778 Y76.407 E3.49929
G1 X51.523 Y76.123 E3.51636
G1 X51.332 Y75.793 E3.53344
G1 X51.214 Y75.430 E3.55052
G1 X51.174 Y75.050 E3.56759
G1 X51.214 Y74.670 E3.58467
G1 X51.332 Y74.307 E3.60175
G1 X51.523 Y73.977 E3.61883
G1 X51.778 Y73.693 E3.63590
G1 X52.087 Y73.468 E3.65298
G1 X52.436 Y73.313 E3.67006
G1 X52.809 Y73.234 E3.68714
G1 X53.191 Y73.234 E3.70421
G1 X53.564 Y73.313 E3.72129
G1 X53.913 Y73.468 E3.73837
G1 X54.222 Y73.693 E3.75544
G1 X54.477 Y73.977 E3.77252
G1 X54.668 Y74.307 E3.78960
G1 X54.786 Y74.670 E3.80667
G1 X54.826 Y75.050 E3.82375
G1 X54.786 Y75.430 E3.84083
G1 X54.687 Y75.736 E3.85523
G1 X54.893 Y76.102 F6000.000
G1 E1.85523 F1200.00000
G92 E0
G1 Z0.800 F6000.000
G1 X57.495 Y86.614 F6000.000
G1 Z0.300 F6000.000
G1 E2.00000 F1200.00000
G1 F1800.000
G1 X48.996 Y86.614 E2.38014
G1 X48.996 Y51.046 E3.97108
G1 X57.496 Y51.046 E4.35129
G1 X57.495 Y86.554 E5.93955
G1 X57.880 Y87.000 F6000.000
G1 F1800.000
G1 X48.611 Y87.000 E6.35418
G1 X48.611 Y50.661 E7.97963
G1 X57.882 Y50.661 E8.39433
G1 X57.880 Y86.940 E10.01709
G1 X58.266 Y87.385 F6000.000
G1 F1800.000
G1 X48.225 Y87.385 E10.46622
G1 X48.225 Y50.275 E12.12616
G1 X58.123 Y50.275 E12.56887
G1 X58.268 Y50.399 E12.57739
G1 X58.266 Y87.325 E14.22912
G1 X57.919 Y87.186 F6000.000
G1 X56.795 Y86.542 F6000.000
G1 F1800.000
G1 X57.423 Y85.915 E14.26931
G1 X57.423 Y85.363 E14.29432
G1 X56.243 Y86.542 E14.36988
G1 X55.691 Y86.542 E14.39490
G1 X57.423 Y84.810 E14.50584
G1 X57.423 Y84.258 E14.53086
G1 X55.139 Y86.542 E14.67717
G1 X54.586 Y86.542 E14.70219
G1 X57.423 Y83.706 E14.88389
G1 X57.423 Y83.153 E14.90890
G1 X54.034 Y86.542 E15.12598
G1 X53.482 Y86.542 E15.15099
G1 X57.423 Y82.601 E15.40345
G1 X57.423 Y82.049 E15.42846
G1 X52.930 Y86.542 E15.71630
G1 X52.377 Y86.542 E15.74131
G1 X57.423 Y81.497 E16.06452
G1 X57.423 Y80.944 E16.08954
G1 X51.825 Y86.542 E16.44813
G1 X51.273 Y86.542 E16.47314
G1 X57.423 Y80.392 E16.86711
G1 X57.423 Y79.840 E16.89212
G1 X50.721 Y86.542 E17.32147
G1 X50.168 Y86.542 E17.34648
G1 X57.423 Y79.287 E17.81121
G1 X57.423 Y78.735 E17.83622
G1 X49.616 Y86.542 E18.33633
G1 X49.068 Y86.538 E18.36114
G1 X57.423 Y78.183 E18.89634
G1 X57.423 Y77.631 E18.92136
G1 X49.068 Y85.985 E19.45656
G1 X49.068 Y85.433 E19.48158
G1 X57.423 Y77.078 E20.01678
G1 X57.423 Y76.526 E20.04180
G1 X49.068 Y84.881 E20.57700
G1 X49.068 Y84.329 E20.60202
G1 X57.423 Y75.974 E21.13722
G1 X57.423 Y75.421 E21.16224
G1 X49.068 Y83.776 E21.69745
G1 X49.068 Y83.224 E21.72246
G1 X57.423 Y74.869 E22.25767
G1 X57.423 Y74.317 E22.28269
G1 X55.541 Y76.199 E22.40326
G1 X55.611 Y75.985 E22.41346
G1 X55.658 Y75.530 E22.43421
G1 X57.423 Y73.765 E22.54726
G1 X57.423 Y73.212 E22.57228
G1 X55.637 Y74.998 E22.68668
G1 X55.611 Y74.742 E22.69835
G1 X55.545 Y74.539 E22.70802
G1 X57.423 Y72.660 E22.82837
G1 X57.423 Y72.108 E22.85339
G1 X55.405 Y74.126 E22.98268
G1 X55.203 Y73.776 E23.00099
G1 X57.423 Y71.556 E23.14324
G1 X57.423 Y71.003 E23.16825
G1 X54.970 Y73.457 E23.32541
G1 X54.708 Y73.166 E23.34312
G1 X57.423 Y70.451 E23.51704
G1 X57.423 Y69.899 E23.54206
G1 X54.393 Y72.929 E23.73617
G1 X54.181 Y72.775 E23.74804
G1 X54.052 Y72.717 E23.75442
G1 X57.423 Y69.346 E23.97036
G1 X57.423 Y68.794 E23.99538
G1 X53.670 Y72.547 E24.23580
G1 X53.226 Y72.439 E24.25650
G1 X57.424 Y68.242 E24.52535
G1 X57.424 Y67.690 E24.55037
G1 X52.723 Y72.391 E24.85151
G1 X52.374 Y72.391 E24.86729
G1 X52.115 Y72.445 E24.87927
G1 X57.424 Y67.137 E25.21931
G1 X57.424 Y66.585 E25.24432
G1 X51.268 Y72.741 E25.63866
G1 X51.192 Y72.775 E25.64243
G1 X50.686 Y73.142 E25.67073
G1 X50.268 Y73.606 E25.69904
G1 X50.084 Y73.924 E25.71566
G1 X49.068 Y74.940 E25.78076
G1 X49.068 Y74.388 E25.80578
G1 X57.424 Y66.033 E26.34101
G1 X57.424 Y65.480 E26.36602
G1 X49.068 Y73.836 E26.90126
G1 X49.068 Y73.284 E26.92627
G1 X57.424 Y64.928 E27.46151
G1 X57.424 Y64.376 E27.48653
G1 X49.068 Y72.731 E28.02176
G1 X49.068 Y72.179 E28.04678
G1 X57.424 Y63.824 E28.58202
G1 X57.424 Y63.271 E28.60703
G1 X49.068 Y71.627 E29.14227
G1 X49.068 Y71.075 E29.16729
G1 X57.424 Y62.719 E29.70253
G1 X57.424 Y62.167 E29.72755
G1 X49.068 Y70.522 E30.26279
G1 X49.068 Y69.970 E30.28781
G1 X57.424 Y61.615 E30.82305
G1 X57.424 Y61.062 E30.84807
G1 X49.068 Y69.418 E31.38331
G1 X49.068 Y68.866 E31.40833
G1 X57.424 Y60.510 E31.94358
G1 X57.424 Y59.958 E31.96859
G1 X49.068 Y68.313 E32.50384
G1 X49.068 Y67.761 E32.52886
G1 X57.424 Y59.405 E33.06411
G1 X57.424 Y58.853 E33.08912
G1 X49.068 Y67.209 E33.62438
G1 X49.068 Y66.657 E33.64939
G1 X57.424 Y58.301 E34.18464
G1 X57.424 Y57.749 E34.20966
G1 X49.068 Y66.104 E34.74492
G1 X49.068 Y65.552 E34.76993
G1 X57.424 Y57.196 E35.30519
G1 X57.424 Y56.644 E35.33020
G1 X49.068 Y65.000 E35.86546
G1 X49.068 Y64.447 E35.89048
G1 X57.424 Y56.092 E36.42574
G1 X57.424 Y55.539 E36.45075
G1 X49.068 Y63.895 E36.98601
G1 X49.068 Y63.343 E37.01103
G1 X57.424 Y54.987 E37.54629
G1 X57.424 Y54.435 E37.57131
G1 X49.068 Y62.791 E38.10657
G1 X49.068 Y62.238 E38.13159
G1 X57.424 Y53.883 E38.66685
G1 X57.424 Y53.330 E38.69187
G1 X49.068 Y61.686 E39.22714
G1 X49.068 Y61.134 E39.25215
G1 X57.424 Y52.778 E39.78742
G1 X57.424 Y52.226 E39.81244
G1 X49.068 Y60.582 E40.34771
G1 X49.068 Y60.029 E40.37272
G1 X57.424 Y51.673 E40.90799
G1 X57.424 Y51.121 E40.93301
G1 X49.068 Y59.477 E41.46828
G1 X49.068 Y58.925 E41.49330
G1 X56.875 Y51.118 E41.99338
G1 X56.323 Y51.118 E42.01840
G1 X49.068 Y58.373 E42.48310
G1 X49.068 Y57.820 E42.50812
G1 X55.770 Y51.118 E42.93745
G1 X55.218 Y51.118 E42.96247
G1 X49.068 Y57.268 E43.35642
G1 X49.068 Y56.716 E43.38144
G1 X54.666 Y51.118 E43.74001
G1 X54.114 Y51.118 E43.76503
G1 X49.068 Y56.164 E44.08823
G1 X49.068 Y55.611 E44.11325
G1 X53.561 Y51.118 E44.40107
G1 X53.009 Y51.118 E44.42608
G1 X49.068 Y55.059 E44.67853
G1 X49.068 Y54.507 E44.70355
G1 X52.457 Y51.118 E44.92062
G1 X51.905 Y51.118 E44.94563
G1 X49.068 Y53.955 E45.12733
G1 X49.068 Y53.402 E45.15234
G1 X51.352 Y51.118 E45.29866
G1 X50.800 Y51.118 E45.32367
G1 X49.068 Y52.850 E45.43461
G1 X49.068 Y52.298 E45.45963
G1 X50.248 Y51.118 E45.53519
G1 X49.696 Y51.118 E45.56021
G1 X49.068 Y51.745 E45.60038
G1 E43.60038 F1200.00000
G92 E0
G1 Z0.800 F6000.000
G1 X49.068 Y74.940 F6000.000
G1 Z0.300 F6000.000
G1 E2.00000 F1200.00000
G1 F1800.000
G1 X49.068 Y75.493 E2.02502
G1 X50.383 Y74.178 E2.10922
G1 X50.329 Y74.784 E2.13678
G1 X49.068 Y76.045 E2.21755
G1 X49.068 Y76.597 E2.24256
G1 X50.382 Y75.284 E2.32669
G1 X50.389 Y75.358 E2.33008
G1 X50.505 Y75.713 E2.34698
G1 X49.068 Y77.149 E2.43900
G1 X49.068 Y77.702 E2.46401
G1 X50.669 Y76.101 E2.56653
G1 X50.871 Y76.451 E2.58484
G1 X49.068 Y78.254 E2.70030
G1 X49.068 Y78.806 E2.72532
G1 X51.125 Y76.749 E2.85708
G1 X51.313 Y76.958 E2.86982
G1 X51.403 Y77.023 E2.87485
G1 X49.068 Y79.358 E3.02443
G1 X49.068 Y79.911 E3.04944
G1 X51.723 Y77.256 E3.21951
G1 X51.819 Y77.325 E3.22487
G1 X52.087 Y77.445 E3.23815
G1 X49.068 Y80.463 E3.43150
G1 X49.068 Y81.015 E3.45651
G1 X52.484 Y77.600 E3.67531
G1 X52.939 Y77.696 E3.69641
G1 X49.068 Y81.567 E3.94438
G1 X49.068 Y82.120 E3.96940
G1 X53.478 Y77.709 E4.25191
G1 X53.626 Y77.709 E4.25859
G1 X54.140 Y77.600 E4.28239
G1 X49.068 Y82.672 E4.60727
G1 Z0.500 F6000.000
G1 E2.60727 F1200.00000
G92 E0
G1 Z1.000 F6000.000
G1 X53.865 Y77.714 F6000.000
G1 Z0.500 F6000.000
G1 E2.00000 F1200.00000
G1 F1800.000
G1 X53.293 Y77.835 E2.02342
G1 X52.707 Y77.835 E2.04682
G1 X52.135 Y77.714 E2.07024
G1 X51.600 Y77.475 E2.09365
G1 X51.126 Y77.131 E2.11706
G1 X50.734 Y76.696 E2.14047
G1 X50.441 Y76.189 E2.16388
G1 X50.260 Y75.632 E2.18729
G1 X50.199 Y75.050 E2.21071
G1 X50.260 Y74.468 E2.23412
G1 X50.441 Y73.911 E2.25753
G1 X50.734 Y73.404 E2.28095
G1 X51.126 Y72.969 E2.30436
G1 X51.600 Y72.625 E2.32777
G1 X52.135 Y72.386 E2.35118
G1 X52.707 Y72.265 E2.37460
G1 X53.293 Y72.265 E2.39800
G1 X53.865 Y72.386 E2.42142
G1 X54.400 Y72.625 E2.44483
G1 X54.874 Y72.969 E2.46824
G1 X55.266 Y73.404 E2.49165
G1 X55.559 Y73.911 E2.51507
G1 X55.740 Y74.468 E2.53848
G1 X55.801 Y75.050 E2.56189
G1 X55.740 Y75.632 E2.58530
G1 X55.559 Y76.189 E2.60872
G1 X55.266 Y76.696 E2.63213
G1 X54.874 Y77.131 E2.65554
G1 X54.400 Y77.475 E2.67895
G1 X53.920 Y77.689 E2.69996
G1 X53.705 Y77.219 F6000.000
G1 F1800.000
G1 X53.238 Y77.318 E2.71903
G1 X52.762 Y77.318 E2.73809
G1 X52.295 Y77.219 E2.75716
G1 X51.860 Y77.025 E2.77623
G1 X51.474 Y76.745 E2.79529
G1 X51.155 Y76.391 E2.81436
G1 X50.916 Y75.978 E2.83342
G1 X50.769 Y75.524 E2.85249
G1 X50.719 Y75.050 E2.87156
G1 X50.769 Y74.576 E2.89062
G1 X50.916 Y74.122 E2.90969
G1 X51.155 Y73.709 E2.92876
G1 X51.474 Y73.355 E2.94782
G1 X51.860 Y73.075 E2.96688
G1 X52.295 Y72.881 E2.98595
G1 X52.762 Y72.782 E3.00502
G1 X53.238 Y72.782 E3.02408
G1 X53.705 Y72.881 E3.04315
G1 X54.140 Y73.075 E3.06222
G1 X54.526 Y73.355 E3.08128
G1 X54.845 Y73.709 E3.10034
G1 X55.084 Y74.122 E3.11941
G1 X55.231 Y74.576 E3.13848
G1 X55.281 Y75.050 E3.15754
G1 X55.231 Y75.524 E3.17661
G1 X55.084 Y75.978 E3.19568
G1 X54.845 Y76.391 E3.21475
G1 X54.526 Y76.745 E3.23381
G1 X54.140 Y77.025 E3.25287
G1 X53.760 Y77.195 E3.26954
G1 X53.563 Y76.782 F6000.000
G1 F1800.000
G1 X53.190 Y76.861 E3.28123
G1 X52.810 Y76.861 E3.29292
G1 X52.437 Y76.782 E3.30461
G1 X52.089 Y76.627 E3.31630
G1 X51.781 Y76.403 E3.32799
G1 X51.527 Y76.121 E3.33968
G1 X51.336 Y75.791 E3.35138
G1 X51.219 Y75.429 E3.36307
G1 X51.179 Y75.050 E3.37476
G1 X51.219 Y74.671 E3.38645
G1 X51.336 Y74.309 E3.39814
G1 X51.527 Y73.979 E3.40983
G1 X51.781 Y73.697 E3.42152
G1 X52.089 Y73.473 E3.43321
G1 X52.437 Y73.318 E3.44490
G1 X52.810 Y73.239 E3.45660
G1 X53.190 Y73.239 E3.46829
G1 X53.563 Y73.318 E3.47998
G1 X53.911 Y73.473 E3.49167
G1 X54.219 Y73.697 E3.50336
G1 X54.473 Y73.979 E3.51505
G1 X54.664 Y74.309 E3.52674
G1 X54.781 Y74.671 E3.53843
G1 X54.821 Y75.050 E3.55012
G1 X54.781 Y75.429 E3.56181
G1 X54.664 Y75.791 E3.57350
G1 X54.473 Y76.121 E3.58520
G1 X54.219 Y76.403 E3.59689
G1 X53.911 Y76.627 E3.60858
G1 X53.618 Y76.758 E3.61843
G1 X53.484 Y77.155 F6000.000
G1 E1.61843 F1200.00000
G92 E0
G1 Z1.000 F6000.000
G1 X49.194 Y86.517 F6000.000
G1 Z0.500 F6000.000
G1 E2.00000 F1200.00000
G1 F2400.000
G1 X49.194 Y51.244 E3.41040
G1 X58.119 Y51.244 E3.76727
G1 X58.115 Y86.516 E5.17765
G1 X49.254 Y86.517 E5.53197
G1 X48.677 Y87.034 F6000.000
G1 F2400.000
G1 X48.677 Y50.727 E6.98372
G1 X58.303 Y50.727 E7.36860
G1 X58.458 Y50.836 E7.37618
G1 X58.636 Y51.003 E7.38596
G1 X58.632 Y87.033 E8.82665
G1 X48.737 Y87.034 E9.22231
G1 X48.220 Y87.378 F6000.000
G1 F2160.000
G1 X48.220 Y50.270 E10.36175
G1 X58.447 Y50.270 E10.67577
G1 X58.693 Y50.442 E10.68499

G1 F2400.000
G1 X58.896 Y50.607 E10.69772
G1 X59.002 Y50.727 E10.70551
