; generated by Slic3r 1.3.1-dev (Build (Unknown revision)) on 2020-11-25 at 18:59:08

; external perimeters extrusion width = 0.44mm (2.86mm^3/s)
; perimeters extrusion width = 0.56mm (4.14mm^3/s)
; infill extrusion width = 0.50mm (5.48mm^3/s)
; solid infill extrusion width = 0.56mm (3.10mm^3/s)
; top infill extrusion width = 0.45mm (2.44mm^3/s)

M107
G92 E0
;D3D:START:START
T0
M104 S215 T0

G21
G90
M107
T0
G28
G29
M109 T0 S215 T0
G0 F3000
M107
T0
G92 E0
G0 X0 Y149 Z0.1 F3600
G1 Y49 E6.5 F1200
G0 Z1
G92 E0
; Filament gcode

G21 ; set units to millimeters
G90 ; use absolute coordinates
M82 ; use absolute distances for extrusion
G92 E0
G1 Z0.300 F6000.000
G1 E-2.00000 F1200.00000
G92 E0
G1 X65.995 Y60.249 F6000.000
G1 E2.00000 F1200.00000
G1 F1800.000
G1 X68.076 Y58.603 E2.11871
G1 X68.935 Y58.262 E2.16004
G1 X69.711 Y58.001 E2.19667
G1 X71.081 Y57.634 E2.26010
G1 X72.179 Y57.422 E2.31010
G1 X72.990 Y57.311 E2.34673
G1 X74.405 Y57.207 E2.41018
G1 X75.522 Y57.205 E2.46018
G1 X76.340 Y57.248 E2.49681
G1 X77.454 Y57.367 E2.54694
G1 X78.555 Y57.556 E2.59686
G1 X79.932 Y57.894 E2.66029
G1 X80.996 Y58.237 E2.71033
G1 X81.761 Y58.531 E2.74695
G1 X83.050 Y59.121 E2.81039
G1 X83.772 Y59.508 E2.84701
G1 X84.727 Y60.089 E2.89701
G1 X85.883 Y60.911 E2.96045
G1 X86.746 Y61.622 E3.01047
G1 X87.563 Y62.386 E3.06049
G1 X87.995 Y62.836 E3.08842
G1 X89.026 Y64.484 E3.17535
G1 X89.218 Y67.131 E3.29407
G1 X84.788 Y87.972 E4.24712
G1 X84.005 Y89.751 E4.33405
G1 X81.924 Y91.397 E4.45276
G1 X81.065 Y91.738 E4.49410
G1 X80.289 Y91.999 E4.53072
G1 X78.919 Y92.366 E4.59415
G1 X78.116 Y92.528 E4.63078
G1 X77.010 Y92.689 E4.68078
G1 X75.895 Y92.780 E4.73083
G1 X74.478 Y92.795 E4.79424
G1 X73.360 Y92.727 E4.84431
G1 X72.546 Y92.633 E4.88099
G1 X71.445 Y92.444 E4.93092
G1 X70.067 Y92.106 E4.99440
G1 X69.004 Y91.763 E5.04438
G1 X68.239 Y91.469 E5.08101
G1 X66.950 Y90.879 E5.14444
G1 X66.228 Y90.492 E5.18106
G1 X65.273 Y89.911 E5.23106
G1 X64.356 Y89.271 E5.28110
G1 X63.254 Y88.378 E5.34452
G1 X62.652 Y87.824 E5.38115
G1 X62.005 Y87.164 E5.42248
G1 X60.974 Y85.516 E5.50941
G1 X60.782 Y82.869 E5.62812
G1 X65.212 Y62.028 E6.58118
G1 X65.970 Y60.304 E6.66542
G1 X66.354 Y60.410 F6000.000
G1 F1800.000
G1 X68.222 Y58.960 E6.77119
G1 X69.058 Y58.628 E6.81145
G1 X69.834 Y58.366 E6.84807
G1 X71.157 Y58.012 E6.90934
G1 X72.231 Y57.804 E6.95826
G1 X73.042 Y57.693 E6.99488
G1 X74.409 Y57.593 E7.05617
G1 X75.502 Y57.590 E7.10509
G1 X76.320 Y57.633 E7.14171
G1 X77.410 Y57.750 E7.19076
G1 X78.486 Y57.935 E7.23960
G1 X79.816 Y58.262 E7.30086
G1 X80.598 Y58.507 E7.33748
G1 X81.622 Y58.891 E7.38644
G1 X82.868 Y59.461 E7.44771
G1 X83.827 Y59.985 E7.49662
G1 X84.523 Y60.417 E7.53324
G1 X85.640 Y61.210 E7.59452
G1 X86.485 Y61.906 E7.64346
G1 X87.284 Y62.653 E7.69240
G1 X87.716 Y63.103 E7.72033
G1 X88.691 Y64.690 E7.80363
G1 X88.841 Y67.050 E7.90941
G1 X84.411 Y87.892 E8.86247
G1 X83.646 Y89.590 E8.94577
G1 X81.778 Y91.040 E9.05154
G1 X80.942 Y91.372 E9.09179
G1 X80.166 Y91.634 E9.12842
G1 X78.843 Y91.988 E9.18968
G1 X78.040 Y92.150 E9.22631
G1 X76.958 Y92.307 E9.27523
G1 X75.867 Y92.396 E9.32419
G1 X74.498 Y92.410 E9.38543
G1 X73.405 Y92.344 E9.43442
G1 X72.590 Y92.250 E9.47110
G1 X71.514 Y92.065 E9.51995
G1 X70.183 Y91.738 E9.58126
G1 X69.142 Y91.403 E9.63016
G1 X68.378 Y91.109 E9.66678
G1 X67.132 Y90.539 E9.72805
G1 X66.411 Y90.152 E9.76468
G1 X65.477 Y89.583 E9.81359
G1 X64.580 Y88.956 E9.86255
G1 X63.515 Y88.094 E9.92380
G1 X62.913 Y87.540 E9.96043
G1 X62.284 Y86.897 E10.00067
G1 X61.309 Y85.310 E10.08398
G1 X61.159 Y82.950 E10.18976
G1 X65.589 Y62.108 E11.14281
G1 X66.330 Y60.465 E11.22343
G1 E9.22343 F1200.00000
G92 E0
G1 X75.367 Y85.205 F6000.000
G1 E2.00000 F1200.00000
G1 F1800.000
G1 X74.854 Y85.840 E2.03651
G1 X74.169 Y86.284 E2.07301
G1 X73.381 Y86.496 E2.10952
G1 X72.566 Y86.453 E2.14603
G1 X71.804 Y86.160 E2.18254
G1 X71.169 Y85.647 E2.21904
G1 X70.725 Y84.962 E2.25555
G1 X70.514 Y84.174 E2.29206
G1 X70.556 Y83.359 E2.32857
G1 X70.849 Y82.597 E2.36507
G1 X71.362 Y81.963 E2.40158
G1 X72.047 Y81.518 E2.43809
G1 X72.835 Y81.307 E2.47459
G1 X73.650 Y81.349 E2.51110
G1 X74.412 Y81.642 E2.54761
G1 X75.047 Y82.156 E2.58411
G1 X75.491 Y82.840 E2.62062
G1 X75.702 Y83.628 E2.65713
G1 X75.660 Y84.444 E2.69364
G1 X75.389 Y85.149 E2.72746
G1 X75.029 Y85.010 F6000.000
G1 F1800.000
G1 X74.592 Y85.550 E2.75850
G1 X74.010 Y85.928 E2.78954
G1 X73.340 Y86.107 E2.82059
G1 X72.647 Y86.071 E2.85163
G1 X71.999 Y85.822 E2.88268
G1 X71.460 Y85.385 E2.91372
G1 X71.082 Y84.803 E2.94476
G1 X70.902 Y84.133 E2.97580
G1 X70.938 Y83.440 E3.00685
G1 X71.187 Y82.792 E3.03789
G1 X71.624 Y82.253 E3.06893
G1 X72.206 Y81.875 E3.09998
G1 X72.876 Y81.695 E3.13102
G1 X73.569 Y81.731 E3.16206
G1 X74.217 Y81.980 E3.19311
G1 X74.756 Y82.417 E3.22415
G1 X75.134 Y82.999 E3.25519
G1 X75.314 Y83.669 E3.28624
G1 X75.278 Y84.362 E3.31728
G1 X75.051 Y84.954 E3.34564
G1 X74.691 Y84.815 F6000.000
G1 F1800.000
G1 X74.331 Y85.259 E3.37122
G1 X73.851 Y85.571 E3.39680
G1 X73.299 Y85.719 E3.42238
G1 X72.728 Y85.689 E3.44796
G1 X72.194 Y85.484 E3.47354
G1 X71.750 Y85.124 E3.49912
G1 X71.438 Y84.645 E3.52469
G1 X71.290 Y84.092 E3.55027
G1 X71.320 Y83.521 E3.57585
G1 X71.525 Y82.987 E3.60143
G1 X71.885 Y82.543 E3.62701
G1 X72.365 Y82.231 E3.65259
G1 X72.917 Y82.083 E3.67817
G1 X73.488 Y82.113 E3.70375
G1 X74.022 Y82.318 E3.72933
G1 X74.466 Y82.678 E3.75491
G1 X74.778 Y83.158 E3.78049
G1 X74.926 Y83.710 E3.80607
G1 X74.896 Y84.281 E3.83165
G1 X74.712 Y84.759 E3.85454
G1 X74.891 Y85.161 F6000.000
G1 E1.85454 F1200.00000
G92 E0
G1 X78.378 Y75.381 F6000.000
G1 E2.00000 F1200.00000
G1 F1800.000
G1 X77.610 Y75.381 E2.03438
G1 X77.601 Y75.553 E2.04209
G1 X77.302 Y76.329 E2.07930
G1 X76.779 Y76.976 E2.11651
G1 X76.081 Y77.429 E2.15371
G1 X75.278 Y77.644 E2.19092
G1 X74.447 Y77.601 E2.22813
G1 X73.671 Y77.302 E2.26533
G1 X73.024 Y76.779 E2.30254
G1 X72.571 Y76.081 E2.33975
G1 X72.356 Y75.278 E2.37695
G1 X72.399 Y74.447 E2.41416
G1 X72.702 Y73.660 E2.45186
G1 X73.223 Y73.023 E2.48871
G1 X73.919 Y72.571 E2.52580
G1 X74.722 Y72.356 E2.56301
G1 X75.553 Y72.399 E2.60021
G1 X76.340 Y72.702 E2.63792
G1 X76.977 Y73.223 E2.67476
G1 X78.345 Y75.330 E2.78714
G1 X77.668 Y74.995 F6000.000
G1 F1800.000
G1 X77.244 Y74.995 E2.80612
G1 X77.219 Y75.472 E2.82747
G1 X76.964 Y76.134 E2.85921
G1 X76.518 Y76.686 E2.89095
G1 X75.923 Y77.072 E2.92270
G1 X75.237 Y77.256 E2.95444
G1 X74.528 Y77.219 E2.98618
G1 X73.866 Y76.964 E3.01792
G1 X73.314 Y76.518 E3.04967
G1 X72.928 Y75.923 E3.08141
G1 X72.744 Y75.237 E3.11315
G1 X72.781 Y74.528 E3.14490
G1 X73.039 Y73.856 E3.17709
G1 X73.484 Y73.313 E3.20847
G1 X74.077 Y72.928 E3.24014
G1 X74.763 Y72.744 E3.27189
G1 X75.472 Y72.781 E3.30363
G1 X76.144 Y73.039 E3.33582
G1 X76.687 Y73.484 E3.36721
G1 X77.635 Y74.945 E3.44513
G1 X76.958 Y74.609 F6000.000
G1 F1800.000
G1 X76.815 Y74.609 E3.45149
G1 X76.868 Y74.804 E3.46050
G1 X76.837 Y75.390 E3.48677
G1 X76.626 Y75.939 E3.51305
G1 X76.256 Y76.395 E3.53933
G1 X75.764 Y76.715 E3.56561
G1 X75.196 Y76.868 E3.59189
G1 X74.610 Y76.837 E3.61817
G1 X74.061 Y76.626 E3.64445
G1 X73.605 Y76.256 E3.67073
G1 X73.285 Y75.764 E3.69701
G1 X73.132 Y75.196 E3.72329
G1 X73.163 Y74.610 E3.74957
G1 X73.377 Y74.053 E3.77625
G1 X73.744 Y73.604 E3.80217
G1 X74.236 Y73.285 E3.82842
G1 X74.804 Y73.132 E3.85470
G1 X75.390 Y73.163 E3.88098
G1 X75.947 Y73.377 E3.90766
G1 X76.396 Y73.744 E3.93358
G1 X76.925 Y74.559 E3.97705
G1 X76.990 Y74.748 F6000.000
G1 E1.97705 F1200.00000
G92 E0
G1 X77.165 Y68.693 F6000.000
G1 E2.00000 F1200.00000
G1 F1800.000
G1 X76.350 Y68.651 E2.03651
G1 X75.588 Y68.358 E2.07301
G1 X74.953 Y67.844 E2.10952
G1 X74.509 Y67.160 E2.14603
G1 X74.298 Y66.372 E2.18254
G1 X74.340 Y65.556 E2.21904
G1 X74.633 Y64.795 E2.25555
G1 X75.146 Y64.160 E2.29206
G1 X75.831 Y63.716 E2.32856
G1 X76.619 Y63.504 E2.36507
G1 X77.434 Y63.547 E2.40158
G1 X78.196 Y63.840 E2.43809
G1 X78.831 Y64.353 E2.47459
G1 X79.275 Y65.038 E2.51110
G1 X79.486 Y65.826 E2.54761
G1 X79.444 Y66.641 E2.58411
G1 X79.151 Y67.403 E2.62062
G1 X78.638 Y68.037 E2.65713
G1 X77.953 Y68.482 E2.69363
G1 X77.223 Y68.678 E2.72746
G1 X77.124 Y68.305 F6000.000
G1 F1800.000
G1 X76.431 Y68.269 E2.75850
G1 X75.783 Y68.020 E2.78954
G1 X75.244 Y67.583 E2.82059
G1 X74.866 Y67.001 E2.85163
G1 X74.686 Y66.331 E2.88267
G1 X74.722 Y65.638 E2.91372
G1 X74.971 Y64.990 E2.94476
G1 X75.408 Y64.450 E2.97580
G1 X75.990 Y64.072 E3.00685
G1 X76.660 Y63.893 E3.03789
G1 X77.353 Y63.929 E3.06893
G1 X78.001 Y64.178 E3.09998
G1 X78.540 Y64.615 E3.13102
G1 X78.918 Y65.197 E3.16206
G1 X79.098 Y65.867 E3.19311
G1 X79.062 Y66.560 E3.22415
G1 X78.813 Y67.208 E3.25519
G1 X78.376 Y67.747 E3.28624
G1 X77.794 Y68.125 E3.31728
G1 X77.182 Y68.289 E3.34564
G1 X77.083 Y67.917 F6000.000
G1 F1800.000
G1 X76.512 Y67.887 E3.37122
G1 X75.978 Y67.682 E3.39680
G1 X75.534 Y67.322 E3.42238
G1 X75.222 Y66.842 E3.44796
G1 X75.074 Y66.290 E3.47354
G1 X75.104 Y65.719 E3.49911
G1 X75.309 Y65.185 E3.52469
G1 X75.669 Y64.741 E3.55027
G1 X76.149 Y64.429 E3.57585
G1 X76.701 Y64.281 E3.60143
G1 X77.272 Y64.311 E3.62701
G1 X77.806 Y64.516 E3.65259
G1 X78.250 Y64.876 E3.67817
G1 X78.562 Y65.355 E3.70375
G1 X78.710 Y65.908 E3.72933
G1 X78.680 Y66.479 E3.75491
G1 X78.475 Y67.013 E3.78049
G1 X78.115 Y67.457 E3.80607
G1 X77.635 Y67.769 E3.83165
G1 X77.141 Y67.901 E3.85454
G1 X76.920 Y68.282 F6000.000
G1 E1.85454 F1200.00000
G92 E0
G1 X83.467 Y66.448 F6000.000
G1 E2.00000 F1200.00000
G1 F1800.000
G1 X79.256 Y86.257 E2.90587
G1 X78.479 Y86.523 E2.94262
G1 X77.749 Y86.719 E2.97644
G1 X77.007 Y86.868 E3.01026
G1 X76.258 Y86.971 E3.04409
G1 X75.504 Y87.026 E3.07791
G1 X74.748 Y87.034 E3.11173
G1 X73.993 Y86.994 E3.14555
G1 X73.240 Y86.907 E3.17944
G1 X72.497 Y86.774 E3.21320
G1 X71.762 Y86.593 E3.24708
G1 X71.042 Y86.367 E3.28085
G1 X70.336 Y86.096 E3.31467
G1 X69.648 Y85.781 E3.34849
G1 X68.982 Y85.424 E3.38231
G1 X68.339 Y85.026 E3.41614
G1 X67.723 Y84.588 E3.44996
G1 X67.135 Y84.112 E3.48378
G1 X66.578 Y83.600 E3.51760
G1 X66.533 Y83.552 E3.52054
G1 X70.744 Y63.743 E4.42641
G1 X71.521 Y63.477 E4.46315
G1 X72.251 Y63.281 E4.49698
G1 X72.993 Y63.132 E4.53080
G1 X73.742 Y63.029 E4.56463
G1 X74.496 Y62.974 E4.59845
G1 X75.252 Y62.966 E4.63227
G1 X76.007 Y63.006 E4.66609
G1 X76.760 Y63.093 E4.69998
G1 X77.503 Y63.226 E4.73374
G1 X78.237 Y63.407 E4.76756
G1 X78.958 Y63.633 E4.80138
G1 X79.664 Y63.904 E4.83521
G1 X80.352 Y64.219 E4.86903
G1 X81.018 Y64.576 E4.90285
G1 X81.661 Y64.974 E4.93667
G1 X82.277 Y65.412 E4.97050
G1 X82.865 Y65.888 E5.00432
G1 X83.425 Y66.404 E5.03839
G1 X83.887 Y66.328 F6000.000
G1 F1800.000
G1 X79.591 Y86.537 E5.96252
G1 X79.330 Y86.643 E5.97513
G1 X78.590 Y86.892 E6.01004
G1 X77.837 Y87.094 E6.04494
G1 X77.072 Y87.248 E6.07985
G1 X76.298 Y87.354 E6.11476
G1 X75.520 Y87.412 E6.14967
G1 X74.740 Y87.420 E6.18457
G1 X73.961 Y87.379 E6.21948
G1 X73.184 Y87.289 E6.25445
G1 X72.417 Y87.151 E6.28929
G1 X71.658 Y86.964 E6.32425
G1 X70.915 Y86.731 E6.35911
G1 X70.186 Y86.452 E6.39401
G1 X69.477 Y86.127 E6.42892
G1 X68.789 Y85.758 E6.46383
G1 X68.126 Y85.347 E6.49873
G1 X67.489 Y84.895 E6.53364
G1 X66.883 Y84.404 E6.56855
G1 X66.308 Y83.875 E6.60346
G1 X66.113 Y83.672 E6.61606
G1 X70.409 Y63.463 E7.54020
G1 X70.670 Y63.357 E7.55280
G1 X71.410 Y63.108 E7.58771
G1 X72.163 Y62.906 E7.62262
G1 X72.928 Y62.752 E7.65752
G1 X73.702 Y62.646 E7.69243
G1 X74.480 Y62.588 E7.72734
G1 X75.260 Y62.580 E7.76224
G1 X76.039 Y62.621 E7.79715
G1 X76.816 Y62.711 E7.83212
G1 X77.583 Y62.849 E7.86697
G1 X78.341 Y63.035 E7.90187
G1 X79.085 Y63.269 E7.93678
G1 X79.814 Y63.548 E7.97169
G1 X80.523 Y63.873 E8.00659
G1 X81.211 Y64.242 E8.04150
G1 X81.874 Y64.653 E8.07641
G1 X82.511 Y65.105 E8.11131
G1 X83.117 Y65.596 E8.14622
G1 X83.845 Y66.285 E8.19104
G1 E6.19104 F1200.00000
G92 E0
G1 X70.074 Y63.183 F6000.000
G1 E2.00000 F1200.00000
G1 F1800.000
G1 X70.535 Y62.995 E2.02228
G1 X71.298 Y62.738 E2.05827
G1 X72.075 Y62.530 E2.09426
G1 X72.864 Y62.371 E2.13026
G1 X73.661 Y62.262 E2.16625
G1 X74.464 Y62.203 E2.20224
G1 X75.268 Y62.195 E2.23823
G1 X76.072 Y62.237 E2.27422
G1 X76.872 Y62.329 E2.31027
G1 X77.663 Y62.472 E2.34620
G1 X78.444 Y62.664 E2.38219
G1 X79.212 Y62.904 E2.41818
G1 X79.963 Y63.193 E2.45417
G1 X80.695 Y63.527 E2.49016
G1 X81.404 Y63.908 E2.52616
G1 X82.088 Y64.332 E2.56215
G1 X82.744 Y64.798 E2.59814
G1 X83.369 Y65.304 E2.63413
G1 X83.961 Y65.849 E2.67012
G1 X84.306 Y66.208 E2.69240
G1 X79.926 Y86.817 E3.63480
G1 X79.465 Y87.005 E3.65708
G1 X78.702 Y87.262 E3.69307
G1 X77.925 Y87.470 E3.72906
G1 X77.136 Y87.629 E3.76506
G1 X76.339 Y87.738 E3.80105
G1 X75.536 Y87.797 E3.83704
G1 X74.732 Y87.805 E3.87303
G1 X73.928 Y87.763 E3.90902
G1 X73.128 Y87.671 E3.94507
G1 X72.337 Y87.528 E3.98100
G1 X71.554 Y87.336 E4.01705
G1 X70.788 Y87.096 E4.05298
G1 X70.037 Y86.807 E4.08898
G1 X69.305 Y86.473 E4.12497
G1 X68.596 Y86.092 E4.16096
G1 X67.912 Y85.668 E4.19695
G1 X67.256 Y85.202 E4.23294
G1 X66.631 Y84.696 E4.26893
G1 X66.039 Y84.151 E4.30492
G1 X65.694 Y83.792 E4.32720
G1 X70.062 Y63.242 E5.26692
G1 X70.453 Y63.312 F6000.000
G1 X70.748 Y64.364 F6000.000
G1 F1800.000
G1 X71.403 Y63.710 E5.30877
G1 X72.213 Y63.451 E5.34721
G1 X70.599 Y65.065 E5.45039
G1 X70.450 Y65.765 E5.48277
G1 X72.941 Y63.275 E5.64205
G1 X73.613 Y63.154 E5.67293
G1 X70.302 Y66.465 E5.88472
G1 X70.153 Y67.165 E5.91709
G1 X74.242 Y63.076 E6.17864
G1 X74.837 Y63.032 E6.20562
G1 X70.004 Y67.866 E6.51475
G1 X69.855 Y68.566 E6.54712
G1 X75.395 Y63.026 E6.90141
G1 X75.520 Y63.025 E6.90709
G1 X75.551 Y63.323 E6.92063
G1 X75.212 Y63.543 E6.93890
G1 X74.622 Y64.272 E6.98134
G1 X74.573 Y64.399 E6.98750
G1 X69.706 Y69.266 E7.29877
G1 X69.557 Y69.966 E7.33115
G1 X74.281 Y65.243 E7.63323
G1 X74.250 Y65.825 E7.65959
G1 X69.409 Y70.667 E7.96924
G1 X69.260 Y71.367 E8.00162
G1 X74.301 Y66.326 E8.32404
G1 X74.418 Y66.760 E8.34440
G1 X69.111 Y72.067 E8.68380
G1 X68.962 Y72.767 E8.71617
G1 X74.581 Y67.148 E9.07555
G1 X74.798 Y67.482 E9.09358
G1 X68.813 Y73.467 E9.47636
G1 X68.664 Y74.168 E9.50874
G1 X75.025 Y67.807 E9.91557
G1 X75.330 Y68.053 E9.93330
G1 X68.516 Y74.868 E10.36913
G1 X68.367 Y75.568 E10.40151
G1 X75.635 Y68.300 E10.86635
G1 X75.720 Y68.369 E10.87129
G1 X76.007 Y68.479 E10.88521
G1 X68.218 Y76.268 E11.38338
G1 X68.069 Y76.968 E11.41575
G1 X76.405 Y68.632 E11.94893
G1 X76.596 Y68.705 E11.95814
G1 X76.869 Y68.720 E11.97054
G1 X67.920 Y77.669 E12.54291
G1 E10.54291 F1200.00000
G92 E0
G1 X71.842 Y74.298 F6000.000
G1 E2.00000 F1200.00000
G1 F1800.000
G1 X72.037 Y73.791 E2.02456
G1 X72.636 Y73.059 E2.06734
G1 X73.433 Y72.542 E2.11032
G1 X73.659 Y72.481 E2.12093
G1 X77.393 Y68.747 E2.35975
G1 X77.533 Y68.754 E2.36606
G1 X78.086 Y68.606 E2.39195
G1 X74.395 Y72.297 E2.62801
G1 E0.62801 F1200.00000
G92 E0
G1 X72.496 Y73.644 F6000.000
G1 E2.00000 F1200.00000
G1 F1800.000
G1 X67.771 Y78.369 E2.30220
G1 X67.623 Y79.069 E2.33457
G1 X72.328 Y74.364 E2.63550
G1 X72.297 Y74.946 E2.66185
G1 X67.474 Y79.769 E2.97035
G1 X67.325 Y80.470 E3.00273
G1 X72.402 Y75.392 E3.32746
G1 X72.519 Y75.827 E3.34782
G1 X67.176 Y81.170 E3.68953
G1 X67.027 Y81.870 E3.72190
G1 X72.716 Y76.181 E4.08574
G1 X72.933 Y76.516 E4.10377
G1 X66.878 Y82.570 E4.49101
G1 X66.730 Y83.270 E4.52339
G1 X73.186 Y76.814 E4.93633
G1 X73.491 Y77.061 E4.95405
G1 X66.720 Y83.831 E5.38708
G1 X67.006 Y84.097 E5.40472
G1 X73.795 Y77.307 E5.83895
G1 X74.192 Y77.463 E5.85819
G1 X67.307 Y84.347 E6.29850
G1 X67.612 Y84.594 E6.31623
G1 X74.590 Y77.616 E6.76254
G1 X74.693 Y77.655 E6.76754
G1 X75.081 Y77.676 E6.78512
G1 X67.933 Y84.824 E7.24230
G1 X68.257 Y85.051 E7.26020
G1 X70.591 Y82.717 E7.40949
G1 X70.502 Y82.950 E7.42079
G1 X70.479 Y83.381 E7.44027
G1 X68.598 Y85.262 E7.56062
G1 X68.943 Y85.468 E7.57880
G1 X70.468 Y83.943 E7.67632
G1 X70.584 Y84.378 E7.69668
G1 X69.302 Y85.661 E7.77870
G1 X69.670 Y85.844 E7.79730
G1 X70.705 Y84.809 E7.86352
G1 X70.916 Y85.133 E7.88100
G1 X70.048 Y86.017 E7.93703
G1 E5.93703 F1200.00000
G92 E0
G1 X69.937 Y83.371 F6000.000
G1 E2.00000 F1200.00000
G1 F1800.000
G1 X70.184 Y82.729 E2.03113
G1 X70.774 Y82.000 E2.07357
G1 X71.561 Y81.489 E2.11600
