; generated by Slic3r 1.3.0 on 2020-05-05 at 09:30:54

; external perimeters extrusion width = 0.44mm (2.86mm^3/s)
; perimeters extrusion width = 0.56mm (4.14mm^3/s)
; infill extrusion width = 0.50mm (5.48mm^3/s)
; solid infill extrusion width = 0.56mm (3.10mm^3/s)
; top infill extrusion width = 0.45mm (2.44mm^3/s)

M107
;D3D:START:START
T0
M104 S215 T0

G21
G90
M107
T0
G28
G29
M109 T0 S215 T0
G0 F3000
M107
T0
G92 E0
G0 X0 Y149 Z0.1 F3600
G1 Y49 E6.5 F1200
G0 Z1
G92 E0
; Filament gcode

G21 ; set units to millimeters
G90 ; use absolute coordinates
M82 ; use absolute distances for extrusion
G92 E0
G1 Z0.200 F6000.000
G1 E-2.00000 F1200.00000
G92 E0
G1 X41.433 Y71.165 F6000.000
G1 E2.00000 F1200.00000
G1 F1800
G1 X77.141 Y41.202 E2.89680
G1 X78.811 Y40.317 E2.93316
G1 X80.697 Y40.194 E2.96951
G1 X82.468 Y40.853 E3.00587
G1 X83.501 Y41.759 E3.03230
G1 X109.213 Y72.401 E3.80185
G1 X110.097 Y74.071 E3.83821
G1 X110.221 Y75.956 E3.87457
G1 X109.562 Y77.727 E3.91092
G1 X108.656 Y78.760 E3.93735
G1 X72.859 Y108.798 E4.83638
G1 X71.189 Y109.683 E4.87273
G1 X69.303 Y109.806 E4.90909
G1 X67.532 Y109.147 E4.94545
G1 X66.499 Y108.241 E4.97187
G1 X40.787 Y77.599 E5.74142
G1 X39.903 Y75.930 E5.77778
G1 X39.779 Y74.044 E5.81414
G1 X40.438 Y72.273 E5.85049
G1 X41.387 Y71.204 E5.87798
G1 X41.598 Y71.362 F6000.000
G1 F1800
G1 X77.307 Y41.399 E6.77478
G1 X78.933 Y40.550 E6.81008
G1 X80.766 Y40.465 E6.84537
G1 X82.464 Y41.159 E6.88066
G1 X83.304 Y41.924 E6.90253
G1 X109.016 Y72.566 E7.67208
G1 X109.864 Y74.192 E7.70737
G1 X109.950 Y76.025 E7.74267
G1 X109.256 Y77.723 E7.77796
G1 X108.491 Y78.563 E7.79982
G1 X72.693 Y108.601 E8.69885
G1 X71.067 Y109.450 E8.73414
G1 X69.234 Y109.535 E8.76943
G1 X67.536 Y108.841 E8.80473
G1 X66.696 Y108.076 E8.82659
G1 X40.984 Y77.434 E9.59614
G1 X40.136 Y75.808 E9.63143
G1 X40.050 Y73.975 E9.66673
G1 X40.744 Y72.277 E9.70202
G1 X41.552 Y71.401 E9.72494
G1 E7.72494 F1200.00000
G92 E0
G1 X71.462 Y95.153 F6000.000
G1 E2.00000 F1200.00000
G1 F1800
G1 X64.919 Y87.355 E2.19584
G1 X66.724 Y87.158 E2.23077
G1 X68.203 Y86.346 E2.26322
G1 X69.259 Y85.031 E2.29567
G1 X69.731 Y83.412 E2.32812
G1 X69.571 Y81.952 E2.35637
G1 X82.789 Y70.861 E2.68833
G1 X84.199 Y71.272 E2.71658
G1 X85.875 Y71.088 E2.74903
G1 X87.353 Y70.277 E2.78145
G1 X88.416 Y68.940 E2.81432
G1 X88.918 Y67.218 E2.84883
G1 X95.461 Y75.016 E3.04467
G1 X71.508 Y95.115 E3.64623
G1 X71.494 Y94.791 F6000.000
G1 F1800
G1 X65.425 Y87.558 E3.82786
G1 X66.803 Y87.408 E3.85453
G1 X68.372 Y86.547 E3.88895
G1 X69.491 Y85.152 E3.92336
G1 X69.992 Y83.434 E3.95778
G1 X69.841 Y82.061 E3.98437
G1 X82.849 Y71.146 E4.31105
G1 X84.176 Y71.533 E4.33764
G1 X85.954 Y71.338 E4.37205
G1 X87.522 Y70.478 E4.40645
G1 X88.649 Y69.061 E4.44129
G1 X89.030 Y67.752 E4.46752
G1 X95.099 Y74.984 E4.64916
G1 X71.540 Y94.752 E5.24082
G1 X71.526 Y94.429 F6000.000
G1 F1800
G1 X65.931 Y87.762 E5.40826
G1 X66.882 Y87.658 E5.42666
G1 X68.540 Y86.748 E5.46304
G1 X69.724 Y85.273 E5.49943
G1 X70.253 Y83.457 E5.53581
G1 X70.112 Y82.169 E5.56074
G1 X82.909 Y71.431 E5.88213
G1 X84.153 Y71.794 E5.90706
G1 X86.033 Y71.588 E5.94345
G1 X87.691 Y70.678 E5.97982
G1 X88.881 Y69.181 E6.01663
G1 X89.143 Y68.285 E6.03458
G1 X94.737 Y74.952 E6.20202
G1 X71.572 Y94.390 E6.78379
G1 X71.245 Y94.713 F6000.000
G1 E4.78379 F1200.00000
G92 E0
G1 X83.798 Y69.096 F6000.000
G1 E2.00000 F1200.00000
G1 F1800
G1 X83.363 Y68.880 E2.00933
G1 X83.000 Y68.596 E2.01819
G1 X82.695 Y68.233 E2.02732
G1 X82.473 Y67.815 E2.03644
G1 X82.342 Y67.359 E2.04556
G1 X82.309 Y66.886 E2.05468
G1 X82.375 Y66.417 E2.06380
G1 X82.537 Y65.971 E2.07292
G1 X82.788 Y65.569 E2.08204
G1 X83.118 Y65.228 E2.09116
G1 X83.511 Y64.963 E2.10028
G1 X83.950 Y64.785 E2.10941
G1 X84.404 Y64.705 E2.11827
G1 X84.889 Y64.719 E2.12760
G1 X85.351 Y64.834 E2.13676
G1 X85.777 Y65.042 E2.14588
G1 X86.151 Y65.334 E2.15501
G1 X86.456 Y65.697 E2.16413
G1 X86.678 Y66.116 E2.17325
G1 X86.809 Y66.571 E2.18237
G1 X86.842 Y67.044 E2.19149
G1 X86.776 Y67.514 E2.20061
G1 X86.614 Y67.959 E2.20973
G1 X86.363 Y68.361 E2.21885
G1 X86.033 Y68.702 E2.22798
G1 X85.640 Y68.968 E2.23710
G1 X85.201 Y69.145 E2.24622
G1 X84.734 Y69.227 E2.25534
G1 X84.260 Y69.211 E2.26446
G1 X83.856 Y69.110 E2.27247
G1 X83.887 Y68.853 F6000.000
G1 F1800
G1 X83.501 Y68.661 E2.28076
G1 X83.180 Y68.411 E2.28860
G1 X82.910 Y68.089 E2.29668
G1 X82.713 Y67.718 E2.30476
G1 X82.597 Y67.314 E2.31284
G1 X82.567 Y66.895 E2.32093
G1 X82.626 Y66.479 E2.32901
G1 X82.770 Y66.084 E2.33709
G1 X82.992 Y65.728 E2.34517
G1 X83.284 Y65.426 E2.35325
G1 X83.632 Y65.191 E2.36133
G1 X84.022 Y65.034 E2.36941
G1 X84.423 Y64.963 E2.37726
G1 X84.854 Y64.975 E2.38555
G1 X85.263 Y65.077 E2.39365
G1 X85.640 Y65.261 E2.40174
G1 X85.971 Y65.520 E2.40982
G1 X86.241 Y65.842 E2.41790
G1 X86.439 Y66.212 E2.42598
G1 X86.554 Y66.616 E2.43406
G1 X86.584 Y67.035 E2.44214
G1 X86.525 Y67.451 E2.45022
G1 X86.382 Y67.846 E2.45831
G1 X86.159 Y68.202 E2.46639
G1 X85.867 Y68.504 E2.47447
G1 X85.519 Y68.739 E2.48255
G1 X85.129 Y68.897 E2.49063
G1 X84.716 Y68.970 E2.49871
G1 X84.296 Y68.955 E2.50679
G1 X83.945 Y68.867 E2.51375
G1 X83.976 Y68.610 F6000.000
G1 F1800
G1 X83.639 Y68.443 E2.52100
G1 X83.359 Y68.225 E2.52782
G1 X83.124 Y67.944 E2.53486
G1 X82.952 Y67.621 E2.54190
G1 X82.851 Y67.269 E2.54894
G1 X82.826 Y66.904 E2.55598
G1 X82.877 Y66.542 E2.56303
G1 X83.002 Y66.198 E2.57007
G1 X83.196 Y65.887 E2.57711
G1 X83.450 Y65.624 E2.58415
G1 X83.754 Y65.419 E2.59119
G1 X84.093 Y65.282 E2.59823
G1 X84.442 Y65.221 E2.60505
G1 X84.819 Y65.231 E2.61230
G1 X85.174 Y65.320 E2.61936
G1 X85.503 Y65.480 E2.62640
G1 X85.792 Y65.706 E2.63344
G1 X86.027 Y65.986 E2.64048
G1 X86.199 Y66.309 E2.64752
G1 X86.300 Y66.661 E2.65456
G1 X86.325 Y67.026 E2.66161
G1 X86.274 Y67.389 E2.66865
G1 X86.149 Y67.733 E2.67569
G1 X85.955 Y68.043 E2.68273
G1 X85.701 Y68.306 E2.68977
G1 X85.398 Y68.511 E2.69681
G1 X85.058 Y68.648 E2.70386
G1 X84.698 Y68.712 E2.71090
G1 X84.332 Y68.699 E2.71794
G1 X84.034 Y68.625 E2.72384
G1 X83.686 Y68.851 F6000.000
G1 E0.72384 F1200.00000
G92 E0
G1 X67.305 Y81.767 F6000.000
G1 E2.00000 F1200.00000
G1 F1800
G1 X67.527 Y82.185 E2.00912
G1 X67.658 Y82.641 E2.01824
G1 X67.691 Y83.114 E2.02736
G1 X67.625 Y83.583 E2.03648
G1 X67.463 Y84.029 E2.04561
G1 X67.212 Y84.431 E2.05473
G1 X66.882 Y84.772 E2.06385
G1 X66.489 Y85.037 E2.07297
G1 X66.050 Y85.215 E2.08209
G1 X65.583 Y85.297 E2.09121
G1 X65.109 Y85.281 E2.10033
G1 X64.649 Y85.166 E2.10945
G1 X64.223 Y84.958 E2.11857
G1 X63.847 Y84.665 E2.12774
G1 X63.538 Y84.291 E2.13707
G1 X63.322 Y83.884 E2.14593
G1 X63.191 Y83.429 E2.15505
G1 X63.158 Y82.956 E2.16417
G1 X63.224 Y82.486 E2.17330
G1 X63.386 Y82.041 E2.18242
G1 X63.637 Y81.639 E2.19154
G1 X63.967 Y81.298 E2.20066
G1 X64.360 Y81.032 E2.20978
G1 X64.799 Y80.855 E2.21890
G1 X65.253 Y80.775 E2.22776
G1 X65.738 Y80.789 E2.23710
G1 X66.200 Y80.904 E2.24626
G1 X66.626 Y81.112 E2.25538
G1 X67.000 Y81.404 E2.26450
G1 X67.266 Y81.721 E2.27247
G1 X67.090 Y81.911 F6000.000
G1 F1800
G1 X67.287 Y82.282 E2.28055
G1 X67.403 Y82.686 E2.28863
G1 X67.433 Y83.105 E2.29671
G1 X67.374 Y83.521 E2.30479
G1 X67.230 Y83.916 E2.31288
G1 X67.008 Y84.272 E2.32096
G1 X66.716 Y84.574 E2.32904
G1 X66.368 Y84.809 E2.33712
G1 X65.978 Y84.966 E2.34520
G1 X65.565 Y85.039 E2.35328
G1 X65.145 Y85.025 E2.36136
G1 X64.737 Y84.923 E2.36945
G1 X64.360 Y84.739 E2.37753
G1 X64.028 Y84.479 E2.38563
G1 X63.753 Y84.147 E2.39393
G1 X63.561 Y83.788 E2.40177
G1 X63.446 Y83.384 E2.40985
G1 X63.416 Y82.965 E2.41793
G1 X63.475 Y82.549 E2.42601
G1 X63.618 Y82.154 E2.43409
G1 X63.841 Y81.798 E2.44217
G1 X64.133 Y81.496 E2.45026
G1 X64.481 Y81.261 E2.45834
G1 X64.871 Y81.103 E2.46642
G1 X65.272 Y81.033 E2.47426
G1 X65.703 Y81.045 E2.48255
G1 X66.112 Y81.147 E2.49066
G1 X66.489 Y81.331 E2.49874
G1 X66.820 Y81.589 E2.50682
G1 X67.052 Y81.865 E2.51375
G1 X66.876 Y82.056 F6000.000
G1 F1800
G1 X67.048 Y82.379 E2.52079
G1 X67.149 Y82.731 E2.52783
G1 X67.174 Y83.096 E2.53487
G1 X67.123 Y83.458 E2.54191
G1 X66.998 Y83.802 E2.54896
G1 X66.804 Y84.113 E2.55600
G1 X66.550 Y84.376 E2.56304
G1 X66.246 Y84.581 E2.57008
G1 X65.907 Y84.718 E2.57712
G1 X65.547 Y84.781 E2.58417
G1 X65.181 Y84.769 E2.59121
G1 X64.826 Y84.680 E2.59825
G1 X64.497 Y84.520 E2.60529
G1 X64.208 Y84.294 E2.61234
G1 X63.967 Y84.004 E2.61959
G1 X63.801 Y83.691 E2.62641
G1 X63.700 Y83.339 E2.63345
G1 X63.675 Y82.974 E2.64049
G1 X63.726 Y82.611 E2.64754
G1 X63.851 Y82.267 E2.65458
G1 X64.045 Y81.957 E2.66162
G1 X64.299 Y81.694 E2.66866
G1 X64.602 Y81.489 E2.67570
G1 X64.942 Y81.352 E2.68274
G1 X65.291 Y81.290 E2.68956
G1 X65.668 Y81.301 E2.69681
G1 X66.023 Y81.390 E2.70387
G1 X66.352 Y81.550 E2.71091
G1 X66.641 Y81.775 E2.71795
G1 X66.837 Y82.010 E2.72384
G1 X67.241 Y82.030 F6000.000
G1 E0.72384 F1200.00000
G92 E0
G1 X61.082 Y82.782 F6000.000
G1 E2.00000 F1200.00000
G1 F1800
G1 X54.539 Y74.984 E2.19584
G1 X78.538 Y54.847 E2.79855
G1 X85.081 Y62.645 E2.99439
G1 X83.276 Y62.842 E3.02932
G1 X81.797 Y63.654 E3.06177
G1 X80.741 Y64.969 E3.09422
G1 X80.269 Y66.588 E3.12667
G1 X80.429 Y68.048 E3.15492
G1 X67.211 Y79.139 E3.48688
G1 X65.801 Y78.728 E3.51513
G1 X64.125 Y78.912 E3.54758
G1 X62.646 Y79.723 E3.58003
G1 X61.590 Y81.039 E3.61248
G1 X61.099 Y82.725 E3.64626
G1 X60.970 Y82.248 F6000.000
G1 F1800
G1 X54.901 Y75.016 E3.82790
G1 X78.506 Y55.209 E4.42072
G1 X84.575 Y62.442 E4.60236
G1 X83.197 Y62.592 E4.62902
G1 X81.628 Y63.453 E4.66344
G1 X80.509 Y64.848 E4.69786
G1 X80.008 Y66.566 E4.73228
G1 X80.159 Y67.939 E4.75886
G1 X67.151 Y78.854 E5.08554
G1 X65.824 Y78.467 E5.11213
G1 X64.046 Y78.662 E5.14655
G1 X62.477 Y79.523 E5.18096
G1 X61.358 Y80.918 E5.21538
G1 X60.986 Y82.191 E5.24089
G1 X60.857 Y81.715 F6000.000
G1 F1800
G1 X55.263 Y75.048 E5.40833
G1 X78.474 Y55.571 E5.99126
G1 X84.069 Y62.238 E6.15870
G1 X83.118 Y62.342 E6.17710
G1 X81.460 Y63.252 E6.21348
G1 X80.276 Y64.727 E6.24987
G1 X79.747 Y66.543 E6.28625
G1 X79.888 Y67.831 E6.31118
G1 X67.091 Y78.569 E6.63257
G1 X65.847 Y78.206 E6.65750
G1 X63.967 Y78.412 E6.69388
G1 X62.309 Y79.322 E6.73027
G1 X61.125 Y80.797 E6.76665
G1 X60.874 Y81.657 E6.78390
G1 X60.581 Y82.004 F6000.000
G1 E4.78390 F1200.00000
G92 E0
G1 X45.181 Y74.780 F6000.000
G1 E2.00000 F1200.00000
G1 F1800
G1 X79.961 Y45.596 E2.87347
G1 X104.819 Y75.220 E3.61746
G1 X70.039 Y104.404 E4.49093
G1 X45.220 Y74.826 E5.23377
G1 X44.819 Y74.748 F6000.000
G1 F1800
G1 X79.993 Y45.234 E6.11713
G1 X105.181 Y75.252 E6.87101
G1 X70.007 Y104.766 E7.75437
G1 X44.858 Y74.794 E8.50710
G1 X44.457 Y74.716 F6000.000
G1 F1800
G1 X80.024 Y44.872 E9.40035
G1 X105.543 Y75.284 E10.16412
G1 X69.976 Y105.128 E11.05738
G1 X44.495 Y74.762 E11.82000
G1 X44.815 Y74.538 F6000.000
G1 X45.436 Y74.919 F6000.000
G1 F1800
G1 X45.654 Y74.701 E11.82593
G1 X47.915 Y72.804 E11.88274
G1 X45.600 Y75.118 E11.94574
G1 X45.766 Y75.316 E11.95070
G1 X50.175 Y70.907 E12.07072
G1 X52.436 Y69.010 E12.12753
G1 X45.932 Y75.514 E12.30456
G1 X46.098 Y75.712 E12.30953
G1 X54.697 Y67.113 E12.54359
G1 X56.957 Y65.216 E12.60039
G1 X46.264 Y75.910 E12.89147
G1 X46.430 Y76.107 E12.89644
G1 X59.218 Y63.319 E13.24454
G1 X61.479 Y61.423 E13.30134
G1 X46.596 Y76.305 E13.70645
G1 X46.762 Y76.503 E13.71142
G1 X63.739 Y59.526 E14.17356
G1 X66.000 Y57.629 E14.23036
G1 X46.928 Y76.701 E14.74952
G1 X47.094 Y76.899 E14.75449
G1 X68.261 Y55.732 E15.33066
G1 X70.521 Y53.835 E15.38746
G1 X47.260 Y77.096 E16.02066
G1 X47.426 Y77.294 E16.02563
G1 X72.782 Y51.938 E16.71584
G1 X75.043 Y50.041 E16.77264
G1 X47.592 Y77.492 E17.51987
G1 X47.758 Y77.690 E17.52484
G1 X77.303 Y48.144 E18.32910
G1 X79.564 Y46.247 E18.38590
G1 X47.924 Y77.887 E19.24717
G1 X48.090 Y78.085 E19.25214
G1 X80.170 Y46.005 E20.12537
G1 X80.336 Y46.203 E20.13034
G1 X48.256 Y78.283 E21.00358
G1 X48.422 Y78.481 E21.00855
G1 X80.502 Y46.401 E21.88178
G1 X80.668 Y46.599 E21.88675
G1 X48.588 Y78.679 E22.75999
G1 X48.754 Y78.876 E22.76496
G1 X80.833 Y46.797 E23.63819
G1 X80.999 Y46.994 E23.64316
G1 X48.920 Y79.074 E24.51640
G1 X49.086 Y79.272 E24.52137
G1 X81.165 Y47.192 E25.39460
G1 X81.331 Y47.390 E25.39957
G1 X49.252 Y79.470 E26.27281
G1 X49.417 Y79.667 E26.27778
G1 X81.497 Y47.588 E27.15101
G1 X81.663 Y47.785 E27.15598
G1 X56.052 Y73.397 E27.85314
G1 X58.313 Y71.500 E27.90994
G1 X81.829 Y47.983 E28.55008
G1 X81.995 Y48.181 E28.55505
G1 X60.573 Y69.603 E29.13816
G1 X62.834 Y67.706 E29.19496
G1 X82.161 Y48.379 E29.72106
G1 X82.327 Y48.577 E29.72603
G1 X65.095 Y65.809 E30.19510
G1 X67.356 Y63.912 E30.25191
G1 X82.493 Y48.774 E30.66396
G1 X82.659 Y48.972 E30.66893
G1 X69.616 Y62.015 E31.02397
G1 X71.877 Y60.118 E31.08077
G1 X82.825 Y49.170 E31.37878
G1 X82.991 Y49.368 E31.38375
G1 X74.138 Y58.221 E31.62475
G1 X76.398 Y56.324 E31.68155
G1 X83.157 Y49.565 E31.86552
G1 X83.323 Y49.763 E31.87049
G1 X78.475 Y54.611 E32.00246
G1 X78.641 Y54.809 E32.00743
G1 X83.489 Y49.961 E32.13939
G1 X83.655 Y50.159 E32.14436
G1 X78.807 Y55.007 E32.27633
G1 X78.973 Y55.205 E32.28130
G1 X83.821 Y50.357 E32.41326
G1 X83.987 Y50.554 E32.41823
G1 X79.139 Y55.402 E32.55020
G1 X79.305 Y55.600 E32.55517
G1 X84.153 Y50.752 E32.68713
G1 X84.319 Y50.950 E32.69210
G1 X79.471 Y55.798 E32.82407
G1 X79.637 Y55.996 E32.82904
G1 X84.485 Y51.148 E32.96100
G1 X84.651 Y51.346 E32.96597
G1 X79.803 Y56.193 E33.09794
G1 X79.969 Y56.391 E33.10291
G1 X84.816 Y51.543 E33.23487
G1 X84.982 Y51.741 E33.23984
G1 X80.134 Y56.589 E33.37181
G1 X80.300 Y56.787 E33.37678
G1 X85.148 Y51.939 E33.50874
G1 X85.314 Y52.137 E33.51371
G1 X80.466 Y56.985 E33.64568
G1 X80.632 Y57.182 E33.65065
G1 X85.480 Y52.334 E33.78261
G1 X85.646 Y52.532 E33.78758
G1 X80.798 Y57.380 E33.91955
G1 X80.964 Y57.578 E33.92452
G1 X85.812 Y52.730 E34.05648
G1 X85.978 Y52.928 E34.06145
G1 X81.130 Y57.776 E34.19342
G1 X81.296 Y57.974 E34.19839
G1 X86.144 Y53.126 E34.33035
G1 X86.310 Y53.323 E34.33532
G1 X81.462 Y58.171 E34.46729
G1 X81.628 Y58.369 E34.47226
G1 X86.476 Y53.521 E34.60422
G1 X86.642 Y53.719 E34.60919
G1 X81.794 Y58.567 E34.74116
G1 X81.960 Y58.765 E34.74613
G1 X86.808 Y53.917 E34.87809
G1 X86.974 Y54.114 E34.88306
G1 X82.126 Y58.962 E35.01503
G1 X82.292 Y59.160 E35.02000
G1 X87.140 Y54.312 E35.15196
G1 X87.306 Y54.510 E35.15693
G1 X82.458 Y59.358 E35.28890
G1 X82.624 Y59.556 E35.29387
G1 X87.472 Y54.708 E35.42583
G1 X87.638 Y54.906 E35.43080
G1 X82.790 Y59.754 E35.56277
G1 X82.956 Y59.951 E35.56774
G1 X87.804 Y55.103 E35.69970
G1 X87.970 Y55.301 E35.70467
G1 X83.122 Y60.149 E35.83664
G1 X83.288 Y60.347 E35.84161
G1 X88.136 Y55.499 E35.97357
G1 X88.302 Y55.697 E35.97854
G1 X83.454 Y60.545 E36.11051
G1 X83.620 Y60.742 E36.11548
G1 X88.468 Y55.894 E36.24744
G1 X88.634 Y56.092 E36.25241
G1 X83.786 Y60.940 E36.38438
G1 X83.951 Y61.138 E36.38935
G1 X88.799 Y56.290 E36.52131
G1 X88.965 Y56.488 E36.52628
G1 X84.117 Y61.336 E36.65825
G1 X84.283 Y61.534 E36.66322
G1 X89.131 Y56.686 E36.79519
G1 X89.297 Y56.883 E36.80015
G1 X84.449 Y61.731 E36.93212
G1 X84.615 Y61.929 E36.93709
G1 X89.463 Y57.081 E37.06906
G1 X89.629 Y57.279 E37.07403
G1 X84.781 Y62.127 E37.20599
G1 X84.947 Y62.325 E37.21096
G1 X89.795 Y57.477 E37.34293
G1 X89.961 Y57.675 E37.34790
G1 X85.113 Y62.523 E37.47986
G1 X85.279 Y62.720 E37.48483
G1 X90.127 Y57.872 E37.61680
G1 X90.293 Y58.070 E37.62177
G1 X85.445 Y62.918 E37.75373
G1 E35.75373 F1200.00000
G92 E0
G1 X82.874 Y63.307 F6000.000
G1 E2.00000 F1200.00000
G1 F1800
G1 X80.816 Y65.364 E2.05601
G1 X80.667 Y65.878 E2.06630
G1 X83.573 Y62.971 E2.14542
G1 X83.982 Y62.927 E2.15333
G1 X80.517 Y66.391 E2.24764
G1 X80.421 Y66.720 E2.25424
G1 X80.434 Y66.838 E2.25651
G1 X84.390 Y62.882 E2.36420
G1 X84.799 Y62.837 E2.37211
G1 X80.470 Y67.166 E2.48994
G1 X80.506 Y67.494 E2.49629
G1 X82.686 Y65.314 E2.55563
G1 X82.414 Y65.749 E2.56550
G1 X82.299 Y66.064 E2.57196
G1 X80.542 Y67.821 E2.61979
G1 X80.578 Y68.149 E2.62614
G1 X82.193 Y66.534 E2.67010
G1 X82.160 Y66.768 E2.67465
G1 X82.171 Y66.920 E2.67758
G1 X67.387 Y81.704 E3.08001
G1 X67.519 Y81.936 E3.08514
G1 X82.194 Y67.260 E3.48463
G1 X82.270 Y67.549 E3.49036
G1 X67.645 Y82.173 E3.88846
G1 X67.731 Y82.451 E3.89406
G1 X82.355 Y67.827 E4.29215
