; generated by Slic3r 1.3.1-dev (Build (Unknown revision)) on 2020-06-19 at 09:09:58

; external perimeters extrusion width = 0.44mm (3.57mm^3/s)
; perimeters extrusion width = 0.56mm (5.17mm^3/s)
; infill extrusion width = 0.50mm (5.48mm^3/s)
; solid infill extrusion width = 0.56mm (3.62mm^3/s)
; top infill extrusion width = 0.56mm (2.07mm^3/s)

; external perimeters extrusion width = 0.44mm (2.86mm^3/s)
; perimeters extrusion width = 0.56mm (4.14mm^3/s)
; infill extrusion width = 0.50mm (3.66mm^3/s)
; solid infill extrusion width = 0.56mm (3.10mm^3/s)
; top infill extrusion width = 0.45mm (2.44mm^3/s)

; external perimeters extrusion width = 0.44mm (2.86mm^3/s)
; perimeters extrusion width = 0.56mm (4.14mm^3/s)
; infill extrusion width = 0.50mm (4.57mm^3/s)
; solid infill extrusion width = 0.56mm (3.10mm^3/s)
; top infill extrusion width = 0.45mm (2.44mm^3/s)

M107
G92 E0
;D3D:START:START
T0
M104 S215 T0

G21
G90
M107
T0
G28
G29
M109 T0 S215 T0
G0 F3000
M107
T0
G92 E0
G0 X0 Y149 Z0.1 F3600
G1 Y49 E6.5 F1200
G0 Z1
G92 E0
; Filament gcode

G21 ; set units to millimeters
G90 ; use absolute coordinates
M82 ; use absolute distances for extrusion
G92 E0
G1 E-1.00000 F1200.00000
G92 E0
G1 Z0.200 F6000.000
G1 X43.061 Y57.397 F6000.000
G1 E1.00000 F1200.00000
G1 F1800.000
G1 X44.514 Y56.386 E1.03481
G1 X46.579 Y55.433 E1.07953
G1 X48.507 Y55.225 E1.11767
G1 X60.808 Y55.755 E1.35981
G1 X79.290 Y56.638 E1.72369
G1 X93.872 Y57.409 E2.01086
G1 X105.635 Y58.084 E2.24258
G1 X107.847 Y58.612 E2.28730
G1 X109.742 Y59.869 E2.33203
G1 X111.090 Y61.700 E2.37675
G1 X111.764 Y64.586 E2.43503
G1 X111.764 Y64.947 E2.44212
G1 X111.367 Y67.186 E2.48684
G1 X110.225 Y69.152 E2.53156
G1 X107.742 Y70.966 E2.59203
G1 X51.824 Y94.114 E3.78223
G1 X50.853 Y94.430 E3.80231
G1 X50.319 Y94.558 E3.81311
G1 X49.309 Y94.718 E3.83322
G1 X48.761 Y94.761 E3.84403
G1 X47.739 Y94.761 E3.86412
G1 X47.191 Y94.718 E3.87493
G1 X46.181 Y94.558 E3.89504
G1 X45.647 Y94.430 E3.90584
G1 X44.673 Y94.113 E3.92598
G1 X44.166 Y93.903 E3.93677
G1 X43.256 Y93.439 E3.95686
G1 X42.788 Y93.152 E3.96765
G1 X41.964 Y92.553 E3.98768
G1 X41.546 Y92.197 E3.99849
G1 X40.823 Y91.474 E4.01860
G1 X40.466 Y91.056 E4.02940
G1 X39.864 Y90.228 E4.04953
G1 X39.577 Y89.760 E4.06033
G1 X39.112 Y88.847 E4.08049
G1 X38.902 Y88.339 E4.09129
G1 X38.586 Y87.366 E4.11141
G1 X38.458 Y86.832 E4.12221
G1 X38.299 Y85.824 E4.14228
G1 X38.256 Y85.277 E4.15308
G1 X38.244 Y84.441 E4.16951
G1 X39.245 Y64.418 E4.56378
G1 X39.259 Y64.157 E4.56893
G1 X39.371 Y63.227 E4.58735
G1 X39.575 Y62.325 E4.60553
G1 X39.792 Y61.655 E4.61939
G1 X40.164 Y60.788 E4.63793
G1 X40.616 Y59.978 E4.65618
G1 X41.168 Y59.193 E4.67505
G1 X41.785 Y58.488 E4.69348
G1 X42.485 Y57.840 E4.71224
G1 X43.013 Y57.433 E4.72535
G1 X43.208 Y57.608 F6000.000
G1 F1800.000
G1 X44.661 Y56.597 E4.76015
G1 X46.687 Y55.670 E4.80398
G1 X48.496 Y55.482 E4.83974
G1 X60.796 Y56.012 E5.08187
G1 X79.277 Y56.894 E5.44572
G1 X93.858 Y57.666 E5.73287
G1 X105.620 Y58.340 E5.96457
G1 X107.785 Y58.866 E6.00839
G1 X109.629 Y60.117 E6.05221
G1 X110.918 Y61.935 E6.09604
G1 X111.507 Y64.586 E6.14945
G1 X111.507 Y64.947 E6.15653
G1 X111.110 Y67.140 E6.20036
G1 X109.970 Y69.054 E6.24418
G1 X107.643 Y70.728 E6.30055
G1 X51.725 Y93.877 E7.49075
G1 X50.793 Y94.180 E7.51003
G1 X50.259 Y94.308 E7.52083
G1 X49.289 Y94.461 E7.54015
G1 X48.741 Y94.504 E7.55096
G1 X47.759 Y94.504 E7.57026
G1 X47.211 Y94.461 E7.58107
G1 X46.241 Y94.308 E7.60038
G1 X45.707 Y94.180 E7.61118
G1 X44.772 Y93.875 E7.63053
G1 X44.265 Y93.665 E7.64132
G1 X43.391 Y93.220 E7.66061
G1 X42.923 Y92.933 E7.67141
G1 X42.131 Y92.358 E7.69065
G1 X41.713 Y92.001 E7.70145
G1 X41.018 Y91.307 E7.72077
G1 X40.661 Y90.889 E7.73158
G1 X40.083 Y90.094 E7.75091
G1 X39.796 Y89.626 E7.76171
G1 X39.349 Y88.748 E7.78108
G1 X39.139 Y88.241 E7.79188
G1 X38.836 Y87.307 E7.81120
G1 X38.708 Y86.772 E7.82200
G1 X38.555 Y85.804 E7.84128
G1 X38.512 Y85.257 E7.85208
G1 X38.501 Y84.454 E7.86786
G1 X39.502 Y64.432 E8.26212
G1 X39.516 Y64.170 E8.26726
G1 X39.625 Y63.267 E8.28516
G1 X39.824 Y62.391 E8.30283
G1 X40.032 Y61.747 E8.31614
G1 X40.393 Y60.905 E8.33414
G1 X40.832 Y60.118 E8.35188
G1 X41.368 Y59.355 E8.37021
G1 X41.967 Y58.670 E8.38811
G1 X42.647 Y58.040 E8.40633
G1 X43.160 Y57.644 E8.41908
G1 E7.41908 F1200.00000
G92 E0
G1 X48.822 Y66.527 F6000.000
G1 E1.00000 F1200.00000
G1 F1800.000
G1 X48.445 Y66.607 E1.00760
G1 X48.057 Y66.607 E1.01522
G1 X47.679 Y66.527 E1.02281
G1 X47.325 Y66.370 E1.03043
G1 X47.012 Y66.143 E1.03805
G1 X46.753 Y65.855 E1.04565
G1 X46.562 Y65.524 E1.05318
G1 X46.489 Y65.336 E1.05714
G1 X46.409 Y64.961 E1.06468
G1 X46.409 Y64.573 E1.07230
G1 X46.489 Y64.198 E1.07984
G1 X46.561 Y64.010 E1.08380
G1 X46.753 Y63.679 E1.09133
G1 X47.011 Y63.391 E1.09893
G1 X47.325 Y63.164 E1.10655
G1 X47.678 Y63.006 E1.11417
G1 X48.056 Y62.926 E1.12176
G1 X48.444 Y62.926 E1.12938
G1 X48.822 Y63.006 E1.13698
G1 X49.175 Y63.164 E1.14459
G1 X49.489 Y63.391 E1.15221
G1 X49.747 Y63.679 E1.15981
G1 X49.939 Y64.010 E1.16734
G1 X50.011 Y64.198 E1.17131
G1 X50.091 Y64.573 E1.17884
G1 X50.091 Y64.959 E1.18644
G1 X50.011 Y65.338 E1.19405
G1 X49.853 Y65.691 E1.20166
G1 X49.628 Y66.001 E1.20919
G1 X49.486 Y66.144 E1.21314
G1 X49.176 Y66.369 E1.22069
G1 X48.877 Y66.502 E1.22712
G1 E0.22712 F1200.00000
G92 E0
G1 X63.400 Y63.617 F6000.000
G1 E1.00000 F1200.00000
G1 F1800.000
G1 X53.150 Y63.617 E1.20158
G1 X51.521 Y67.512 E1.28461
G1 X48.278 Y67.648 E1.34844
G1 X46.871 Y66.669 E1.38215
G1 X46.677 Y66.513 E1.38705
G1 X46.503 Y66.339 E1.39188
G1 X46.348 Y66.148 E1.39672
G1 X46.215 Y65.941 E1.40155
G1 X46.103 Y65.722 E1.40640
G1 X46.015 Y65.493 E1.41123
G1 X45.952 Y65.255 E1.41606
G1 X45.913 Y65.012 E1.42090
G1 X45.900 Y64.767 E1.42574
G1 X45.913 Y64.521 E1.43057
G1 X45.952 Y64.278 E1.43541
G1 X46.015 Y64.040 E1.44025
G1 X46.103 Y63.811 E1.44508
G1 X46.215 Y63.592 E1.44992
G1 X46.349 Y63.385 E1.45475
G1 X46.504 Y63.194 E1.45959
G1 X46.677 Y63.021 E1.46443
G1 X46.871 Y62.864 E1.46932
G1 X48.278 Y61.885 E1.50303
G1 X67.030 Y62.712 E1.87216
G1 X78.959 Y63.294 E2.10704
G1 X89.147 Y63.825 E2.30768
G1 X104.512 Y64.693 E2.61032
G1 X104.512 Y64.839 E2.61319
G1 X93.437 Y65.474 E2.83135
G1 X84.274 Y65.967 E3.01181
G1 X73.151 Y66.528 E3.23082
G1 X62.700 Y67.020 E3.43659
G1 X63.400 Y65.807 E3.46414
G1 X63.400 Y63.677 E3.50603
G1 E2.50603 F1200.00000
G92 E0
G1 X48.790 Y86.345 F6000.000
G1 E1.00000 F1200.00000
G1 F1800.000
G1 X48.510 Y86.412 E1.00567
G1 X48.224 Y86.435 E1.01131
G1 X47.733 Y86.357 E1.02108
G1 X47.267 Y86.120 E1.03138
G1 X46.916 Y85.768 E1.04114
G1 X46.752 Y85.501 E1.04731
G1 X46.598 Y85.029 E1.05708
G1 X46.598 Y84.505 E1.06738
G1 X46.752 Y84.032 E1.07715
G1 X46.916 Y83.765 E1.08332
G1 X47.267 Y83.414 E1.09309
G1 X47.710 Y83.188 E1.10287
G1 X47.990 Y83.121 E1.10853
G1 X48.276 Y83.098 E1.11418
G1 X48.767 Y83.176 E1.12395
G1 X49.233 Y83.414 E1.13424
G1 X49.584 Y83.765 E1.14401
G1 X49.748 Y84.032 E1.15018
G1 X49.902 Y84.505 E1.15995
G1 X49.902 Y85.029 E1.17025
G1 X49.748 Y85.501 E1.18002
G1 X49.584 Y85.768 E1.18619
G1 X49.233 Y86.120 E1.19595
G1 X48.844 Y86.318 E1.20456
G1 X48.701 Y86.102 F6000.000
G1 F1800.000
G1 X48.470 Y86.158 E1.20923
G1 X48.234 Y86.176 E1.21388
G1 X47.814 Y86.110 E1.22224
G1 X47.420 Y85.909 E1.23094
G1 X47.119 Y85.608 E1.23931
G1 X46.987 Y85.392 E1.24428
G1 X46.855 Y84.988 E1.25265
G1 X46.855 Y84.546 E1.26135
G1 X46.987 Y84.141 E1.26972
G1 X47.119 Y83.925 E1.27470
G1 X47.420 Y83.624 E1.28306
G1 X47.799 Y83.431 E1.29144
G1 X48.030 Y83.376 E1.29611
G1 X48.266 Y83.357 E1.30076
G1 X48.686 Y83.424 E1.30913
G1 X49.080 Y83.624 E1.31782
G1 X49.381 Y83.925 E1.32619
G1 X49.513 Y84.141 E1.33116
G1 X49.645 Y84.546 E1.33954
G1 X49.645 Y84.988 E1.34823
G1 X49.513 Y85.392 E1.35660
G1 X49.381 Y85.608 E1.36158
G1 X49.080 Y85.909 E1.36994
G1 X48.754 Y86.075 E1.37714
G1 X48.611 Y85.860 F6000.000
G1 F1800.000
G1 X48.429 Y85.903 E1.38082
G1 X48.244 Y85.918 E1.38447
G1 X47.894 Y85.862 E1.39144
G1 X47.573 Y85.699 E1.39854
G1 X47.322 Y85.448 E1.40550
G1 X47.222 Y85.284 E1.40928
G1 X47.112 Y84.947 E1.41626
G1 X47.112 Y84.586 E1.42335
G1 X47.222 Y84.249 E1.43032
G1 X47.322 Y84.085 E1.43410
G1 X47.573 Y83.835 E1.44107
G1 X47.889 Y83.674 E1.44804
G1 X48.071 Y83.630 E1.45172
G1 X48.256 Y83.616 E1.45537
G1 X48.606 Y83.671 E1.46234
G1 X48.927 Y83.835 E1.46944
G1 X49.178 Y84.085 E1.47640
G1 X49.278 Y84.249 E1.48018
G1 X49.388 Y84.586 E1.48716
G1 X49.388 Y84.947 E1.49424
G1 X49.278 Y85.284 E1.50122
G1 X49.178 Y85.448 E1.50500
G1 X48.927 Y85.699 E1.51196
G1 X48.665 Y85.832 E1.51776
G1 X48.611 Y85.860 F6000.000
G1 E0.51776 F1200.00000
G92 E0
G1 X62.586 Y64.431 F6000.000
G1 E1.00000 F1200.00000
G1 F1800.000
G1 X62.586 Y65.589 E1.02277
G1 X50.798 Y86.016 E1.48659
G1 X50.543 Y86.432 E1.49618
G1 X50.254 Y86.770 E1.50493
G1 X49.915 Y87.059 E1.51369
G1 X49.536 Y87.292 E1.52243
G1 X49.126 Y87.462 E1.53117
G1 X48.694 Y87.566 E1.53991
G1 X48.250 Y87.600 E1.54866
G1 X47.806 Y87.566 E1.55742
G1 X47.374 Y87.462 E1.56616
G1 X46.964 Y87.292 E1.57490
G1 X46.585 Y87.059 E1.58364
G1 X46.246 Y86.770 E1.59240
G1 X45.957 Y86.432 E1.60114
G1 X45.725 Y86.053 E1.60988
G1 X45.555 Y85.643 E1.61862
G1 X45.451 Y85.210 E1.62737
G1 X45.416 Y84.767 E1.63612
G1 X45.451 Y84.323 E1.64487
G1 X45.554 Y83.892 E1.65359
G1 X53.692 Y64.431 E2.06843
G1 X62.526 Y64.431 E2.24215
G1 X62.843 Y64.174 F6000.000
G1 F1800.000
G1 X62.843 Y65.658 E2.27133
G1 X51.019 Y86.148 E2.73657
G1 X50.752 Y86.584 E2.74663
G1 X50.436 Y86.953 E2.75618
G1 X50.067 Y87.268 E2.76573
G1 X49.654 Y87.521 E2.77526
G1 X49.206 Y87.707 E2.78480
G1 X48.734 Y87.820 E2.79434
G1 X48.250 Y87.858 E2.80389
G1 X47.766 Y87.820 E2.81344
G1 X47.294 Y87.707 E2.82298
G1 X46.846 Y87.521 E2.83251
G1 X46.433 Y87.268 E2.84205
G1 X46.064 Y86.953 E2.85160
G1 X45.748 Y86.584 E2.86114
G1 X45.495 Y86.170 E2.87068
G1 X45.309 Y85.722 E2.88021
G1 X45.196 Y85.250 E2.88976
G1 X45.158 Y84.767 E2.89930
G1 X45.196 Y84.283 E2.90884
G1 X45.309 Y83.812 E2.91837
G1 X53.521 Y64.174 E3.33698
G1 X62.783 Y64.174 E3.51913
G1 X63.100 Y63.917 F6000.000
G1 F1800.000
G1 X63.100 Y65.726 E3.55472
G1 X51.240 Y86.279 E4.02137
G1 X50.960 Y86.735 E4.03190
G1 X50.619 Y87.135 E4.04224
G1 X50.219 Y87.477 E4.05259
G1 X49.771 Y87.751 E4.06292
G1 X49.285 Y87.952 E4.07325
G1 X48.774 Y88.075 E4.08358
G1 X48.250 Y88.116 E4.09393
G1 X47.726 Y88.075 E4.10428
G1 X47.215 Y87.952 E4.11461
G1 X46.729 Y87.751 E4.12494
G1 X46.281 Y87.477 E4.13527
G1 X45.881 Y87.135 E4.14562
G1 X45.540 Y86.735 E4.15596
G1 X45.265 Y86.287 E4.16629
G1 X45.064 Y85.802 E4.17663
G1 X44.942 Y85.291 E4.18696
G1 X44.900 Y84.767 E4.19730
G1 X44.942 Y84.243 E4.20764
G1 X45.064 Y83.732 E4.21797
G1 X53.350 Y63.917 E4.64035
G1 X63.040 Y63.917 E4.83092
G1 X63.003 Y64.305 F6000.000
G1 E3.83092 F1200.00000
G92 E0
G1 X48.713 Y66.193 F6000.000
G1 E1.00000 F1200.00000
G1 F1800.000
G1 X48.407 Y66.258 E1.00852
G1 X48.093 Y66.258 E1.01708
G1 X47.787 Y66.193 E1.02560
G1 X47.500 Y66.065 E1.03415
G1 X47.246 Y65.881 E1.04270
G1 X47.037 Y65.648 E1.05122
G1 X46.878 Y65.372 E1.05992
G1 X46.828 Y65.234 E1.06391
G1 X46.759 Y64.923 E1.07258
G1 X46.759 Y64.609 E1.08113
G1 X46.792 Y64.436 E1.08594
G1 X46.878 Y64.161 E1.09379
G1 X47.038 Y63.885 E1.10249
G1 X47.247 Y63.652 E1.11101
G1 X47.501 Y63.468 E1.11956
G1 X47.788 Y63.340 E1.12811
G1 X48.094 Y63.275 E1.13663
G1 X48.408 Y63.276 E1.14519
G1 X48.714 Y63.341 E1.15371
G1 X49.000 Y63.469 E1.16226
G1 X49.258 Y63.656 E1.17094
G1 X49.447 Y63.872 E1.17876
G1 X49.546 Y64.019 E1.18360
G1 X49.673 Y64.305 E1.19212
G1 X49.742 Y64.611 E1.20065
G1 X49.741 Y64.923 E1.20917
G1 X49.708 Y65.097 E1.21400
G1 X49.622 Y65.372 E1.22183
G1 X49.463 Y65.648 E1.23052
G1 X49.254 Y65.881 E1.23905
G1 X49.000 Y66.065 E1.24759
G1 X48.768 Y66.169 E1.25451
G1 X48.713 Y66.193 F6000.000
G1 X47.500 Y66.883 F6000.000
G1 F1800.000
G1 X47.243 Y66.769 E1.26005
G1 X47.500 Y66.948 E1.26622
G1 X47.500 Y66.574 E1.27356
G1 X47.599 Y66.619 E1.27570
G1 X47.757 Y66.652 E1.27888
G1 X47.757 Y67.127 E1.28821
G1 X48.014 Y67.306 E1.29438
G1 X48.014 Y66.707 E1.30616
G1 X48.272 Y66.710 E1.31123
G1 X48.272 Y67.485 E1.32647
G1 X48.354 Y67.542 E1.32844
G1 X48.529 Y67.534 E1.33189
G1 X48.529 Y66.698 E1.34835
G1 X48.786 Y66.643 E1.35353
G1 X48.786 Y67.524 E1.37086
G1 X49.043 Y67.513 E1.37592
G1 X49.043 Y66.555 E1.39477
G1 X49.301 Y66.441 E1.40031
G1 X49.301 Y67.502 E1.42120
G1 X49.558 Y67.491 E1.42626
G1 X49.558 Y66.255 E1.45059
G1 X49.654 Y66.185 E1.45293
G1 X49.815 Y66.023 E1.45743
G1 X49.815 Y67.480 E1.48610
G1 X50.072 Y67.470 E1.49117
G1 X50.072 Y65.672 E1.52654
G1 X50.256 Y65.264 E1.53537
G1 X50.330 Y64.919 E1.54231
G1 X50.330 Y67.459 E1.59230
G1 X50.587 Y67.448 E1.59737
G1 X50.587 Y62.085 E1.70291
G1 X50.844 Y62.096 E1.70798
G1 X50.844 Y67.437 E1.81310
G1 X51.102 Y67.427 E1.81816
G1 X51.102 Y62.107 E1.92286
G1 X51.359 Y62.118 E1.92792
G1 X51.359 Y67.388 E2.03164
G1 X51.616 Y66.773 E2.04476
G1 X51.616 Y62.128 E2.13616
G1 X51.873 Y62.139 E2.14123
G1 X51.873 Y66.158 E2.22031
G1 X52.131 Y65.542 E2.23343
G1 X52.131 Y62.150 E2.30020
G1 X52.388 Y62.161 E2.30526
G1 X52.388 Y64.927 E2.35971
G1 X52.645 Y64.312 E2.37283
G1 X52.645 Y62.171 E2.41496
G1 X52.902 Y62.182 E2.42003
G1 X52.902 Y63.697 E2.44985
G1 X52.979 Y63.514 E2.45376
G1 X53.160 Y63.514 E2.45731
G1 X53.160 Y62.193 E2.48331
G1 X53.417 Y62.204 E2.48837
G1 X53.417 Y63.514 E2.51415
G1 X53.674 Y63.514 E2.51922
G1 X53.674 Y62.215 E2.54479
G1 X53.931 Y62.226 E2.54986
G1 X53.931 Y63.514 E2.57520
G1 X54.189 Y63.514 E2.58026
G1 X54.189 Y62.238 E2.60537
G1 X54.446 Y62.249 E2.61044
G1 X54.446 Y63.514 E2.63533
G1 X54.703 Y63.514 E2.64039
G1 X54.703 Y62.261 E2.66505
G1 X54.960 Y62.272 E2.67012
G1 X54.960 Y63.514 E2.69455
G1 X55.218 Y63.514 E2.69961
G1 X55.218 Y62.284 E2.72382
G1 X55.475 Y62.296 E2.72889
G1 X55.475 Y63.514 E2.75286
G1 X55.732 Y63.514 E2.75792
G1 X55.732 Y62.307 E2.78167
G1 X55.989 Y62.319 E2.78674
G1 X55.989 Y63.514 E2.81026
G1 X56.247 Y63.514 E2.81532
G1 X56.247 Y62.330 E2.83862
G1 X56.504 Y62.342 E2.84369
G1 X56.504 Y63.514 E2.86675
G1 X56.761 Y63.514 E2.87181
G1 X56.761 Y62.353 E2.89465
G1 X57.019 Y62.365 E2.89972
G1 X57.019 Y63.514 E2.92233
G1 X57.276 Y63.514 E2.92739
G1 X57.276 Y62.377 E2.94977
G1 X57.533 Y62.388 E2.95484
G1 X57.533 Y63.514 E2.97700
G1 X57.790 Y63.514 E2.98206
G1 X57.790 Y62.400 E3.00399
G1 X58.048 Y62.411 E3.00906
G1 X58.048 Y63.514 E3.03075
G1 X58.305 Y63.514 E3.03582
G1 X58.305 Y62.423 E3.05729
G1 X58.562 Y62.434 E3.06236
G1 X58.562 Y63.514 E3.08360
G1 X58.819 Y63.514 E3.08866
G1 X58.819 Y62.446 E3.10968
G1 X59.077 Y62.458 E3.11475
G1 X59.077 Y63.514 E3.13554
G1 X59.334 Y63.514 E3.14060
G1 X59.334 Y62.469 E3.16116
G1 X59.591 Y62.481 E3.16623
G1 X59.591 Y63.514 E3.18656
G1 X59.848 Y63.514 E3.19162
G1 X59.848 Y62.492 E3.21173
G1 X60.106 Y62.504 E3.21680
G1 X60.106 Y63.514 E3.23668
G1 X60.363 Y63.514 E3.24174
G1 X60.363 Y62.515 E3.26139
G1 X60.620 Y62.527 E3.26646
G1 X60.620 Y63.514 E3.28588
G1 X60.877 Y63.514 E3.29094
G1 X60.877 Y62.539 E3.31014
G1 X61.135 Y62.550 E3.31520
G1 X61.135 Y63.514 E3.33417
G1 X61.392 Y63.514 E3.33923
G1 X61.392 Y62.562 E3.35797
G1 X61.649 Y62.573 E3.36304
G1 X61.649 Y63.514 E3.38155
G1 X61.906 Y63.514 E3.38662
G1 X61.906 Y62.585 E3.40490
G1 X62.164 Y62.596 E3.40997
G1 X62.164 Y63.514 E3.42802
G1 X62.421 Y63.514 E3.43309
G1 X62.421 Y62.608 E3.45092
G1 X62.678 Y62.620 E3.45598
G1 X62.678 Y63.514 E3.47358
G1 X62.936 Y63.514 E3.47865
G1 X62.936 Y62.631 E3.49602
G1 X63.193 Y62.643 E3.50109
G1 X63.193 Y63.514 E3.51823
G1 X63.450 Y63.514 E3.52330
G1 X63.450 Y62.654 E3.54022
G1 X63.707 Y62.666 E3.54528
G1 X63.707 Y66.870 E3.62801
G1 X63.965 Y66.857 E3.63308
G1 X63.965 Y62.677 E3.71534
G1 X64.222 Y62.689 E3.72041
G1 X64.222 Y66.845 E3.80221
G1 X64.479 Y66.833 E3.80728
G1 X64.479 Y62.700 E3.88861
G1 X64.736 Y62.712 E3.89368
G1 X64.736 Y66.821 E3.97454
G1 X64.994 Y66.809 E3.97961
G1 X64.994 Y62.724 E4.06001
G1 X65.251 Y62.735 E4.06508
G1 X65.251 Y66.797 E4.14501
G1 X65.508 Y66.785 E4.15008
G1 X65.508 Y62.747 E4.22955
G1 X65.765 Y62.758 E4.23462
G1 X65.765 Y66.773 E4.31362
G1 X66.023 Y66.761 E4.31869
G1 X66.023 Y62.770 E4.39722
