; generated by Slic3r 1.3.0 on 2021-03-06 at 11:38:04

; external perimeters extrusion width = 0.44mm (2.86mm^3/s)
; perimeters extrusion width = 0.56mm (4.14mm^3/s)
; infill extrusion width = 0.50mm (5.48mm^3/s)
; solid infill extrusion width = 0.56mm (3.10mm^3/s)
; top infill extrusion width = 0.45mm (2.44mm^3/s)

M107
;D3D:START:START
T0
M104 S215 T0

G21
G90
M107
T0
G28
G29
M109 T0 S215 T0
G0 F3000
M107
T0
G92 E0
G0 X0 Y149 Z0.1 F3600
G1 Y49 E6.5 F1200
G0 Z1
G92 E0
; Filament gcode

G21 ; set units to millimeters
G90 ; use absolute coordinates
M82 ; use absolute distances for extrusion
G92 E0
G1 Z0.200 F6000.000
G1 E-2.00000 F1200.00000
G92 E0
G1 X60.880 Y44.863 F6000.000
G1 E2.00000 F1200.00000
G1 F1800
G1 X62.366 Y43.695 E2.03636
G1 X64.350 Y43.236 E2.07554
G1 X99.350 Y43.236 E2.74889
G1 X101.198 Y43.631 E2.78525
G1 X102.722 Y44.749 E2.82161
G1 X103.556 Y46.111 E2.85233
G1 X107.356 Y55.861 E3.05365
G1 X107.664 Y57.500 E3.08574
G1 X107.664 Y92.500 E3.75909
G1 X107.356 Y94.139 E3.79118
G1 X103.556 Y103.889 E3.99250
G1 X102.516 Y105.467 E4.02886
G1 X100.922 Y106.482 E4.06522
G1 X99.350 Y106.764 E4.09594
G1 X64.350 Y106.764 E4.76929
G1 X62.502 Y106.369 E4.80565
G1 X60.978 Y105.251 E4.84201
G1 X60.002 Y103.464 E4.88119
G1 X57.281 Y93.714 E5.07594
G1 X57.114 Y92.500 E5.09950
G1 X57.114 Y57.500 E5.77285
G1 X57.281 Y56.286 E5.79642
G1 X60.002 Y46.536 E5.99117
G1 X60.852 Y44.916 E6.02637
G1 X61.112 Y44.986 F6000.000
G1 F1800
G1 X62.576 Y43.880 E6.06166
G1 X64.350 Y43.493 E6.09660
G1 X99.350 Y43.493 E6.76995
G1 X101.141 Y43.888 E6.80525
G1 X102.600 Y45.001 E6.84054
G1 X103.316 Y46.204 E6.86748
G1 X107.116 Y55.954 E7.06880
G1 X107.407 Y57.500 E7.09907
G1 X107.407 Y92.500 E7.77242
G1 X107.116 Y94.046 E7.80268
G1 X103.316 Y103.796 E8.00400
G1 X102.298 Y105.322 E8.03930
G1 X100.731 Y106.277 E8.07459
G1 X99.350 Y106.507 E8.10153
G1 X64.350 Y106.507 E8.77488
G1 X62.559 Y106.112 E8.81018
G1 X61.100 Y104.999 E8.84547
G1 X60.250 Y103.394 E8.88041
G1 X57.528 Y93.644 E9.07516
G1 X57.372 Y92.500 E9.09738
G1 X57.372 Y57.500 E9.77073
G1 X57.528 Y56.356 E9.79296
G1 X60.250 Y46.606 E9.98770
G1 X61.084 Y45.039 E10.02184
G1 E8.02184 F1200.00000
G92 E0
G1 X97.215 Y97.556 F6000.000
G1 E2.00000 F1200.00000
G1 F1800
G1 X96.694 Y99.161 E2.03246
G1 X95.006 Y99.161 E2.06493
G1 X94.485 Y97.556 E2.09739
G1 X95.850 Y96.565 E2.12986
G1 X97.167 Y97.521 E2.16116
G1 X97.606 Y97.640 F6000.000
G1 X97.820 Y97.360 F6000.000
G1 F1800
G1 X95.850 Y95.929 E2.20800
G1 X94.514 Y96.900 E2.23977
G1 X94.514 Y91.836 E2.33719
G1 X69.186 Y91.836 E2.82447
G1 X69.186 Y96.900 E2.92189
G1 X67.850 Y95.929 E2.95366
G1 X65.880 Y97.360 E3.00049
G1 X66.633 Y99.675 E3.04733
G1 X69.186 Y99.675 E3.09645
G1 X69.186 Y101.586 E3.13320
G1 X65.014 Y101.586 E3.21346
G1 X65.014 Y91.836 E3.40104
G1 X62.293 Y91.836 E3.45339
G1 X62.293 Y91.164 E3.46631
G1 X102.486 Y91.164 E4.23957
G1 X102.486 Y91.836 E4.25250
G1 X98.686 Y91.836 E4.32560
G1 X98.686 Y101.586 E4.51318
G1 X94.514 Y101.586 E4.59344
G1 X94.514 Y99.675 E4.63019
G1 X97.067 Y99.675 E4.67931
G1 X97.801 Y97.417 E4.72499
G1 X97.517 Y97.458 F6000.000
G1 F1800
G1 X95.850 Y96.247 E4.76464
G1 X94.257 Y97.404 E4.80252
G1 X94.257 Y92.093 E4.90470
G1 X69.443 Y92.093 E5.38209
G1 X69.443 Y97.404 E5.48427
G1 X67.850 Y96.247 E5.52215
G1 X66.183 Y97.458 E5.56180
G1 X66.820 Y99.418 E5.60145
G1 X68.880 Y99.418 E5.64110
G1 X69.313 Y98.088 E5.66802
G1 X69.443 Y98.108 E5.67056
G1 X69.443 Y101.843 E5.74240
G1 X64.757 Y101.843 E5.83255
G1 X64.757 Y92.093 E6.02013
G1 X62.036 Y92.093 E6.07249
G1 X62.036 Y90.907 E6.09530
G1 X102.743 Y90.907 E6.87845
G1 X102.743 Y92.093 E6.90127
G1 X98.943 Y92.093 E6.97437
G1 X98.943 Y101.843 E7.16195
G1 X94.257 Y101.843 E7.25210
G1 X94.257 Y98.108 E7.32395
G1 X94.387 Y98.088 E7.32648
G1 X94.820 Y99.418 E7.35340
G1 X96.880 Y99.418 E7.39305
G1 X97.499 Y97.515 E7.43154
G1 E5.43154 F1200.00000
G92 E0
G1 X69.215 Y97.556 F6000.000
G1 E2.00000 F1200.00000
G1 F1800
G1 X68.694 Y99.161 E2.03246
G1 X67.006 Y99.161 E2.06493
G1 X66.485 Y97.556 E2.09739
G1 X67.850 Y96.565 E2.12986
G1 X69.167 Y97.521 E2.16116
G1 X69.606 Y97.640 F6000.000
G1 E0.16116 F1200.00000
G92 E0
G1 X69.700 Y92.350 F6000.000
G1 E2.00000 F1200.00000
G1 F1800
G1 X69.700 Y102.100 E2.18758
G1 X64.500 Y102.100 E2.28762
G1 X64.500 Y92.350 E2.47519
G1 X61.779 Y92.350 E2.52755
G1 X61.779 Y90.650 E2.56026
G1 X103.000 Y90.650 E3.35330
G1 X103.000 Y92.350 E3.38601
G1 X99.200 Y92.350 E3.45911
G1 X99.200 Y102.100 E3.64669
G1 X94.000 Y102.100 E3.74673
G1 X94.000 Y92.350 E3.93431
G1 X69.760 Y92.350 E4.40065
G1 X69.303 Y92.299 F6000.000
G1 E2.40065 F1200.00000
G92 E0
G1 X69.299 Y98.595 F6000.000
G1 E2.00000 F1200.00000
G1 F1800
G1 X69.249 Y98.912 E2.00184
G1 F1800
G1 X69.199 Y99.230 E2.00569
G1 F1800
G1 X69.148 Y99.547 E2.01155
G1 X68.650 Y101.438 F6000.000
G1 F1800
G1 X69.038 Y101.050 E2.02218
G1 X69.038 Y100.684 E2.02928
G1 X68.284 Y101.438 E2.04995
G1 X67.918 Y101.438 E2.05705
G1 X69.038 Y100.318 E2.08776
G1 X69.038 Y99.951 E2.09486
G1 X67.551 Y101.438 E2.13561
G1 X67.185 Y101.438 E2.14271
G1 X68.799 Y99.823 E2.18696
G1 X68.433 Y99.823 E2.19406
G1 X66.819 Y101.438 E2.23832
G1 X66.452 Y101.438 E2.24542
G1 X68.067 Y99.823 E2.28967
G1 X67.700 Y99.823 E2.29677
G1 X66.086 Y101.438 E2.34102
G1 X65.720 Y101.438 E2.34812
G1 X67.334 Y99.823 E2.39238
G1 X66.968 Y99.823 E2.39948
G1 X65.353 Y101.438 E2.44373
G1 X65.162 Y101.438 E2.44744
G1 X65.162 Y101.263 E2.45083
G1 X66.602 Y99.823 E2.49029
G1 X66.555 Y99.823 E2.49119
G1 X66.477 Y99.582 E2.49611
G1 X65.162 Y100.897 E2.53214
G1 X65.162 Y100.530 E2.53924
G1 X66.387 Y99.306 E2.57281
G1 X66.297 Y99.029 E2.57844
G1 X65.162 Y100.164 E2.60955
G1 X65.162 Y99.798 E2.61665
G1 X66.207 Y98.753 E2.64530
G1 X66.117 Y98.476 E2.65093
G1 X65.162 Y99.431 E2.67711
G1 X65.162 Y99.065 E2.68421
G1 X66.028 Y98.200 E2.70794
G1 X65.938 Y97.923 E2.71357
G1 X65.162 Y98.699 E2.73483
G1 X65.162 Y98.333 E2.74193
G1 X65.848 Y97.647 E2.76072
G1 X65.758 Y97.370 E2.76636
G1 X65.162 Y97.966 E2.78269
G1 X65.162 Y97.600 E2.78979
G1 X69.038 Y93.724 E2.89603
G1 X69.038 Y93.358 E2.90313
G1 X65.162 Y97.234 E3.00937
G1 X65.162 Y96.867 E3.01647
G1 X69.038 Y92.992 E3.12271
G1 X69.038 Y92.625 E3.12981
G1 X65.162 Y96.501 E3.23605
G1 X65.162 Y96.135 E3.24315
G1 X69.038 Y92.259 E3.34938
G1 X69.038 Y91.893 E3.35648
G1 X65.162 Y95.769 E3.46272
G1 X65.162 Y95.402 E3.46982
G1 X69.038 Y91.527 E3.57606
G1 E1.57606 F1200.00000
G92 E0
G1 X68.609 Y96.351 F6000.000
G1 E2.00000 F1200.00000
G1 F1800
G1 X69.038 Y95.922 E2.01176
G1 X69.038 Y95.556 E2.01886
G1 X68.397 Y96.197 E2.03643
G1 X68.185 Y96.043 E2.04151
G1 X69.038 Y95.189 E2.06490
G1 X69.038 Y94.823 E2.07200
G1 X67.972 Y95.889 E2.10121
G1 X67.760 Y95.734 E2.10629
G1 X69.038 Y94.457 E2.14131
G1 X69.038 Y94.091 E2.14841
G1 X66.524 Y96.605 E2.21733
G1 X65.469 Y97.371 E2.24259
G1 X65.540 Y97.589 E2.24703
G1 E0.24703 F1200.00000
G92 E0
G1 X62.659 Y91.312 F6000.000
G1 E2.00000 F1200.00000
G1 F1800
G1 X62.441 Y91.530 E2.00598
G1 X62.441 Y91.688 E2.00904
G1 X62.650 Y91.688 E2.01308
G1 X63.025 Y91.312 E2.02338
G1 X63.392 Y91.312 E2.03048
G1 X63.016 Y91.688 E2.04078
G1 X63.382 Y91.688 E2.04788
G1 X63.758 Y91.312 E2.05818
G1 X64.124 Y91.312 E2.06528
G1 X63.749 Y91.688 E2.07558
G1 X64.115 Y91.688 E2.08268
G1 X64.491 Y91.312 E2.09298
G1 X64.857 Y91.312 E2.10008
G1 X64.481 Y91.688 E2.11037
G1 X64.847 Y91.688 E2.11747
G1 X65.223 Y91.312 E2.12777
G1 X65.589 Y91.312 E2.13487
G1 X65.162 Y91.739 E2.14658
G1 X65.162 Y92.106 E2.15368
G1 X65.956 Y91.312 E2.17543
G1 X66.322 Y91.312 E2.18253
G1 X65.162 Y92.472 E2.21433
G1 X65.162 Y92.838 E2.22143
G1 X66.688 Y91.312 E2.26326
G1 X67.055 Y91.312 E2.27036
G1 X65.162 Y93.205 E2.32223
G1 X65.162 Y93.571 E2.32933
G1 X67.421 Y91.312 E2.39124
G1 X67.787 Y91.312 E2.39834
G1 X65.162 Y93.937 E2.47030
G1 X65.162 Y94.303 E2.47740
G1 X68.153 Y91.312 E2.55939
G1 X68.520 Y91.312 E2.56649
G1 X65.162 Y94.670 E2.65853
G1 X65.162 Y95.036 E2.66563
G1 X68.886 Y91.312 E2.76770
G1 X69.252 Y91.312 E2.77480
G1 X68.877 Y91.688 E2.78510
G1 X69.243 Y91.688 E2.79220
G1 X69.619 Y91.312 E2.80250
G1 X69.985 Y91.312 E2.80960
G1 X69.609 Y91.688 E2.81990
G1 X69.975 Y91.688 E2.82700
G1 X70.351 Y91.312 E2.83730
G1 X70.717 Y91.312 E2.84440
G1 X70.342 Y91.688 E2.85469
G1 X70.708 Y91.688 E2.86179
G1 X71.084 Y91.312 E2.87209
G1 X71.450 Y91.312 E2.87919
G1 X71.074 Y91.688 E2.88949
G1 X71.441 Y91.688 E2.89659
G1 X71.816 Y91.312 E2.90689
G1 X72.183 Y91.312 E2.91399
G1 X71.807 Y91.688 E2.92429
G1 X72.173 Y91.688 E2.93139
G1 X72.549 Y91.312 E2.94169
G1 X72.915 Y91.312 E2.94879
G1 X72.539 Y91.688 E2.95908
G1 X72.906 Y91.688 E2.96618
G1 X73.281 Y91.312 E2.97648
G1 X73.648 Y91.312 E2.98358
G1 X73.272 Y91.688 E2.99388
G1 X73.638 Y91.688 E3.00098
G1 X74.014 Y91.312 E3.01128
G1 X74.380 Y91.312 E3.01838
G1 X74.005 Y91.688 E3.02868
G1 X74.371 Y91.688 E3.03578
G1 X74.747 Y91.312 E3.04608
G1 X75.113 Y91.312 E3.05318
G1 X74.737 Y91.688 E3.06347
G1 X75.103 Y91.688 E3.07057
G1 X75.479 Y91.312 E3.08087
G1 X75.845 Y91.312 E3.08797
G1 X75.470 Y91.688 E3.09827
G1 X75.836 Y91.688 E3.10537
G1 X76.212 Y91.312 E3.11567
G1 X76.578 Y91.312 E3.12277
G1 X76.202 Y91.688 E3.13307
G1 X76.569 Y91.688 E3.14017
G1 X76.944 Y91.312 E3.15047
G1 X77.311 Y91.312 E3.15757
G1 X76.935 Y91.688 E3.16786
G1 X77.301 Y91.688 E3.17496
G1 X77.677 Y91.312 E3.18526
G1 X78.043 Y91.312 E3.19236
G1 X77.668 Y91.688 E3.20266
G1 X78.034 Y91.688 E3.20976
G1 X78.410 Y91.312 E3.22006
G1 X78.776 Y91.312 E3.22716
G1 X78.400 Y91.688 E3.23746
G1 X78.766 Y91.688 E3.24456
G1 X79.142 Y91.312 E3.25486
G1 X79.508 Y91.312 E3.26196
G1 X79.133 Y91.688 E3.27225
G1 X79.499 Y91.688 E3.27935
G1 X79.875 Y91.312 E3.28965
G1 X80.241 Y91.312 E3.29675
G1 X79.865 Y91.688 E3.30705
G1 X80.232 Y91.688 E3.31415
G1 X80.607 Y91.312 E3.32445
G1 X80.974 Y91.312 E3.33155
G1 X80.598 Y91.688 E3.34185
G1 X80.964 Y91.688 E3.34895
G1 X81.340 Y91.312 E3.35925
G1 X81.706 Y91.312 E3.36635
G1 X81.330 Y91.688 E3.37665
G1 X81.697 Y91.688 E3.38374
G1 X82.072 Y91.312 E3.39404
G1 X82.439 Y91.312 E3.40114
G1 X82.063 Y91.688 E3.41144
G1 X82.429 Y91.688 E3.41854
G1 X82.805 Y91.312 E3.42884
G1 X83.171 Y91.312 E3.43594
G1 X82.796 Y91.688 E3.44624
G1 X83.162 Y91.688 E3.45334
G1 X83.538 Y91.312 E3.46364
G1 X83.904 Y91.312 E3.47074
G1 X83.528 Y91.688 E3.48104
G1 X83.894 Y91.688 E3.48814
G1 X84.270 Y91.312 E3.49843
G1 X84.636 Y91.312 E3.50553
G1 X84.261 Y91.688 E3.51583
G1 X84.627 Y91.688 E3.52293
G1 X85.003 Y91.312 E3.53323
G1 X85.369 Y91.312 E3.54033
G1 X84.993 Y91.688 E3.55063
G1 X85.360 Y91.688 E3.55773
G1 X85.735 Y91.312 E3.56803
G1 X86.102 Y91.312 E3.57513
G1 X85.726 Y91.688 E3.58543
G1 X86.092 Y91.688 E3.59253
G1 X86.468 Y91.312 E3.60282
G1 X86.834 Y91.312 E3.60992
G1 X86.458 Y91.688 E3.62022
G1 X86.825 Y91.688 E3.62732
G1 X87.200 Y91.312 E3.63762
G1 X87.567 Y91.312 E3.64472
G1 X87.191 Y91.688 E3.65502
G1 X87.557 Y91.688 E3.66212
G1 X87.933 Y91.312 E3.67242
G1 X88.299 Y91.312 E3.67952
G1 X87.924 Y91.688 E3.68982
G1 X88.290 Y91.688 E3.69692
G1 X88.666 Y91.312 E3.70721
G1 X89.032 Y91.312 E3.71431
G1 X88.656 Y91.688 E3.72461
G1 X89.023 Y91.688 E3.73171
G1 X89.398 Y91.312 E3.74201
G1 X89.765 Y91.312 E3.74911
G1 X89.389 Y91.688 E3.75941
G1 X89.755 Y91.688 E3.76651
G1 X90.131 Y91.312 E3.77681
G1 X90.497 Y91.312 E3.78391
G1 X90.121 Y91.688 E3.79421
G1 X90.488 Y91.688 E3.80131
G1 X90.863 Y91.312 E3.81161
G1 X91.230 Y91.312 E3.81870
G1 X90.854 Y91.688 E3.82900
G1 X91.220 Y91.688 E3.83610
G1 X91.596 Y91.312 E3.84640
G1 X91.962 Y91.312 E3.85350
G1 X91.587 Y91.688 E3.86380
G1 X91.953 Y91.688 E3.87090
G1 X92.329 Y91.312 E3.88120
G1 X92.695 Y91.312 E3.88830
G1 X92.319 Y91.688 E3.89860
G1 X92.685 Y91.688 E3.90570
G1 X93.061 Y91.312 E3.91600
G1 X93.427 Y91.312 E3.92310
G1 X93.052 Y91.688 E3.93339
G1 X93.418 Y91.688 E3.94049
G1 X93.794 Y91.312 E3.95079
G1 X94.160 Y91.312 E3.95789
G1 X93.784 Y91.688 E3.96819
G1 X94.151 Y91.688 E3.97529
G1 X94.526 Y91.312 E3.98559
G1 X94.893 Y91.312 E3.99269
G1 X94.517 Y91.688 E4.00299
G1 X94.662 Y91.688 E4.00580
G1 X94.662 Y91.909 E4.01009
G1 X95.259 Y91.312 E4.02644
G1 X95.625 Y91.312 E4.03354
G1 X94.662 Y92.275 E4.05994
G1 X94.662 Y92.641 E4.06704
G1 X95.991 Y91.312 E4.10348
G1 X96.358 Y91.312 E4.11058
G1 X94.662 Y93.008 E4.15706
G1 X94.662 Y93.374 E4.16416
G1 X96.724 Y91.312 E4.22067
G1 X97.090 Y91.312 E4.22777
G1 X94.662 Y93.740 E4.29433
G1 X94.662 Y94.107 E4.30143
G1 X97.457 Y91.312 E4.37803
G1 X97.823 Y91.312 E4.38513
G1 X94.662 Y94.473 E4.47177
G1 X94.662 Y94.839 E4.47887
G1 X98.189 Y91.312 E4.57555
G1 X98.555 Y91.312 E4.58265
G1 X94.662 Y95.205 E4.68937
G1 E2.68937 F1200.00000
G92 E0
G1 X94.954 Y100.042 F6000.000
G1 E2.00000 F1200.00000
G1 F1800
G1 X94.662 Y100.042 E2.00566
G1 X94.662 Y100.334 E2.01132
G1 X95.172 Y99.823 E2.02530
G1 X95.539 Y99.823 E2.03240
G1 X94.662 Y100.700 E2.05642
G1 X94.662 Y101.066 E2.06352
G1 X95.905 Y99.823 E2.09758
G1 X96.271 Y99.823 E2.10468
G1 X94.662 Y101.438 E2.14886
G1 X95.023 Y101.438 E2.15585
G1 X96.637 Y99.823 E2.20011
G1 X97.004 Y99.823 E2.20721
G1 X95.389 Y101.438 E2.25146
G1 X95.756 Y101.438 E2.25856
G1 X98.538 Y98.656 E2.33483
G1 X98.538 Y99.022 E2.34193
G1 X96.122 Y101.438 E2.40815
G1 X96.488 Y101.438 E2.41525
G1 X98.538 Y99.388 E2.47144
G1 X98.538 Y99.754 E2.47854
G1 X96.854 Y101.438 E2.52468
G1 X97.221 Y101.438 E2.53178
G1 X98.538 Y100.121 E2.56789
G1 X98.538 Y100.487 E2.57499
G1 X97.587 Y101.438 E2.60105
G1 X97.953 Y101.438 E2.60815
G1 X98.538 Y100.853 E2.62418
G1 X98.538 Y101.220 E2.63128
G1 X98.320 Y101.438 E2.63726
G1 E0.63726 F1200.00000
G92 E0
G1 X97.318 Y99.509 F6000.000
G1 E2.00000 F1200.00000
G1 F1800
G1 X98.538 Y98.289 E2.03344
G1 X98.538 Y97.923 E2.04054
G1 X97.494 Y98.967 E2.06915
G1 X97.670 Y98.424 E2.08021
G1 X98.538 Y97.557 E2.10398
G1 X98.538 Y97.190 E2.11108
G1 X97.847 Y97.881 E2.13002
G1 X98.013 Y97.371 E2.14043
G1 X98.000 Y97.362 E2.14073
G1 X98.538 Y96.824 E2.15547
G1 X98.538 Y96.458 E2.16257
G1 X97.788 Y97.208 E2.18312
G1 X97.576 Y97.054 E2.18820
G1 X98.538 Y96.092 E2.21457
G1 X98.538 Y95.725 E2.22167
G1 X97.364 Y96.899 E2.25386
G1 X97.152 Y96.745 E2.25894
G1 X98.538 Y95.359 E2.29694
G1 X98.538 Y94.993 E2.30404
G1 X96.939 Y96.591 E2.34786
G1 X96.727 Y96.437 E2.35294
G1 X98.538 Y94.626 E2.40257
G1 X98.538 Y94.260 E2.40967
G1 X96.515 Y96.283 E2.46512
G1 X96.303 Y96.129 E2.47020
G1 X98.538 Y93.894 E2.53146
G1 X98.538 Y93.527 E2.53856
G1 X96.091 Y95.975 E2.60564
G1 X95.879 Y95.820 E2.61072
G1 X98.538 Y93.161 E2.68362
G1 X98.538 Y92.795 E2.69072
G1 X95.271 Y96.062 E2.78027
G1 X94.662 Y96.504 E2.79485
G1 X94.662 Y96.304 E2.79873
G1 X98.538 Y92.429 E2.90497
G1 X98.538 Y92.062 E2.91207
G1 X94.662 Y95.938 E3.01830
G1 X94.662 Y95.572 E3.02540
G1 X98.538 Y91.696 E3.13164
G1 X98.320 Y91.914 F6000.000
G1 F1800
G1 X98.320 Y91.688 E3.13603
G1 X98.546 Y91.688 E3.14042
G1 X98.922 Y91.312 E3.15071
G1 X99.288 Y91.312 E3.15781
G1 X98.912 Y91.688 E3.16811
G1 X99.279 Y91.688 E3.17521
G1 X99.654 Y91.312 E3.18551
G1 X100.021 Y91.312 E3.19261
G1 X99.645 Y91.688 E3.20291
G1 X100.011 Y91.688 E3.21001
G1 X100.387 Y91.312 E3.22031
G1 X100.753 Y91.312 E3.22741
G1 X100.377 Y91.688 E3.23771
G1 X100.744 Y91.688 E3.24481
G1 X101.119 Y91.312 E3.25511
G1 X101.486 Y91.312 E3.26220
G1 X101.110 Y91.688 E3.27250
G1 X101.476 Y91.688 E3.27960
G1 X101.852 Y91.312 E3.28990
G1 X102.218 Y91.312 E3.29700
G1 X101.843 Y91.688 E3.30730
G1 E1.30730 F1200.00000
G92 E0
G1 X94.501 Y99.230 F6000.000
G1 E2.00000 F1200.00000
G1 F1800
G1 X94.552 Y99.547 E2.00586
G1 X94.501 Y99.230 F6000.000
G1 F1800
G1 X94.451 Y98.912 E2.00971
G1 F1800
G1 X94.401 Y98.595 E2.01155
G1 E0.01155 F1200.00000
G92 E0
G1 X95.850 Y53.435 F6000.000
G1 E2.00000 F1200.00000
G1 F1800
G1 X94.485 Y52.444 E2.03246
G1 X95.006 Y50.839 E2.06493
G1 X96.694 Y50.839 E2.09739
G1 X97.215 Y52.444 E2.12986
G1 X95.899 Y53.400 E2.16116
G1 X95.650 Y53.782 F6000.000
G1 X95.850 Y54.071 F6000.000
G1 F1800
G1 X97.820 Y52.640 E2.20800
G1 X97.067 Y50.325 E2.25484
G1 X94.514 Y50.325 E2.30396
G1 X94.514 Y48.414 E2.34071
G1 X98.686 Y48.414 E2.42097
G1 X98.686 Y58.164 E2.60854
G1 X102.486 Y58.164 E2.68165
G1 X102.486 Y58.836 E2.69457
G1 X62.293 Y58.836 E3.46783
