; generated by Slic3r 1.3.0 on 2020-05-02 at 22:03:28

; external perimeters extrusion width = 0.44mm (2.86mm^3/s)
; perimeters extrusion width = 0.56mm (4.14mm^3/s)
; infill extrusion width = 0.50mm (5.48mm^3/s)
; solid infill extrusion width = 0.56mm (3.10mm^3/s)
; top infill extrusion width = 0.45mm (2.44mm^3/s)

M107
;D3D:START:START
T0
M104 S215 T0

G21
G90
M107
T0
G28
G29
M109 T0 S215 T0
G0 F3000
M107
T0
G92 E0
G0 X0 Y149 Z0.1 F3600
G1 Y49 E6.5 F1200
G0 Z1
G92 E0
; Filament gcode

G21 ; set units to millimeters
G90 ; use absolute coordinates
M82 ; use absolute distances for extrusion
G92 E0
G1 Z0.200 F6000.000
G1 E-2.00000 F1200.00000
G92 E0
G1 X51.037 Y40.527 F6000.000
G1 E2.00000 F1200.00000
G1 F1800
G1 X68.572 Y20.063 E2.51848
G1 X70.075 Y18.917 E2.55483
G1 X72.000 Y18.486 E2.59279
G1 X112.000 Y18.486 E3.36233
G1 X113.848 Y18.881 E3.39869
G1 X115.372 Y19.999 E3.43505
G1 X116.305 Y21.642 E3.47140
G1 X116.514 Y23.000 E3.49783
G1 X116.514 Y33.000 E3.69022
G1 X116.453 Y33.742 E3.70455
G1 X106.453 Y93.742 E4.87479
G1 X106.114 Y94.858 E4.89722
G1 X100.733 Y106.771 E5.14871
G1 X100.373 Y107.421 E5.16301
G1 X99.289 Y109.044 E5.20055
G1 X98.963 Y109.473 E5.21091
G1 X81.428 Y129.937 E5.72939
G1 X79.925 Y131.083 E5.76574
G1 X78.000 Y131.514 E5.80370
G1 X38.000 Y131.514 E6.57324
G1 X36.152 Y131.119 E6.60960
G1 X34.628 Y130.001 E6.64596
G1 X33.695 Y128.358 E6.68231
G1 X33.486 Y127.000 E6.70874
G1 X33.486 Y117.000 E6.90113
G1 X33.547 Y116.258 E6.91546
G1 X43.547 Y56.258 E8.08570
G1 X43.886 Y55.142 E8.10813
G1 X49.267 Y43.229 E8.35962
G1 X49.627 Y42.579 E8.37392
G1 X50.711 Y40.956 E8.41146
G1 X51.000 Y40.575 E8.42066
G1 X51.232 Y40.695 F6000.000
G1 F1800
G1 X68.767 Y20.230 E8.93914
G1 X70.233 Y19.127 E8.97444
G1 X72.000 Y18.743 E9.00922
G1 X112.000 Y18.743 E9.77877
G1 X113.791 Y19.138 E9.81406
G1 X115.250 Y20.251 E9.84936
G1 X116.105 Y21.874 E9.88465
G1 X116.257 Y23.000 E9.90651
G1 X116.257 Y33.000 E10.09890
G1 X116.199 Y33.700 E10.11241
G1 X106.199 Y93.700 E11.28265
G1 X105.880 Y94.752 E11.30381
G1 X100.499 Y106.666 E11.55530
G1 X100.159 Y107.278 E11.56878
G1 X99.075 Y108.901 E11.60632
G1 X98.768 Y109.305 E11.61609
G1 X81.233 Y129.770 E12.13457
G1 X79.767 Y130.873 E12.16986
G1 X78.000 Y131.257 E12.20464
G1 X38.000 Y131.257 E12.97419
G1 X36.209 Y130.862 E13.00948
G1 X34.750 Y129.749 E13.04478
G1 X33.895 Y128.126 E13.08007
G1 X33.743 Y127.000 E13.10194
G1 X33.743 Y117.000 E13.29432
G1 X33.801 Y116.300 E13.30783
G1 X43.801 Y56.300 E14.47807
G1 X44.120 Y55.248 E14.49923
G1 X49.501 Y43.334 E14.75072
G1 X49.841 Y42.721 E14.76421
G1 X50.925 Y41.099 E14.80174
G1 X51.196 Y40.742 E14.81036
G1 E12.81036 F1200.00000
G92 E0
G1 X73.688 Y119.840 F6000.000
G1 E2.00000 F1200.00000
G1 F1800
G1 X74.132 Y120.035 E2.00933
G1 X74.517 Y120.315 E2.01850
G1 X74.835 Y120.667 E2.02762
G1 X75.072 Y121.078 E2.03674
G1 X75.218 Y121.528 E2.04586
G1 X75.268 Y122.000 E2.05498
G1 X75.218 Y122.472 E2.06410
G1 X75.072 Y122.922 E2.07322
G1 X74.835 Y123.333 E2.08234
G1 X74.517 Y123.685 E2.09146
G1 X74.134 Y123.964 E2.10058
G1 X73.701 Y124.157 E2.10971
G1 X73.237 Y124.255 E2.11883
G1 X72.763 Y124.255 E2.12795
G1 X72.297 Y124.156 E2.13711
G1 X71.855 Y123.956 E2.14644
G1 X71.483 Y123.685 E2.15531
G1 X71.165 Y123.333 E2.16443
G1 X70.928 Y122.922 E2.17355
G1 X70.782 Y122.472 E2.18267
G1 X70.732 Y122.000 E2.19179
G1 X70.782 Y121.528 E2.20091
G1 X70.928 Y121.078 E2.21003
G1 X71.165 Y120.667 E2.21916
G1 X71.483 Y120.315 E2.22828
G1 X71.866 Y120.036 E2.23740
G1 X72.299 Y119.843 E2.24652
G1 X72.763 Y119.745 E2.25564
G1 X73.237 Y119.745 E2.26476
G1 X73.629 Y119.828 E2.27247
G1 X73.609 Y120.086 F6000.000
G1 F1800
G1 X74.004 Y120.259 E2.28076
G1 X74.344 Y120.507 E2.28887
G1 X74.626 Y120.819 E2.29695
G1 X74.836 Y121.183 E2.30503
G1 X74.965 Y121.582 E2.31311
G1 X75.009 Y122.000 E2.32119
G1 X74.965 Y122.418 E2.32928
G1 X74.836 Y122.817 E2.33736
G1 X74.626 Y123.181 E2.34544
G1 X74.344 Y123.493 E2.35352
G1 X74.005 Y123.740 E2.36160
G1 X73.621 Y123.911 E2.36968
G1 X73.210 Y123.998 E2.37776
G1 X72.790 Y123.998 E2.38584
G1 X72.378 Y123.911 E2.39395
G1 X71.985 Y123.733 E2.40225
G1 X71.656 Y123.493 E2.41008
G1 X71.374 Y123.181 E2.41816
G1 X71.164 Y122.817 E2.42625
G1 X71.035 Y122.418 E2.43433
G1 X70.991 Y122.000 E2.44241
G1 X71.035 Y121.582 E2.45049
G1 X71.164 Y121.183 E2.45857
G1 X71.374 Y120.819 E2.46666
G1 X71.656 Y120.507 E2.47474
G1 X71.995 Y120.260 E2.48282
G1 X72.379 Y120.089 E2.49090
G1 X72.790 Y120.002 E2.49898
G1 X73.210 Y120.002 E2.50706
G1 X73.550 Y120.074 E2.51375
G1 X73.530 Y120.332 F6000.000
G1 F1800
G1 X73.875 Y120.483 E2.52100
G1 X74.172 Y120.699 E2.52805
G1 X74.416 Y120.971 E2.53509
G1 X74.599 Y121.288 E2.54213
G1 X74.713 Y121.636 E2.54918
G1 X74.751 Y122.000 E2.55622
G1 X74.713 Y122.364 E2.56326
G1 X74.599 Y122.712 E2.57030
G1 X74.416 Y123.029 E2.57734
G1 X74.172 Y123.301 E2.58438
G1 X73.875 Y123.516 E2.59143
G1 X73.541 Y123.665 E2.59847
G1 X73.183 Y123.741 E2.60551
G1 X72.817 Y123.741 E2.61255
G1 X72.458 Y123.665 E2.61960
G1 X72.115 Y123.509 E2.62686
G1 X71.828 Y123.301 E2.63367
G1 X71.584 Y123.029 E2.64071
G1 X71.401 Y122.712 E2.64776
G1 X71.287 Y122.364 E2.65480
G1 X71.249 Y122.000 E2.66184
G1 X71.287 Y121.636 E2.66888
G1 X71.401 Y121.288 E2.67592
G1 X71.584 Y120.971 E2.68297
G1 X71.828 Y120.699 E2.69001
G1 X72.125 Y120.484 E2.69705
G1 X72.459 Y120.335 E2.70409
G1 X72.817 Y120.259 E2.71113
G1 X73.183 Y120.259 E2.71817
G1 X73.471 Y120.320 E2.72384
G1 X73.809 Y120.079 F6000.000
G1 E0.72384 F1200.00000
G92 E0
G1 X65.218 Y121.528 F6000.000
G1 E2.00000 F1200.00000
G1 F1800
G1 X65.268 Y122.000 E2.00912
G1 X65.218 Y122.472 E2.01824
G1 X65.072 Y122.922 E2.02736
G1 X64.835 Y123.333 E2.03649
G1 X64.517 Y123.685 E2.04561
G1 X64.134 Y123.964 E2.05473
G1 X63.701 Y124.157 E2.06385
G1 X63.237 Y124.255 E2.07297
G1 X62.763 Y124.255 E2.08209
G1 X62.299 Y124.157 E2.09121
G1 X61.866 Y123.964 E2.10033
G1 X61.483 Y123.685 E2.10945
G1 X61.165 Y123.333 E2.11857
G1 X60.928 Y122.922 E2.12770
G1 X60.782 Y122.472 E2.13682
G1 X60.732 Y122.000 E2.14594
G1 X60.782 Y121.528 E2.15506
G1 X60.928 Y121.078 E2.16418
G1 X61.165 Y120.667 E2.17330
G1 X61.483 Y120.315 E2.18242
G1 X61.866 Y120.036 E2.19154
G1 X62.299 Y119.843 E2.20066
G1 X62.763 Y119.745 E2.20979
G1 X63.237 Y119.745 E2.21890
G1 X63.701 Y119.843 E2.22803
G1 X64.134 Y120.036 E2.23715
G1 X64.517 Y120.315 E2.24627
G1 X64.835 Y120.667 E2.25539
G1 X65.072 Y121.078 E2.26451
G1 X65.200 Y121.471 E2.27248
G1 X64.965 Y121.582 F6000.000
G1 F1800
G1 X65.009 Y122.000 E2.28056
G1 X64.965 Y122.418 E2.28864
G1 X64.836 Y122.817 E2.29672
G1 X64.626 Y123.181 E2.30480
G1 X64.344 Y123.493 E2.31288
G1 X64.005 Y123.740 E2.32097
G1 X63.621 Y123.911 E2.32905
G1 X63.210 Y123.998 E2.33713
G1 X62.790 Y123.998 E2.34521
G1 X62.379 Y123.911 E2.35329
G1 X61.995 Y123.740 E2.36137
G1 X61.656 Y123.493 E2.36945
G1 X61.374 Y123.181 E2.37753
G1 X61.164 Y122.817 E2.38562
G1 X61.035 Y122.418 E2.39370
G1 X60.991 Y122.000 E2.40178
G1 X61.035 Y121.582 E2.40986
G1 X61.164 Y121.183 E2.41794
G1 X61.374 Y120.819 E2.42603
G1 X61.656 Y120.507 E2.43411
G1 X61.995 Y120.260 E2.44219
G1 X62.379 Y120.089 E2.45027
G1 X62.790 Y120.002 E2.45835
G1 X63.210 Y120.002 E2.46643
G1 X63.621 Y120.089 E2.47451
G1 X64.005 Y120.260 E2.48259
G1 X64.344 Y120.507 E2.49067
G1 X64.626 Y120.819 E2.49875
G1 X64.836 Y121.183 E2.50684
G1 X64.947 Y121.525 E2.51376
G1 X64.713 Y121.636 F6000.000
G1 F1800
G1 X64.751 Y122.000 E2.52081
G1 X64.713 Y122.364 E2.52785
G1 X64.599 Y122.712 E2.53489
G1 X64.416 Y123.029 E2.54193
G1 X64.172 Y123.301 E2.54897
G1 X63.875 Y123.516 E2.55601
G1 X63.541 Y123.665 E2.56306
G1 X63.183 Y123.741 E2.57010
G1 X62.817 Y123.741 E2.57714
G1 X62.459 Y123.665 E2.58418
G1 X62.125 Y123.516 E2.59122
G1 X61.828 Y123.301 E2.59827
G1 X61.584 Y123.029 E2.60531
G1 X61.401 Y122.712 E2.61235
G1 X61.287 Y122.364 E2.61939
G1 X61.249 Y122.000 E2.62643
G1 X61.287 Y121.636 E2.63347
G1 X61.401 Y121.288 E2.64052
G1 X61.584 Y120.971 E2.64756
G1 X61.828 Y120.699 E2.65460
G1 X62.125 Y120.484 E2.66164
G1 X62.459 Y120.335 E2.66868
G1 X62.817 Y120.259 E2.67573
G1 X63.183 Y120.259 E2.68276
G1 X63.541 Y120.335 E2.68981
G1 X63.875 Y120.484 E2.69685
G1 X64.172 Y120.699 E2.70389
G1 X64.416 Y120.971 E2.71093
G1 X64.599 Y121.288 E2.71797
G1 X64.694 Y121.579 E2.72386
G1 X65.061 Y121.749 F6000.000
G1 E0.72386 F1200.00000
G92 E0
G1 X55.268 Y122.000 F6000.000
G1 E2.00000 F1200.00000
G1 F1800
G1 X55.218 Y122.472 E2.00912
G1 X55.072 Y122.922 E2.01824
G1 X54.835 Y123.333 E2.02737
G1 X54.517 Y123.685 E2.03648
G1 X54.134 Y123.964 E2.04560
G1 X53.701 Y124.157 E2.05473
G1 X53.237 Y124.255 E2.06385
G1 X52.763 Y124.255 E2.07297
G1 X52.299 Y124.157 E2.08209
G1 X51.866 Y123.964 E2.09121
G1 X51.483 Y123.685 E2.10033
G1 X51.165 Y123.333 E2.10945
G1 X50.928 Y122.922 E2.11857
G1 X50.782 Y122.472 E2.12769
G1 X50.732 Y122.000 E2.13682
G1 X50.782 Y121.528 E2.14594
G1 X50.928 Y121.078 E2.15506
G1 X51.165 Y120.667 E2.16418
G1 X51.483 Y120.315 E2.17330
G1 X51.866 Y120.036 E2.18242
G1 X52.299 Y119.843 E2.19154
G1 X52.763 Y119.745 E2.20066
G1 X53.237 Y119.745 E2.20978
G1 X53.701 Y119.843 E2.21890
G1 X54.134 Y120.036 E2.22803
G1 X54.517 Y120.315 E2.23715
G1 X54.835 Y120.667 E2.24627
G1 X55.072 Y121.078 E2.25539
G1 X55.218 Y121.528 E2.26451
G1 X55.262 Y121.940 E2.27248
G1 X55.009 Y122.000 F6000.000
G1 F1800
G1 X54.965 Y122.418 E2.28056
G1 X54.836 Y122.817 E2.28864
G1 X54.626 Y123.181 E2.29672
G1 X54.344 Y123.493 E2.30480
G1 X54.005 Y123.740 E2.31288
G1 X53.621 Y123.911 E2.32097
G1 X53.210 Y123.998 E2.32905
G1 X52.790 Y123.998 E2.33713
G1 X52.379 Y123.911 E2.34521
G1 X51.995 Y123.740 E2.35329
G1 X51.656 Y123.493 E2.36137
G1 X51.374 Y123.181 E2.36945
G1 X51.164 Y122.817 E2.37753
G1 X51.035 Y122.418 E2.38562
G1 X50.991 Y122.000 E2.39370
G1 X51.035 Y121.582 E2.40178
G1 X51.164 Y121.183 E2.40986
G1 X51.374 Y120.819 E2.41794
G1 X51.656 Y120.507 E2.42602
G1 X51.995 Y120.260 E2.43410
G1 X52.379 Y120.089 E2.44219
G1 X52.790 Y120.002 E2.45027
G1 X53.210 Y120.002 E2.45835
G1 X53.621 Y120.089 E2.46643
G1 X54.005 Y120.260 E2.47451
G1 X54.344 Y120.507 E2.48259
G1 X54.626 Y120.819 E2.49067
G1 X54.836 Y121.183 E2.49876
G1 X54.965 Y121.582 E2.50684
G1 X55.003 Y121.940 E2.51376
G1 X54.751 Y122.000 F6000.000
G1 F1800
G1 X54.713 Y122.364 E2.52081
G1 X54.599 Y122.712 E2.52785
G1 X54.416 Y123.029 E2.53489
G1 X54.172 Y123.301 E2.54193
G1 X53.875 Y123.516 E2.54897
G1 X53.541 Y123.665 E2.55601
G1 X53.183 Y123.741 E2.56306
G1 X52.817 Y123.741 E2.57010
G1 X52.459 Y123.665 E2.57714
G1 X52.125 Y123.516 E2.58418
G1 X51.828 Y123.301 E2.59122
G1 X51.584 Y123.029 E2.59826
G1 X51.401 Y122.712 E2.60531
G1 X51.287 Y122.364 E2.61235
G1 X51.249 Y122.000 E2.61939
G1 X51.287 Y121.636 E2.62643
G1 X51.401 Y121.288 E2.63347
G1 X51.584 Y120.971 E2.64052
G1 X51.828 Y120.699 E2.64756
G1 X52.125 Y120.484 E2.65460
G1 X52.459 Y120.335 E2.66164
G1 X52.817 Y120.259 E2.66868
G1 X53.183 Y120.259 E2.67572
G1 X53.541 Y120.335 E2.68276
G1 X53.875 Y120.484 E2.68981
G1 X54.172 Y120.699 E2.69685
G1 X54.416 Y120.971 E2.70389
G1 X54.599 Y121.288 E2.71093
G1 X54.713 Y121.636 E2.71797
G1 X54.745 Y121.940 E2.72386
G1 X55.068 Y122.183 F6000.000
G1 E0.72386 F1200.00000
G92 E0
G1 X45.268 Y122.000 F6000.000
G1 E2.00000 F1200.00000
G1 F1800
G1 X45.218 Y122.472 E2.00912
G1 X45.072 Y122.922 E2.01824
G1 X44.835 Y123.333 E2.02737
G1 X44.517 Y123.685 E2.03648
G1 X44.134 Y123.964 E2.04560
G1 X43.701 Y124.157 E2.05473
G1 X43.237 Y124.255 E2.06385
G1 X42.763 Y124.255 E2.07297
G1 X42.299 Y124.157 E2.08209
G1 X41.866 Y123.964 E2.09121
G1 X41.483 Y123.685 E2.10033
G1 X41.165 Y123.333 E2.10945
G1 X40.928 Y122.922 E2.11857
G1 X40.782 Y122.472 E2.12769
G1 X40.732 Y122.000 E2.13682
G1 X40.782 Y121.528 E2.14594
G1 X40.928 Y121.078 E2.15506
G1 X41.165 Y120.667 E2.16418
G1 X41.483 Y120.315 E2.17330
G1 X41.866 Y120.036 E2.18242
G1 X42.299 Y119.843 E2.19154
G1 X42.763 Y119.745 E2.20066
G1 X43.237 Y119.745 E2.20978
G1 X43.701 Y119.843 E2.21890
G1 X44.134 Y120.036 E2.22803
G1 X44.517 Y120.315 E2.23715
G1 X44.835 Y120.667 E2.24627
G1 X45.072 Y121.078 E2.25539
G1 X45.218 Y121.528 E2.26451
G1 X45.262 Y121.940 E2.27248
G1 X45.009 Y122.000 F6000.000
G1 F1800
G1 X44.965 Y122.418 E2.28056
G1 X44.836 Y122.817 E2.28864
G1 X44.626 Y123.181 E2.29672
G1 X44.344 Y123.493 E2.30480
G1 X44.005 Y123.740 E2.31288
G1 X43.621 Y123.911 E2.32097
G1 X43.210 Y123.998 E2.32905
G1 X42.790 Y123.998 E2.33713
G1 X42.379 Y123.911 E2.34521
G1 X41.995 Y123.740 E2.35329
G1 X41.656 Y123.493 E2.36137
G1 X41.374 Y123.181 E2.36945
G1 X41.164 Y122.817 E2.37753
G1 X41.035 Y122.418 E2.38562
G1 X40.991 Y122.000 E2.39370
G1 X41.035 Y121.582 E2.40178
G1 X41.164 Y121.183 E2.40986
G1 X41.374 Y120.819 E2.41794
G1 X41.656 Y120.507 E2.42602
G1 X41.995 Y120.260 E2.43410
G1 X42.379 Y120.089 E2.44219
G1 X42.790 Y120.002 E2.45027
G1 X43.210 Y120.002 E2.45835
G1 X43.621 Y120.089 E2.46643
G1 X44.005 Y120.260 E2.47451
G1 X44.344 Y120.507 E2.48259
G1 X44.626 Y120.819 E2.49067
G1 X44.836 Y121.183 E2.49876
G1 X44.965 Y121.582 E2.50684
G1 X45.003 Y121.940 E2.51376
G1 X44.751 Y122.000 F6000.000
G1 F1800
G1 X44.713 Y122.364 E2.52081
G1 X44.599 Y122.712 E2.52785
G1 X44.416 Y123.029 E2.53489
G1 X44.172 Y123.301 E2.54193
G1 X43.875 Y123.516 E2.54897
G1 X43.541 Y123.665 E2.55601
G1 X43.183 Y123.741 E2.56306
G1 X42.817 Y123.741 E2.57010
G1 X42.459 Y123.665 E2.57714
G1 X42.125 Y123.516 E2.58418
G1 X41.828 Y123.301 E2.59122
G1 X41.584 Y123.029 E2.59826
G1 X41.401 Y122.712 E2.60531
G1 X41.287 Y122.364 E2.61235
G1 X41.249 Y122.000 E2.61939
G1 X41.287 Y121.636 E2.62643
G1 X41.401 Y121.288 E2.63347
G1 X41.584 Y120.971 E2.64052
G1 X41.828 Y120.699 E2.64756
G1 X42.125 Y120.484 E2.65460
G1 X42.459 Y120.335 E2.66164
G1 X42.817 Y120.259 E2.66868
G1 X43.183 Y120.259 E2.67572
G1 X43.541 Y120.335 E2.68276
G1 X43.875 Y120.484 E2.68981
G1 X44.172 Y120.699 E2.69685
G1 X44.416 Y120.971 E2.70389
G1 X44.599 Y121.288 E2.71093
G1 X44.713 Y121.636 E2.71797
G1 X44.745 Y121.940 E2.72386
G1 X45.068 Y122.183 F6000.000
G1 E0.72386 F1200.00000
G92 E0
G1 X47.621 Y114.064 F6000.000
G1 E2.00000 F1200.00000
G1 F1800
G1 X50.134 Y88.936 E2.48585
G1 X57.104 Y88.936 E2.61994
G1 X57.136 Y88.825 E2.62216
G1 X56.713 Y88.556 E2.63181
G1 X56.381 Y88.202 E2.64114
G1 X56.234 Y87.971 E2.64641
G1 X56.117 Y87.723 E2.65169
G1 X55.996 Y87.253 E2.66102
G1 X55.996 Y86.768 E2.67035
G1 X56.048 Y86.499 E2.67563
G1 X56.133 Y86.238 E2.68090
G1 X56.366 Y85.813 E2.69023
G1 X56.713 Y85.444 E2.69997
G1 X57.140 Y85.173 E2.70971
G1 X57.602 Y85.023 E2.71904
G1 X57.894 Y84.986 E2.72472
G1 X58.357 Y85.015 E2.73365
G1 X58.623 Y85.083 E2.73892
G1 X58.878 Y85.184 E2.74419
G1 X59.287 Y85.444 E2.75352
G1 X59.619 Y85.798 E2.76286
G1 X59.766 Y86.029 E2.76813
G1 X59.883 Y86.277 E2.77340
G1 X60.004 Y86.747 E2.78274
G1 X60.004 Y87.232 E2.79207
G1 X59.952 Y87.501 E2.79734
G1 X59.867 Y87.762 E2.80262
G1 X59.634 Y88.187 E2.81195
G1 X59.287 Y88.556 E2.82169
G1 X58.864 Y88.825 E2.83133
G1 X58.896 Y88.936 E2.83356
G1 X65.866 Y88.936 E2.96765
G1 X68.379 Y114.064 E3.45350
G1 X58.895 Y114.064 E3.63596
G1 X58.865 Y114.180 E3.63826
G1 X59.080 Y114.298 E3.64299
G1 X59.302 Y114.459 E3.64826
G1 X59.634 Y114.813 E3.65759
G1 X59.878 Y115.257 E3.66733
G1 X60.004 Y115.747 E3.67707
G1 X60.004 Y116.232 E3.68640
G1 X59.952 Y116.501 E3.69168
G1 X59.867 Y116.762 E3.69695
G1 X59.633 Y117.188 E3.70630
G1 X59.136 Y117.714 E3.72022
G1 X56.864 Y117.714 E3.76395
G1 X56.367 Y117.188 E3.77788
G1 X56.122 Y116.743 E3.78763
G1 X55.996 Y116.253 E3.79737
G1 X55.996 Y115.747 E3.80711
G1 X56.122 Y115.257 E3.81684
G1 X56.352 Y114.838 E3.82604
G1 X56.543 Y114.605 E3.83183
G1 X56.918 Y114.295 E3.84119
G1 X57.152 Y114.185 E3.84617
G1 X57.125 Y114.064 E3.84855
G1 X47.681 Y114.064 E4.03024
G1 E2.03024 F1200.00000
G92 E0
G1 X56.254 Y115.779 F6000.000
G1 E2.00000 F1200.00000
G1 F1800
G1 X56.363 Y115.352 E2.00849
G1 X56.566 Y114.982 E2.01660
G1 X56.726 Y114.787 E2.02145
G1 X57.057 Y114.514 E2.02971
G1 X57.456 Y114.326 E2.03820
G1 X57.889 Y114.243 E2.04669
G1 X58.330 Y114.271 E2.05518
G1 X58.737 Y114.403 E2.06342
G1 X58.942 Y114.516 E2.06791
G1 X59.131 Y114.653 E2.07241
G1 X59.424 Y114.965 E2.08065
