; generated by Slic3r 1.3.1-dev (Build (Unknown revision)) on 2020-06-18 at 22:19:12

; external perimeters extrusion width = 0.44mm (2.86mm^3/s)
; perimeters extrusion width = 0.56mm (4.14mm^3/s)
; infill extrusion width = 0.50mm (5.48mm^3/s)
; solid infill extrusion width = 0.56mm (3.10mm^3/s)
; top infill extrusion width = 0.45mm (2.44mm^3/s)

M107
G92 E0
;D3D:START:START
T0
M104 S215 T0

G21
G90
M107
T0
G28
G29
M109 T0 S215 T0
G0 F3000
M107
T0
G92 E0
G0 X0 Y149 Z0.1 F3600
G1 Y49 E6.5 F1200
G0 Z1
G92 E0
; Filament gcode

G21 ; set units to millimeters
G90 ; use absolute coordinates
M82 ; use absolute distances for extrusion
G92 E0
G1 Z0.200 F6000.000
G1 E-2.00000 F1200.00000
G92 E0
G1 X39.848 Y34.257 F6000.000
G1 E2.00000 F1200.00000
G1 F1800.000
G1 X40.305 Y33.750 E2.01314
G1 X40.636 Y33.419 E2.02214
G1 X58.628 Y17.189 E2.48831
G1 X58.998 Y16.889 E2.49748
G1 X60.013 Y16.152 E2.52161
G1 X60.831 Y15.680 E2.53977
G1 X61.977 Y15.170 E2.56390
G1 X62.874 Y14.878 E2.58205
G1 X64.463 Y14.556 E2.61326
G1 X97.542 Y10.302 E3.25488
G1 X98.118 Y10.265 E3.26598
G1 X126.334 Y10.265 E3.80882
G1 X128.181 Y10.660 E3.84518
G1 X129.706 Y11.778 E3.88153
G1 X130.639 Y13.421 E3.91789
G1 X130.848 Y14.779 E3.94432
G1 X130.848 Y135.221 E6.26147
G1 X130.452 Y137.069 E6.29782
G1 X129.335 Y138.593 E6.33418
G1 X127.691 Y139.526 E6.37054
G1 X126.334 Y139.735 E6.39697
G1 X98.118 Y139.735 E6.93980
G1 X97.542 Y139.698 E6.95090
G1 X64.463 Y135.444 E7.59253
G1 X62.874 Y135.122 E7.62373
G1 X61.977 Y134.830 E7.64188
G1 X60.831 Y134.320 E7.66601
G1 X60.013 Y133.848 E7.68418
G1 X58.998 Y133.111 E7.70831
G1 X58.628 Y132.811 E7.71748
G1 X40.636 Y116.581 E8.18364
G1 X40.305 Y116.250 E8.19264
G1 X39.848 Y115.743 E8.20579
G1 X21.039 Y94.330 E8.75409
G1 X20.521 Y93.608 E8.77119
G1 X20.103 Y92.884 E8.78728
G1 X19.719 Y92.022 E8.80543
G1 X19.461 Y91.227 E8.82152
G1 X19.264 Y90.303 E8.83968
G1 X19.177 Y89.472 E8.85576
G1 X19.152 Y89.000 E8.86485
G1 X19.152 Y61.000 E9.40354
G1 X19.177 Y60.528 E9.41262
G1 X19.264 Y59.697 E9.42871
G1 X19.461 Y58.773 E9.44687
G1 X19.719 Y57.978 E9.46296
G1 X20.103 Y57.116 E9.48111
G1 X20.521 Y56.392 E9.49720
G1 X21.039 Y55.670 E9.51430
G1 X39.808 Y34.303 E10.06145
G1 X40.041 Y34.427 F6000.000
G1 F1800.000
G1 X40.496 Y33.922 E10.07453
G1 X40.808 Y33.609 E10.08302
G1 X58.800 Y17.380 E10.54918
G1 X59.149 Y17.097 E10.55783
G1 X60.164 Y16.360 E10.58196
G1 X60.935 Y15.915 E10.59909
G1 X62.081 Y15.405 E10.62322
G1 X62.927 Y15.130 E10.64034
G1 X64.496 Y14.811 E10.67114
G1 X97.575 Y10.556 E11.31276
G1 X98.118 Y10.522 E11.32323
G1 X126.334 Y10.522 E11.86607
G1 X128.125 Y10.917 E11.90136
G1 X129.584 Y12.030 E11.93666
G1 X130.439 Y13.653 E11.97195
G1 X130.591 Y14.779 E11.99381
G1 X130.591 Y135.221 E14.31096
G1 X130.195 Y137.013 E14.34625
G1 X129.083 Y138.471 E14.38155
G1 X127.460 Y139.327 E14.41684
G1 X126.334 Y139.478 E14.43871
G1 X98.118 Y139.478 E14.98154
G1 X97.575 Y139.444 E14.99201
G1 X64.496 Y135.189 E15.63363
G1 X62.927 Y134.870 E15.66444
G1 X62.081 Y134.595 E15.68155
G1 X60.935 Y134.085 E15.70568
G1 X60.164 Y133.640 E15.72281
G1 X59.149 Y132.903 E15.74694
G1 X58.800 Y132.620 E15.75559
G1 X40.808 Y116.391 E16.22175
G1 X40.496 Y116.078 E16.23024
G1 X40.041 Y115.573 E16.24332
G1 X21.232 Y94.161 E16.79163
G1 X20.744 Y93.480 E16.80775
G1 X20.326 Y92.755 E16.82384
G1 X19.964 Y91.942 E16.84096
G1 X19.705 Y91.147 E16.85705
G1 X19.520 Y90.277 E16.87417
G1 X19.433 Y89.445 E16.89026
G1 X19.409 Y89.000 E16.89883
G1 X19.409 Y61.000 E17.43751
G1 X19.433 Y60.555 E17.44609
G1 X19.520 Y59.723 E17.46217
G1 X19.705 Y58.853 E17.47929
G1 X19.964 Y58.058 E17.49538
G1 X20.326 Y57.245 E17.51250
G1 X20.744 Y56.520 E17.52859
G1 X21.232 Y55.839 E17.54471
G1 X40.001 Y34.472 E18.09187
G1 E16.09187 F1200.00000
G92 E0
G1 X117.453 Y128.087 F6000.000
G1 E2.00000 F1200.00000
G1 F1800.000
G1 X117.702 Y127.950 E2.00547
G1 X117.966 Y127.845 E2.01094
G1 X118.242 Y127.775 E2.01642
G1 X118.524 Y127.739 E2.02189
G1 X118.809 Y127.739 E2.02736
G1 X119.091 Y127.775 E2.03284
G1 X119.367 Y127.845 E2.03831
G1 X119.631 Y127.950 E2.04379
G1 X119.880 Y128.087 E2.04926
G1 X120.111 Y128.254 E2.05473
G1 X120.318 Y128.449 E2.06020
G1 X120.499 Y128.668 E2.06568
G1 X120.652 Y128.909 E2.07115
G1 X120.773 Y129.166 E2.07663
G1 X120.861 Y129.437 E2.08210
G1 X120.914 Y129.716 E2.08757
G1 X120.932 Y130.000 E2.09305
G1 X120.914 Y130.284 E2.09852
G1 X120.861 Y130.563 E2.10399
G1 X120.773 Y130.834 E2.10946
G1 X120.652 Y131.091 E2.11494
G1 X120.499 Y131.332 E2.12041
G1 X120.318 Y131.551 E2.12589
G1 X120.111 Y131.746 E2.13136
G1 X119.880 Y131.913 E2.13683
G1 X119.631 Y132.050 E2.14231
G1 X119.367 Y132.155 E2.14778
G1 X119.091 Y132.225 E2.15325
G1 X118.809 Y132.261 E2.15873
G1 X118.524 Y132.261 E2.16420
G1 X118.242 Y132.225 E2.16967
G1 X117.966 Y132.155 E2.17515
G1 X117.702 Y132.050 E2.18062
G1 X117.453 Y131.913 E2.18609
G1 X117.223 Y131.746 E2.19156
G1 X117.015 Y131.551 E2.19704
G1 X116.834 Y131.332 E2.20251
G1 X116.681 Y131.091 E2.20799
G1 X116.560 Y130.834 E2.21346
G1 X116.472 Y130.563 E2.21893
G1 X116.419 Y130.284 E2.22441
G1 X116.401 Y130.000 E2.22988
G1 X116.419 Y129.716 E2.23535
G1 X116.472 Y129.437 E2.24083
G1 X116.560 Y129.166 E2.24630
G1 X116.681 Y128.909 E2.25177
G1 X116.834 Y128.668 E2.25725
G1 X117.015 Y128.449 E2.26272
G1 X117.223 Y128.254 E2.26820
G1 X117.404 Y128.122 E2.27251
G1 X117.591 Y128.305 F6000.000
G1 F1800.000
G1 X117.812 Y128.183 E2.27736
G1 X118.046 Y128.090 E2.28221
G1 X118.290 Y128.028 E2.28707
G1 X118.540 Y127.996 E2.29192
G1 X118.793 Y127.996 E2.29677
G1 X119.043 Y128.028 E2.30162
G1 X119.287 Y128.090 E2.30647
G1 X119.521 Y128.183 E2.31132
G1 X119.742 Y128.305 E2.31617
G1 X119.946 Y128.453 E2.32102
G1 X120.130 Y128.625 E2.32587
G1 X120.291 Y128.820 E2.33072
G1 X120.426 Y129.033 E2.33558
G1 X120.533 Y129.261 E2.34043
G1 X120.611 Y129.501 E2.34528
G1 X120.659 Y129.748 E2.35013
G1 X120.674 Y130.000 E2.35498
G1 X120.659 Y130.252 E2.35983
G1 X120.611 Y130.499 E2.36468
G1 X120.533 Y130.739 E2.36953
G1 X120.426 Y130.967 E2.37438
G1 X120.291 Y131.180 E2.37924
G1 X120.130 Y131.375 E2.38409
G1 X119.946 Y131.547 E2.38894
G1 X119.742 Y131.695 E2.39379
G1 X119.521 Y131.817 E2.39864
G1 X119.287 Y131.910 E2.40349
G1 X119.043 Y131.972 E2.40834
G1 X118.793 Y132.004 E2.41319
G1 X118.540 Y132.004 E2.41804
G1 X118.290 Y131.972 E2.42289
G1 X118.046 Y131.910 E2.42775
G1 X117.812 Y131.817 E2.43260
G1 X117.591 Y131.695 E2.43745
G1 X117.387 Y131.547 E2.44230
G1 X117.203 Y131.375 E2.44715
G1 X117.042 Y131.180 E2.45200
G1 X116.907 Y130.967 E2.45685
G1 X116.800 Y130.739 E2.46170
G1 X116.722 Y130.499 E2.46655
G1 X116.674 Y130.252 E2.47141
G1 X116.659 Y130.000 E2.47626
G1 X116.674 Y129.748 E2.48111
G1 X116.722 Y129.501 E2.48596
G1 X116.800 Y129.261 E2.49081
G1 X116.907 Y129.033 E2.49566
G1 X117.042 Y128.820 E2.50051
G1 X117.203 Y128.625 E2.50536
G1 X117.387 Y128.453 E2.51022
G1 X117.542 Y128.340 E2.51391
G1 X117.729 Y128.522 F6000.000
G1 F1800.000
G1 X117.921 Y128.416 E2.51814
G1 X118.126 Y128.335 E2.52237
G1 X118.339 Y128.281 E2.52660
G1 X118.557 Y128.253 E2.53083
G1 X118.776 Y128.253 E2.53506
G1 X118.994 Y128.281 E2.53928
G1 X119.207 Y128.335 E2.54351
G1 X119.412 Y128.416 E2.54774
G1 X119.604 Y128.522 E2.55197
G1 X119.782 Y128.651 E2.55620
G1 X119.942 Y128.802 E2.56043
G1 X120.082 Y128.971 E2.56465
G1 X120.200 Y129.157 E2.56888
G1 X120.294 Y129.356 E2.57311
G1 X120.362 Y129.565 E2.57734
G1 X120.403 Y129.781 E2.58157
G1 X120.417 Y130.000 E2.58580
G1 X120.403 Y130.219 E2.59003
G1 X120.362 Y130.435 E2.59426
G1 X120.294 Y130.644 E2.59849
G1 X120.200 Y130.843 E2.60271
G1 X120.082 Y131.029 E2.60694
G1 X119.942 Y131.198 E2.61117
G1 X119.782 Y131.349 E2.61540
G1 X119.604 Y131.478 E2.61963
G1 X119.412 Y131.584 E2.62386
G1 X119.207 Y131.665 E2.62809
G1 X118.994 Y131.719 E2.63232
G1 X118.776 Y131.747 E2.63654
G1 X118.557 Y131.747 E2.64077
G1 X118.339 Y131.719 E2.64500
G1 X118.126 Y131.665 E2.64923
G1 X117.921 Y131.584 E2.65346
G1 X117.729 Y131.478 E2.65769
G1 X117.551 Y131.349 E2.66192
G1 X117.391 Y131.198 E2.66614
G1 X117.250 Y131.029 E2.67037
G1 X117.133 Y130.843 E2.67460
G1 X117.039 Y130.644 E2.67883
G1 X116.971 Y130.435 E2.68306
G1 X116.930 Y130.219 E2.68729
G1 X116.916 Y130.000 E2.69152
G1 X116.930 Y129.781 E2.69575
G1 X116.971 Y129.565 E2.69997
G1 X117.039 Y129.356 E2.70420
G1 X117.133 Y129.157 E2.70843
G1 X117.250 Y128.971 E2.71266
G1 X117.391 Y128.802 E2.71689
G1 X117.680 Y128.557 E2.72418
G1 X117.719 Y128.303 F6000.000
G1 E0.72418 F1200.00000
G92 E0
G1 X110.914 Y129.716 F6000.000
G1 E2.00000 F1200.00000
G1 F1800.000
G1 X110.932 Y130.000 E2.00547
G1 X110.914 Y130.284 E2.01095
G1 X110.861 Y130.563 E2.01642
G1 X110.773 Y130.834 E2.02189
G1 X110.652 Y131.091 E2.02737
G1 X110.499 Y131.332 E2.03284
G1 X110.318 Y131.551 E2.03832
G1 X110.111 Y131.746 E2.04379
G1 X109.880 Y131.913 E2.04926
G1 X109.631 Y132.050 E2.05473
G1 X109.367 Y132.155 E2.06021
G1 X109.091 Y132.225 E2.06568
G1 X108.809 Y132.261 E2.07116
G1 X108.524 Y132.261 E2.07663
G1 X108.242 Y132.225 E2.08210
G1 X107.966 Y132.155 E2.08758
G1 X107.702 Y132.050 E2.09305
G1 X107.453 Y131.913 E2.09852
G1 X107.223 Y131.746 E2.10399
G1 X107.015 Y131.551 E2.10947
G1 X106.834 Y131.332 E2.11494
G1 X106.681 Y131.091 E2.12042
G1 X106.560 Y130.834 E2.12589
G1 X106.472 Y130.563 E2.13136
G1 X106.419 Y130.284 E2.13683
G1 X106.401 Y130.000 E2.14231
G1 X106.419 Y129.716 E2.14778
G1 X106.472 Y129.437 E2.15326
G1 X106.560 Y129.166 E2.15873
G1 X106.681 Y128.909 E2.16420
G1 X106.834 Y128.668 E2.16967
G1 X107.015 Y128.449 E2.17515
G1 X107.223 Y128.254 E2.18062
G1 X107.453 Y128.087 E2.18610
G1 X107.702 Y127.950 E2.19157
G1 X107.966 Y127.845 E2.19704
G1 X108.242 Y127.775 E2.20252
G1 X108.524 Y127.739 E2.20799
G1 X108.809 Y127.739 E2.21346
G1 X109.091 Y127.775 E2.21893
G1 X109.367 Y127.845 E2.22441
G1 X109.631 Y127.950 E2.22988
G1 X109.880 Y128.087 E2.23535
G1 X110.111 Y128.254 E2.24083
G1 X110.318 Y128.449 E2.24630
G1 X110.499 Y128.668 E2.25177
G1 X110.652 Y128.909 E2.25725
G1 X110.773 Y129.166 E2.26272
G1 X110.861 Y129.437 E2.26819
G1 X110.903 Y129.657 E2.27251
G1 X110.659 Y129.748 F6000.000
G1 F1800.000
G1 X110.674 Y130.000 E2.27737
G1 X110.659 Y130.252 E2.28222
G1 X110.611 Y130.499 E2.28707
G1 X110.533 Y130.739 E2.29192
G1 X110.426 Y130.967 E2.29677
G1 X110.291 Y131.180 E2.30162
G1 X110.130 Y131.375 E2.30647
G1 X109.946 Y131.547 E2.31132
G1 X109.742 Y131.695 E2.31617
G1 X109.521 Y131.817 E2.32102
G1 X109.287 Y131.910 E2.32587
G1 X109.043 Y131.972 E2.33073
G1 X108.793 Y132.004 E2.33558
G1 X108.540 Y132.004 E2.34043
G1 X108.290 Y131.972 E2.34528
G1 X108.046 Y131.910 E2.35013
G1 X107.812 Y131.817 E2.35498
G1 X107.591 Y131.695 E2.35983
G1 X107.387 Y131.547 E2.36468
G1 X107.203 Y131.375 E2.36954
G1 X107.042 Y131.180 E2.37439
G1 X106.907 Y130.967 E2.37924
G1 X106.800 Y130.739 E2.38409
G1 X106.722 Y130.499 E2.38894
G1 X106.674 Y130.252 E2.39379
G1 X106.659 Y130.000 E2.39864
G1 X106.674 Y129.748 E2.40349
G1 X106.722 Y129.501 E2.40834
G1 X106.800 Y129.261 E2.41319
G1 X106.907 Y129.033 E2.41804
G1 X107.042 Y128.820 E2.42290
G1 X107.203 Y128.625 E2.42775
G1 X107.387 Y128.453 E2.43260
G1 X107.591 Y128.305 E2.43745
G1 X107.812 Y128.183 E2.44230
G1 X108.046 Y128.090 E2.44715
G1 X108.290 Y128.028 E2.45200
G1 X108.540 Y127.996 E2.45685
G1 X108.793 Y127.996 E2.46170
G1 X109.043 Y128.028 E2.46655
G1 X109.287 Y128.090 E2.47141
G1 X109.521 Y128.183 E2.47626
G1 X109.742 Y128.305 E2.48111
G1 X109.946 Y128.453 E2.48596
G1 X110.130 Y128.625 E2.49081
G1 X110.291 Y128.820 E2.49566
G1 X110.426 Y129.033 E2.50051
G1 X110.533 Y129.261 E2.50536
G1 X110.611 Y129.501 E2.51021
G1 X110.647 Y129.689 E2.51391
G1 X110.403 Y129.781 F6000.000
G1 F1800.000
G1 X110.417 Y130.000 E2.51814
G1 X110.403 Y130.219 E2.52237
G1 X110.362 Y130.435 E2.52660
G1 X110.294 Y130.644 E2.53083
G1 X110.200 Y130.843 E2.53505
G1 X110.082 Y131.029 E2.53928
G1 X109.942 Y131.198 E2.54351
G1 X109.782 Y131.349 E2.54774
G1 X109.604 Y131.478 E2.55197
G1 X109.412 Y131.584 E2.55620
G1 X109.207 Y131.665 E2.56043
G1 X108.994 Y131.719 E2.56466
G1 X108.776 Y131.747 E2.56888
G1 X108.557 Y131.747 E2.57311
G1 X108.339 Y131.719 E2.57734
G1 X108.126 Y131.665 E2.58157
G1 X107.921 Y131.584 E2.58580
G1 X107.729 Y131.478 E2.59003
G1 X107.551 Y131.349 E2.59426
G1 X107.391 Y131.198 E2.59849
G1 X107.250 Y131.029 E2.60271
G1 X107.133 Y130.843 E2.60694
G1 X107.039 Y130.644 E2.61117
G1 X106.971 Y130.435 E2.61540
G1 X106.930 Y130.219 E2.61963
G1 X106.916 Y130.000 E2.62386
G1 X106.930 Y129.781 E2.62809
G1 X106.971 Y129.565 E2.63232
G1 X107.039 Y129.356 E2.63654
G1 X107.133 Y129.157 E2.64077
G1 X107.250 Y128.971 E2.64500
G1 X107.391 Y128.802 E2.64923
G1 X107.551 Y128.651 E2.65346
G1 X107.729 Y128.522 E2.65769
G1 X107.921 Y128.416 E2.66192
G1 X108.126 Y128.335 E2.66614
G1 X108.339 Y128.281 E2.67037
G1 X108.557 Y128.253 E2.67460
G1 X108.776 Y128.253 E2.67883
G1 X108.994 Y128.281 E2.68306
G1 X109.207 Y128.335 E2.68729
G1 X109.412 Y128.416 E2.69152
G1 X109.604 Y128.522 E2.69575
G1 X109.782 Y128.651 E2.69997
G1 X109.942 Y128.802 E2.70420
G1 X110.082 Y128.971 E2.70843
G1 X110.200 Y129.157 E2.71266
G1 X110.294 Y129.356 E2.71689
G1 X110.392 Y129.722 E2.72418
G1 X110.606 Y129.866 F6000.000
G1 E0.72418 F1200.00000
G92 E0
G1 X100.932 Y130.000 F6000.000
G1 E2.00000 F1200.00000
G1 F1800.000
G1 X100.914 Y130.284 E2.00547
G1 X100.861 Y130.563 E2.01095
G1 X100.773 Y130.834 E2.01642
G1 X100.652 Y131.091 E2.02189
G1 X100.499 Y131.332 E2.02737
G1 X100.318 Y131.551 E2.03284
G1 X100.111 Y131.746 E2.03831
G1 X99.880 Y131.913 E2.04379
G1 X99.631 Y132.050 E2.04926
G1 X99.367 Y132.155 E2.05473
G1 X99.091 Y132.225 E2.06021
G1 X98.809 Y132.261 E2.06568
G1 X98.524 Y132.261 E2.07115
G1 X98.242 Y132.225 E2.07663
G1 X97.966 Y132.155 E2.08210
G1 X97.702 Y132.050 E2.08757
G1 X97.453 Y131.913 E2.09305
G1 X97.223 Y131.746 E2.09852
G1 X97.015 Y131.551 E2.10399
G1 X96.834 Y131.332 E2.10947
G1 X96.681 Y131.091 E2.11494
G1 X96.560 Y130.834 E2.12042
G1 X96.472 Y130.563 E2.12589
G1 X96.419 Y130.284 E2.13136
G1 X96.401 Y130.000 E2.13683
G1 X96.419 Y129.716 E2.14231
G1 X96.472 Y129.437 E2.14778
G1 X96.560 Y129.166 E2.15325
G1 X96.681 Y128.909 E2.15873
G1 X96.834 Y128.668 E2.16420
G1 X97.015 Y128.449 E2.16967
G1 X97.223 Y128.254 E2.17515
G1 X97.453 Y128.087 E2.18062
G1 X97.702 Y127.950 E2.18609
G1 X97.966 Y127.845 E2.19157
G1 X98.242 Y127.775 E2.19704
G1 X98.524 Y127.739 E2.20252
G1 X98.809 Y127.739 E2.20799
G1 X99.091 Y127.775 E2.21346
G1 X99.367 Y127.845 E2.21894
G1 X99.631 Y127.950 E2.22441
G1 X99.880 Y128.087 E2.22988
G1 X100.111 Y128.254 E2.23535
G1 X100.318 Y128.449 E2.24083
G1 X100.499 Y128.668 E2.24630
G1 X100.652 Y128.909 E2.25178
G1 X100.773 Y129.166 E2.25725
G1 X100.861 Y129.437 E2.26272
G1 X100.914 Y129.716 E2.26819
G1 X100.928 Y129.940 E2.27251
G1 X100.674 Y130.000 F6000.000
G1 F1800.000
G1 X100.659 Y130.252 E2.27737
G1 X100.611 Y130.499 E2.28222
G1 X100.533 Y130.739 E2.28707
G1 X100.426 Y130.967 E2.29192
G1 X100.291 Y131.180 E2.29677
G1 X100.130 Y131.375 E2.30162
G1 X99.946 Y131.547 E2.30647
G1 X99.742 Y131.695 E2.31132
G1 X99.521 Y131.817 E2.31617
G1 X99.287 Y131.910 E2.32102
G1 X99.043 Y131.972 E2.32588
G1 X98.793 Y132.004 E2.33073
G1 X98.540 Y132.004 E2.33558
G1 X98.290 Y131.972 E2.34043
G1 X98.046 Y131.910 E2.34528
G1 X97.812 Y131.817 E2.35013
G1 X97.591 Y131.695 E2.35498
G1 X97.387 Y131.547 E2.35983
G1 X97.203 Y131.375 E2.36468
G1 X97.042 Y131.180 E2.36953
G1 X96.907 Y130.967 E2.37439
G1 X96.800 Y130.739 E2.37924
G1 X96.722 Y130.499 E2.38409
G1 X96.674 Y130.252 E2.38894
G1 X96.659 Y130.000 E2.39379
G1 X96.674 Y129.748 E2.39864
G1 X96.722 Y129.501 E2.40349
G1 X96.800 Y129.261 E2.40834
G1 X96.907 Y129.033 E2.41319
G1 X97.042 Y128.820 E2.41805
G1 X97.203 Y128.625 E2.42290
G1 X97.387 Y128.453 E2.42775
G1 X97.591 Y128.305 E2.43260
G1 X97.812 Y128.183 E2.43745
G1 X98.046 Y128.090 E2.44230
G1 X98.290 Y128.028 E2.44715
G1 X98.540 Y127.996 E2.45200
G1 X98.793 Y127.996 E2.45685
G1 X99.043 Y128.028 E2.46170
G1 X99.287 Y128.090 E2.46656
G1 X99.521 Y128.183 E2.47141
G1 X99.742 Y128.305 E2.47626
G1 X99.946 Y128.453 E2.48111
G1 X100.130 Y128.625 E2.48596
