; generated by Slic3r 1.3.1-dev (Build (Unknown revision)) on 2020-07-17 at 14:39:08

; external perimeters extrusion width = 0.44mm (1.51mm^3/s)
; perimeters extrusion width = 0.56mm (2.15mm^3/s)
; infill extrusion width = 0.50mm (2.87mm^3/s)
; solid infill extrusion width = 0.56mm (1.62mm^3/s)
; top infill extrusion width = 0.45mm (1.29mm^3/s)

M107
G92 E0
;D3D:START:START
T0
M104 S215 T0

G21
G90
M107
T0
G28
G29
M109 T0 S215 T0
G0 F3000
M107
T0
G92 E0
G0 X0 Y149 Z0.1 F3600
G1 Y49 E6.5 F1200
G0 Z1
G92 E0
; Filament gcode

G21 ; set units to millimeters
G90 ; use absolute coordinates
M82 ; use absolute distances for extrusion
G92 E0
G1 Z0.200 F6000.000
G1 E-2.00000 F1200.00000
G92 E0
G1 X57.347 Y51.655 F6000.000
G1 E2.00000 F1200.00000
G1 F1800.000
G1 X58.991 Y50.721 E2.03636
G1 X60.096 Y50.520 E2.05797
G1 X84.935 Y49.127 E2.53660
G1 X86.803 Y49.419 E2.57295
G1 X88.387 Y50.449 E2.60931
G1 X89.602 Y52.687 E2.65829
G1 X94.053 Y73.418 E3.06622
G1 X94.153 Y74.365 E3.08455
G1 X94.153 Y96.365 E3.50780
G1 X93.758 Y98.213 E3.54416
G1 X92.640 Y99.737 E3.58051
G1 X90.997 Y100.670 E3.61687
G1 X89.280 Y100.865 E3.65012
G1 X59.989 Y98.526 E4.21542
G1 X58.179 Y97.985 E4.25177
G1 X56.748 Y96.750 E4.28813
G1 X55.949 Y95.037 E4.32449
G1 X55.834 Y94.027 E4.34406
G1 X55.834 Y55.027 E5.09437
G1 X56.230 Y53.179 E5.13073
G1 X57.312 Y51.703 E5.16593
G1 X57.599 Y51.776 F6000.000
G1 F1800.000
G1 X60.110 Y50.776 E5.21793
G1 X84.950 Y49.384 E5.69655
G1 X86.761 Y49.679 E5.73185
G1 X88.279 Y50.708 E5.76714
G1 X89.350 Y52.741 E5.81135
G1 X93.801 Y73.472 E6.21927
G1 X93.896 Y74.365 E6.23656
G1 X93.896 Y96.365 E6.65981
G1 X93.501 Y98.157 E6.69511
G1 X92.388 Y99.616 E6.73040
G1 X90.765 Y100.471 E6.76570
G1 X89.300 Y100.609 E6.79401
G1 X60.010 Y98.270 E7.35931
G1 X58.255 Y97.734 E7.39460
G1 X56.890 Y96.508 E7.42990
G1 X56.092 Y94.027 E7.48005
G1 X56.092 Y55.027 E8.23036
G1 X56.487 Y53.235 E8.26566
G1 X57.563 Y51.824 E8.29980
G1 E6.29980 F1200.00000
G92 E0
G1 X81.952 Y86.862 F6000.000
G1 E2.00000 F1200.00000
G1 F1800.000
G1 X81.449 Y87.365 E2.01368
G1 X80.816 Y87.688 E2.02736
G1 X80.114 Y87.799 E2.04103
G1 X79.411 Y87.688 E2.05471
G1 X78.778 Y87.365 E2.06839
G1 X78.275 Y86.862 E2.08207
G1 X77.952 Y86.229 E2.09575
G1 X77.841 Y85.527 E2.10943
G1 X77.952 Y84.824 E2.12310
G1 X78.275 Y84.191 E2.13678
G1 X78.778 Y83.688 E2.15046
G1 X79.411 Y83.365 E2.16414
G1 X80.114 Y83.254 E2.17782
G1 X80.816 Y83.365 E2.19149
G1 X81.449 Y83.688 E2.20517
G1 X81.952 Y84.191 E2.21885
G1 X82.275 Y84.824 E2.23253
G1 X82.386 Y85.527 E2.24621
G1 X82.275 Y86.229 E2.25989
G1 X81.979 Y86.809 E2.27241
G1 X81.741 Y86.709 F6000.000
G1 F1800.000
G1 X81.296 Y87.154 E2.28452
G1 X80.735 Y87.440 E2.29663
G1 X80.114 Y87.539 E2.30874
G1 X79.492 Y87.440 E2.32085
G1 X78.931 Y87.154 E2.33297
G1 X78.486 Y86.709 E2.34508
G1 X78.200 Y86.148 E2.35719
G1 X78.101 Y85.527 E2.36930
G1 X78.200 Y84.905 E2.38141
G1 X78.486 Y84.344 E2.39352
G1 X78.931 Y83.899 E2.40564
G1 X79.492 Y83.613 E2.41775
G1 X80.114 Y83.514 E2.42986
G1 X80.735 Y83.613 E2.44197
G1 X81.296 Y83.899 E2.45408
G1 X81.741 Y84.344 E2.46619
G1 X82.027 Y84.905 E2.47831
G1 X82.126 Y85.527 E2.49042
G1 X82.027 Y86.148 E2.50253
G1 X81.769 Y86.656 E2.51349
G1 X81.531 Y86.556 F6000.000
G1 F1800.000
G1 X81.143 Y86.944 E2.52403
G1 X80.655 Y87.193 E2.53458
G1 X80.114 Y87.278 E2.54512
G1 X79.572 Y87.193 E2.55566
G1 X79.084 Y86.944 E2.56621
G1 X78.696 Y86.556 E2.57675
G1 X78.448 Y86.068 E2.58730
G1 X78.362 Y85.527 E2.59784
G1 X78.448 Y84.985 E2.60839
G1 X78.696 Y84.497 E2.61893
G1 X79.084 Y84.109 E2.62948
G1 X79.572 Y83.860 E2.64002
G1 X80.114 Y83.775 E2.65057
G1 X80.655 Y83.860 E2.66111
G1 X81.143 Y84.109 E2.67166
G1 X81.531 Y84.497 E2.68220
G1 X81.780 Y84.985 E2.69275
G1 X81.866 Y85.527 E2.70329
G1 X81.780 Y86.068 E2.71384
G1 X81.558 Y86.503 E2.72323
G1 X81.694 Y86.922 F6000.000
G1 E0.72323 F1200.00000
G92 E0
G1 X68.227 Y85.486 F6000.000
G1 E2.00000 F1200.00000
G1 F1800.000
G1 X68.110 Y86.229 E2.01447
G1 X67.787 Y86.862 E2.02814
G1 X67.284 Y87.365 E2.04182
G1 X66.651 Y87.688 E2.05550
G1 X65.949 Y87.799 E2.06918
G1 X65.246 Y87.688 E2.08286
G1 X64.613 Y87.365 E2.09654
G1 X64.110 Y86.862 E2.11021
G1 X63.787 Y86.229 E2.12389
G1 X63.676 Y85.527 E2.13757
G1 X63.787 Y84.824 E2.15125
G1 X64.110 Y84.191 E2.16493
G1 X64.613 Y83.688 E2.17860
G1 X65.246 Y83.365 E2.19228
G1 X65.949 Y83.254 E2.20596
G1 X66.651 Y83.365 E2.21964
G1 X67.284 Y83.688 E2.23332
G1 X67.787 Y84.191 E2.24700
G1 X68.106 Y84.818 E2.26053
G1 X68.217 Y85.427 E2.27244
G1 X67.967 Y85.489 F6000.000
G1 F1800.000
G1 X67.862 Y86.148 E2.28529
G1 X67.577 Y86.709 E2.29740
G1 X67.131 Y87.154 E2.30951
G1 X66.570 Y87.440 E2.32162
G1 X65.949 Y87.539 E2.33373
G1 X65.327 Y87.440 E2.34585
G1 X64.766 Y87.154 E2.35796
G1 X64.321 Y86.709 E2.37007
G1 X64.035 Y86.148 E2.38218
G1 X63.936 Y85.527 E2.39429
G1 X64.035 Y84.905 E2.40640
G1 X64.321 Y84.344 E2.41851
G1 X64.766 Y83.899 E2.43063
G1 X65.327 Y83.613 E2.44274
G1 X65.949 Y83.514 E2.45485
G1 X66.570 Y83.613 E2.46696
G1 X67.131 Y83.899 E2.47907
G1 X67.577 Y84.344 E2.49118
G1 X67.860 Y84.901 E2.50321
G1 X67.956 Y85.430 E2.51355
G1 X67.706 Y85.492 F6000.000
G1 F1800.000
G1 X67.615 Y86.068 E2.52478
G1 X67.366 Y86.556 E2.53532
G1 X66.978 Y86.944 E2.54587
G1 X66.490 Y87.193 E2.55641
G1 X65.949 Y87.278 E2.56695
G1 X65.407 Y87.193 E2.57750
G1 X64.919 Y86.944 E2.58804
G1 X64.531 Y86.556 E2.59859
G1 X64.283 Y86.068 E2.60913
G1 X64.197 Y85.527 E2.61968
G1 X64.283 Y84.985 E2.63022
G1 X64.531 Y84.497 E2.64077
G1 X64.919 Y84.109 E2.65131
G1 X65.407 Y83.860 E2.66186
G1 X65.949 Y83.775 E2.67240
G1 X66.490 Y83.860 E2.68295
G1 X66.978 Y84.109 E2.69349
G1 X67.366 Y84.497 E2.70404
G1 X67.614 Y84.984 E2.71455
G1 X67.695 Y85.433 E2.72333
G1 X68.053 Y85.690 F6000.000
G1 E0.72333 F1200.00000
G92 E0
G1 X61.013 Y77.691 F6000.000
G1 E2.00000 F1200.00000
G1 F1800.000
G1 X78.712 Y77.691 E2.34051
G1 X84.678 Y76.422 E2.45785
G1 X88.774 Y95.502 E2.83329
G1 X78.712 Y93.362 E3.03121
G1 X61.013 Y93.362 E3.37172
G1 X61.013 Y77.751 E3.67207
G1 X60.756 Y77.434 F6000.000
G1 F1800.000
G1 X78.685 Y77.434 E4.01701
G1 X84.875 Y76.117 E4.13876
G1 X89.109 Y95.836 E4.52677
G1 X78.685 Y93.620 E4.73180
G1 X60.756 Y93.620 E5.07674
G1 X60.756 Y77.494 E5.38698
G1 X60.499 Y77.177 F6000.000
G1 F1800.000
G1 X78.658 Y77.177 E5.73634
G1 X85.073 Y75.812 E5.86251
G1 X89.444 Y96.170 E6.26310
G1 X78.658 Y93.877 E6.47524
G1 X60.499 Y93.877 E6.82460
G1 X60.499 Y77.237 E7.14473
G1 X60.886 Y77.275 F6000.000
G1 X61.379 Y77.839 F6000.000
G1 F1800.000
G1 X61.161 Y78.057 E7.15068
G1 X61.161 Y78.421 E7.15768
G1 X61.743 Y77.839 E7.17354
G1 X62.107 Y77.839 E7.18054
G1 X61.161 Y78.785 E7.20630
G1 X61.161 Y79.149 E7.21331
G1 X62.471 Y77.839 E7.24897
G1 X62.835 Y77.839 E7.25598
G1 X61.161 Y79.512 E7.30155
G1 X61.161 Y79.876 E7.30856
G1 X63.198 Y77.839 E7.36404
G1 X63.562 Y77.839 E7.37105
G1 X61.161 Y80.240 E7.43644
G1 X61.161 Y80.604 E7.44344
G1 X63.926 Y77.839 E7.51874
G1 X64.290 Y77.839 E7.52574
G1 X61.161 Y80.968 E7.61095
G1 X61.161 Y81.332 E7.61795
G1 X64.654 Y77.839 E7.71307
G1 X65.018 Y77.839 E7.72007
G1 X61.161 Y81.696 E7.82509
G1 X61.161 Y82.059 E7.83210
G1 X65.382 Y77.839 E7.94702
G1 X65.745 Y77.839 E7.95403
G1 X61.161 Y82.423 E8.07886
G1 X61.161 Y82.787 E8.08587
G1 X66.109 Y77.839 E8.22061
G1 X66.473 Y77.839 E8.22762
G1 X61.161 Y83.151 E8.37227
G1 X61.161 Y83.515 E8.37927
G1 X66.837 Y77.839 E8.53383
G1 X67.201 Y77.839 E8.54083
G1 X61.161 Y83.879 E8.70530
G1 X61.161 Y84.243 E8.71230
G1 X67.565 Y77.839 E8.88667
G1 X67.928 Y77.839 E8.89368
G1 X61.161 Y84.606 E9.07796
G1 X61.161 Y84.970 E9.08496
G1 X68.292 Y77.839 E9.27915
G1 X68.656 Y77.839 E9.28616
G1 X61.161 Y85.334 E9.49025
G1 X61.161 Y85.698 E9.49726
G1 X69.020 Y77.839 E9.71126
G1 X69.384 Y77.839 E9.71826
G1 X61.161 Y86.062 E9.94217
G1 X61.161 Y86.426 E9.94918
G1 X69.748 Y77.839 E10.18299
G1 X70.112 Y77.839 E10.19000
G1 X64.377 Y83.573 E10.34615
G1 X65.093 Y83.221 E10.36151
G1 X70.475 Y77.839 E10.50807
G1 X70.839 Y77.839 E10.51508
G1 X65.525 Y83.153 E10.65977
G1 X65.840 Y83.103 E10.66590
G1 X65.925 Y83.117 E10.66757
G1 X71.203 Y77.839 E10.81128
G1 X71.567 Y77.839 E10.81829
G1 X66.239 Y83.166 E10.96335
G1 X66.554 Y83.216 E10.96947
G1 X71.931 Y77.839 E11.11589
G1 X72.295 Y77.839 E11.12290
G1 X66.811 Y83.323 E11.27223
G1 X67.052 Y83.446 E11.27744
G1 X72.659 Y77.839 E11.43011
G1 X73.022 Y77.839 E11.43712
G1 X67.293 Y83.569 E11.59313
G1 X67.483 Y83.742 E11.59809
G1 X73.386 Y77.839 E11.75883
G1 X73.750 Y77.839 E11.76583
G1 X67.665 Y83.924 E11.93152
G1 X67.847 Y84.106 E11.93647
G1 X74.114 Y77.839 E12.10711
G1 X74.478 Y77.839 E12.11412
G1 X67.983 Y84.333 E12.29096
G1 X68.106 Y84.574 E12.29617
G1 X74.842 Y77.839 E12.47957
G1 X75.206 Y77.839 E12.48657
G1 X68.229 Y84.815 E12.67654
G1 X68.293 Y85.115 E12.68244
G1 X75.569 Y77.839 E12.88058
G1 X75.933 Y77.839 E12.88759
G1 X68.349 Y85.423 E13.09411
G1 X68.379 Y85.592 E13.09742
G1 X68.348 Y85.788 E13.10123
G1 X76.297 Y77.839 E13.31767
G1 X76.661 Y77.839 E13.32468
G1 X68.280 Y86.220 E13.55289
G1 X68.248 Y86.418 E13.55676
G1 X68.044 Y86.820 E13.56543
G1 X77.025 Y77.839 E13.80998
G1 X77.389 Y77.839 E13.81699
G1 X62.013 Y93.214 E14.23566
G1 X62.377 Y93.214 E14.24266
G1 X77.753 Y77.839 E14.66133
G1 X78.116 Y77.839 E14.66834
G1 X62.741 Y93.214 E15.08700
G1 X63.105 Y93.214 E15.09401
G1 X78.480 Y77.839 E15.51268
G1 X78.844 Y77.839 E15.51968
G1 X63.468 Y93.214 E15.93835
G1 X63.832 Y93.214 E15.94536
G1 X79.305 Y77.742 E16.36667
G1 X79.767 Y77.643 E16.37577
G1 X64.196 Y93.214 E16.79975
G1 X64.560 Y93.214 E16.80676
G1 X80.229 Y77.545 E17.23343
G1 X80.692 Y77.447 E17.24252
G1 X64.924 Y93.214 E17.67186
G1 X65.288 Y93.214 E17.67887
G1 X81.154 Y77.348 E18.11089
G1 X81.616 Y77.250 E18.11998
G1 X65.652 Y93.214 E18.55468
G1 X66.015 Y93.214 E18.56168
G1 X82.078 Y77.152 E18.99905
G1 X82.540 Y77.054 E19.00815
G1 X66.379 Y93.214 E19.44820
G1 X66.743 Y93.214 E19.45520
G1 X83.002 Y76.955 E19.89793
G1 X83.464 Y76.857 E19.90702
G1 X67.107 Y93.214 E20.35242
G1 X67.471 Y93.214 E20.35943
G1 X83.927 Y76.759 E20.80750
G1 X84.389 Y76.660 E20.81660
G1 X67.835 Y93.214 E21.26735
G1 X68.199 Y93.214 E21.27436
G1 X84.626 Y76.787 E21.72166
G1 X84.690 Y77.087 E21.72755
G1 X68.562 Y93.214 E22.16670
G1 X68.926 Y93.214 E22.17370
G1 X78.134 Y84.007 E22.42443
G1 X77.814 Y84.635 E22.43800
G1 X77.803 Y84.701 E22.43930
G1 X69.290 Y93.214 E22.67111
G1 X69.654 Y93.214 E22.67811
G1 X77.735 Y85.133 E22.89815
G1 X77.690 Y85.418 E22.90369
G1 X77.707 Y85.525 E22.90579
G1 X70.018 Y93.214 E23.11516
G1 X70.382 Y93.214 E23.12217
G1 X77.757 Y85.839 E23.32299
G1 X77.807 Y86.153 E23.32911
G1 X70.746 Y93.214 E23.52138
G1 X71.109 Y93.214 E23.52838
G1 X77.918 Y86.405 E23.71379
G1 X78.041 Y86.646 E23.71900
G1 X71.473 Y93.214 E23.89784
G1 X71.837 Y93.214 E23.90485
G1 X78.164 Y86.887 E24.07713
G1 X78.341 Y87.074 E24.08208
G1 X72.201 Y93.214 E24.24929
G1 X72.565 Y93.214 E24.25629
G1 X78.523 Y87.256 E24.41854
G1 X78.705 Y87.438 E24.42349
G1 X72.929 Y93.214 E24.58079
G1 X73.292 Y93.214 E24.58779
G1 X78.937 Y87.570 E24.74149
G1 X79.178 Y87.693 E24.74669
G1 X73.656 Y93.214 E24.89705
G1 X74.020 Y93.214 E24.90405
G1 X79.419 Y87.816 E25.05106
G1 X79.727 Y87.872 E25.05708
G1 X74.384 Y93.214 E25.20256
G1 X74.748 Y93.214 E25.20957
G1 X80.041 Y87.921 E25.35369
G1 X80.223 Y87.950 E25.35723
G1 X80.405 Y87.921 E25.36078
G1 X75.112 Y93.214 E25.50491
G1 X75.476 Y93.214 E25.51192
G1 X80.837 Y87.853 E25.65791
G1 X81.005 Y87.826 E25.66118
G1 X81.459 Y87.595 E25.67098
G1 X75.839 Y93.214 E25.82398
G1 X76.203 Y93.214 E25.83099
G1 X86.041 Y83.377 E26.09885
G1 X86.105 Y83.677 E26.10475
G1 X76.567 Y93.214 E26.36445
G1 X76.931 Y93.214 E26.37146
G1 X86.169 Y83.976 E26.62301
G1 X86.234 Y84.276 E26.62891
G1 X77.295 Y93.214 E26.87230
G1 X77.659 Y93.214 E26.87931
G1 X86.298 Y84.575 E27.11454
G1 X86.362 Y84.875 E27.12044
G1 X78.023 Y93.214 E27.34752
G1 X78.386 Y93.214 E27.35453
G1 X86.427 Y85.174 E27.57345
G1 X86.491 Y85.474 E27.57935
G1 X78.729 Y93.236 E27.79069
G1 X79.029 Y93.299 E27.79660
G1 X86.555 Y85.773 E28.00152
G1 X86.619 Y86.073 E28.00742
G1 X79.329 Y93.363 E28.20593
G1 X79.629 Y93.427 E28.21183
G1 X86.684 Y86.373 E28.40392
G1 X86.748 Y86.672 E28.40982
G1 X79.929 Y93.491 E28.59548
G1 X80.229 Y93.555 E28.60139
G1 X86.812 Y86.972 E28.78064
G1 X86.877 Y87.271 E28.78654
G1 X80.530 Y93.618 E28.95937
G1 X80.830 Y93.682 E28.96527
G1 X86.941 Y87.571 E29.13168
G1 X87.005 Y87.870 E29.13758
G1 X81.130 Y93.746 E29.29757
G1 X81.430 Y93.810 E29.30348
G1 X87.070 Y88.170 E29.45705
G1 X87.134 Y88.469 E29.46295
G1 X81.730 Y93.874 E29.61011
G1 X82.030 Y93.937 E29.61601
G1 X87.198 Y88.769 E29.75675
G1 X87.263 Y89.068 E29.76265
G1 X82.330 Y94.001 E29.89696
G1 X82.630 Y94.065 E29.90287
G1 X87.327 Y89.368 E30.03077
G1 X87.391 Y89.667 E30.03667
G1 X82.930 Y94.129 E30.15815
G1 X83.230 Y94.193 E30.16405
G1 X87.456 Y89.967 E30.27911
G1 X87.520 Y90.267 E30.28501
G1 X83.530 Y94.256 E30.39365
G1 X83.830 Y94.320 E30.39956
G1 X87.584 Y90.566 E30.50178
G1 X87.648 Y90.866 E30.50768
G1 X84.130 Y94.384 E30.60349
G1 X84.430 Y94.448 E30.60939
G1 X87.713 Y91.165 E30.69878
G1 X87.777 Y91.465 E30.70468
G1 X84.730 Y94.512 E30.78764
G1 X85.030 Y94.576 E30.79355
G1 X87.841 Y91.764 E30.87010
G1 X87.906 Y92.064 E30.87600
G1 X85.330 Y94.639 E30.94613
G1 X85.630 Y94.703 E30.95203
G1 X87.970 Y92.363 E31.01574
G1 X88.034 Y92.663 E31.02164
G1 X85.930 Y94.767 E31.07893
G1 X86.230 Y94.831 E31.08484
G1 X88.099 Y92.962 E31.13571
G1 X88.163 Y93.262 E31.14161
G1 X86.530 Y94.895 E31.18607
G1 X86.830 Y94.958 E31.19197
G1 X88.227 Y93.562 E31.23001
G1 X88.292 Y93.861 E31.23591
G1 X87.130 Y95.022 E31.26753
G1 X87.431 Y95.086 E31.27343
G1 X88.356 Y94.161 E31.29863
G1 X88.420 Y94.460 E31.30453
G1 X87.731 Y95.150 E31.32331
G1 X88.031 Y95.214 E31.32921
G1 X88.485 Y94.760 E31.34158
G1 X88.549 Y95.059 E31.34747
G1 X88.331 Y95.277 E31.35342
G1 E29.35342 F1200.00000
G92 E0
G1 X82.182 Y86.872 F6000.000
G1 E2.00000 F1200.00000
G1 F1800.000
G1 X85.976 Y83.078 E2.10331
G1 X85.912 Y82.778 E2.10921
G1 X82.440 Y86.250 E2.20375
G1 X82.508 Y85.818 E2.21218
G1 X85.848 Y82.479 E2.30310
G1 X85.783 Y82.179 E2.30900
G1 X82.508 Y85.454 E2.39817
G1 X82.459 Y85.140 E2.40430
G1 X85.719 Y81.879 E2.49307
G1 X85.655 Y81.580 E2.49897
G1 X82.403 Y84.832 E2.58753
G1 X82.280 Y84.591 E2.59273
G1 X85.590 Y81.280 E2.68288
G1 X85.526 Y80.981 E2.68878
G1 X82.157 Y84.350 E2.78052
G1 X82.025 Y84.118 E2.78565
G1 X85.462 Y80.681 E2.87924
G1 X85.398 Y80.382 E2.88514
G1 X81.843 Y83.936 E2.98193
G1 X81.661 Y83.754 E2.98688
G1 X85.333 Y80.082 E3.08687
G1 X85.269 Y79.783 E3.09277
G1 X81.474 Y83.577 E3.19609
G1 X81.233 Y83.454 E3.20130
G1 X85.205 Y79.483 E3.30943
G1 X85.140 Y79.184 E3.31533
G1 X80.992 Y83.331 E3.42828
G1 X80.740 Y83.220 E3.43358
G1 X85.076 Y78.884 E3.55164
G1 X85.012 Y78.584 E3.55753
G1 X80.426 Y83.170 E3.68239
G1 X80.112 Y83.120 E3.68851
G1 X84.947 Y78.285 E3.82017
G1 X84.883 Y77.985 E3.82607
G1 X79.720 Y83.148 E3.96664
G1 X79.288 Y83.216 E3.97507
G1 X84.819 Y77.686 E4.12566
G1 X84.754 Y77.386 E4.13156
G1 X78.594 Y83.547 E4.29931
G1 X78.516 Y83.587 E4.30099
G1 X77.956 Y84.147 E4.31625
G1 X77.916 Y84.225 E4.31793
G1 E2.31793 F1200.00000
G92 E0
G1 X61.161 Y86.426 F6000.000
G1 E2.00000 F1200.00000
G1 F1800.000
G1 X61.161 Y86.790 E2.00701
G1 X63.995 Y83.955 E2.08419
G1 X63.643 Y84.671 E2.09955
G1 X61.161 Y87.153 E2.16715
G1 X61.161 Y87.517 E2.17415
G1 X63.575 Y85.103 E2.23988
G1 X63.525 Y85.418 E2.24601
G1 X63.539 Y85.503 E2.24768
G1 X61.161 Y87.881 E2.31243
G1 X61.161 Y88.245 E2.31943
G1 X63.588 Y85.817 E2.38553
G1 X63.638 Y86.132 E2.39166
G1 X61.161 Y88.609 E2.45911
G1 X61.161 Y88.973 E2.46612
G1 X63.745 Y86.389 E2.53648
G1 X63.868 Y86.630 E2.54169
G1 X61.161 Y89.337 E2.61540
G1 X61.161 Y89.700 E2.62241
G1 X63.991 Y86.871 E2.69946
G1 X64.164 Y87.061 E2.70442
G1 X61.161 Y90.064 E2.78619
G1 X61.161 Y90.428 E2.79319
G1 X64.346 Y87.243 E2.87991
G1 X64.528 Y87.425 E2.88487
G1 X61.161 Y90.792 E2.97654
G1 X61.161 Y91.156 E2.98355
G1 X64.755 Y87.561 E3.08142
G1 X64.996 Y87.684 E3.08663
G1 X61.161 Y91.520 E3.19107
G1 X61.161 Y91.884 E3.19807
G1 X65.237 Y87.807 E3.30907
G1 X65.540 Y87.868 E3.31502
