; generated by Slic3r 1.3.1-dev (Build (Unknown revision)) on 2020-12-03 at 09:28:19

; external perimeters extrusion width = 0.44mm (2.86mm^3/s)
; perimeters extrusion width = 0.56mm (4.14mm^3/s)
; infill extrusion width = 0.50mm (3.66mm^3/s)
; solid infill extrusion width = 0.56mm (3.10mm^3/s)
; top infill extrusion width = 0.45mm (2.44mm^3/s)

M107
G92 E0
;D3D:START:START
T0
M104 S215 T0

G21
G90
M107
T0
G28
G29
M109 T0 S215 T0
G0 F3000
M107
T0
G92 E0
G0 X0 Y149 Z0.1 F3600
G1 Y49 E6.5 F1200
G0 Z1
G92 E0
; Filament gcode

G21 ; set units to millimeters
G90 ; use absolute coordinates
M82 ; use absolute distances for extrusion
G92 E0
G1 Z0.300 F6000.000
G1 E-2.00000 F1200.00000
G92 E0
G1 Z0.800 F6000.000
G1 X51.951 Y51.066 F6000.000
G1 Z0.300 F6000.000
G1 E2.00000 F1200.00000
G1 F1800.000
G1 X53.665 Y49.821 E2.09477
G1 X54.780 Y49.253 E2.15074
G1 X55.263 Y49.030 E2.17452
G1 X71.173 Y42.440 E2.94480
G1 X72.705 Y42.008 E3.01599
G1 X73.941 Y41.812 E3.07197
G1 X76.059 Y41.812 E3.16674
G1 X77.295 Y42.008 E3.22272
G1 X78.827 Y42.440 E3.29391
G1 X94.737 Y49.030 E4.06420
G1 X95.220 Y49.253 E4.08797
G1 X96.335 Y49.821 E4.14395
G1 X98.049 Y51.066 E4.23871
G1 X98.934 Y51.951 E4.29470
G1 X100.179 Y53.665 E4.38946
G1 X100.747 Y54.780 E4.44543
G1 X100.970 Y55.263 E4.46921
G1 X107.560 Y71.173 E5.23949
G1 X107.992 Y72.705 E5.31069
G1 X108.188 Y73.941 E5.36667
G1 X108.188 Y76.059 E5.46144
G1 X107.992 Y77.295 E5.51742
G1 X107.560 Y78.827 E5.58861
G1 X100.970 Y94.737 E6.35889
G1 X100.747 Y95.220 E6.38267
G1 X100.179 Y96.335 E6.43864
G1 X98.934 Y98.049 E6.53341
G1 X98.049 Y98.934 E6.58939
G1 X96.335 Y100.179 E6.68416
G1 X95.220 Y100.747 E6.74013
G1 X94.737 Y100.970 E6.76391
G1 X78.827 Y107.560 E7.53419
G1 X77.295 Y107.992 E7.60538
G1 X76.059 Y108.188 E7.66136
G1 X73.941 Y108.188 E7.75613
G1 X72.705 Y107.992 E7.81211
G1 X71.173 Y107.560 E7.88330
G1 X55.263 Y100.970 E8.65359
G1 X54.780 Y100.747 E8.67736
G1 X53.665 Y100.179 E8.73334
G1 X51.951 Y98.934 E8.82810
G1 X51.066 Y98.049 E8.88409
G1 X49.821 Y96.335 E8.97885
G1 X49.253 Y95.220 E9.03483
G1 X49.030 Y94.737 E9.05860
G1 X42.440 Y78.827 E9.82889
G1 X42.008 Y77.295 E9.90008
G1 X41.812 Y76.059 E9.95606
G1 X41.812 Y73.941 E10.05083
G1 X42.008 Y72.705 E10.10681
G1 X42.440 Y71.173 E10.17800
G1 X49.030 Y55.263 E10.94828
G1 X49.253 Y54.780 E10.97206
G1 X49.821 Y53.665 E11.02803
G1 X51.066 Y51.951 E11.12280
G1 X51.909 Y51.108 E11.17610
G1 X52.224 Y51.339 F6000.000
G1 F1800.000
G1 X53.840 Y50.164 E11.26547
G1 X54.955 Y49.596 E11.32144
G1 X55.410 Y49.386 E11.34386
G1 X71.320 Y42.796 E12.11415
G1 X72.765 Y42.389 E12.18128
G1 X74.001 Y42.193 E12.23726
G1 X75.999 Y42.193 E12.32664
G1 X77.235 Y42.389 E12.38262
G1 X78.680 Y42.796 E12.44976
G1 X94.590 Y49.386 E13.22004
G1 X95.045 Y49.596 E13.24246
G1 X96.160 Y50.164 E13.29843
G1 X97.776 Y51.339 E13.38780
G1 X98.661 Y52.224 E13.44379
G1 X99.836 Y53.840 E13.53315
G1 X100.404 Y54.955 E13.58913
G1 X100.614 Y55.410 E13.61155
G1 X107.204 Y71.320 E14.38183
G1 X107.611 Y72.765 E14.44897
G1 X107.807 Y74.001 E14.50495
G1 X107.807 Y75.999 E14.59433
G1 X107.611 Y77.235 E14.65030
G1 X107.204 Y78.680 E14.71744
G1 X100.614 Y94.590 E15.48773
G1 X100.404 Y95.045 E15.51015
G1 X99.836 Y96.160 E15.56612
G1 X98.661 Y97.776 E15.65549
G1 X97.776 Y98.661 E15.71147
G1 X96.160 Y99.836 E15.80084
G1 X95.045 Y100.404 E15.85682
G1 X94.590 Y100.614 E15.87924
G1 X78.680 Y107.204 E16.64952
G1 X77.235 Y107.611 E16.71666
G1 X75.999 Y107.807 E16.77264
G1 X74.001 Y107.807 E16.86201
G1 X72.765 Y107.611 E16.91799
G1 X71.320 Y107.204 E16.98513
G1 X55.410 Y100.614 E17.75541
G1 X54.955 Y100.404 E17.77784
G1 X53.840 Y99.836 E17.83381
G1 X52.224 Y98.661 E17.92318
G1 X51.339 Y97.776 E17.97916
G1 X50.164 Y96.160 E18.06853
G1 X49.596 Y95.045 E18.12450
G1 X49.386 Y94.590 E18.14693
G1 X42.796 Y78.680 E18.91721
G1 X42.389 Y77.235 E18.98435
G1 X42.193 Y75.999 E19.04033
G1 X42.193 Y74.001 E19.12970
G1 X42.389 Y72.765 E19.18568
G1 X42.796 Y71.320 E19.25282
G1 X49.386 Y55.410 E20.02310
G1 X49.596 Y54.955 E20.04552
G1 X50.164 Y53.840 E20.10150
G1 X51.339 Y52.224 E20.19087
G1 X52.181 Y51.381 E20.24416
G1 E18.24416 F1200.00000
G92 E0
G1 Z0.800 F6000.000
G1 X97.500 Y78.560 F6000.000
G1 Z0.300 F6000.000
G1 E2.00000 F1200.00000
G1 F1800.000
G1 X94.417 Y76.780 E2.15923
G1 X94.417 Y75.168 E2.23134
G1 X94.204 Y75.151 E2.24091
G1 X94.022 Y76.298 E2.29283
G1 X91.359 Y82.727 E2.60411
G1 X90.771 Y83.882 E2.66208
G1 X89.836 Y84.817 E2.72124
G1 X88.659 Y85.416 E2.78028
G1 X88.066 Y85.525 E2.80728
G1 X87.273 Y85.882 E2.84617
G1 X86.493 Y86.493 E2.89049
G1 X85.882 Y87.273 E2.93482
G1 X85.525 Y88.066 E2.97370
G1 X85.416 Y88.659 E3.00070
G1 X84.817 Y89.836 E3.05974
G1 X83.882 Y90.771 E3.11891
G1 X82.727 Y91.359 E3.17688
G1 X76.298 Y94.022 E3.48815
G1 X75.151 Y94.204 E3.54008
G1 X75.168 Y94.417 E3.54964
G1 X76.780 Y94.417 E3.62175
G1 X78.560 Y97.500 E3.78098
G1 X76.780 Y100.583 E3.94021
G1 X73.220 Y100.583 E4.09944
G1 X71.440 Y97.500 E4.25867
G1 X73.220 Y94.417 E4.41790
G1 X74.832 Y94.417 E4.49001
G1 X74.849 Y94.204 E4.49958
G1 X73.702 Y94.022 E4.55151
G1 X67.273 Y91.359 E4.86278
G1 X66.118 Y90.771 E4.92075
G1 X65.183 Y89.836 E4.97992
G1 X64.584 Y88.659 E5.03896
G1 X64.475 Y88.066 E5.06596
G1 X64.118 Y87.273 E5.10484
G1 X63.507 Y86.493 E5.14917
G1 X62.727 Y85.882 E5.19349
G1 X61.934 Y85.525 E5.23237
G1 X61.341 Y85.416 E5.25937
G1 X60.164 Y84.817 E5.31842
G1 X59.229 Y83.882 E5.37758
G1 X58.641 Y82.727 E5.43555
G1 X55.978 Y76.298 E5.74683
G1 X55.796 Y75.151 E5.79875
G1 X55.583 Y75.168 E5.80832
G1 X55.583 Y76.780 E5.88043
G1 X52.500 Y78.560 E6.03966
G1 X49.417 Y76.780 E6.19889
G1 X49.417 Y73.220 E6.35812
G1 X52.500 Y71.440 E6.51735
G1 X55.583 Y73.220 E6.67658
G1 X55.583 Y74.832 E6.74869
G1 X55.796 Y74.849 E6.75826
G1 X55.978 Y73.702 E6.81018
G1 X58.641 Y67.273 E7.12146
G1 X59.229 Y66.118 E7.17943
G1 X60.164 Y65.183 E7.23859
G1 X61.341 Y64.584 E7.29764
G1 X61.934 Y64.475 E7.32464
G1 X62.727 Y64.118 E7.36352
G1 X63.507 Y63.507 E7.40784
G1 X64.118 Y62.727 E7.45217
G1 X64.475 Y61.934 E7.49105
G1 X64.584 Y61.341 E7.51805
G1 X65.183 Y60.164 E7.57709
G1 X66.118 Y59.229 E7.63626
G1 X67.273 Y58.641 E7.69423
G1 X73.702 Y55.978 E8.00550
G1 X74.849 Y55.796 E8.05743
G1 X74.832 Y55.583 E8.06700
G1 X73.220 Y55.583 E8.13911
G1 X71.440 Y52.500 E8.29834
G1 X73.220 Y49.417 E8.45757
G1 X76.780 Y49.417 E8.61680
G1 X78.560 Y52.500 E8.77603
G1 X76.780 Y55.583 E8.93526
G1 X75.168 Y55.583 E9.00737
G1 X75.151 Y55.796 E9.01693
G1 X76.298 Y55.978 E9.06886
G1 X82.727 Y58.641 E9.38014
G1 X83.882 Y59.229 E9.43810
G1 X84.817 Y60.164 E9.49727
G1 X85.416 Y61.341 E9.55631
G1 X85.525 Y61.934 E9.58331
G1 X85.882 Y62.727 E9.62219
G1 X86.493 Y63.507 E9.66652
G1 X87.273 Y64.118 E9.71084
G1 X88.066 Y64.475 E9.74973
G1 X88.659 Y64.584 E9.77673
G1 X89.836 Y65.183 E9.83577
G1 X90.771 Y66.118 E9.89494
G1 X91.359 Y67.273 E9.95290
G1 X94.022 Y73.702 E10.26418
G1 X94.204 Y74.849 E10.31611
G1 X94.417 Y74.832 E10.32567
G1 X94.417 Y73.220 E10.39778
G1 X97.500 Y71.440 E10.55701
G1 X100.583 Y73.220 E10.71624
G1 X100.583 Y76.780 E10.87547
G1 X97.552 Y78.530 E11.03202
G1 X97.300 Y78.906 F6000.000
G1 E9.03202 F1200.00000
G92 E0
G1 Z0.800 F6000.000
G1 X70.550 Y52.500 F6000.000
G1 Z0.300 F6000.000
G1 E2.00000 F1200.00000
G1 F1800.000
G1 X72.390 Y55.687 E2.16460
G1 X66.950 Y57.940 E2.42795
G1 X65.659 Y58.597 E2.49274
G1 X64.551 Y59.706 E2.56283
G1 X63.845 Y61.091 E2.63238
G1 X63.733 Y61.703 E2.66023
G1 X63.453 Y62.325 E2.69073
G1 X62.958 Y62.958 E2.72668
G1 X62.325 Y63.453 E2.76262
G1 X61.703 Y63.733 E2.79313
G1 X61.091 Y63.845 E2.82098
G1 X59.706 Y64.551 E2.89052
G1 X58.597 Y65.659 E2.96062
G1 X57.940 Y66.950 E3.02540
G1 X55.687 Y72.390 E3.28876
G1 X52.500 Y70.550 E3.45336
G1 X50.891 Y71.479 E3.53648
G1 X50.766 Y71.370 E3.54390
G1 X55.322 Y60.370 E4.07646
G1 X55.958 Y61.624 E4.13935
G1 X56.845 Y62.519 E4.19573
G1 X57.963 Y63.100 E4.25211
G1 X59.205 Y63.309 E4.30844
G1 X60.450 Y63.125 E4.36473
G1 X61.575 Y62.563 E4.42098
G1 X62.468 Y61.678 E4.47721
G1 X63.041 Y60.559 E4.53346
G1 X63.239 Y59.316 E4.58974
G1 X63.042 Y58.072 E4.64607
G1 X62.472 Y56.948 E4.70245
G1 X61.585 Y56.052 E4.75883
G1 X60.264 Y55.366 E4.82543
G1 X71.370 Y50.766 E5.36311
G1 X71.479 Y50.891 E5.37053
G1 X70.580 Y52.448 E5.45097
G1 X70.995 Y52.500 F6000.000
G1 F1800.000
G1 X72.943 Y55.875 E5.62528
G1 X67.112 Y58.290 E5.90762
G1 X65.889 Y58.913 E5.96900
G1 X64.867 Y59.935 E6.03363
G1 X64.215 Y61.216 E6.09793
G1 X64.104 Y61.819 E6.12535
G1 X63.786 Y62.526 E6.16004
G1 X63.232 Y63.232 E6.20018
G1 X62.526 Y63.786 E6.24032
G1 X61.819 Y64.104 E6.27501
G1 X61.216 Y64.215 E6.30243
G1 X59.935 Y64.867 E6.36673
G1 X58.913 Y65.889 E6.43136
G1 X58.290 Y67.112 E6.49273
G1 X55.875 Y72.943 E6.77508
G1 X52.500 Y70.995 E6.94939
G1 X50.100 Y72.381 E7.07337
G1 X49.975 Y72.271 E7.08078
G1 X55.399 Y59.177 E7.71474
G1 X55.573 Y59.198 E7.72257
G1 X55.759 Y60.379 E7.77608
G1 X56.274 Y61.395 E7.82702
G1 X57.076 Y62.205 E7.87800
G1 X58.087 Y62.730 E7.92895
G1 X59.209 Y62.919 E7.97984
G1 X60.333 Y62.752 E8.03064
G1 X61.347 Y62.245 E8.08139
G1 X62.153 Y61.447 E8.13211
G1 X62.670 Y60.438 E8.18285
G1 X62.848 Y59.316 E8.23365
G1 X62.671 Y58.192 E8.28454
G1 X62.156 Y57.176 E8.33549
G1 X61.354 Y56.367 E8.38646
G1 X60.343 Y55.842 E8.43741
G1 X59.221 Y55.653 E8.48830
G1 X59.024 Y55.682 E8.49721
G1 X58.969 Y55.485 E8.50636
G1 X72.271 Y49.975 E9.15039
G1 X72.381 Y50.100 E9.15780
G1 X71.025 Y52.448 E9.27910
G1 E7.27910 F1200.00000
G92 E0
G1 Z0.800 F6000.000
G1 X61.839 Y57.405 F6000.000
G1 Z0.300 F6000.000
G1 E2.00000 F1200.00000
G1 F1800.000
G1 X62.299 Y58.313 E2.04553
G1 X62.458 Y59.316 E2.09096
G1 X62.299 Y60.317 E2.13629
G1 X61.838 Y61.217 E2.18152
G1 X61.120 Y61.928 E2.22673
G1 X60.215 Y62.380 E2.27196
G1 X59.213 Y62.529 E2.31729
G1 X58.211 Y62.360 E2.36273
G1 X57.308 Y61.891 E2.40826
G1 X56.591 Y61.167 E2.45382
G1 X56.131 Y60.259 E2.49935
G1 X55.972 Y59.256 E2.54479
G1 X56.131 Y58.255 E2.59011
G1 X56.592 Y57.355 E2.63535
G1 X57.310 Y56.644 E2.68055
G1 X58.215 Y56.192 E2.72579
G1 X59.217 Y56.043 E2.77111
G1 X60.219 Y56.212 E2.81655
G1 X61.122 Y56.681 E2.86208
G1 X61.797 Y57.362 E2.90496
G1 X62.237 Y57.364 F6000.000
G1 E0.90496 F1200.00000
G92 E0
G1 Z0.800 F6000.000
G1 X55.687 Y77.610 F6000.000
G1 Z0.300 F6000.000
G1 E2.00000 F1200.00000
G1 F1800.000
G1 X57.940 Y83.050 E2.26336
G1 X58.597 Y84.341 E2.32814
G1 X59.706 Y85.449 E2.39824
G1 X61.091 Y86.154 E2.46778
G1 X61.703 Y86.267 E2.49563
G1 X62.325 Y86.547 E2.52614
G1 X62.958 Y87.042 E2.56208
G1 X63.453 Y87.675 E2.59803
G1 X63.733 Y88.297 E2.62853
G1 X63.845 Y88.909 E2.65638
G1 X64.551 Y90.294 E2.72593
G1 X65.659 Y91.403 E2.79602
G1 X66.950 Y92.060 E2.86081
G1 X72.390 Y94.313 E3.12417
G1 X70.550 Y97.500 E3.28876
G1 X71.479 Y99.109 E3.37189
G1 X71.370 Y99.234 E3.37930
G1 X60.264 Y94.634 E3.91699
G1 X61.585 Y93.948 E3.98358
G1 X62.472 Y93.052 E4.03997
G1 X63.042 Y91.928 E4.09634
G1 X63.239 Y90.684 E4.15267
G1 X63.041 Y89.441 E4.20896
G1 X62.468 Y88.322 E4.26520
G1 X61.575 Y87.437 E4.32144
G1 X60.450 Y86.875 E4.37769
G1 X59.205 Y86.691 E4.43397
G1 X57.963 Y86.900 E4.49031
G1 X56.845 Y87.481 E4.54668
G1 X55.958 Y88.376 E4.60307
G1 X55.322 Y89.630 E4.66596
G1 X50.766 Y78.630 E5.19852
G1 X50.891 Y78.521 E5.20593
G1 X52.500 Y79.450 E5.28906
G1 X55.635 Y77.640 E5.45097
G1 X55.875 Y77.057 F6000.000
G1 F1800.000
G1 X58.290 Y82.888 E5.73332
G1 X58.913 Y84.111 E5.79470
G1 X59.935 Y85.133 E5.85933
G1 X61.216 Y85.785 E5.92362
G1 X61.819 Y85.896 E5.95104
G1 X62.526 Y86.214 E5.98574
G1 X63.232 Y86.768 E6.02587
G1 X63.786 Y87.474 E6.06601
G1 X64.104 Y88.181 E6.10070
G1 X64.215 Y88.784 E6.12813
G1 X64.867 Y90.065 E6.19242
G1 X65.889 Y91.087 E6.25705
G1 X67.112 Y91.710 E6.31843
G1 X72.943 Y94.125 E6.60078
G1 X70.995 Y97.500 E6.77508
G1 X72.381 Y99.900 E6.89906
G1 X72.271 Y100.025 E6.90648
G1 X58.969 Y94.515 E7.55050
G1 X59.024 Y94.318 E7.55966
G1 X59.221 Y94.347 E7.56857
G1 X60.343 Y94.158 E7.61945
G1 X61.354 Y93.633 E7.67040
G1 X62.156 Y92.824 E7.72138
G1 X62.671 Y91.808 E7.77233
G1 X62.848 Y90.684 E7.82321
G1 X62.670 Y89.562 E7.87402
G1 X62.153 Y88.553 E7.92476
G1 X61.347 Y87.755 E7.97548
G1 X60.333 Y87.248 E8.02622
G1 X59.209 Y87.081 E8.07703
G1 X58.087 Y87.270 E8.12791
G1 X57.076 Y87.795 E8.17887
G1 X56.274 Y88.605 E8.22984
G1 X55.759 Y89.621 E8.28079
G1 X55.573 Y90.802 E8.33429
G1 X55.399 Y90.823 E8.34212
G1 X49.975 Y77.729 E8.97608
G1 X50.100 Y77.619 E8.98350
G1 X52.500 Y79.005 E9.10748
G1 X55.823 Y77.087 E9.27910
G1 E7.27910 F1200.00000
G92 E0
G1 Z0.800 F6000.000
G1 X58.211 Y87.640 F6000.000
G1 Z0.300 F6000.000
G1 E2.00000 F1200.00000
G1 F1800.000
G1 X59.213 Y87.471 E2.04544
G1 X60.215 Y87.620 E2.09077
G1 X61.120 Y88.072 E2.13601
G1 X61.838 Y88.783 E2.18121
G1 X62.299 Y89.683 E2.22644
G1 X62.458 Y90.684 E2.27177
G1 X62.299 Y91.687 E2.31720
G1 X61.839 Y92.595 E2.36273
G1 X61.122 Y93.319 E2.40829
G1 X60.219 Y93.788 E2.45382
G1 X59.217 Y93.957 E2.49926
G1 X58.215 Y93.808 E2.54459
G1 X57.310 Y93.356 E2.58983
G1 X56.592 Y92.645 E2.63503
G1 X56.131 Y91.745 E2.68026
G1 X55.972 Y90.744 E2.72559
G1 X56.131 Y89.741 E2.77103
G1 X56.591 Y88.833 E2.81655
G1 X57.308 Y88.109 E2.86211
G1 X58.158 Y87.668 E2.90496
G1 X58.291 Y87.248 F6000.000
G1 E0.90496 F1200.00000
G92 E0
G1 Z0.800 F6000.000
G1 X87.542 Y90.684 F6000.000
G1 Z0.300 F6000.000
G1 E2.00000 F1200.00000
G1 F1800.000
G1 X87.701 Y89.683 E2.04533
G1 X88.162 Y88.783 E2.09056
G1 X88.880 Y88.072 E2.13576
G1 X89.785 Y87.620 E2.18100
G1 X90.787 Y87.471 E2.22633
G1 X91.789 Y87.640 E2.27177
G1 X92.692 Y88.109 E2.31730
G1 X93.409 Y88.833 E2.36286
G1 X93.869 Y89.741 E2.40838
G1 X94.028 Y90.744 E2.45382
G1 X93.869 Y91.745 E2.49915
G1 X93.408 Y92.645 E2.54438
G1 X92.690 Y93.356 E2.58959
G1 X91.785 Y93.808 E2.63482
G1 X90.783 Y93.957 E2.68015
G1 X89.781 Y93.788 E2.72559
G1 X88.878 Y93.319 E2.77112
G1 X88.161 Y92.595 E2.81668
G1 X87.701 Y91.687 E2.86221
G1 X87.552 Y90.743 E2.90496
G1 X87.196 Y90.484 F6000.000
G1 E0.90496 F1200.00000
G92 E0
G1 Z0.800 F6000.000
G1 X89.736 Y94.634 F6000.000
G1 Z0.300 F6000.000
G1 E2.00000 F1200.00000
G1 F1800.000
G1 X78.630 Y99.234 E2.53768
G1 X78.521 Y99.109 E2.54510
G1 X79.450 Y97.500 E2.62822
G1 X77.610 Y94.313 E2.79282
G1 X83.050 Y92.060 E3.05618
G1 X84.341 Y91.403 E3.12096
G1 X85.449 Y90.294 E3.19106
G1 X86.155 Y88.909 E3.26060
G1 X86.267 Y88.297 E3.28845
G1 X86.547 Y87.675 E3.31896
G1 X87.042 Y87.042 E3.35490
G1 X87.675 Y86.547 E3.39085
G1 X88.297 Y86.267 E3.42135
G1 X88.909 Y86.154 E3.44920
G1 X90.294 Y85.449 E3.51875
G1 X91.403 Y84.341 E3.58884
G1 X92.060 Y83.050 E3.65363
G1 X94.313 Y77.610 E3.91699
G1 X97.500 Y79.450 E4.08158
G1 X99.109 Y78.521 E4.16471
G1 X99.234 Y78.630 E4.17212
G1 X94.678 Y89.630 E4.70468
G1 X94.042 Y88.376 E4.76757
G1 X93.155 Y87.481 E4.82396
G1 X92.037 Y86.900 E4.88033
G1 X90.795 Y86.691 E4.93667
G1 X89.550 Y86.875 E4.99295
G1 X88.425 Y87.437 E5.04920
G1 X87.532 Y88.322 E5.10544
G1 X86.959 Y89.441 E5.16168
G1 X86.761 Y90.684 E5.21797
G1 X86.958 Y91.928 E5.27430
G1 X87.528 Y93.052 E5.33067
G1 X88.415 Y93.948 E5.38706
G1 X89.683 Y94.606 E5.45097
G1 X91.031 Y94.515 F6000.000
G1 F1800.000
G1 X77.729 Y100.025 E6.09500
G1 X77.619 Y99.900 E6.10241
G1 X79.005 Y97.500 E6.22639
G1 X77.057 Y94.125 E6.40070
G1 X82.888 Y91.710 E6.68305
G1 X84.111 Y91.087 E6.74442
G1 X85.133 Y90.065 E6.80905
G1 X85.785 Y88.784 E6.87335
G1 X85.896 Y88.181 E6.90077
G1 X86.214 Y87.474 E6.93547
G1 X86.768 Y86.768 E6.97560
G1 X87.474 Y86.214 E7.01574
G1 X88.181 Y85.896 E7.05043
G1 X88.784 Y85.785 E7.07786
G1 X90.065 Y85.133 E7.14215
G1 X91.087 Y84.111 E7.20678
G1 X91.710 Y82.888 E7.26816
G1 X94.125 Y77.057 E7.55050
G1 X97.500 Y79.005 E7.72481
G1 X99.900 Y77.619 E7.84879
G1 X100.025 Y77.729 E7.85621
G1 X94.601 Y90.823 E8.49016
G1 X94.427 Y90.802 E8.49800
G1 X94.241 Y89.621 E8.55150
G1 X93.726 Y88.605 E8.60245
G1 X92.924 Y87.795 E8.65342
G1 X91.913 Y87.270 E8.70437
G1 X90.791 Y87.081 E8.75526
G1 X89.667 Y87.248 E8.80607
G1 X88.653 Y87.755 E8.85681
G1 X87.847 Y88.553 E8.90753
G1 X87.330 Y89.562 E8.95827
G1 X87.152 Y90.684 E9.00907
G1 X87.329 Y91.808 E9.05996
G1 X87.844 Y92.824 E9.11091
G1 X88.646 Y93.633 E9.16188
G1 X89.657 Y94.158 E9.21283
