; generated by Slic3r 1.3.1-dev (Build (Unknown revision)) on 2020-07-07 at 10:56:01

; external perimeters extrusion width = 0.44mm (2.86mm^3/s)
; perimeters extrusion width = 0.56mm (4.14mm^3/s)
; infill extrusion width = 0.50mm (5.48mm^3/s)
; solid infill extrusion width = 0.56mm (3.10mm^3/s)
; top infill extrusion width = 0.45mm (2.44mm^3/s)

M107
G92 E0
;D3D:START:START
T0
M104 S215 T0

G21
G90
M107
T0
G28
G29
M109 T0 S215 T0
G0 F3000
M107
T0
G92 E0
G0 X0 Y149 Z0.1 F3600
G1 Y49 E6.5 F1200
G0 Z1
G92 E0
; Filament gcode

G21 ; set units to millimeters
G90 ; use absolute coordinates
M82 ; use absolute distances for extrusion
G92 E0
G1 Z0.200 F6000.000
G1 E-2.00000 F1200.00000
G92 E0
G1 X31.348 Y25.257 F6000.000
G1 E2.00000 F1200.00000
G1 F1800.000
G1 X31.805 Y24.750 E2.01314
G1 X32.136 Y24.419 E2.02214
G1 X50.128 Y8.189 E2.48831
G1 X50.498 Y7.889 E2.49748
G1 X51.513 Y7.152 E2.52161
G1 X52.331 Y6.680 E2.53977
G1 X53.477 Y6.170 E2.56390
G1 X54.374 Y5.878 E2.58205
G1 X55.963 Y5.556 E2.61326
G1 X89.042 Y1.302 E3.25488
G1 X89.618 Y1.265 E3.26598
G1 X112.834 Y1.265 E3.71262
G1 X114.681 Y1.660 E3.74898
G1 X116.206 Y2.778 E3.78534
G1 X117.193 Y4.609 E3.82537
G1 X139.193 Y86.580 E5.45819
G1 X139.348 Y87.750 E5.48090
G1 X139.348 Y144.221 E6.56733
G1 X138.952 Y146.069 E6.60368
G1 X137.835 Y147.593 E6.64004
G1 X136.191 Y148.526 E6.67640
G1 X134.833 Y148.735 E6.70283
G1 X111.618 Y148.735 E7.14947
G1 X111.042 Y148.698 E7.16057
G1 X77.963 Y144.444 E7.80219
G1 X76.374 Y144.122 E7.83340
G1 X75.477 Y143.830 E7.85155
G1 X74.331 Y143.320 E7.87568
G1 X73.513 Y142.848 E7.89384
G1 X72.498 Y142.111 E7.91797
G1 X72.128 Y141.811 E7.92714
G1 X54.136 Y125.581 E8.39331
G1 X53.805 Y125.250 E8.40231
G1 X53.348 Y124.743 E8.41545
G1 X34.539 Y103.330 E8.96376
G1 X34.021 Y102.608 E8.98085
G1 X33.440 Y101.575 E9.00367
G1 X11.440 Y55.575 E9.98465
G1 X11.219 Y55.022 E9.99610
G1 X10.961 Y54.227 E10.01219
G1 X10.764 Y53.303 E10.03034
G1 X10.677 Y52.472 E10.04643
G1 X10.677 Y51.528 E10.06458
G1 X10.764 Y50.697 E10.08067
G1 X10.961 Y49.773 E10.09883
G1 X11.219 Y48.978 E10.11492
G1 X11.603 Y48.116 E10.13307
G1 X12.021 Y47.392 E10.14916
G1 X12.539 Y46.670 E10.16626
G1 X31.308 Y25.303 E10.71341
G1 X31.541 Y25.427 F6000.000
G1 F1800.000
G1 X31.996 Y24.922 E10.72649
G1 X32.308 Y24.609 E10.73498
G1 X50.300 Y8.380 E11.20114
G1 X50.649 Y8.097 E11.20979
G1 X51.664 Y7.360 E11.23392
G1 X52.435 Y6.915 E11.25105
G1 X53.581 Y6.405 E11.27518
G1 X54.427 Y6.130 E11.29230
G1 X55.996 Y5.811 E11.32310
G1 X89.075 Y1.556 E11.96472
G1 X89.618 Y1.522 E11.97519
G1 X112.834 Y1.522 E12.42183
G1 X114.625 Y1.917 E12.45713
G1 X116.084 Y3.030 E12.49242
G1 X116.945 Y4.675 E12.52816
G1 X138.945 Y86.647 E14.16098
G1 X139.091 Y87.750 E14.18240
G1 X139.091 Y144.221 E15.26882
G1 X138.695 Y146.013 E15.30412
G1 X137.583 Y147.471 E15.33941
G1 X135.960 Y148.327 E15.37471
G1 X134.833 Y148.478 E15.39657
G1 X111.618 Y148.478 E15.84321
G1 X111.075 Y148.444 E15.85368
G1 X77.996 Y144.189 E16.49530
G1 X76.427 Y143.870 E16.52611
G1 X75.581 Y143.595 E16.54322
G1 X74.435 Y143.085 E16.56735
G1 X73.664 Y142.640 E16.58448
G1 X72.649 Y141.903 E16.60861
G1 X72.300 Y141.620 E16.61726
G1 X54.308 Y125.391 E17.08343
G1 X53.996 Y125.078 E17.09191
G1 X53.541 Y124.573 E17.10500
G1 X34.732 Y103.161 E17.65330
G1 X34.244 Y102.480 E17.66943
G1 X33.672 Y101.464 E17.69185
G1 X11.672 Y55.464 E18.67283
G1 X11.464 Y54.942 E18.68363
G1 X11.205 Y54.147 E18.69972
G1 X11.020 Y53.277 E18.71684
G1 X10.933 Y52.445 E18.73293
G1 X10.933 Y51.555 E18.75005
G1 X11.020 Y50.723 E18.76614
G1 X11.205 Y49.853 E18.78326
G1 X11.464 Y49.058 E18.79935
G1 X11.826 Y48.244 E18.81647
G1 X12.244 Y47.520 E18.83256
G1 X12.732 Y46.839 E18.84868
G1 X31.501 Y25.472 E19.39583
G1 E17.39583 F1200.00000
G92 E0
G1 X130.896 Y137.444 F6000.000
G1 E2.00000 F1200.00000
G1 F1800.000
G1 X131.311 Y137.181 E2.00946
G1 X131.777 Y137.029 E2.01889
G1 X132.041 Y136.996 E2.02401
G1 X132.292 Y136.996 E2.02883
G1 X132.543 Y137.028 E2.03370
G1 X132.787 Y137.090 E2.03854
G1 X133.033 Y137.188 E2.04364
G1 X133.448 Y137.451 E2.05310
G1 X133.784 Y137.809 E2.06253
G1 X133.926 Y138.032 E2.06762
G1 X134.034 Y138.261 E2.07248
G1 X134.116 Y138.513 E2.07759
G1 X134.177 Y139.000 E2.08703
G1 X134.116 Y139.487 E2.09647
G1 X134.034 Y139.739 E2.10158
G1 X133.920 Y139.979 E2.10669
G1 X133.639 Y140.366 E2.11587
G1 X133.437 Y140.556 E2.12121
G1 X133.022 Y140.819 E2.13067
G1 X132.556 Y140.971 E2.14011
G1 X132.292 Y141.004 E2.14522
G1 X132.041 Y141.004 E2.15005
G1 X131.790 Y140.972 E2.15491
G1 X131.546 Y140.910 E2.15976
G1 X131.300 Y140.812 E2.16485
G1 X130.885 Y140.549 E2.17431
G1 X130.549 Y140.191 E2.18374
G1 X130.407 Y139.968 E2.18883
G1 X130.299 Y139.739 E2.19370
G1 X130.217 Y139.487 E2.19880
G1 X130.156 Y139.000 E2.20825
G1 X130.217 Y138.513 E2.21769
G1 X130.299 Y138.261 E2.22279
G1 X130.413 Y138.021 E2.22790
G1 X130.694 Y137.634 E2.23709
G1 X130.852 Y137.485 E2.24127
G1 X131.054 Y137.648 F6000.000
G1 F1800.000
G1 X131.421 Y137.416 E2.24963
G1 X131.834 Y137.281 E2.25798
G1 X132.057 Y137.253 E2.26231
G1 X132.276 Y137.253 E2.26652
G1 X132.495 Y137.281 E2.27076
G1 X132.707 Y137.335 E2.27498
G1 X132.916 Y137.418 E2.27930
G1 X133.283 Y137.651 E2.28766
G1 X133.580 Y137.967 E2.29601
G1 X133.700 Y138.157 E2.30033
G1 X133.794 Y138.356 E2.30456
G1 X133.864 Y138.569 E2.30888
G1 X133.918 Y139.000 E2.31724
G1 X133.864 Y139.431 E2.32559
G1 X133.794 Y139.644 E2.32991
G1 X133.698 Y139.848 E2.33424
G1 X133.446 Y140.195 E2.34250
G1 X133.279 Y140.352 E2.34690
G1 X132.912 Y140.584 E2.35526
G1 X132.499 Y140.719 E2.36361
G1 X132.276 Y140.747 E2.36794
G1 X132.057 Y140.747 E2.37215
G1 X131.838 Y140.719 E2.37639
G1 X131.626 Y140.665 E2.38061
G1 X131.417 Y140.582 E2.38493
G1 X131.050 Y140.349 E2.39329
G1 X130.753 Y140.033 E2.40163
G1 X130.633 Y139.843 E2.40595
G1 X130.539 Y139.644 E2.41019
G1 X130.469 Y139.431 E2.41451
G1 X130.415 Y139.000 E2.42286
G1 X130.469 Y138.569 E2.43121
G1 X130.539 Y138.356 E2.43554
G1 X130.635 Y138.152 E2.43986
G1 X130.887 Y137.805 E2.44812
G1 X131.010 Y137.689 E2.45137
G1 X130.996 Y137.252 F6000.000
G1 E0.45137 F1200.00000
G92 E0
G1 X124.368 Y138.457 F6000.000
G1 E2.00000 F1200.00000
G1 F1800.000
G1 X124.436 Y139.000 E2.01053
G1 X124.368 Y139.543 E2.02106
G1 X124.273 Y139.834 E2.02695
G1 X124.142 Y140.111 E2.03284
G1 X123.833 Y140.536 E2.04295
G1 X123.596 Y140.760 E2.04923
G1 X123.133 Y141.053 E2.05978
G1 X122.612 Y141.223 E2.07031
G1 X122.308 Y141.261 E2.07620
G1 X122.025 Y141.261 E2.08165
G1 X121.742 Y141.225 E2.08714
G1 X121.467 Y141.154 E2.09261
G1 X121.183 Y141.042 E2.09848
G1 X120.720 Y140.749 E2.10903
G1 X120.346 Y140.349 E2.11955
G1 X120.182 Y140.092 E2.12542
G1 X120.060 Y139.834 E2.13090
G1 X119.965 Y139.543 E2.13680
G1 X119.897 Y139.000 E2.14733
G1 X119.965 Y138.457 E2.15786
G1 X120.060 Y138.166 E2.16375
G1 X120.191 Y137.889 E2.16964
G1 X120.500 Y137.464 E2.17975
G1 X120.737 Y137.240 E2.18603
G1 X121.200 Y136.947 E2.19658
G1 X121.721 Y136.777 E2.20711
G1 X122.025 Y136.739 E2.21300
G1 X122.308 Y136.739 E2.21845
G1 X122.591 Y136.775 E2.22394
G1 X122.866 Y136.845 E2.22940
G1 X123.150 Y136.958 E2.23528
G1 X123.613 Y137.251 E2.24583
G1 X123.987 Y137.651 E2.25635
G1 X124.151 Y137.908 E2.26221
G1 X124.273 Y138.166 E2.26770
G1 X124.349 Y138.400 E2.27244
G1 X124.116 Y138.513 F6000.000
G1 F1800.000
G1 X124.177 Y139.000 E2.28188
G1 X124.116 Y139.487 E2.29132
G1 X124.034 Y139.739 E2.29643
G1 X123.920 Y139.979 E2.30154
G1 X123.639 Y140.366 E2.31072
G1 X123.437 Y140.556 E2.31606
G1 X123.022 Y140.819 E2.32552
G1 X122.556 Y140.971 E2.33496
G1 X122.292 Y141.004 E2.34007
G1 X122.041 Y141.004 E2.34490
G1 X121.790 Y140.972 E2.34976
G1 X121.546 Y140.910 E2.35461
G1 X121.300 Y140.812 E2.35970
G1 X120.885 Y140.549 E2.36916
G1 X120.549 Y140.191 E2.37859
G1 X120.407 Y139.968 E2.38369
G1 X120.299 Y139.739 E2.38855
G1 X120.217 Y139.487 E2.39366
G1 X120.156 Y139.000 E2.40310
G1 X120.217 Y138.513 E2.41254
G1 X120.299 Y138.261 E2.41765
G1 X120.413 Y138.021 E2.42275
G1 X120.694 Y137.634 E2.43194
G1 X120.896 Y137.444 E2.43728
G1 X121.311 Y137.181 E2.44673
G1 X121.777 Y137.029 E2.45617
G1 X122.041 Y136.996 E2.46128
G1 X122.292 Y136.996 E2.46611
G1 X122.543 Y137.028 E2.47098
G1 X122.787 Y137.090 E2.47582
G1 X123.033 Y137.188 E2.48092
G1 X123.448 Y137.451 E2.49037
G1 X123.784 Y137.809 E2.49981
G1 X123.926 Y138.032 E2.50490
G1 X124.034 Y138.261 E2.50976
G1 X124.097 Y138.456 E2.51371
G1 X123.864 Y138.569 F6000.000
G1 F1800.000
G1 X123.918 Y139.000 E2.52206
G1 X123.864 Y139.431 E2.53042
G1 X123.794 Y139.644 E2.53474
G1 X123.698 Y139.848 E2.53906
G1 X123.446 Y140.195 E2.54732
G1 X123.279 Y140.352 E2.55173
G1 X122.912 Y140.584 E2.56009
G1 X122.499 Y140.719 E2.56843
G1 X122.276 Y140.747 E2.57277
G1 X122.057 Y140.747 E2.57698
G1 X121.838 Y140.719 E2.58122
G1 X121.626 Y140.665 E2.58544
G1 X121.417 Y140.582 E2.58976
G1 X121.050 Y140.349 E2.59812
G1 X120.753 Y140.033 E2.60646
G1 X120.633 Y139.843 E2.61078
G1 X120.539 Y139.644 E2.61502
G1 X120.469 Y139.431 E2.61934
G1 X120.415 Y139.000 E2.62769
G1 X120.469 Y138.569 E2.63604
G1 X120.539 Y138.356 E2.64037
G1 X120.635 Y138.152 E2.64469
G1 X120.887 Y137.805 E2.65295
G1 X121.054 Y137.648 E2.65736
G1 X121.421 Y137.416 E2.66572
G1 X121.834 Y137.281 E2.67406
G1 X122.057 Y137.253 E2.67840
G1 X122.276 Y137.253 E2.68260
G1 X122.495 Y137.281 E2.68685
G1 X122.707 Y137.335 E2.69106
G1 X122.916 Y137.418 E2.69539
G1 X123.283 Y137.651 E2.70375
G1 X123.580 Y137.967 E2.71209
G1 X123.700 Y138.157 E2.71641
G1 X123.845 Y138.512 E2.72380
G1 X124.244 Y138.693 F6000.000
G1 E0.72380 F1200.00000
G92 E0
G1 X114.436 Y139.000 F6000.000
G1 E2.00000 F1200.00000
G1 F1800.000
G1 X114.368 Y139.543 E2.01053
G1 X114.273 Y139.834 E2.01642
G1 X114.142 Y140.111 E2.02231
G1 X113.833 Y140.536 E2.03242
G1 X113.596 Y140.760 E2.03870
G1 X113.133 Y141.053 E2.04925
G1 X112.612 Y141.223 E2.05978
G1 X112.308 Y141.261 E2.06567
G1 X112.024 Y141.261 E2.07113
G1 X111.742 Y141.225 E2.07660
G1 X111.466 Y141.155 E2.08208
G1 X111.202 Y141.050 E2.08755
G1 X110.953 Y140.913 E2.09302
G1 X110.723 Y140.746 E2.09850
G1 X110.515 Y140.551 E2.10397
G1 X110.334 Y140.332 E2.10945
G1 X110.181 Y140.091 E2.11492
G1 X110.060 Y139.834 E2.12039
G1 X109.972 Y139.563 E2.12586
G1 X109.919 Y139.284 E2.13134
G1 X109.901 Y139.000 E2.13681
G1 X109.919 Y138.716 E2.14229
G1 X109.972 Y138.437 E2.14776
G1 X110.074 Y138.124 E2.15407
G1 X110.322 Y137.682 E2.16384
G1 X110.515 Y137.449 E2.16965
G1 X110.723 Y137.254 E2.17513
G1 X110.953 Y137.087 E2.18060
G1 X111.202 Y136.950 E2.18607
G1 X111.466 Y136.845 E2.19154
G1 X111.742 Y136.775 E2.19702
G1 X112.024 Y136.739 E2.20250
G1 X112.308 Y136.739 E2.20795
G1 X112.591 Y136.775 E2.21344
G1 X112.866 Y136.845 E2.21891
G1 X113.150 Y136.958 E2.22478
G1 X113.613 Y137.251 E2.23533
G1 X113.987 Y137.651 E2.24586
G1 X114.151 Y137.908 E2.25172
G1 X114.273 Y138.166 E2.25721
G1 X114.368 Y138.457 E2.26310
G1 X114.428 Y138.940 E2.27248
G1 X114.177 Y139.000 F6000.000
G1 F1800.000
G1 X114.116 Y139.487 E2.28192
G1 X114.034 Y139.739 E2.28703
G1 X113.920 Y139.979 E2.29213
G1 X113.639 Y140.366 E2.30132
G1 X113.437 Y140.556 E2.30666
G1 X113.022 Y140.819 E2.31611
G1 X112.556 Y140.971 E2.32555
G1 X112.292 Y141.004 E2.33067
G1 X112.040 Y141.004 E2.33550
G1 X111.790 Y140.972 E2.34036
G1 X111.546 Y140.910 E2.34521
G1 X111.312 Y140.817 E2.35006
G1 X111.091 Y140.695 E2.35491
G1 X110.887 Y140.547 E2.35976
G1 X110.703 Y140.375 E2.36461
G1 X110.542 Y140.180 E2.36946
G1 X110.407 Y139.967 E2.37431
G1 X110.300 Y139.739 E2.37917
G1 X110.222 Y139.499 E2.38401
G1 X110.174 Y139.252 E2.38887
G1 X110.159 Y139.000 E2.39372
G1 X110.174 Y138.748 E2.39857
G1 X110.222 Y138.501 E2.40342
G1 X110.310 Y138.228 E2.40893
G1 X110.535 Y137.828 E2.41776
G1 X110.703 Y137.625 E2.42282
G1 X110.887 Y137.453 E2.42767
G1 X111.091 Y137.305 E2.43252
G1 X111.312 Y137.183 E2.43737
G1 X111.546 Y137.090 E2.44222
G1 X111.790 Y137.028 E2.44708
G1 X112.040 Y136.996 E2.45193
G1 X112.292 Y136.996 E2.45677
G1 X112.543 Y137.028 E2.46163
G1 X112.787 Y137.090 E2.46648
G1 X113.033 Y137.188 E2.47157
G1 X113.448 Y137.451 E2.48103
G1 X113.784 Y137.809 E2.49046
G1 X113.926 Y138.032 E2.49555
G1 X114.034 Y138.261 E2.50041
G1 X114.116 Y138.513 E2.50552
G1 X114.169 Y138.940 E2.51381
G1 X113.918 Y139.000 F6000.000
G1 F1800.000
G1 X113.864 Y139.431 E2.52216
G1 X113.794 Y139.644 E2.52648
G1 X113.698 Y139.848 E2.53081
G1 X113.446 Y140.195 E2.53907
G1 X113.279 Y140.352 E2.54347
G1 X112.912 Y140.584 E2.55183
G1 X112.499 Y140.719 E2.56018
G1 X112.276 Y140.747 E2.56451
G1 X112.057 Y140.747 E2.56873
G1 X111.839 Y140.719 E2.57296
G1 X111.626 Y140.665 E2.57719
G1 X111.421 Y140.584 E2.58142
G1 X111.229 Y140.478 E2.58565
G1 X111.051 Y140.349 E2.58987
G1 X110.891 Y140.198 E2.59410
G1 X110.750 Y140.029 E2.59833
G1 X110.633 Y139.843 E2.60256
G1 X110.539 Y139.644 E2.60679
G1 X110.471 Y139.435 E2.61102
G1 X110.430 Y139.219 E2.61525
G1 X110.416 Y139.000 E2.61948
G1 X110.430 Y138.781 E2.62370
G1 X110.471 Y138.565 E2.62793
G1 X110.547 Y138.332 E2.63264
G1 X110.748 Y137.974 E2.64054
G1 X110.891 Y137.802 E2.64484
G1 X111.051 Y137.651 E2.64907
G1 X111.229 Y137.522 E2.65330
G1 X111.421 Y137.416 E2.65753
G1 X111.626 Y137.335 E2.66176
G1 X111.839 Y137.281 E2.66599
G1 X112.057 Y137.253 E2.67021
G1 X112.276 Y137.253 E2.67443
G1 X112.495 Y137.281 E2.67867
G1 X112.707 Y137.335 E2.68289
G1 X112.916 Y137.418 E2.68721
G1 X113.283 Y137.651 E2.69558
G1 X113.580 Y137.967 E2.70392
G1 X113.700 Y138.157 E2.70824
G1 X113.794 Y138.356 E2.71247
G1 X113.864 Y138.569 E2.71680
G1 X113.910 Y138.940 E2.72399
G1 X114.260 Y139.207 F6000.000
G1 E0.72399 F1200.00000
G92 E0
G1 X113.288 Y135.661 F6000.000
G1 E2.00000 F1200.00000
G1 F1800.000
G1 X89.009 Y135.661 E2.46710
G1 X88.611 Y135.532 E2.47514
G1 X88.357 Y135.347 E2.48120
G1 X88.089 Y134.980 E2.48994
G1 X87.988 Y134.500 E2.49937
G1 X88.089 Y134.020 E2.50880
G1 X88.334 Y133.684 E2.51680
G1 X100.411 Y122.613 E2.83200
G1 X100.611 Y122.468 E2.83676
G1 X101.043 Y122.327 E2.84550
G1 X101.531 Y122.379 E2.85493
G1 X101.896 Y122.590 E2.86305
G1 X114.000 Y133.684 E3.17893
G1 X114.244 Y134.021 E3.18693
G1 X114.345 Y134.500 E3.19635
G1 X114.244 Y134.979 E3.20577
G1 X113.956 Y135.376 E3.21521
G1 X113.562 Y135.603 E3.22396
G1 X113.347 Y135.649 E3.22820
G1 X113.261 Y135.404 F6000.000
G1 F1800.000
G1 X89.050 Y135.404 E3.69399
G1 X88.729 Y135.300 E3.70047
G1 X88.541 Y135.163 E3.70496
G1 X88.329 Y134.873 E3.71187
G1 X88.250 Y134.500 E3.71920
G1 X88.329 Y134.127 E3.72653
G1 X88.527 Y133.856 E3.73298
G1 X100.574 Y122.813 E4.04740
G1 X100.729 Y122.700 E4.05109
G1 X101.071 Y122.589 E4.05800
G1 X101.450 Y122.629 E4.06533
G1 X101.743 Y122.798 E4.07185
G1 X113.807 Y133.856 E4.38669
G1 X114.004 Y134.128 E4.39314
G1 X114.083 Y134.500 E4.40046
G1 X114.004 Y134.872 E4.40778
G1 X113.780 Y135.181 E4.41511
G1 X113.469 Y135.360 E4.42203
G1 X113.320 Y135.392 E4.42496
G1 X113.604 Y134.986 F6000.000
G1 F1800.000
G1 X113.376 Y135.117 E4.43003
G1 X113.234 Y135.147 E4.43282
G1 X89.090 Y135.147 E4.89731
G1 X88.848 Y135.068 E4.90222
G1 X88.725 Y134.979 E4.90515
G1 X88.570 Y134.766 E4.91022
G1 X88.513 Y134.500 E4.91545
G1 X88.570 Y134.234 E4.92067
G1 X88.719 Y134.028 E4.92558
G1 X100.737 Y123.012 E5.23921
G1 X100.848 Y122.932 E5.24185
G1 X101.098 Y122.850 E5.24692
G1 X101.368 Y122.879 E5.25214
G1 X101.590 Y123.007 E5.25707
G1 X113.614 Y134.028 E5.57087
G1 X113.764 Y134.234 E5.57577
G1 X113.820 Y134.500 E5.58100
G1 X113.764 Y134.766 E5.58622
G1 X113.639 Y134.937 E5.59029
G1 X113.659 Y135.243 F6000.000
G1 E3.59029 F1200.00000
G92 E0
G1 X105.380 Y120.913 F6000.000
G1 E2.00000 F1200.00000
G1 F1800.000
G1 X105.131 Y121.050 E2.00547
G1 X104.867 Y121.155 E2.01094
G1 X104.591 Y121.225 E2.01642
G1 X104.309 Y121.261 E2.02189
G1 X104.024 Y121.261 E2.02736
G1 X103.742 Y121.225 E2.03284
G1 X103.466 Y121.155 E2.03831
G1 X103.202 Y121.050 E2.04379
G1 X102.953 Y120.913 E2.04926
G1 X102.723 Y120.746 E2.05473
G1 X102.515 Y120.551 E2.06021
G1 X102.334 Y120.332 E2.06568
G1 X102.181 Y120.091 E2.07115
G1 X102.060 Y119.834 E2.07663
G1 X101.972 Y119.563 E2.08210
G1 X101.919 Y119.284 E2.08757
G1 X101.901 Y119.000 E2.09305
