; generated by Slic3r 1.3.0 on 2021-03-05 at 23:15:25

; external perimeters extrusion width = 0.44mm (2.86mm^3/s)
; perimeters extrusion width = 0.56mm (4.14mm^3/s)
; infill extrusion width = 0.50mm (5.48mm^3/s)
; solid infill extrusion width = 0.56mm (3.10mm^3/s)
; top infill extrusion width = 0.45mm (2.44mm^3/s)

M107
;D3D:START:START
T0
M104 S215 T0

G21
G90
M107
T0
G28
G29
M109 T0 S215 T0
G0 F3000
M107
T0
G92 E0
G0 X0 Y149 Z0.1 F3600
G1 Y49 E6.5 F1200
G0 Z1
G92 E0
; Filament gcode

G21 ; set units to millimeters
G90 ; use absolute coordinates
M82 ; use absolute distances for extrusion
G92 E0
G1 Z0.300 F6000.000
G1 E-2.00000 F1200.00000
G92 E0
G1 X30.616 Y29.199 F6000.000
G1 E2.00000 F1200.00000
G1 F1800
G1 X32.371 Y28.364 E2.08693
G1 X33.500 Y28.229 E2.13779
G1 X94.500 Y28.229 E4.86631
G1 X97.062 Y28.975 E4.98565
G1 X119.062 Y42.975 E6.15206
G1 X120.454 Y44.330 E6.23899
G1 X121.247 Y46.517 E6.34305
G1 X124.652 Y80.013 E7.84904
G1 X124.745 Y81.097 E7.89767
G1 X124.769 Y82.150 E7.94480
G1 X124.726 Y83.202 E7.99191
G1 X124.652 Y83.987 E8.02715
G1 X121.247 Y117.483 E9.53314
G1 X120.661 Y119.336 E9.62007
G1 X119.384 Y120.801 E9.70700
G1 X117.629 Y121.636 E9.79393
G1 X116.500 Y121.771 E9.84479
G1 X55.500 Y121.771 E12.57331
G1 X52.938 Y121.025 E12.69265
G1 X30.938 Y107.025 E13.85906
G1 X29.546 Y105.670 E13.94599
G1 X28.753 Y103.483 E14.05005
G1 X25.348 Y69.987 E15.55604
G1 X25.255 Y68.903 E15.60467
G1 X25.231 Y67.850 E15.65180
G1 X25.274 Y66.798 E15.69891
G1 X25.348 Y66.013 E15.73415
G1 X28.753 Y32.517 E17.24014
G1 X29.339 Y30.664 E17.32707
G1 X30.577 Y29.244 E17.41132
G1 X30.975 Y29.415 F6000.000
G1 F1800
G1 X33.500 Y28.614 E17.52982
G1 X94.500 Y28.614 E20.25834
G1 X96.855 Y29.300 E20.36803
G1 X118.855 Y43.300 E21.53444
G1 X120.178 Y44.611 E21.61774
G1 X120.863 Y46.556 E21.71002
G1 X124.269 Y80.052 E23.21601
G1 X124.360 Y81.109 E23.26343
G1 X124.383 Y82.138 E23.30948
G1 X124.342 Y83.166 E23.35551
G1 X124.269 Y83.948 E23.39062
G1 X120.863 Y117.444 E24.89661
G1 X120.286 Y119.214 E24.97992
G1 X119.025 Y120.585 E25.06322
G1 X116.500 Y121.386 E25.18172
G1 X55.500 Y121.386 E27.91024
G1 X53.145 Y120.700 E28.01993
G1 X31.145 Y106.700 E29.18634
G1 X29.822 Y105.389 E29.26965
G1 X29.137 Y103.444 E29.36192
G1 X25.731 Y69.948 E30.86792
G1 X25.640 Y68.891 E30.91534
G1 X25.617 Y67.862 E30.96139
G1 X25.658 Y66.834 E31.00741
G1 X25.731 Y66.052 E31.04253
G1 X29.137 Y32.556 E32.54852
G1 X29.714 Y30.786 E32.63182
G1 X30.934 Y29.459 E32.71245
G1 E30.71245 F1200.00000
G92 E0
G1 X55.840 Y82.221 F6000.000
G1 E2.00000 F1200.00000
G1 F1800
G1 X56.322 Y82.534 E2.02571
G1 X56.682 Y82.978 E2.05128
G1 X56.887 Y83.512 E2.07686
G1 X56.917 Y84.083 E2.10244
G1 X56.769 Y84.635 E2.12802
G1 X56.457 Y85.115 E2.15360
G1 X56.013 Y85.475 E2.17918
G1 X55.479 Y85.680 E2.20476
G1 X54.908 Y85.710 E2.23034
G1 X54.355 Y85.562 E2.25592
G1 X53.876 Y85.250 E2.28150
G1 X53.516 Y84.806 E2.30708
G1 X53.311 Y84.272 E2.33266
G1 X53.281 Y83.701 E2.35824
G1 X53.429 Y83.149 E2.38382
G1 X53.741 Y82.669 E2.40939
G1 X54.185 Y82.309 E2.43498
G1 X54.719 Y82.104 E2.46055
G1 X55.246 Y82.077 E2.48414
G1 X55.782 Y82.207 E2.50882
G1 X56.163 Y81.985 F6000.000
G1 E0.50882 F1200.00000
G92 E0
G1 X71.113 Y80.488 F6000.000
G1 E2.00000 F1200.00000
G1 F1800
G1 X71.083 Y79.917 E2.02558
G1 X71.231 Y79.365 E2.05116
G1 X71.543 Y78.885 E2.07674
G1 X71.987 Y78.525 E2.10232
G1 X72.521 Y78.320 E2.12790
G1 X73.048 Y78.293 E2.15149
G1 X73.642 Y78.437 E2.17885
G1 X74.124 Y78.750 E2.20455
G1 X74.484 Y79.194 E2.23013
G1 X74.689 Y79.728 E2.25571
G1 X74.719 Y80.299 E2.28129
G1 X74.571 Y80.851 E2.30687
G1 X74.259 Y81.331 E2.33245
G1 X73.815 Y81.691 E2.35803
G1 X73.281 Y81.896 E2.38361
G1 X72.710 Y81.926 E2.40919
G1 X72.158 Y81.778 E2.43477
G1 X71.678 Y81.466 E2.46034
G1 X71.318 Y81.022 E2.48592
G1 X71.135 Y80.544 E2.50882
G1 X70.733 Y80.364 F6000.000
G1 E0.50882 F1200.00000
G92 E0
G1 X64.795 Y110.178 F6000.000
G1 E2.00000 F1200.00000
G1 F1800
G1 X65.533 Y110.555 E2.03706
G1 X66.110 Y111.132 E2.07356
G1 X66.481 Y111.859 E2.11007
G1 X66.609 Y112.665 E2.14658
G1 X66.481 Y113.471 E2.18308
G1 X66.110 Y114.198 E2.21959
G1 X65.533 Y114.775 E2.25610
G1 X64.806 Y115.146 E2.29261
G1 X64.000 Y115.274 E2.32911
G1 X63.194 Y115.146 E2.36562
G1 X62.467 Y114.775 E2.40213
G1 X61.890 Y114.198 E2.43863
G1 X61.519 Y113.471 E2.47514
G1 X61.391 Y112.665 E2.51165
G1 X61.519 Y111.859 E2.54815
G1 X61.890 Y111.132 E2.58466
G1 X62.467 Y110.555 E2.62116
G1 X63.194 Y110.184 E2.65768
G1 X63.947 Y110.065 E2.69177
G1 X64.736 Y110.170 E2.72738
G1 X64.679 Y110.552 F6000.000
G1 F1800
G1 X65.304 Y110.870 E2.75876
G1 X65.795 Y111.361 E2.78980
G1 X66.110 Y111.980 E2.82084
G1 X66.218 Y112.665 E2.85189
G1 X66.110 Y113.350 E2.88293
G1 X65.795 Y113.969 E2.91397
G1 X65.304 Y114.460 E2.94501
G1 X64.685 Y114.775 E2.97606
G1 X64.000 Y114.883 E3.00710
G1 X63.315 Y114.775 E3.03814
G1 X62.696 Y114.460 E3.06919
G1 X62.205 Y113.969 E3.10023
G1 X61.890 Y113.350 E3.13128
G1 X61.782 Y112.665 E3.16232
G1 X61.890 Y111.980 E3.19336
G1 X62.205 Y111.361 E3.22441
G1 X62.696 Y110.870 E3.25544
G1 X63.315 Y110.555 E3.28649
G1 X63.951 Y110.454 E3.31533
G1 X64.619 Y110.544 E3.34548
G1 X64.562 Y110.925 F6000.000
G1 F1800
G1 X65.074 Y111.186 E3.37118
G1 X65.479 Y111.591 E3.39676
G1 X65.738 Y112.100 E3.42234
G1 X65.828 Y112.665 E3.44792
G1 X65.738 Y113.230 E3.47350
G1 X65.479 Y113.739 E3.49908
G1 X65.074 Y114.144 E3.52465
G1 X64.565 Y114.403 E3.55024
G1 X64.000 Y114.493 E3.57581
G1 X63.435 Y114.403 E3.60139
G1 X62.926 Y114.144 E3.62698
G1 X62.521 Y113.739 E3.65255
G1 X62.262 Y113.230 E3.67813
G1 X62.172 Y112.665 E3.70371
G1 X62.262 Y112.100 E3.72929
G1 X62.521 Y111.591 E3.75487
G1 X62.926 Y111.186 E3.78045
G1 X63.435 Y110.927 E3.80603
G1 X63.956 Y110.844 E3.82962
G1 X64.503 Y110.917 E3.85430
G1 X64.860 Y110.658 F6000.000
G1 E1.85430 F1200.00000
G92 E0
G1 X64.000 Y101.109 F6000.000
G1 E2.00000 F1200.00000
G1 F1800
G1 X63.194 Y100.981 E2.03651
G1 X62.467 Y100.610 E2.07302
G1 X62.311 Y100.455 E2.08286
G1 X61.890 Y100.033 E2.10952
G1 X61.519 Y99.306 E2.14603
G1 X61.391 Y98.500 E2.18254
G1 X61.519 Y97.694 E2.21904
G1 X61.890 Y96.967 E2.25555
G1 X62.467 Y96.390 E2.29205
G1 X63.194 Y96.019 E2.32856
G1 X63.947 Y95.900 E2.36266
G1 X64.795 Y96.013 E2.40095
G1 X65.533 Y96.390 E2.43801
G1 X66.110 Y96.967 E2.47451
G1 X66.481 Y97.694 E2.51102
G1 X66.609 Y98.500 E2.54753
G1 X66.481 Y99.306 E2.58403
G1 X66.110 Y100.033 E2.62054
G1 X65.533 Y100.610 E2.65705
G1 X64.806 Y100.981 E2.69356
G1 X64.059 Y101.099 E2.72738
G1 X64.000 Y100.718 F6000.000
G1 F1800
G1 X63.315 Y100.610 E2.75842
G1 X62.696 Y100.295 E2.78947
G1 X62.205 Y99.804 E2.82050
G1 X61.890 Y99.185 E2.85155
G1 X61.782 Y98.500 E2.88259
G1 X61.890 Y97.815 E2.91363
G1 X62.205 Y97.196 E2.94468
G1 X62.696 Y96.705 E2.97572
G1 X63.315 Y96.390 E3.00677
G1 X63.951 Y96.289 E3.03561
G1 X64.679 Y96.387 E3.06843
G1 X65.304 Y96.705 E3.09981
G1 X65.795 Y97.196 E3.13086
G1 X66.110 Y97.815 E3.16190
G1 X66.218 Y98.500 E3.19294
G1 X66.110 Y99.185 E3.22398
G1 X65.795 Y99.804 E3.25503
G1 X65.304 Y100.295 E3.28607
G1 X64.685 Y100.610 E3.31712
G1 X64.059 Y100.709 E3.34548
G1 X64.000 Y100.328 F6000.000
G1 F1800
G1 X63.435 Y100.238 E3.37105
G1 X62.926 Y99.979 E3.39664
G1 X62.521 Y99.574 E3.42221
G1 X62.262 Y99.065 E3.44779
G1 X62.172 Y98.500 E3.47337
G1 X62.262 Y97.935 E3.49895
G1 X62.521 Y97.426 E3.52453
G1 X62.926 Y97.021 E3.55011
G1 X63.435 Y96.762 E3.57569
G1 X63.956 Y96.679 E3.59928
G1 X64.562 Y96.760 E3.62664
G1 X65.074 Y97.021 E3.65235
G1 X65.479 Y97.426 E3.67792
G1 X65.738 Y97.935 E3.70351
G1 X65.828 Y98.500 E3.72908
G1 X65.738 Y99.065 E3.75466
G1 X65.479 Y99.574 E3.78024
G1 X65.074 Y99.979 E3.80582
G1 X64.565 Y100.238 E3.83140
G1 X64.059 Y100.318 E3.85430
G1 X63.800 Y100.674 F6000.000
G1 E1.85430 F1200.00000
G92 E0
G1 X64.000 Y84.609 F6000.000
G1 E2.00000 F1200.00000
G1 F1800
G1 X63.194 Y84.481 E2.03650
G1 X62.467 Y84.110 E2.07302
G1 X61.890 Y83.533 E2.10952
G1 X61.519 Y82.806 E2.14603
G1 X61.391 Y82.000 E2.18254
G1 X61.519 Y81.194 E2.21904
G1 X61.890 Y80.467 E2.25555
G1 X62.467 Y79.890 E2.29205
G1 X63.194 Y79.519 E2.32857
G1 X63.947 Y79.400 E2.36266
G1 X64.795 Y79.513 E2.40095
G1 X65.533 Y79.890 E2.43801
G1 X66.110 Y80.467 E2.47451
G1 X66.481 Y81.194 E2.51102
G1 X66.609 Y82.000 E2.54753
G1 X66.481 Y82.806 E2.58403
G1 X66.110 Y83.533 E2.62054
G1 X65.533 Y84.110 E2.65705
G1 X64.806 Y84.481 E2.69356
G1 X64.059 Y84.599 E2.72738
G1 X64.000 Y84.218 F6000.000
G1 F1800
G1 X63.315 Y84.110 E2.75842
G1 X62.696 Y83.795 E2.78947
G1 X62.205 Y83.304 E2.82051
G1 X61.890 Y82.685 E2.85155
G1 X61.782 Y82.000 E2.88259
G1 X61.890 Y81.315 E2.91364
G1 X62.205 Y80.696 E2.94468
G1 X62.696 Y80.205 E2.97572
G1 X63.315 Y79.890 E3.00677
G1 X63.951 Y79.789 E3.03561
G1 X64.679 Y79.887 E3.06843
G1 X65.304 Y80.205 E3.09982
G1 X65.795 Y80.696 E3.13086
G1 X66.110 Y81.315 E3.16190
G1 X66.218 Y82.000 E3.19294
G1 X66.110 Y82.685 E3.22399
G1 X65.795 Y83.304 E3.25503
G1 X65.304 Y83.795 E3.28607
G1 X64.685 Y84.110 E3.31712
G1 X64.059 Y84.209 E3.34548
G1 X64.000 Y83.828 F6000.000
G1 F1800
G1 X63.435 Y83.738 E3.37105
G1 X62.926 Y83.479 E3.39664
G1 X62.521 Y83.074 E3.42221
G1 X62.262 Y82.565 E3.44779
G1 X62.172 Y82.000 E3.47337
G1 X62.262 Y81.435 E3.49895
G1 X62.521 Y80.926 E3.52453
G1 X62.926 Y80.521 E3.55011
G1 X63.435 Y80.262 E3.57569
G1 X63.956 Y80.179 E3.59928
G1 X64.562 Y80.260 E3.62664
G1 X65.074 Y80.521 E3.65235
G1 X65.479 Y80.926 E3.67792
G1 X65.738 Y81.435 E3.70350
G1 X65.828 Y82.000 E3.72908
G1 X65.738 Y82.565 E3.75466
G1 X65.479 Y83.074 E3.78024
G1 X65.074 Y83.479 E3.80582
G1 X64.565 Y83.738 E3.83140
G1 X64.059 Y83.818 E3.85430
G1 X63.800 Y84.174 F6000.000
G1 E1.85430 F1200.00000
G92 E0
G1 X63.947 Y68.100 F6000.000
G1 E2.00000 F1200.00000
G1 F1800
G1 X63.194 Y67.981 E2.03410
G1 X62.467 Y67.610 E2.07061
G1 X61.890 Y67.033 E2.10711
G1 X61.519 Y66.306 E2.14362
G1 X61.391 Y65.500 E2.18013
G1 X61.519 Y64.694 E2.21663
G1 X61.890 Y63.967 E2.25314
G1 X62.467 Y63.390 E2.28964
G1 X63.194 Y63.019 E2.32616
G1 X64.000 Y62.891 E2.36266
G1 X64.806 Y63.019 E2.39917
G1 X65.533 Y63.390 E2.43568
G1 X66.110 Y63.967 E2.47218
G1 X66.481 Y64.694 E2.50869
G1 X66.609 Y65.500 E2.54520
G1 X66.481 Y66.306 E2.58170
G1 X66.110 Y67.033 E2.61821
G1 X65.533 Y67.610 E2.65472
G1 X64.795 Y67.987 E2.69177
G1 X64.006 Y68.092 E2.72738
G1 X63.951 Y67.711 F6000.000
G1 F1800
G1 X63.315 Y67.610 E2.75622
G1 X62.696 Y67.295 E2.78727
G1 X62.205 Y66.804 E2.81831
G1 X61.890 Y66.185 E2.84935
G1 X61.782 Y65.500 E2.88039
G1 X61.890 Y64.815 E2.91144
G1 X62.205 Y64.196 E2.94248
G1 X62.696 Y63.705 E2.97352
G1 X63.315 Y63.390 E3.00457
G1 X64.000 Y63.282 E3.03561
G1 X64.685 Y63.390 E3.06665
G1 X65.304 Y63.705 E3.09770
G1 X65.795 Y64.196 E3.12874
G1 X66.110 Y64.815 E3.15978
G1 X66.218 Y65.500 E3.19083
G1 X66.110 Y66.185 E3.22187
G1 X65.795 Y66.804 E3.25291
G1 X65.304 Y67.295 E3.28396
G1 X64.679 Y67.613 E3.31534
G1 X64.011 Y67.703 E3.34548
G1 X63.956 Y67.321 F6000.000
G1 F1800
G1 X63.435 Y67.238 E3.36907
G1 X62.926 Y66.979 E3.39465
G1 X62.521 Y66.574 E3.42023
G1 X62.262 Y66.065 E3.44581
G1 X62.172 Y65.500 E3.47138
G1 X62.262 Y64.935 E3.49696
G1 X62.521 Y64.426 E3.52255
G1 X62.926 Y64.021 E3.54812
G1 X63.435 Y63.762 E3.57370
G1 X64.000 Y63.672 E3.59928
G1 X64.565 Y63.762 E3.62486
G1 X65.074 Y64.021 E3.65044
G1 X65.479 Y64.426 E3.67602
G1 X65.738 Y64.935 E3.70160
G1 X65.828 Y65.500 E3.72718
G1 X65.738 Y66.065 E3.75276
G1 X65.479 Y66.574 E3.77834
G1 X65.074 Y66.979 E3.80392
G1 X64.562 Y67.240 E3.82962
G1 X64.016 Y67.313 E3.85430
G1 X63.754 Y67.666 F6000.000
G1 E1.85430 F1200.00000
G92 E0
G1 X64.000 Y53.944 F6000.000
G1 E2.00000 F1200.00000
G1 F1800
G1 X63.194 Y53.816 E2.03651
G1 X62.467 Y53.445 E2.07302
G1 X61.890 Y52.868 E2.10952
G1 X61.519 Y52.141 E2.14603
G1 X61.391 Y51.335 E2.18254
G1 X61.519 Y50.529 E2.21904
G1 X61.890 Y49.802 E2.25555
G1 X62.467 Y49.225 E2.29205
G1 X63.194 Y48.854 E2.32856
G1 X63.947 Y48.735 E2.36266
G1 X64.795 Y48.848 E2.40095
G1 X65.533 Y49.225 E2.43801
G1 X66.110 Y49.802 E2.47451
G1 X66.481 Y50.529 E2.51102
G1 X66.609 Y51.335 E2.54753
G1 X66.481 Y52.141 E2.58403
G1 X66.110 Y52.868 E2.62054
G1 X65.533 Y53.445 E2.65705
G1 X64.806 Y53.816 E2.69356
G1 X64.059 Y53.934 E2.72738
G1 X64.000 Y53.553 F6000.000
G1 F1800
G1 X63.315 Y53.445 E2.75842
G1 X62.696 Y53.130 E2.78947
G1 X62.205 Y52.639 E2.82050
G1 X61.890 Y52.020 E2.85155
G1 X61.782 Y51.335 E2.88259
G1 X61.890 Y50.650 E2.91363
G1 X62.205 Y50.031 E2.94468
G1 X62.696 Y49.540 E2.97572
G1 X63.315 Y49.225 E3.00677
G1 X63.951 Y49.124 E3.03561
G1 X64.679 Y49.222 E3.06843
G1 X65.304 Y49.540 E3.09982
G1 X65.795 Y50.031 E3.13086
G1 X66.110 Y50.650 E3.16190
G1 X66.218 Y51.335 E3.19294
G1 X66.110 Y52.020 E3.22398
G1 X65.795 Y52.639 E3.25503
G1 X65.304 Y53.130 E3.28607
G1 X64.685 Y53.445 E3.31712
G1 X64.059 Y53.544 E3.34548
G1 X64.000 Y53.163 F6000.000
G1 F1800
G1 X63.435 Y53.073 E3.37105
G1 X62.926 Y52.814 E3.39664
G1 X62.521 Y52.409 E3.42221
G1 X62.262 Y51.900 E3.44779
G1 X62.172 Y51.335 E3.47337
G1 X62.262 Y50.770 E3.49895
G1 X62.521 Y50.261 E3.52453
G1 X62.926 Y49.856 E3.55011
G1 X63.435 Y49.597 E3.57569
G1 X63.956 Y49.514 E3.59928
G1 X64.562 Y49.595 E3.62664
G1 X65.074 Y49.856 E3.65235
G1 X65.479 Y50.261 E3.67792
G1 X65.738 Y50.770 E3.70351
G1 X65.828 Y51.335 E3.72908
G1 X65.738 Y51.900 E3.75466
G1 X65.479 Y52.409 E3.78024
G1 X65.074 Y52.814 E3.80582
G1 X64.565 Y53.073 E3.83140
G1 X64.059 Y53.153 E3.85430
G1 X63.800 Y53.509 F6000.000
G1 E1.85430 F1200.00000
G92 E0
G1 X59.209 Y65.500 F6000.000
G1 E2.00000 F1200.00000
G1 F1800
G1 X56.496 Y62.787 E2.17160
G1 X56.496 Y47.996 E2.83320
G1 X71.504 Y47.996 E3.50448
G1 X71.504 Y62.787 E4.16609
G1 X68.791 Y65.500 E4.33768
G1 X72.534 Y69.243 E4.57445
G1 X74.398 Y78.008 E4.97528
G1 X73.952 Y77.718 E4.99908
G1 X73.120 Y77.516 E5.03737
G1 X72.359 Y77.556 E5.07147
G1 X71.597 Y77.849 E5.10797
G1 X70.963 Y78.362 E5.14448
G1 X70.518 Y79.047 E5.18099
G1 X70.307 Y79.835 E5.21749
G1 X70.349 Y80.650 E5.25400
G1 X70.642 Y81.412 E5.29051
G1 X71.156 Y82.047 E5.32701
G1 X71.840 Y82.491 E5.36352
G1 X72.628 Y82.702 E5.40003
G1 X73.444 Y82.660 E5.43654
G1 X74.205 Y82.367 E5.47304
G1 X74.995 Y81.728 E5.51847
G1 X75.003 Y82.000 E5.53064
G1 X74.982 Y82.691 E5.56156
G1 X74.917 Y83.379 E5.59248
G1 X74.808 Y84.067 E5.62363
G1 X72.534 Y94.757 E6.11249
G1 X68.791 Y98.500 E6.34926
G1 X71.504 Y101.213 E6.52086
G1 X71.504 Y116.004 E7.18246
G1 X56.496 Y116.004 E7.85374
G1 X56.496 Y101.213 E8.51535
G1 X59.209 Y98.500 E8.68694
G1 X55.466 Y94.757 E8.92371
G1 X53.602 Y85.992 E9.32454
G1 X54.038 Y86.275 E9.34779
G1 X54.826 Y86.486 E9.38430
G1 X55.641 Y86.444 E9.42080
G1 X56.403 Y86.151 E9.45731
G1 X57.037 Y85.638 E9.49382
G1 X57.482 Y84.953 E9.53032
G1 X57.693 Y84.165 E9.56683
G1 X57.651 Y83.350 E9.60334
G1 X57.358 Y82.588 E9.63984
G1 X56.844 Y81.953 E9.67635
G1 X56.150 Y81.502 E9.71341
G1 X55.318 Y81.300 E9.75169
G1 X54.556 Y81.340 E9.78579
G1 X53.795 Y81.633 E9.82229
G1 X53.005 Y82.272 E9.86772
G1 X53.018 Y81.309 E9.91079
G1 X53.083 Y80.621 E9.94171
G1 X53.192 Y79.933 E9.97286
G1 X55.466 Y69.243 E10.46172
G1 X59.166 Y65.542 E10.69581
G1 X58.664 Y65.500 F6000.000
G1 F1800
G1 X56.111 Y62.947 E10.85730
G1 X56.111 Y47.611 E11.54330
G1 X71.889 Y47.611 E12.24908
G1 X71.889 Y62.947 E12.93507
G1 X69.336 Y65.500 E13.09657
G1 X72.887 Y69.051 E13.32120
G1 X74.986 Y78.920 E13.77249
G1 X74.822 Y78.998 E13.78065
G1 X74.385 Y78.460 E13.81166
G1 X73.797 Y78.077 E13.84303
G1 X73.084 Y77.904 E13.87586
G1 X72.440 Y77.938 E13.90470
G1 X71.792 Y78.187 E13.93575
G1 X71.253 Y78.624 E13.96679
G1 X70.875 Y79.206 E13.99783
G1 X70.695 Y79.876 E14.02888
G1 X70.731 Y80.569 E14.05992
G1 X70.980 Y81.217 E14.09096
G1 X71.417 Y81.756 E14.12201
G1 X71.999 Y82.134 E14.15305
G1 X72.669 Y82.314 E14.18409
G1 X73.362 Y82.278 E14.21514
G1 X74.010 Y82.029 E14.24618
G1 X74.550 Y81.592 E14.27722
G1 X74.928 Y81.010 E14.30826
G1 X75.088 Y80.411 E14.33601
G1 X75.275 Y80.421 E14.34439
G1 X75.367 Y81.285 E14.38325
G1 X75.389 Y82.000 E14.41526
G1 X75.367 Y82.715 E14.44726
G1 X75.299 Y83.427 E14.47926
G1 X75.187 Y84.137 E14.51141
G1 X72.887 Y94.949 E15.00583
G1 X69.336 Y98.500 E15.23046
