; generated by Slic3r 1.3.0 on 2020-04-30 at 08:59:30

; external perimeters extrusion width = 0.44mm (2.86mm^3/s)
; perimeters extrusion width = 0.56mm (4.14mm^3/s)
; infill extrusion width = 0.50mm (5.48mm^3/s)
; solid infill extrusion width = 0.56mm (3.10mm^3/s)
; top infill extrusion width = 0.45mm (2.44mm^3/s)

M107
;D3D:START:START
T0
M104 S215 T0

G21
G90
M107
T0
G28
G29
M109 T0 S215 T0
G0 F3000
M107
T0
G92 E0
G0 X0 Y149 Z0.1 F3600
G1 Y49 E6.5 F1200
G0 Z1
G92 E0
; Filament gcode

G21 ; set units to millimeters
G90 ; use absolute coordinates
M82 ; use absolute distances for extrusion
G92 E0
G1 Z0.200 F6000.000
G1 E-2.00000 F1200.00000
G92 E0
G1 X24.996 Y41.244 F6000.000
G1 E2.00000 F1200.00000
G1 F1800
G1 X69.996 Y11.244 E3.04049
G1 X72.500 Y10.486 E3.09082
G1 X132.500 Y10.486 E4.24514
G1 X134.348 Y10.881 E4.28150
G1 X135.872 Y11.999 E4.31785
G1 X136.805 Y13.642 E4.35421
G1 X137.014 Y15.000 E4.38064
G1 X137.014 Y25.000 E4.57303
G1 X136.979 Y25.560 E4.58382
G1 X126.979 Y105.560 E6.13489
G1 X126.358 Y107.345 E6.17125
G1 X125.004 Y108.756 E6.20887
G1 X80.004 Y138.756 E7.24936
G1 X77.500 Y139.514 E7.29969
G1 X17.500 Y139.514 E8.45401
G1 X15.652 Y139.119 E8.49037
G1 X14.128 Y138.001 E8.52672
G1 X13.195 Y136.358 E8.56308
G1 X12.986 Y135.000 E8.58951
G1 X12.986 Y125.000 E8.78190
G1 X13.021 Y124.440 E8.79269
G1 X23.021 Y44.440 E10.34376
G1 X23.642 Y42.655 E10.38012
G1 X24.954 Y41.287 E10.41658
G1 X25.139 Y41.458 F6000.000
G1 F1800
G1 X70.139 Y11.458 E11.45707
G1 X72.500 Y10.743 E11.50454
G1 X132.500 Y10.743 E12.65886
G1 X134.291 Y11.138 E12.69415
G1 X135.750 Y12.251 E12.72945
G1 X136.605 Y13.874 E12.76474
G1 X136.757 Y15.000 E12.78660
G1 X136.757 Y25.000 E12.97899
G1 X136.724 Y25.528 E12.98917
G1 X126.724 Y105.528 E14.54024
G1 X126.110 Y107.257 E14.57553
G1 X124.861 Y108.542 E14.61000
G1 X79.861 Y138.542 E15.65049
G1 X77.500 Y139.257 E15.69796
G1 X17.500 Y139.257 E16.85228
G1 X15.709 Y138.862 E16.88757
G1 X14.250 Y137.749 E16.92287
G1 X13.395 Y136.126 E16.95816
G1 X13.243 Y135.000 E16.98002
G1 X13.243 Y125.000 E17.17241
G1 X13.276 Y124.472 E17.18259
G1 X23.276 Y44.472 E18.73366
G1 X23.890 Y42.743 E18.76895
G1 X25.097 Y41.501 E18.80227
G1 E16.80227 F1200.00000
G92 E0
G1 X71.796 Y127.570 F6000.000
G1 E2.00000 F1200.00000
G1 F1800
G1 X72.262 Y127.469 E2.00916
G1 X72.738 Y127.469 E2.01833
G1 X73.204 Y127.570 E2.02749
G1 X73.638 Y127.766 E2.03666
G1 X74.021 Y128.049 E2.04582
G1 X74.338 Y128.406 E2.05500
G1 X74.573 Y128.821 E2.06418
G1 X74.719 Y129.275 E2.07335
G1 X74.768 Y129.750 E2.08254
G1 X74.719 Y130.225 E2.09172
G1 X74.573 Y130.679 E2.10090
G1 X74.338 Y131.094 E2.11008
G1 X74.021 Y131.451 E2.11925
G1 X73.638 Y131.734 E2.12842
G1 X73.204 Y131.930 E2.13758
G1 X72.738 Y132.031 E2.14675
G1 X72.262 Y132.031 E2.15591
G1 X71.796 Y131.930 E2.16507
G1 X71.362 Y131.734 E2.17424
G1 X70.977 Y131.449 E2.18345
G1 X70.656 Y131.082 E2.19284
G1 X70.427 Y130.679 E2.20175
G1 X70.281 Y130.225 E2.21093
G1 X70.232 Y129.750 E2.22011
G1 X70.281 Y129.275 E2.22930
G1 X70.427 Y128.821 E2.23847
G1 X70.662 Y128.406 E2.24765
G1 X70.979 Y128.049 E2.25683
G1 X71.362 Y127.766 E2.26599
G1 X71.742 Y127.595 E2.27400
G1 X71.877 Y127.816 F6000.000
G1 F1800
G1 X72.289 Y127.726 E2.28211
G1 X72.711 Y127.726 E2.29022
G1 X73.123 Y127.816 E2.29833
G1 X73.507 Y127.989 E2.30645
G1 X73.847 Y128.240 E2.31457
G1 X74.127 Y128.556 E2.32270
G1 X74.336 Y128.925 E2.33085
G1 X74.466 Y129.328 E2.33900
G1 X74.509 Y129.750 E2.34716
G1 X74.466 Y130.172 E2.35532
G1 X74.336 Y130.575 E2.36347
G1 X74.127 Y130.944 E2.37162
G1 X73.847 Y131.260 E2.37975
G1 X73.507 Y131.511 E2.38788
G1 X73.123 Y131.685 E2.39599
G1 X72.711 Y131.773 E2.40410
G1 X72.289 Y131.773 E2.41221
G1 X71.877 Y131.685 E2.42032
G1 X71.493 Y131.511 E2.42843
G1 X71.152 Y131.259 E2.43658
G1 X70.866 Y130.933 E2.44493
G1 X70.664 Y130.575 E2.45283
G1 X70.534 Y130.172 E2.46098
G1 X70.491 Y129.750 E2.46914
G1 X70.534 Y129.328 E2.47730
G1 X70.664 Y128.925 E2.48545
G1 X70.873 Y128.556 E2.49360
G1 X71.153 Y128.240 E2.50173
G1 X71.493 Y127.989 E2.50986
G1 X71.823 Y127.840 E2.51682
G1 X71.958 Y128.061 F6000.000
G1 F1800
G1 X72.317 Y127.984 E2.52387
G1 X72.683 Y127.984 E2.53092
G1 X73.042 Y128.061 E2.53798
G1 X73.376 Y128.212 E2.54504
G1 X73.672 Y128.431 E2.55212
G1 X73.917 Y128.707 E2.55922
G1 X74.100 Y129.028 E2.56634
G1 X74.213 Y129.381 E2.57346
G1 X74.251 Y129.750 E2.58059
G1 X74.213 Y130.119 E2.58773
G1 X74.100 Y130.472 E2.59485
G1 X73.917 Y130.793 E2.60197
G1 X73.672 Y131.069 E2.60907
G1 X73.376 Y131.288 E2.61615
G1 X73.042 Y131.439 E2.62321
G1 X72.683 Y131.516 E2.63027
G1 X72.317 Y131.516 E2.63732
G1 X71.958 Y131.439 E2.64437
G1 X71.624 Y131.288 E2.65144
G1 X71.327 Y131.069 E2.65852
G1 X71.077 Y130.783 E2.66583
G1 X70.900 Y130.472 E2.67272
G1 X70.787 Y130.119 E2.67985
G1 X70.749 Y129.750 E2.68698
G1 X70.787 Y129.381 E2.69412
G1 X70.900 Y129.028 E2.70124
G1 X71.083 Y128.707 E2.70836
G1 X71.328 Y128.431 E2.71545
G1 X71.624 Y128.212 E2.72253
G1 X71.904 Y128.086 E2.72844
G1 X72.033 Y127.702 F6000.000
G1 E0.72844 F1200.00000
G92 E0
G1 X64.719 Y129.275 F6000.000
G1 E2.00000 F1200.00000
G1 F1800
G1 X64.768 Y129.750 E2.00918
G1 X64.719 Y130.225 E2.01836
G1 X64.573 Y130.679 E2.02754
G1 X64.337 Y131.094 E2.03672
G1 X64.021 Y131.451 E2.04589
G1 X63.638 Y131.734 E2.05506
G1 X63.204 Y131.930 E2.06423
G1 X62.738 Y132.031 E2.07339
G1 X62.262 Y132.031 E2.08255
G1 X61.796 Y131.930 E2.09172
G1 X61.362 Y131.734 E2.10088
G1 X60.979 Y131.451 E2.11005
G1 X60.663 Y131.094 E2.11922
G1 X60.427 Y130.679 E2.12840
G1 X60.281 Y130.225 E2.13758
G1 X60.232 Y129.750 E2.14676
G1 X60.281 Y129.275 E2.15595
G1 X60.427 Y128.821 E2.16512
G1 X60.663 Y128.406 E2.17430
G1 X60.979 Y128.049 E2.18347
G1 X61.362 Y127.766 E2.19264
G1 X61.796 Y127.570 E2.20181
G1 X62.262 Y127.469 E2.21097
G1 X62.738 Y127.469 E2.22013
G1 X63.204 Y127.570 E2.22930
G1 X63.638 Y127.766 E2.23846
G1 X64.021 Y128.049 E2.24763
G1 X64.337 Y128.406 E2.25680
G1 X64.573 Y128.821 E2.26598
G1 X64.700 Y129.218 E2.27401
G1 X64.466 Y129.328 F6000.000
G1 F1800
G1 X64.509 Y129.750 E2.28216
G1 X64.466 Y130.172 E2.29032
G1 X64.337 Y130.575 E2.29848
G1 X64.127 Y130.944 E2.30662
G1 X63.847 Y131.260 E2.31476
G1 X63.507 Y131.511 E2.32288
G1 X63.123 Y131.685 E2.33100
G1 X62.711 Y131.773 E2.33911
G1 X62.289 Y131.773 E2.34721
G1 X61.877 Y131.685 E2.35532
G1 X61.493 Y131.511 E2.36344
G1 X61.153 Y131.260 E2.37156
G1 X60.873 Y130.944 E2.37969
G1 X60.663 Y130.575 E2.38784
G1 X60.534 Y130.172 E2.39599
G1 X60.491 Y129.750 E2.40415
G1 X60.534 Y129.328 E2.41231
G1 X60.663 Y128.925 E2.42046
G1 X60.873 Y128.556 E2.42861
G1 X61.153 Y128.240 E2.43674
G1 X61.493 Y127.989 E2.44487
G1 X61.877 Y127.816 E2.45298
G1 X62.289 Y127.726 E2.46109
G1 X62.711 Y127.726 E2.46920
G1 X63.123 Y127.816 E2.47731
G1 X63.507 Y127.989 E2.48542
G1 X63.847 Y128.240 E2.49355
G1 X64.127 Y128.556 E2.50168
G1 X64.337 Y128.925 E2.50983
G1 X64.447 Y129.271 E2.51683
G1 X64.213 Y129.381 F6000.000
G1 F1800
G1 X64.251 Y129.750 E2.52396
G1 X64.213 Y130.119 E2.53109
G1 X64.100 Y130.472 E2.53822
G1 X63.917 Y130.793 E2.54533
G1 X63.672 Y131.069 E2.55243
G1 X63.376 Y131.288 E2.55951
G1 X63.042 Y131.439 E2.56658
G1 X62.683 Y131.516 E2.57363
G1 X62.317 Y131.516 E2.58068
G1 X61.958 Y131.439 E2.58773
G1 X61.624 Y131.288 E2.59480
G1 X61.328 Y131.069 E2.60188
G1 X61.083 Y130.793 E2.60898
G1 X60.900 Y130.472 E2.61609
G1 X60.787 Y130.119 E2.62322
G1 X60.749 Y129.750 E2.63035
G1 X60.787 Y129.381 E2.63748
G1 X60.900 Y129.028 E2.64461
G1 X61.083 Y128.707 E2.65172
G1 X61.328 Y128.431 E2.65882
G1 X61.624 Y128.212 E2.66590
G1 X61.958 Y128.061 E2.67297
G1 X62.317 Y127.984 E2.68002
G1 X62.683 Y127.984 E2.68707
G1 X63.042 Y128.061 E2.69413
G1 X63.376 Y128.212 E2.70119
G1 X63.672 Y128.431 E2.70827
G1 X63.917 Y128.707 E2.71537
G1 X64.100 Y129.028 E2.72248
G1 X64.194 Y129.324 E2.72845
G1 X64.565 Y129.497 F6000.000
G1 E0.72845 F1200.00000
G92 E0
G1 X54.768 Y129.750 F6000.000
G1 E2.00000 F1200.00000
G1 F1800
G1 X54.719 Y130.225 E2.00918
G1 X54.573 Y130.679 E2.01836
G1 X54.337 Y131.094 E2.02754
G1 X54.021 Y131.451 E2.03671
G1 X53.638 Y131.734 E2.04588
G1 X53.204 Y131.930 E2.05505
G1 X52.738 Y132.031 E2.06421
G1 X52.262 Y132.031 E2.07337
G1 X51.796 Y131.930 E2.08253
G1 X51.362 Y131.734 E2.09170
G1 X50.979 Y131.451 E2.10087
G1 X50.663 Y131.094 E2.11004
G1 X50.427 Y130.679 E2.11922
G1 X50.281 Y130.225 E2.12840
G1 X50.232 Y129.750 E2.13758
G1 X50.281 Y129.275 E2.14676
G1 X50.427 Y128.821 E2.15594
G1 X50.663 Y128.406 E2.16512
G1 X50.979 Y128.049 E2.17429
G1 X51.362 Y127.766 E2.18346
G1 X51.796 Y127.570 E2.19263
G1 X52.262 Y127.469 E2.20179
G1 X52.738 Y127.469 E2.21095
G1 X53.204 Y127.570 E2.22012
G1 X53.638 Y127.766 E2.22928
G1 X54.021 Y128.049 E2.23845
G1 X54.337 Y128.406 E2.24762
G1 X54.573 Y128.821 E2.25680
G1 X54.719 Y129.275 E2.26598
G1 X54.762 Y129.690 E2.27401
G1 X54.509 Y129.750 F6000.000
G1 F1800
G1 X54.466 Y130.172 E2.28217
G1 X54.337 Y130.575 E2.29032
G1 X54.127 Y130.944 E2.29847
G1 X53.847 Y131.260 E2.30660
G1 X53.507 Y131.511 E2.31472
G1 X53.123 Y131.685 E2.32284
G1 X52.711 Y131.773 E2.33095
G1 X52.289 Y131.773 E2.33905
G1 X51.877 Y131.685 E2.34716
G1 X51.493 Y131.511 E2.35528
G1 X51.153 Y131.260 E2.36340
G1 X50.873 Y130.944 E2.37154
G1 X50.663 Y130.575 E2.37968
G1 X50.534 Y130.172 E2.38784
G1 X50.491 Y129.750 E2.39600
G1 X50.534 Y129.328 E2.40415
G1 X50.663 Y128.925 E2.41230
G1 X50.873 Y128.556 E2.42045
G1 X51.153 Y128.240 E2.42859
G1 X51.493 Y127.989 E2.43671
G1 X51.877 Y127.816 E2.44482
G1 X52.289 Y127.726 E2.45293
G1 X52.711 Y127.726 E2.46104
G1 X53.123 Y127.816 E2.46915
G1 X53.507 Y127.989 E2.47726
G1 X53.847 Y128.240 E2.48539
G1 X54.127 Y128.556 E2.49352
G1 X54.337 Y128.925 E2.50167
G1 X54.466 Y129.328 E2.50982
G1 X54.503 Y129.690 E2.51683
G1 X54.251 Y129.750 F6000.000
G1 F1800
G1 X54.213 Y130.119 E2.52396
G1 X54.100 Y130.472 E2.53109
G1 X53.917 Y130.793 E2.53820
G1 X53.672 Y131.069 E2.54530
G1 X53.376 Y131.288 E2.55238
G1 X53.042 Y131.439 E2.55944
G1 X52.683 Y131.516 E2.56650
G1 X52.317 Y131.516 E2.57355
G1 X51.958 Y131.439 E2.58060
G1 X51.624 Y131.288 E2.58767
G1 X51.328 Y131.069 E2.59475
G1 X51.083 Y130.793 E2.60184
G1 X50.900 Y130.472 E2.60896
G1 X50.787 Y130.119 E2.61608
G1 X50.749 Y129.750 E2.62322
G1 X50.787 Y129.381 E2.63035
G1 X50.900 Y129.028 E2.63748
G1 X51.083 Y128.707 E2.64459
G1 X51.328 Y128.431 E2.65169
G1 X51.624 Y128.212 E2.65877
G1 X51.958 Y128.061 E2.66583
G1 X52.317 Y127.984 E2.67289
G1 X52.683 Y127.984 E2.67994
G1 X53.042 Y128.061 E2.68699
G1 X53.376 Y128.212 E2.69406
G1 X53.672 Y128.431 E2.70114
G1 X53.917 Y128.707 E2.70823
G1 X54.100 Y129.028 E2.71535
G1 X54.213 Y129.381 E2.72247
G1 X54.245 Y129.690 E2.72845
G1 X54.572 Y129.935 F6000.000
G1 E0.72845 F1200.00000
G92 E0
G1 X44.768 Y129.750 F6000.000
G1 E2.00000 F1200.00000
G1 F1800
G1 X44.719 Y130.225 E2.00918
G1 X44.573 Y130.679 E2.01836
G1 X44.337 Y131.094 E2.02754
G1 X44.021 Y131.451 E2.03671
G1 X43.638 Y131.734 E2.04588
G1 X43.204 Y131.930 E2.05505
G1 X42.738 Y132.031 E2.06421
G1 X42.262 Y132.031 E2.07337
G1 X41.796 Y131.930 E2.08253
G1 X41.362 Y131.734 E2.09170
G1 X40.979 Y131.451 E2.10087
G1 X40.663 Y131.094 E2.11004
G1 X40.427 Y130.679 E2.11922
G1 X40.281 Y130.225 E2.12840
G1 X40.232 Y129.750 E2.13758
G1 X40.281 Y129.275 E2.14676
G1 X40.427 Y128.821 E2.15594
G1 X40.663 Y128.406 E2.16512
G1 X40.970 Y128.059 E2.17403
G1 X41.360 Y127.767 E2.18341
G1 X41.796 Y127.570 E2.19262
G1 X42.262 Y127.469 E2.20179
G1 X42.738 Y127.469 E2.21095
G1 X43.204 Y127.570 E2.22011
G1 X43.638 Y127.766 E2.22928
G1 X44.021 Y128.049 E2.23845
G1 X44.337 Y128.406 E2.24762
G1 X44.573 Y128.821 E2.25680
G1 X44.719 Y129.275 E2.26598
G1 X44.762 Y129.690 E2.27400
G1 X44.509 Y129.750 F6000.000
G1 F1800
G1 X44.466 Y130.172 E2.28216
G1 X44.337 Y130.575 E2.29031
G1 X44.127 Y130.944 E2.29846
G1 X43.847 Y131.260 E2.30660
G1 X43.507 Y131.511 E2.31472
G1 X43.123 Y131.685 E2.32284
G1 X42.711 Y131.773 E2.33094
G1 X42.289 Y131.773 E2.33905
G1 X41.877 Y131.685 E2.34716
G1 X41.493 Y131.511 E2.35527
G1 X41.153 Y131.260 E2.36340
G1 X40.873 Y130.944 E2.37153
G1 X40.663 Y130.575 E2.37968
G1 X40.534 Y130.172 E2.38783
G1 X40.491 Y129.750 E2.39599
G1 X40.534 Y129.328 E2.40415
G1 X40.663 Y128.925 E2.41230
G1 X40.873 Y128.556 E2.42045
G1 X41.145 Y128.250 E2.42834
G1 X41.492 Y127.990 E2.43667
G1 X41.877 Y127.816 E2.44482
G1 X42.289 Y127.726 E2.45293
G1 X42.711 Y127.726 E2.46103
G1 X43.123 Y127.816 E2.46914
G1 X43.507 Y127.989 E2.47726
G1 X43.847 Y128.240 E2.48538
G1 X44.127 Y128.556 E2.49351
G1 X44.337 Y128.925 E2.50166
G1 X44.466 Y129.328 E2.50981
G1 X44.503 Y129.690 E2.51682
G1 X44.251 Y129.750 F6000.000
G1 F1800
G1 X44.213 Y130.119 E2.52395
G1 X44.100 Y130.472 E2.53108
G1 X43.917 Y130.793 E2.53819
G1 X43.672 Y131.069 E2.54529
G1 X43.376 Y131.288 E2.55237
G1 X43.042 Y131.439 E2.55943
G1 X42.683 Y131.516 E2.56649
G1 X42.317 Y131.516 E2.57354
G1 X41.958 Y131.439 E2.58059
G1 X41.624 Y131.288 E2.58766
G1 X41.328 Y131.069 E2.59474
G1 X41.083 Y130.793 E2.60183
G1 X40.900 Y130.472 E2.60895
G1 X40.787 Y130.119 E2.61607
G1 X40.749 Y129.750 E2.62321
G1 X40.787 Y129.381 E2.63034
G1 X40.900 Y129.028 E2.63747
G1 X41.083 Y128.707 E2.64458
G1 X41.320 Y128.440 E2.65145
G1 X41.623 Y128.213 E2.65874
G1 X41.958 Y128.061 E2.66582
G1 X42.317 Y127.984 E2.67287
G1 X42.683 Y127.984 E2.67992
G1 X43.042 Y128.061 E2.68698
G1 X43.376 Y128.212 E2.69404
G1 X43.672 Y128.431 E2.70112
G1 X43.917 Y128.707 E2.70822
G1 X44.100 Y129.028 E2.71534
G1 X44.213 Y129.381 E2.72246
G1 X44.245 Y129.690 E2.72844
G1 X44.572 Y129.935 F6000.000
G1 E0.72844 F1200.00000
G92 E0
G1 X34.768 Y129.750 F6000.000
G1 E2.00000 F1200.00000
G1 F1800
G1 X34.719 Y130.225 E2.00918
G1 X34.573 Y130.679 E2.01836
G1 X34.337 Y131.094 E2.02754
G1 X34.021 Y131.451 E2.03671
G1 X33.638 Y131.734 E2.04588
G1 X33.204 Y131.930 E2.05505
G1 X32.738 Y132.031 E2.06421
G1 X32.262 Y132.031 E2.07337
G1 X31.796 Y131.930 E2.08253
G1 X31.362 Y131.734 E2.09170
G1 X30.979 Y131.451 E2.10087
G1 X30.663 Y131.094 E2.11004
G1 X30.427 Y130.679 E2.11922
G1 X30.281 Y130.225 E2.12840
G1 X30.232 Y129.750 E2.13758
G1 X30.281 Y129.275 E2.14676
G1 X30.427 Y128.821 E2.15594
G1 X30.663 Y128.406 E2.16512
G1 X30.970 Y128.059 E2.17403
G1 X31.360 Y127.767 E2.18341
G1 X31.796 Y127.570 E2.19262
G1 X32.262 Y127.469 E2.20179
G1 X32.738 Y127.469 E2.21095
G1 X33.204 Y127.570 E2.22011
G1 X33.638 Y127.766 E2.22928
G1 X34.021 Y128.049 E2.23845
G1 X34.337 Y128.406 E2.24762
G1 X34.573 Y128.821 E2.25680
G1 X34.719 Y129.275 E2.26598
G1 X34.762 Y129.690 E2.27400
G1 X34.509 Y129.750 F6000.000
G1 F1800
G1 X34.466 Y130.172 E2.28216
G1 X34.337 Y130.575 E2.29031
G1 X34.127 Y130.944 E2.29846
G1 X33.847 Y131.260 E2.30660
G1 X33.507 Y131.511 E2.31472
G1 X33.123 Y131.685 E2.32284
G1 X32.711 Y131.773 E2.33094
G1 X32.289 Y131.773 E2.33905
G1 X31.877 Y131.685 E2.34716
G1 X31.493 Y131.511 E2.35527
G1 X31.153 Y131.260 E2.36340
G1 X30.873 Y130.944 E2.37153
G1 X30.663 Y130.575 E2.37968
G1 X30.534 Y130.172 E2.38783
G1 X30.491 Y129.750 E2.39599
G1 X30.534 Y129.328 E2.40415
G1 X30.663 Y128.925 E2.41230
G1 X30.873 Y128.556 E2.42045
G1 X31.145 Y128.250 E2.42834
G1 X31.492 Y127.990 E2.43667
G1 X31.877 Y127.816 E2.44482
G1 X32.289 Y127.726 E2.45293
G1 X32.711 Y127.726 E2.46103
G1 X33.123 Y127.816 E2.46914
G1 X33.507 Y127.989 E2.47726
G1 X33.847 Y128.240 E2.48538
G1 X34.127 Y128.556 E2.49351
G1 X34.337 Y128.925 E2.50166
G1 X34.466 Y129.328 E2.50981
G1 X34.503 Y129.690 E2.51682
G1 X34.251 Y129.750 F6000.000
G1 F1800
G1 X34.213 Y130.119 E2.52395
G1 X34.100 Y130.472 E2.53108
G1 X33.917 Y130.793 E2.53819
G1 X33.672 Y131.069 E2.54529
G1 X33.376 Y131.288 E2.55237
G1 X33.042 Y131.439 E2.55943
G1 X32.683 Y131.516 E2.56649
G1 X32.317 Y131.516 E2.57354
G1 X31.958 Y131.439 E2.58059
G1 X31.624 Y131.288 E2.58766
G1 X31.328 Y131.069 E2.59474
G1 X31.083 Y130.793 E2.60183
G1 X30.900 Y130.472 E2.60895
G1 X30.787 Y130.119 E2.61607
G1 X30.749 Y129.750 E2.62321
G1 X30.787 Y129.381 E2.63034
G1 X30.900 Y129.028 E2.63747
G1 X31.083 Y128.707 E2.64458
G1 X31.320 Y128.440 E2.65145
G1 X31.623 Y128.213 E2.65874
G1 X31.958 Y128.061 E2.66582
G1 X32.317 Y127.984 E2.67287
G1 X32.683 Y127.984 E2.67992
