; generated by Slic3r 1.3.1-dev (Build (Unknown revision)) on 2020-05-29 at 10:45:57

; external perimeters extrusion width = 0.44mm (2.86mm^3/s)
; perimeters extrusion width = 0.56mm (4.14mm^3/s)
; infill extrusion width = 0.50mm (3.66mm^3/s)
; solid infill extrusion width = 0.56mm (3.10mm^3/s)
; top infill extrusion width = 0.45mm (2.44mm^3/s)

M107
G92 E0
;D3D:START:START
T0
M104 S215 T0

G21
G90
M107
T0
G28
G29
M109 T0 S215 T0
G0 F3000
M107
T0
G92 E0
G0 X0 Y149 Z0.1 F3600
G1 Y49 E6.5 F1200
G0 Z1
G92 E0
; Filament gcode

G21 ; set units to millimeters
G90 ; use absolute coordinates
M82 ; use absolute distances for extrusion
G92 E0
G1 Z0.200 F6000.000
G1 E-2.00000 F1200.00000
G92 E0
G1 Z0.700 F6000.000
G1 X119.884 Y78.586 F6000.000
G1 Z0.200 F6000.000
G1 E2.00000 F1200.00000
G1 F1800.000
G1 X136.783 Y78.586 E2.32512
G1 X136.783 Y106.414 E2.86050
G1 X119.884 Y106.414 E3.18562
G1 X119.884 Y78.646 E3.71984
G1 X120.141 Y78.843 F6000.000
G1 F1800.000
G1 X136.526 Y78.843 E4.03507
G1 X136.526 Y106.157 E4.56056
G1 X120.141 Y106.157 E4.87579
G1 X120.141 Y78.903 E5.40012
G1 X120.398 Y79.100 F6000.000
G1 F1800.000
G1 X136.269 Y79.100 E5.70545
G1 X136.269 Y105.900 E6.22105
G1 X120.398 Y105.900 E6.52639
G1 X120.398 Y79.160 E7.04083
G1 X120.327 Y78.706 F6000.000
G1 E5.04083 F1200.00000
G92 E0
G1 Z0.700 F6000.000
G1 X115.116 Y78.586 F6000.000
G1 Z0.200 F6000.000
G1 E2.00000 F1200.00000
G1 F1800.000
G1 X115.116 Y106.414 E2.53538
G1 X98.217 Y106.414 E2.86050
G1 X98.217 Y78.586 E3.39588
G1 X115.056 Y78.586 E3.71984
G1 X114.859 Y78.843 F6000.000
G1 F1800.000
G1 X114.859 Y106.157 E4.24533
G1 X98.474 Y106.157 E4.56056
G1 X98.474 Y78.843 E5.08604
G1 X114.799 Y78.843 E5.40012
G1 X114.602 Y79.100 F6000.000
G1 F1800.000
G1 X114.602 Y105.900 E5.91571
G1 X98.731 Y105.900 E6.22105
G1 X98.731 Y79.100 E6.73665
G1 X114.542 Y79.100 E7.04083
G1 X114.978 Y78.965 F6000.000
G1 E5.04083 F1200.00000
G92 E0
G1 Z0.700 F6000.000
G1 X93.450 Y78.586 F6000.000
G1 Z0.200 F6000.000
G1 E2.00000 F1200.00000
G1 F1800.000
G1 X93.450 Y98.164 E2.37666
G1 X76.550 Y98.164 E2.70179
G1 X76.550 Y78.586 E3.07845
G1 X93.390 Y78.586 E3.40242
G1 X93.193 Y78.843 F6000.000
G1 F1800.000
G1 X93.193 Y97.907 E3.76919
G1 X76.807 Y97.907 E4.08442
G1 X76.807 Y78.843 E4.45119
G1 X93.133 Y78.843 E4.76527
G1 X92.936 Y79.100 F6000.000
G1 F1800.000
G1 X92.936 Y97.650 E5.12215
G1 X77.064 Y97.650 E5.42749
G1 X77.064 Y79.100 E5.78437
G1 X92.876 Y79.100 E6.08856
G1 X93.319 Y78.987 F6000.000
G1 E4.08856 F1200.00000
G92 E0
G1 Z0.700 F6000.000
G1 X71.783 Y78.586 F6000.000
G1 Z0.200 F6000.000
G1 E2.00000 F1200.00000
G1 F1800.000
G1 X71.783 Y98.164 E2.37666
G1 X54.883 Y98.164 E2.70179
G1 X54.883 Y78.586 E3.07845
G1 X71.723 Y78.586 E3.40242
G1 X71.526 Y78.843 F6000.000
G1 F1800.000
G1 X71.526 Y97.907 E3.76919
G1 X55.141 Y97.907 E4.08442
G1 X55.141 Y78.843 E4.45119
G1 X71.466 Y78.843 E4.76527
G1 X71.269 Y79.100 F6000.000
G1 F1800.000
G1 X71.269 Y97.650 E5.12215
G1 X55.398 Y97.650 E5.42750
G1 X55.398 Y79.100 E5.78437
G1 X71.209 Y79.100 E6.08856
G1 X71.653 Y78.987 F6000.000
G1 E4.08856 F1200.00000
G92 E0
G1 Z0.700 F6000.000
G1 X50.117 Y78.586 F6000.000
G1 Z0.200 F6000.000
G1 E2.00000 F1200.00000
G1 F1800.000
G1 X50.117 Y106.414 E2.53538
G1 X33.217 Y106.414 E2.86051
G1 X33.217 Y78.586 E3.39588
G1 X50.057 Y78.586 E3.71986
G1 X49.859 Y78.843 F6000.000
G1 F1800.000
G1 X49.859 Y106.157 E4.24535
G1 X33.474 Y106.157 E4.56058
G1 X33.474 Y78.843 E5.08607
G1 X49.799 Y78.843 E5.40015
G1 X49.602 Y79.100 F6000.000
G1 F1800.000
G1 X49.602 Y105.900 E5.91574
G1 X33.731 Y105.900 E6.22109
G1 X33.731 Y79.100 E6.73668
G1 X49.542 Y79.100 E7.04087
G1 X49.979 Y78.965 F6000.000
G1 E5.04087 F1200.00000
G92 E0
G1 Z0.700 F6000.000
G1 X28.450 Y78.586 F6000.000
G1 Z0.200 F6000.000
G1 E2.00000 F1200.00000
G1 F1800.000
G1 X28.450 Y106.414 E2.53538
G1 X11.550 Y106.414 E2.86051
G1 X11.550 Y78.586 E3.39589
G1 X28.390 Y78.586 E3.71986
G1 X28.193 Y78.843 F6000.000
G1 F1800.000
G1 X28.193 Y106.157 E4.24535
G1 X11.807 Y106.157 E4.56058
G1 X11.807 Y78.843 E5.08607
G1 X28.133 Y78.843 E5.40015
G1 X27.936 Y79.100 F6000.000
G1 F1800.000
G1 X27.936 Y105.900 E5.91575
G1 X12.064 Y105.900 E6.22109
G1 X12.064 Y79.100 E6.73669
G1 X27.876 Y79.100 E7.04088
G1 X28.312 Y78.965 F6000.000
G1 E5.04088 F1200.00000
G92 E0
G1 Z0.700 F6000.000
G1 X28.450 Y71.414 F6000.000
G1 Z0.200 F6000.000
G1 E2.00000 F1200.00000
G1 F1800.000
G1 X11.550 Y71.414 E2.32513
G1 X11.550 Y43.586 E2.86051
G1 X28.450 Y43.586 E3.18563
G1 X28.450 Y71.354 E3.71986
G1 X28.193 Y71.157 F6000.000
G1 F1800.000
G1 X11.807 Y71.157 E4.03509
G1 X11.807 Y43.843 E4.56058
G1 X28.193 Y43.843 E4.87582
G1 X28.193 Y71.097 E5.40015
G1 X27.936 Y70.900 F6000.000
G1 F1800.000
G1 X12.064 Y70.900 E5.70550
G1 X12.064 Y44.100 E6.22109
G1 X27.936 Y44.100 E6.52644
G1 X27.936 Y70.840 E7.04088
G1 X28.007 Y71.294 F6000.000
G1 E5.04088 F1200.00000
G92 E0
G1 Z0.700 F6000.000
G1 X33.217 Y71.414 F6000.000
G1 Z0.200 F6000.000
G1 E2.00000 F1200.00000
G1 F1800.000
G1 X33.217 Y43.586 E2.53538
G1 X50.117 Y43.586 E2.86051
G1 X50.117 Y71.414 E3.39588
G1 X33.277 Y71.414 E3.71986
G1 X33.474 Y71.157 F6000.000
G1 F1800.000
G1 X33.474 Y43.843 E4.24535
G1 X49.859 Y43.843 E4.56058
G1 X49.859 Y71.157 E5.08607
G1 X33.534 Y71.157 E5.40015
G1 X33.731 Y70.900 F6000.000
G1 F1800.000
G1 X33.731 Y44.100 E5.91574
G1 X49.602 Y44.100 E6.22109
G1 X49.602 Y70.900 E6.73668
G1 X33.791 Y70.900 E7.04087
G1 X33.355 Y71.035 F6000.000
G1 E5.04087 F1200.00000
G92 E0
G1 Z0.700 F6000.000
G1 X54.883 Y71.414 F6000.000
G1 Z0.200 F6000.000
G1 E2.00000 F1200.00000
G1 F1800.000
G1 X54.883 Y51.836 E2.37666
G1 X71.783 Y51.836 E2.70179
G1 X71.783 Y71.414 E3.07845
G1 X54.943 Y71.414 E3.40242
G1 X55.141 Y71.157 F6000.000
G1 F1800.000
G1 X55.141 Y52.093 E3.76919
G1 X71.526 Y52.093 E4.08442
G1 X71.526 Y71.157 E4.45119
G1 X55.201 Y71.157 E4.76527
G1 X55.398 Y70.900 F6000.000
G1 F1800.000
G1 X55.398 Y52.350 E5.12215
G1 X71.269 Y52.350 E5.42750
G1 X71.269 Y70.900 E5.78437
G1 X55.458 Y70.900 E6.08856
G1 X55.014 Y71.013 F6000.000
G1 E4.08856 F1200.00000
G92 E0
G1 Z0.700 F6000.000
G1 X62.336 Y49.664 F6000.000
G1 Z0.200 F6000.000
G1 E2.00000 F1200.00000
G1 F1800.000
G1 X62.336 Y46.336 E2.06403
G1 X87.664 Y46.336 E2.55131
G1 X87.664 Y49.664 E2.61535
G1 X62.396 Y49.664 E3.10147
G1 X62.593 Y49.407 F6000.000
G1 F1800.000
G1 X62.593 Y46.593 E3.15562
G1 X87.407 Y46.593 E3.63301
G1 X87.407 Y49.407 E3.68715
G1 X62.653 Y49.407 E4.16338
G1 X62.850 Y49.150 F6000.000
G1 F1800.000
G1 X62.850 Y46.850 E4.20763
G1 X87.150 Y46.850 E4.67513
G1 X87.150 Y49.150 E4.71938
G1 X62.910 Y49.150 E5.18572
G1 X62.450 Y49.163 F6000.000
G1 E3.18572 F1200.00000
G92 E0
G1 Z0.700 F6000.000
G1 X76.550 Y51.836 F6000.000
G1 Z0.200 F6000.000
G1 E2.00000 F1200.00000
G1 F1800.000
G1 X93.450 Y51.836 E2.32513
G1 X93.450 Y71.414 E2.70179
G1 X76.550 Y71.414 E3.02691
G1 X76.550 Y51.896 E3.40242
G1 X76.807 Y52.093 F6000.000
G1 F1800.000
G1 X93.193 Y52.093 E3.71766
G1 X93.193 Y71.157 E4.08442
G1 X76.807 Y71.157 E4.39966
G1 X76.807 Y52.153 E4.76527
G1 X77.064 Y52.350 F6000.000
G1 F1800.000
G1 X92.936 Y52.350 E5.07062
G1 X92.936 Y70.900 E5.42749
G1 X77.064 Y70.900 E5.73284
G1 X77.064 Y52.410 E6.08856
G1 X76.971 Y51.961 F6000.000
G1 E4.08856 F1200.00000
G92 E0
G1 Z0.700 F6000.000
G1 X98.217 Y43.586 F6000.000
G1 Z0.200 F6000.000
G1 E2.00000 F1200.00000
G1 F1800.000
G1 X115.116 Y43.586 E2.32512
G1 X115.116 Y71.414 E2.86050
G1 X98.217 Y71.414 E3.18562
G1 X98.217 Y43.646 E3.71984
G1 X98.474 Y43.843 F6000.000
G1 F1800.000
G1 X114.859 Y43.843 E4.03507
G1 X114.859 Y71.157 E4.56056
G1 X98.474 Y71.157 E4.87579
G1 X98.474 Y43.903 E5.40012
G1 X98.731 Y44.100 F6000.000
G1 F1800.000
G1 X114.602 Y44.100 E5.70545
G1 X114.602 Y70.900 E6.22105
G1 X98.731 Y70.900 E6.52639
G1 X98.731 Y44.160 E7.04083
G1 X98.660 Y43.706 F6000.000
G1 E5.04083 F1200.00000
G92 E0
G1 Z0.700 F6000.000
G1 X119.884 Y43.586 F6000.000
G1 Z0.200 F6000.000
G1 E2.00000 F1200.00000
G1 F1800.000
G1 X136.783 Y43.586 E2.32512
G1 X136.783 Y71.414 E2.86050
G1 X119.884 Y71.414 E3.18562
G1 X119.884 Y43.646 E3.71984
G1 X120.141 Y43.843 F6000.000
G1 F1800.000
G1 X136.526 Y43.843 E4.03507
G1 X136.526 Y71.157 E4.56056
G1 X120.141 Y71.157 E4.87579
G1 X120.141 Y43.903 E5.40012
G1 X120.398 Y44.100 F6000.000
G1 F1800.000
G1 X136.269 Y44.100 E5.70545
G1 X136.269 Y70.900 E6.22105
G1 X120.398 Y70.900 E6.52639
G1 X120.398 Y44.160 E7.04083
G1 X120.327 Y43.706 F6000.000
G1 E5.04083 F1200.00000
G92 E0
G1 Z0.700 F6000.000
G1 X87.664 Y100.336 F6000.000
G1 Z0.200 F6000.000
G1 E2.00000 F1200.00000
G1 F1800.000
G1 X87.664 Y103.664 E2.06403
G1 X62.336 Y103.664 E2.55131
G1 X62.336 Y100.336 E2.61535
G1 X87.604 Y100.336 E3.10147
G1 X87.407 Y100.593 F6000.000
G1 F1800.000
G1 X87.407 Y103.407 E3.15562
G1 X62.593 Y103.407 E3.63301
G1 X62.593 Y100.593 E3.68715
G1 X87.347 Y100.593 E4.16338
G1 X87.150 Y100.850 F6000.000
G1 F1800.000
G1 X87.150 Y103.150 E4.20763
G1 X62.850 Y103.150 E4.67513
G1 X62.850 Y100.850 E4.71938
G1 X87.090 Y100.850 E5.18572
G1 X87.550 Y100.837 F6000.000
G1 E3.18572 F1200.00000
G92 E0
G1 Z0.700 F6000.000
G1 X139.336 Y109.336 F6000.000
G1 Z0.200 F6000.000
G1 E2.00000 F1200.00000
G1 F1800.000
G1 X10.664 Y109.336 E4.47547
G1 X10.664 Y40.664 E5.79662
G1 X139.336 Y40.664 E8.27208
G1 X139.336 Y109.276 E9.59208
G1 X139.593 Y109.593 F6000.000
G1 F1800.000
G1 X10.407 Y109.593 E12.07744
G1 X10.407 Y40.407 E13.40848
G1 X139.593 Y40.407 E15.89384
G1 X139.593 Y109.533 E17.22372
G1 X139.850 Y109.850 F6000.000
G1 F1800.000
G1 X10.150 Y109.850 E19.71898
G1 X10.150 Y40.150 E21.05991
G1 X139.850 Y40.150 E23.55516
G1 X139.850 Y109.790 E24.89494
G1 X139.455 Y109.785 F6000.000
G1 X138.970 Y109.188 F6000.000
G1 F1800.000
G1 X139.188 Y108.970 E24.90089
G1 X139.188 Y108.605 E24.90791
G1 X138.605 Y109.188 E24.92378
G1 X138.241 Y109.188 E24.93080
G1 X139.188 Y108.241 E24.95661
G1 X139.188 Y107.877 E24.96363
G1 X137.877 Y109.188 E24.99936
G1 X137.513 Y109.188 E25.00638
G1 X139.188 Y107.513 E25.05204
G1 X139.188 Y107.148 E25.05906
G1 X137.148 Y109.188 E25.11464
G1 X136.784 Y109.188 E25.12166
G1 X139.188 Y106.784 E25.18718
G1 X139.188 Y106.420 E25.19420
G1 X136.420 Y109.188 E25.26964
G1 X136.056 Y109.188 E25.27666
G1 X139.188 Y106.056 E25.36202
G1 X139.188 Y105.692 E25.36904
G1 X135.692 Y109.188 E25.46434
G1 X135.327 Y109.188 E25.47136
G1 X139.188 Y105.327 E25.57658
G1 X139.188 Y104.963 E25.58360
G1 X134.963 Y109.188 E25.69875
G1 X134.599 Y109.188 E25.70577
G1 X139.188 Y104.599 E25.83085
G1 X139.188 Y104.235 E25.83787
G1 X136.931 Y106.491 E25.89938
G1 X136.931 Y106.127 E25.90640
G1 X139.188 Y103.871 E25.96791
G1 X139.188 Y103.506 E25.97493
G1 X136.931 Y105.763 E26.03644
G1 X136.931 Y105.399 E26.04346
G1 X139.188 Y103.142 E26.10497
G1 X139.188 Y102.778 E26.11199
G1 X136.931 Y105.035 E26.17350
G1 X136.931 Y104.670 E26.18052
G1 X139.188 Y102.414 E26.24203
G1 X139.188 Y102.049 E26.24905
G1 X136.931 Y104.306 E26.31056
G1 X136.931 Y103.942 E26.31758
G1 X139.188 Y101.685 E26.37909
G1 X139.188 Y101.321 E26.38611
G1 X136.931 Y103.578 E26.44762
G1 X136.931 Y103.213 E26.45464
G1 X139.188 Y100.957 E26.51615
G1 X139.188 Y100.593 E26.52317
G1 X136.931 Y102.849 E26.58468
G1 X136.931 Y102.485 E26.59170
G1 X139.188 Y100.228 E26.65321
G1 X139.188 Y99.864 E26.66022
G1 X136.931 Y102.121 E26.72173
G1 X136.931 Y101.757 E26.72875
G1 X139.188 Y99.500 E26.79026
G1 X139.188 Y99.136 E26.79728
G1 X136.931 Y101.392 E26.85879
G1 X136.931 Y101.028 E26.86581
G1 X139.188 Y98.771 E26.92732
G1 X139.188 Y98.407 E26.93434
G1 X136.931 Y100.664 E26.99585
G1 X136.931 Y100.300 E27.00287
G1 X139.188 Y98.043 E27.06438
G1 X139.188 Y97.679 E27.07140
G1 X136.931 Y99.935 E27.13291
G1 X136.931 Y99.571 E27.13993
G1 X139.188 Y97.315 E27.20144
G1 X139.188 Y96.950 E27.20846
G1 X136.931 Y99.207 E27.26997
G1 X136.931 Y98.843 E27.27699
G1 X139.188 Y96.586 E27.33850
G1 X139.188 Y96.222 E27.34552
G1 X136.931 Y98.479 E27.40703
G1 X136.931 Y98.114 E27.41405
G1 X139.188 Y95.858 E27.47556
G1 X139.188 Y95.493 E27.48258
G1 X136.931 Y97.750 E27.54409
G1 X136.931 Y97.386 E27.55111
G1 X139.188 Y95.129 E27.61262
G1 X139.188 Y94.765 E27.61964
G1 X136.931 Y97.022 E27.68115
G1 X136.931 Y96.658 E27.68817
G1 X139.188 Y94.401 E27.74968
G1 X139.188 Y94.037 E27.75670
G1 X136.931 Y96.293 E27.81821
G1 X136.931 Y95.929 E27.82523
G1 X139.188 Y93.672 E27.88674
G1 X139.188 Y93.308 E27.89376
G1 X136.931 Y95.565 E27.95527
G1 X136.931 Y95.201 E27.96229
G1 X139.188 Y92.944 E28.02380
G1 X139.188 Y92.580 E28.03082
G1 X136.931 Y94.836 E28.09233
G1 X136.931 Y94.472 E28.09935
G1 X139.188 Y92.215 E28.16086
G1 X139.188 Y91.851 E28.16788
G1 X136.931 Y94.108 E28.22939
G1 X136.931 Y93.744 E28.23640
G1 X139.188 Y91.487 E28.29791
G1 X139.188 Y91.123 E28.30493
G1 X136.931 Y93.380 E28.36644
G1 X136.931 Y93.015 E28.37346
G1 X139.188 Y90.759 E28.43497
G1 X139.188 Y90.394 E28.44199
G1 X136.931 Y92.651 E28.50350
G1 X136.931 Y92.287 E28.51052
G1 X139.188 Y90.030 E28.57203
G1 X139.188 Y89.666 E28.57905
G1 X136.931 Y91.923 E28.64056
G1 X136.931 Y91.558 E28.64758
G1 X139.188 Y89.302 E28.70909
G1 X139.188 Y88.938 E28.71611
G1 X136.931 Y91.194 E28.77762
G1 X136.931 Y90.830 E28.78464
G1 X139.188 Y88.573 E28.84615
G1 X139.188 Y88.209 E28.85317
G1 X136.931 Y90.466 E28.91468
G1 X136.931 Y90.102 E28.92170
G1 X139.188 Y87.845 E28.98321
G1 X139.188 Y87.481 E28.99023
G1 X136.931 Y89.737 E29.05174
G1 X136.931 Y89.373 E29.05876
G1 X139.188 Y87.116 E29.12027
G1 X139.188 Y86.752 E29.12729
G1 X136.931 Y89.009 E29.18880
G1 X136.931 Y88.645 E29.19582
G1 X139.188 Y86.388 E29.25733
G1 X139.188 Y86.024 E29.26435
G1 X136.931 Y88.280 E29.32586
G1 X136.931 Y87.916 E29.33288
G1 X139.188 Y85.660 E29.39439
G1 X139.188 Y85.295 E29.40141
G1 X136.931 Y87.552 E29.46292
G1 X136.931 Y87.188 E29.46994
G1 X139.188 Y84.931 E29.53145
G1 X139.188 Y84.567 E29.53847
G1 X136.931 Y86.824 E29.59998
G1 X136.931 Y86.459 E29.60700
G1 X139.188 Y84.203 E29.66851
G1 X139.188 Y83.838 E29.67553
G1 X136.931 Y86.095 E29.73704
G1 X136.931 Y85.731 E29.74406
G1 X139.188 Y83.474 E29.80557
G1 X139.188 Y83.110 E29.81259
G1 X136.931 Y85.367 E29.87409
G1 X136.931 Y85.002 E29.88111
G1 X139.188 Y82.746 E29.94262
G1 X139.188 Y82.382 E29.94964
G1 X136.931 Y84.638 E30.01115
G1 X136.931 Y84.274 E30.01817
G1 X139.188 Y82.017 E30.07968
G1 X139.188 Y81.653 E30.08670
G1 X136.931 Y83.910 E30.14821
G1 X136.931 Y83.546 E30.15523
G1 X139.188 Y81.289 E30.21674
G1 X139.188 Y80.925 E30.22376
G1 X136.931 Y83.181 E30.28527
G1 X136.931 Y82.817 E30.29229
G1 X139.188 Y80.560 E30.35380
G1 X139.188 Y80.196 E30.36082
G1 X136.931 Y82.453 E30.42233
G1 X136.931 Y82.089 E30.42935
G1 X139.188 Y79.832 E30.49086
G1 X139.188 Y79.468 E30.49788
G1 X136.931 Y81.725 E30.55939
G1 X136.931 Y81.360 E30.56641
G1 X139.188 Y79.104 E30.62792
G1 X139.188 Y78.739 E30.63494
G1 X136.931 Y80.996 E30.69645
G1 X136.931 Y80.632 E30.70347
G1 X139.188 Y78.375 E30.76498
G1 X139.188 Y78.011 E30.77200
G1 X136.931 Y80.268 E30.83351
G1 X136.931 Y79.903 E30.84053
G1 X139.188 Y77.647 E30.90204
G1 X139.188 Y77.282 E30.90906
G1 X136.931 Y79.539 E30.97057
G1 X136.931 Y79.175 E30.97759
G1 X139.188 Y76.918 E31.03910
G1 X139.188 Y76.554 E31.04612
G1 X136.931 Y78.811 E31.10763
G1 X136.931 Y78.447 E31.11465
G1 X139.188 Y76.190 E31.17616
G1 X139.188 Y75.826 E31.18318
G1 X136.576 Y78.438 E31.25438
G1 X136.211 Y78.438 E31.26140
G1 X139.188 Y75.461 E31.34252
G1 X139.188 Y75.097 E31.34954
G1 X135.847 Y78.438 E31.44060
G1 X135.483 Y78.438 E31.44762
G1 X139.188 Y74.733 E31.54860
G1 X139.188 Y74.369 E31.55562
G1 X135.119 Y78.438 E31.66653
G1 X134.755 Y78.438 E31.67355
G1 X139.188 Y74.005 E31.79439
G1 X139.188 Y73.640 E31.80141
G1 X134.390 Y78.438 E31.93217
G1 X134.026 Y78.438 E31.93919
G1 X139.188 Y73.276 E32.07988
G1 X139.188 Y72.912 E32.08690
G1 X133.662 Y78.438 E32.23752
G1 X133.298 Y78.438 E32.24454
G1 X139.188 Y72.548 E32.40509
G1 X139.188 Y72.183 E32.41211
G1 X132.933 Y78.438 E32.58258
G1 X132.569 Y78.438 E32.58960
G1 X139.188 Y71.819 E32.77000
G1 X139.188 Y71.455 E32.77702
G1 X132.205 Y78.438 E32.96735
G1 X131.841 Y78.438 E32.97437
G1 X139.188 Y71.091 E33.17463
G1 X139.188 Y70.727 E33.18165
G1 X131.477 Y78.438 E33.39183
