; generated by Slic3r 1.3.1-dev (Build (Unknown revision)) on 2020-07-08 at 15:46:30

; external perimeters extrusion width = 0.42mm (2.83mm^3/s)
; perimeters extrusion width = 0.40mm (3.57mm^3/s)
; infill extrusion width = 0.42mm (4.90mm^3/s)
; solid infill extrusion width = 0.42mm (1.51mm^3/s)
; top infill extrusion width = 0.42mm (1.13mm^3/s)

; external perimeters extrusion width = 0.42mm (2.83mm^3/s)
; perimeters extrusion width = 0.40mm (3.57mm^3/s)
; infill extrusion width = 0.42mm (4.90mm^3/s)
; solid infill extrusion width = 0.42mm (1.51mm^3/s)
; top infill extrusion width = 0.42mm (1.13mm^3/s)

G92 E0
;D3D:START:START
T0
M104 S215 T0

G21
G90
M107
T0
G28
G29
M109 T0 S215 T0
G0 F3000
M107
T0
G92 E0
G0 X0 Y149 Z0.1 F3600
G1 Y49 E6.5 F1200
G0 Z1
G92 E0
; Filament gcode

G21 ; set units to millimeters
G90 ; use absolute coordinates
M82 ; use absolute distances for extrusion
G92 E0
G1 Z0.200 F6000.000
G1 E-0.50000 F1200.00000
G92 E0
G1 X52.652 Y69.982 F6000.000
G1 E0.50000 F1200.00000
G1 F1080.000
G1 X53.256 Y69.554 E0.50889
G1 X54.276 Y69.013 E0.52276
G1 X55.233 Y68.655 E0.53505
G1 X55.834 Y68.477 E0.54258
G1 X57.128 Y68.191 E0.55850
G1 X57.505 Y68.124 E0.56311
G1 X59.369 Y67.885 E0.58568
G1 X61.446 Y67.733 E0.61071
G1 X63.603 Y67.659 E0.63665
G1 X66.116 Y67.643 E0.66685
G1 X68.844 Y67.682 E0.69963
G1 X74.459 Y67.863 E0.76714
G1 X77.437 Y67.995 E0.80296
G1 X80.468 Y68.155 E0.83943
G1 X86.314 Y68.510 E0.90980
G1 X95.312 Y69.115 E1.01817
G1 X97.119 Y69.638 E1.04077
G1 X98.550 Y70.858 E1.06337
G1 X99.354 Y72.558 E1.08597
G1 X99.471 Y73.575 E1.09828
G1 X99.471 Y75.552 E1.12202
G1 X99.076 Y77.390 E1.14462
G1 X97.959 Y78.904 E1.16722
G1 X95.745 Y79.960 E1.19670
G1 X92.159 Y80.534 E1.24034
G1 X89.482 Y80.916 E1.27283
G1 X86.635 Y81.280 E1.30732
G1 X83.667 Y81.612 E1.34321
G1 X80.696 Y81.891 E1.37907
G1 X77.511 Y82.128 E1.41744
G1 X74.534 Y82.283 E1.45326
G1 X71.476 Y82.356 E1.49003
G1 X68.495 Y82.318 E1.52585
G1 X65.661 Y82.166 E1.55994
G1 X63.016 Y81.903 E1.59189
G1 X60.595 Y81.537 E1.62131
G1 X58.424 Y81.075 E1.64798
G1 X56.513 Y80.522 E1.67189
G1 X56.090 Y80.374 E1.67727
G1 X54.844 Y79.865 E1.69344
G1 X54.239 Y79.562 E1.70158
G1 X53.353 Y79.031 E1.71399
G1 X52.420 Y78.287 E1.72833
G1 X51.906 Y77.749 E1.73727
G1 X50.804 Y75.766 E1.76453
G1 X50.668 Y75.232 E1.77115
G1 X50.596 Y73.353 E1.79374
G1 X50.970 Y72.189 E1.80844
G1 X51.208 Y71.693 E1.81505
G1 X52.613 Y70.028 E1.84123
G1 X52.743 Y70.110 F6000.000
G1 F1080.000
G1 X53.346 Y69.682 E1.85013
G1 X54.331 Y69.160 E1.86351
G1 X55.288 Y68.802 E1.87579
G1 X55.868 Y68.631 E1.88306
G1 X57.162 Y68.344 E1.89898
G1 X57.526 Y68.280 E1.90343
G1 X59.380 Y68.041 E1.92589
G1 X61.451 Y67.890 E1.95085
G1 X63.733 Y67.813 E1.97827
G1 X66.205 Y67.800 E2.00798
G1 X68.839 Y67.839 E2.03964
G1 X74.453 Y68.020 E2.10714
G1 X77.430 Y68.152 E2.14294
G1 X80.459 Y68.312 E2.17939
G1 X86.304 Y68.666 E2.24975
G1 X95.301 Y69.272 E2.35811
G1 X97.073 Y69.792 E2.38031
G1 X98.466 Y71.006 E2.40250
G1 X99.314 Y73.575 E2.43501
G1 X99.314 Y75.552 E2.45876
G1 X98.919 Y77.356 E2.48096
G1 X97.805 Y78.829 E2.50315
G1 X95.719 Y79.806 E2.53083
G1 X92.137 Y80.379 E2.57441
G1 X89.462 Y80.760 E2.60688
G1 X86.618 Y81.124 E2.64134
G1 X83.652 Y81.455 E2.67720
G1 X80.681 Y81.735 E2.71306
G1 X77.503 Y81.971 E2.75135
G1 X74.526 Y82.127 E2.78717
G1 X71.472 Y82.199 E2.82388
G1 X68.497 Y82.161 E2.85963
G1 X65.670 Y82.009 E2.89365
G1 X63.032 Y81.747 E2.92551
G1 X60.619 Y81.382 E2.95483
G1 X58.457 Y80.922 E2.98139
G1 X56.557 Y80.372 E3.00516
G1 X56.150 Y80.229 E3.01035
G1 X54.904 Y79.719 E3.02652
G1 X54.319 Y79.427 E3.03438
G1 X53.433 Y78.896 E3.04679
G1 X52.533 Y78.178 E3.06062
G1 X52.019 Y77.641 E3.06955
G1 X50.957 Y75.727 E3.09586
G1 X50.820 Y75.194 E3.10248
G1 X50.756 Y73.348 E3.12467
G1 X51.111 Y72.257 E3.13845
G1 X51.349 Y71.761 E3.14506
G1 X52.704 Y70.156 E3.17030
G1 X52.834 Y70.238 F6000.000
G1 F1080.000
G1 X53.437 Y69.810 E3.17920
G1 X54.386 Y69.307 E3.19209
G1 X55.343 Y68.949 E3.20437
G1 X55.902 Y68.784 E3.21138
G1 X57.196 Y68.498 E3.22730
G1 X57.547 Y68.436 E3.23158
G1 X59.392 Y68.198 E3.25394
G1 X61.457 Y68.047 E3.27882
G1 X63.734 Y67.970 E3.30619
G1 X66.202 Y67.957 E3.33586
G1 X68.835 Y67.996 E3.36750
G1 X74.448 Y68.177 E3.43498
G1 X77.423 Y68.309 E3.47077
G1 X80.450 Y68.469 E3.50718
G1 X86.294 Y68.823 E3.57754
G1 X95.290 Y69.429 E3.68589
G1 X97.027 Y69.946 E3.70767
G1 X98.379 Y71.154 E3.72945
G1 X99.157 Y73.575 E3.76001
G1 X99.157 Y75.552 E3.78376
G1 X98.762 Y77.321 E3.80554
G1 X97.651 Y78.753 E3.82732
G1 X95.692 Y79.651 E3.85321
G1 X94.628 Y79.830 E3.86618
G1 X92.115 Y80.223 E3.89675
G1 X89.502 Y80.596 E3.92846
G1 X86.600 Y80.968 E3.96361
G1 X83.637 Y81.299 E3.99944
G1 X80.666 Y81.579 E4.03530
G1 X77.495 Y81.814 E4.07352
G1 X74.518 Y81.970 E4.10934
G1 X71.468 Y82.042 E4.14599
G1 X68.499 Y82.003 E4.18167
G1 X65.679 Y81.852 E4.21561
G1 X63.048 Y81.591 E4.24738
G1 X60.643 Y81.227 E4.27661
G1 X58.490 Y80.768 E4.30306
G1 X56.602 Y80.221 E4.32668
G1 X56.209 Y80.083 E4.33168
G1 X54.963 Y79.574 E4.34786
G1 X54.400 Y79.292 E4.35542
G1 X53.514 Y78.761 E4.36783
G1 X52.647 Y78.069 E4.38117
G1 X52.133 Y77.532 E4.39010
G1 X51.109 Y75.688 E4.41545
G1 X50.972 Y75.155 E4.42206
G1 X50.917 Y73.343 E4.44384
G1 X51.253 Y72.325 E4.45672
G1 X51.491 Y71.829 E4.46333
G1 X52.795 Y70.284 E4.48763
G1 E3.98763 F1200.00000
G92 E0
G1 X53.414 Y73.680 F6000.000
G1 E0.50000 F1200.00000
G1 F1080.000
G1 X53.865 Y72.741 E0.51329
G1 X54.132 Y72.425 E0.51855
G1 X54.989 Y71.817 E0.53196
G1 X55.175 Y71.719 E0.53464
G1 X56.393 Y71.271 E0.55119
G1 X57.845 Y70.953 E0.57014
G1 X59.558 Y70.728 E0.59216
G1 X61.527 Y70.581 E0.61734
G1 X63.736 Y70.505 E0.64552
G1 X66.157 Y70.492 E0.67638
G1 X68.758 Y70.530 E0.70955
G1 X71.505 Y70.607 E0.74458
G1 X77.314 Y70.842 E0.81871
G1 X80.299 Y70.999 E0.85682
G1 X86.139 Y71.353 E0.93142
G1 X95.751 Y72.002 E1.05424
G1 X96.622 Y72.937 E1.07053
G1 X96.622 Y76.145 E1.11144
G1 X95.856 Y77.052 E1.12658
G1 X91.773 Y77.711 E1.17931
G1 X89.138 Y78.088 E1.21325
G1 X86.325 Y78.448 E1.24940
G1 X83.407 Y78.774 E1.28684
G1 X80.405 Y79.057 E1.32528
G1 X77.390 Y79.281 E1.36383
G1 X74.351 Y79.440 E1.40263
G1 X71.395 Y79.508 E1.44033
G1 X68.518 Y79.468 E1.47701
G1 X65.799 Y79.320 E1.51173
G1 X63.282 Y79.066 E1.54399
G1 X60.955 Y78.708 E1.57400
G1 X58.938 Y78.269 E1.60031
G1 X57.283 Y77.779 E1.62233
G1 X55.866 Y77.204 E1.64183
G1 X54.723 Y76.531 E1.65873
G1 X54.554 Y76.395 E1.66150
G1 X53.820 Y75.628 E1.67503
G1 X53.617 Y75.263 E1.68037
G1 X53.358 Y74.250 E1.69370
G1 X53.408 Y73.740 E1.70023
G1 X53.577 Y73.726 F6000.000
G1 F1080.000
G1 X54.006 Y72.832 E1.71287
G1 X54.245 Y72.549 E1.71760
G1 X55.077 Y71.959 E1.73059
G1 X55.244 Y71.871 E1.73300
G1 X56.435 Y71.433 E1.74918
G1 X57.871 Y71.118 E1.76792
G1 X59.573 Y70.894 E1.78981
G1 X61.535 Y70.747 E1.81490
G1 X63.738 Y70.672 E1.84300
G1 X66.155 Y70.659 E1.87382
G1 X68.754 Y70.697 E1.90696
G1 X71.499 Y70.774 E1.94197
G1 X77.306 Y71.008 E2.01607
G1 X80.285 Y71.166 E2.05410
G1 X86.128 Y71.520 E2.12874
G1 X95.674 Y72.164 E2.25072
G1 X96.455 Y73.002 E2.26533
G1 X96.455 Y76.084 E2.30463
G1 X95.768 Y76.898 E2.31821
G1 X91.738 Y77.548 E2.37026
G1 X89.105 Y77.924 E2.40417
G1 X86.306 Y78.282 E2.44015
G1 X83.390 Y78.608 E2.47755
G1 X80.406 Y78.890 E2.51577
G1 X77.362 Y79.116 E2.55468
G1 X74.367 Y79.272 E2.59292
G1 X71.392 Y79.341 E2.63086
G1 X68.492 Y79.301 E2.66783
G1 X65.810 Y79.153 E2.70208
G1 X63.263 Y78.896 E2.73472
G1 X61.032 Y78.553 E2.76351
G1 X59.035 Y78.122 E2.78955
G1 X57.265 Y77.596 E2.81309
G1 X55.836 Y77.003 E2.83282
G1 X54.819 Y76.394 E2.84794
G1 X54.666 Y76.272 E2.85043
G1 X53.955 Y75.529 E2.86354
G1 X53.773 Y75.200 E2.86833
G1 X53.526 Y74.237 E2.88101
G1 X53.571 Y73.786 E2.88679
G1 X53.740 Y73.772 F6000.000
G1 F1080.000
G1 X54.148 Y72.923 E2.89879
G1 X54.359 Y72.673 E2.90297
G1 X55.165 Y72.101 E2.91556
G1 X55.312 Y72.023 E2.91769
G1 X56.477 Y71.594 E2.93352
G1 X57.896 Y71.283 E2.95204
G1 X59.587 Y71.060 E2.97379
G1 X61.542 Y70.914 E2.99878
G1 X63.740 Y70.839 E3.02683
G1 X66.154 Y70.825 E3.05760
G1 X68.750 Y70.863 E3.09070
G1 X71.493 Y70.941 E3.12569
G1 X77.299 Y71.175 E3.19977
G1 X80.276 Y71.332 E3.23778
G1 X86.118 Y71.686 E3.31240
G1 X95.596 Y72.325 E3.43352
G1 X96.289 Y73.068 E3.44647
G1 X96.289 Y76.023 E3.48415
G1 X95.680 Y76.744 E3.49618
G1 X91.714 Y77.383 E3.54739
G1 X89.083 Y77.759 E3.58128
G1 X86.286 Y78.117 E3.61722
G1 X83.374 Y78.443 E3.65459
G1 X80.391 Y78.724 E3.69279
G1 X77.353 Y78.950 E3.73163
G1 X74.359 Y79.106 E3.76985
G1 X71.390 Y79.175 E3.80772
G1 X68.500 Y79.134 E3.84457
G1 X65.821 Y78.987 E3.87877
G1 X63.286 Y78.731 E3.91126
G1 X61.021 Y78.381 E3.94048
G1 X59.074 Y77.960 E3.96589
G1 X57.324 Y77.440 E3.98915
G1 X55.916 Y76.857 E4.00859
G1 X54.914 Y76.256 E4.02348
G1 X54.779 Y76.149 E4.02568
G1 X54.090 Y75.429 E4.03838
G1 X53.929 Y75.138 E4.04262
G1 X53.695 Y74.224 E4.05465
G1 X53.734 Y73.831 E4.05968
G1 X53.903 Y73.817 F6000.000
G1 F1080.000
G1 X54.289 Y73.015 E4.07104
G1 X54.473 Y72.796 E4.07468
G1 X55.252 Y72.244 E4.08686
G1 X55.381 Y72.176 E4.08872
G1 X56.519 Y71.756 E4.10418
G1 X57.922 Y71.448 E4.12250
G1 X59.570 Y71.229 E4.14370
G1 X61.550 Y71.080 E4.16901
G1 X63.742 Y71.005 E4.19698
G1 X66.152 Y70.992 E4.22770
G1 X68.746 Y71.030 E4.26078
G1 X71.483 Y71.107 E4.29569
G1 X77.296 Y71.341 E4.36986
G1 X80.270 Y71.499 E4.40784
G1 X86.105 Y71.852 E4.48237
G1 X95.519 Y72.487 E4.60267
G1 X96.122 Y73.133 E4.61394
G1 X96.122 Y75.962 E4.65000
G1 X95.592 Y76.590 E4.66047
G1 X91.697 Y77.217 E4.71077
G1 X89.069 Y77.592 E4.74462
G1 X86.267 Y77.951 E4.78063
G1 X83.367 Y78.276 E4.81784
G1 X80.376 Y78.558 E4.85614
G1 X77.356 Y78.783 E4.89476
G1 X74.352 Y78.939 E4.93311
G1 X71.388 Y79.008 E4.97091
G1 X68.507 Y78.968 E5.00764
G1 X65.832 Y78.821 E5.04179
G1 X63.309 Y78.566 E5.07413
G1 X61.054 Y78.218 E5.10323
G1 X59.112 Y77.798 E5.12856
G1 X57.437 Y77.303 E5.15083
G1 X55.996 Y76.710 E5.17069
G1 X55.009 Y76.119 E5.18536
G1 X54.892 Y76.025 E5.18727
G1 X54.226 Y75.329 E5.19956
G1 X54.085 Y75.076 E5.20325
G1 X53.864 Y74.211 E5.21463
G1 X53.897 Y73.877 E5.21891
G1 X54.066 Y73.863 F6000.000
G1 F1080.000
G1 X54.430 Y73.106 E5.22962
G1 X54.586 Y72.920 E5.23272
G1 X55.340 Y72.386 E5.24450
G1 X55.449 Y72.328 E5.24607
G1 X56.560 Y71.917 E5.26118
G1 X57.947 Y71.612 E5.27928
G1 X59.617 Y71.392 E5.30076
G1 X61.557 Y71.247 E5.32556
G1 X63.745 Y71.172 E5.35347
G1 X66.151 Y71.159 E5.38414
G1 X68.742 Y71.197 E5.41718
G1 X71.478 Y71.274 E5.45209
G1 X77.283 Y71.508 E5.52616
G1 X80.261 Y71.665 E5.56417
G1 X86.095 Y72.019 E5.63869
G1 X95.442 Y72.649 E5.75814
G1 X95.955 Y73.199 E5.76774
G1 X95.955 Y75.901 E5.80219
G1 X95.504 Y76.435 E5.81111
G1 X91.672 Y77.052 E5.86059
G1 X89.046 Y77.427 E5.89441
G1 X86.248 Y77.786 E5.93038
G1 X83.349 Y78.110 E5.96756
G1 X80.361 Y78.392 E6.00583
G1 X77.344 Y78.616 E6.04440
G1 X74.344 Y78.773 E6.08270
G1 X71.386 Y78.841 E6.12044
G1 X68.515 Y78.801 E6.15704
G1 X65.843 Y78.654 E6.19115
G1 X63.333 Y78.401 E6.22333
G1 X61.086 Y78.055 E6.25230
G1 X59.150 Y77.635 E6.27756
G1 X57.488 Y77.145 E6.29966
G1 X56.141 Y76.597 E6.31820
G1 X55.104 Y75.982 E6.33356
G1 X55.004 Y75.902 E6.33520
G1 X54.361 Y75.230 E6.34706
G1 X54.241 Y75.014 E6.35021
G1 X54.033 Y74.198 E6.36094
G1 X54.060 Y73.923 E6.36447
G1 X54.229 Y73.909 F6000.000
G1 F1080.000
G1 X54.571 Y73.197 E6.37454
G1 X54.700 Y73.044 E6.37710
G1 X55.518 Y72.480 E6.38976
G1 X56.602 Y72.079 E6.40450
G1 X57.973 Y71.777 E6.42239
G1 X59.632 Y71.558 E6.44373
G1 X61.564 Y71.414 E6.46844
G1 X63.747 Y71.339 E6.49628
G1 X66.149 Y71.325 E6.52691
G1 X68.738 Y71.363 E6.55992
G1 X71.473 Y71.440 E6.59481
G1 X77.276 Y71.674 E6.66884
G1 X80.251 Y71.831 E6.70684
G1 X86.084 Y72.185 E6.78134
G1 X95.365 Y72.810 E6.89994
G1 X95.789 Y73.265 E6.90786
G1 X95.789 Y75.840 E6.94070
G1 X95.416 Y76.281 E6.94806
G1 X94.065 Y76.510 E6.96553
G1 X91.642 Y76.889 E6.99680
G1 X89.018 Y77.263 E7.03060
G1 X86.229 Y77.620 E7.06644
G1 X83.325 Y77.945 E7.10370
G1 X80.347 Y78.226 E7.14184
G1 X77.333 Y78.450 E7.18037
G1 X74.337 Y78.606 E7.21862
G1 X71.383 Y78.675 E7.25629
G1 X68.522 Y78.635 E7.29277
G1 X65.855 Y78.488 E7.32683
G1 X63.356 Y78.236 E7.35885
G1 X61.119 Y77.891 E7.38770
G1 X59.189 Y77.473 E7.41289
G1 X57.539 Y76.986 E7.43482
G1 X56.210 Y76.445 E7.45311
G1 X55.200 Y75.845 E7.46810
G1 X55.117 Y75.779 E7.46945
G1 X54.496 Y75.130 E7.48089
G1 X54.397 Y74.952 E7.48349
G1 X54.201 Y74.186 E7.49358
G1 X54.223 Y73.968 E7.49636
G1 X54.392 Y73.954 F6000.000
G1 F1080.000
G1 X54.712 Y73.288 E7.50578
G1 X54.814 Y73.167 E7.50780
G1 X55.586 Y72.632 E7.51977
G1 X56.644 Y72.240 E7.53415
G1 X57.998 Y71.942 E7.55184
G1 X59.629 Y71.726 E7.57281
G1 X61.572 Y71.580 E7.59765
G1 X63.749 Y71.505 E7.62543
G1 X66.141 Y71.492 E7.65593
G1 X68.733 Y71.530 E7.68898
G1 X74.324 Y71.710 E7.76030
G1 X77.270 Y71.841 E7.79790
G1 X83.190 Y72.171 E7.87349
G1 X88.845 Y72.532 E7.94574
G1 X95.288 Y72.972 E8.02807
G1 X95.622 Y73.330 E8.03432
G1 X95.622 Y75.779 E8.06554
G1 X95.328 Y76.127 E8.07135
G1 X94.034 Y76.346 E8.08808
G1 X91.617 Y76.724 E8.11927
G1 X88.996 Y77.098 E8.15303
G1 X86.210 Y77.454 E8.18884
G1 X83.308 Y77.779 E8.22607
G1 X80.332 Y78.060 E8.26418
G1 X77.321 Y78.284 E8.30267
G1 X74.329 Y78.440 E8.34087
G1 X71.381 Y78.508 E8.37847
G1 X68.530 Y78.468 E8.41483
G1 X65.866 Y78.322 E8.44885
G1 X63.379 Y78.071 E8.48071
G1 X61.152 Y77.728 E8.50944
G1 X59.227 Y77.311 E8.53455
G1 X57.591 Y76.827 E8.55631
G1 X56.279 Y76.293 E8.57437
G1 X55.230 Y75.655 E8.59002
G1 X54.631 Y75.030 E8.60105
G1 X54.553 Y74.890 E8.60310
G1 X54.370 Y74.173 E8.61254
G1 X54.386 Y74.014 E8.61457
G1 X54.555 Y74.000 F6000.000
G1 F1080.000
G1 X54.853 Y73.380 E8.62334
G1 X54.928 Y73.291 E8.62482
G1 X55.655 Y72.785 E8.63612
G1 X56.685 Y72.402 E8.65014
G1 X58.024 Y72.107 E8.66761
G1 X59.648 Y71.891 E8.68851
G1 X61.579 Y71.747 E8.71319
G1 X63.751 Y71.672 E8.74090
G1 X66.141 Y71.659 E8.77137
G1 X68.729 Y71.696 E8.80438
G1 X74.317 Y71.876 E8.87565
G1 X77.262 Y72.007 E8.91324
G1 X83.181 Y72.337 E8.98883
G1 X88.834 Y72.698 E9.06105
G1 X95.211 Y73.134 E9.14253
G1 X95.455 Y73.396 E9.14711
G1 X95.455 Y75.718 E9.17672
G1 X95.240 Y75.973 E9.18097
G1 X91.596 Y76.558 E9.22802
G1 X88.977 Y76.932 E9.26175
G1 X86.194 Y77.288 E9.29753
G1 X83.292 Y77.613 E9.33476
G1 X80.317 Y77.894 E9.37286
G1 X77.310 Y78.117 E9.41130
G1 X74.322 Y78.273 E9.44945
G1 X71.379 Y78.341 E9.48699
G1 X68.537 Y78.302 E9.52322
G1 X65.877 Y78.156 E9.55719
G1 X63.402 Y77.906 E9.58890
G1 X61.185 Y77.564 E9.61750
G1 X59.265 Y77.149 E9.64254
G1 X57.642 Y76.669 E9.66413
G1 X56.348 Y76.141 E9.68194
G1 X55.342 Y75.532 E9.69693
G1 X54.767 Y74.930 E9.70755
G1 X54.710 Y74.828 E9.70904
G1 X54.539 Y74.160 E9.71783
G1 X54.549 Y74.060 E9.71912
G1 E9.21912 F1200.00000
G92 E0
G1 X95.134 Y73.295 F6000.000
G1 E0.50000 F1200.00000
G1 F1080.000
G1 X95.289 Y73.462 E0.50290
G1 X95.289 Y75.657 E0.53089
G1 X95.152 Y75.819 E0.53359
G1 X91.571 Y76.393 E0.57983
G1 X88.954 Y76.767 E0.61353
G1 X86.174 Y77.123 E0.64928
G1 X83.276 Y77.447 E0.68646
G1 X80.302 Y77.728 E0.72453
G1 X77.295 Y77.951 E0.76298
G1 X74.315 Y78.107 E0.80103
G1 X71.376 Y78.175 E0.83850
G1 X68.550 Y78.135 E0.87454
G1 X65.881 Y77.989 E0.90862
G1 X63.425 Y77.740 E0.94009
G1 X61.226 Y77.402 E0.96846
G1 X59.303 Y76.986 E0.99354
G1 X57.680 Y76.505 E1.01513
G1 X56.417 Y75.989 E1.03253
G1 X55.485 Y75.433 E1.04636
G1 X54.902 Y74.831 E1.05705
G1 X54.866 Y74.766 E1.05800
G1 X54.708 Y74.147 E1.06614
G1 X54.718 Y74.046 E1.06744
G1 X54.994 Y73.471 E1.07557
G1 X55.041 Y73.415 E1.07650
G1 X55.723 Y72.937 E1.08712
G1 X56.727 Y72.563 E1.10078
G1 X58.049 Y72.271 E1.11804
G1 X59.676 Y72.056 E1.13897
G1 X61.587 Y71.913 E1.16339
G1 X63.749 Y71.839 E1.19098
G1 X66.144 Y71.825 E1.22151
G1 X68.725 Y71.863 E1.25443
G1 X74.309 Y72.043 E1.32565
G1 X77.252 Y72.174 E1.36322
G1 X80.223 Y72.331 E1.40114
G1 X86.053 Y72.684 E1.47561
G1 X95.074 Y73.291 E1.59089
G1 E1.09089 F1200.00000
G92 E0
G1 X54.876 Y74.134 F6000.000
G1 E0.50000 F1200.00000
G1 F1080.000
G1 X54.881 Y74.091 E0.50055
G1 X55.155 Y73.539 E0.50842
G1 X55.792 Y73.089 E0.51835
G1 X56.769 Y72.725 E0.53165
G1 X58.075 Y72.436 E0.54870
G1 X59.691 Y72.222 E0.56949
G1 X61.594 Y72.080 E0.59382
