; generated by Slic3r 1.3.0 on 2020-09-11 at 17:12:24

; external perimeters extrusion width = 0.44mm (2.86mm^3/s)
; perimeters extrusion width = 0.56mm (4.14mm^3/s)
; infill extrusion width = 0.50mm (5.48mm^3/s)
; solid infill extrusion width = 0.56mm (3.10mm^3/s)
; top infill extrusion width = 0.45mm (2.44mm^3/s)

M107
;D3D:START:START
T0
M104 S215 T0

G21
G90
M107
T0
G28
G29
M109 T0 S215 T0
G0 F3000
M107
T0
G92 E0
G0 X0 Y149 Z0.1 F3600
G1 Y49 E6.5 F1200
G0 Z1
G92 E0
; Filament gcode

G21 ; set units to millimeters
G90 ; use absolute coordinates
M82 ; use absolute distances for extrusion
G92 E0
G1 Z0.200 F6000.000
G1 E-2.00000 F1200.00000
G92 E0
G1 X36.453 Y-3.145 F6000.000
G1 E2.00000 F1200.00000
G1 F1800
G1 X38.039 Y-4.172 E2.03636
G1 X39.907 Y-4.460 E2.07271
G1 X41.729 Y-3.958 E2.10907
G1 X42.837 Y-3.145 E2.13550
G1 X153.145 Y107.163 E5.13673
G1 X154.172 Y108.750 E5.17308
G1 X154.460 Y110.617 E5.20944
G1 X153.958 Y112.439 E5.24580
G1 X153.145 Y113.547 E5.27223
G1 X113.547 Y153.145 E6.34960
G1 X111.961 Y154.172 E6.38595
G1 X110.093 Y154.460 E6.42231
G1 X108.271 Y153.958 E6.45867
G1 X107.163 Y153.145 E6.48510
G1 X-3.145 Y42.837 E9.48632
G1 X-4.172 Y41.250 E9.52268
G1 X-4.460 Y39.383 E9.55904
G1 X-3.958 Y37.561 E9.59539
G1 X-3.145 Y36.453 E9.62182
G1 X36.410 Y-3.103 E10.69803
G1 X36.634 Y-2.964 F6000.000
G1 F1800
G1 X38.181 Y-3.951 E10.73333
G1 X39.999 Y-4.196 E10.76862
G1 X41.751 Y-3.653 E10.80392
G1 X42.655 Y-2.964 E10.82578
G1 X152.964 Y107.345 E13.82700
G1 X153.951 Y108.891 E13.86230
G1 X154.196 Y110.710 E13.89759
G1 X153.653 Y112.462 E13.93289
G1 X152.964 Y113.366 E13.95475
G1 X113.365 Y152.964 E15.03212
G1 X111.819 Y153.951 E15.06741
G1 X110.001 Y154.196 E15.10271
G1 X108.249 Y153.653 E15.13800
G1 X107.345 Y152.964 E15.15986
G1 X-2.964 Y42.655 E18.16109
G1 X-3.951 Y41.109 E18.19638
G1 X-4.196 Y39.290 E18.23168
G1 X-3.653 Y37.538 E18.26697
G1 X-2.964 Y36.634 E18.28883
G1 X36.592 Y-2.921 E19.36504
G1 E17.36504 F1200.00000
G92 E0
G1 X95.380 Y127.266 F6000.000
G1 E2.00000 F1200.00000
G1 F1800
G1 X96.202 Y126.951 E2.01694
G1 X97.127 Y126.987 E2.03474
G1 X97.906 Y127.384 E2.05157
G1 X100.126 Y129.604 E2.11198
G1 X100.630 Y130.226 E2.12737
G1 X100.864 Y131.101 E2.14480
G1 X100.722 Y131.996 E2.16223
G1 X100.229 Y132.756 E2.17966
G1 X99.469 Y133.249 E2.19709
G1 X98.574 Y133.391 E2.21452
G1 X97.699 Y133.156 E2.23195
G1 X97.077 Y132.653 E2.24734
G1 X94.857 Y130.433 E2.30775
G1 X94.462 Y129.658 E2.32449
G1 X94.415 Y128.753 E2.34192
G1 X94.739 Y127.907 E2.35935
G1 X95.338 Y127.309 E2.37563
G1 X95.523 Y127.487 F6000.000
G1 F1800
G1 X96.245 Y127.210 E2.39050
G1 X97.060 Y127.242 E2.40620
G1 X97.753 Y127.594 E2.42116
G1 X99.935 Y129.777 E2.48053
G1 X100.395 Y130.345 E2.49460
G1 X100.602 Y131.115 E2.50993
G1 X100.477 Y131.902 E2.52526
G1 X100.043 Y132.570 E2.54059
G1 X99.375 Y133.004 E2.55592
G1 X98.588 Y133.128 E2.57124
G1 X97.818 Y132.922 E2.58657
G1 X97.250 Y132.462 E2.60065
G1 X95.068 Y130.280 E2.66002
G1 X94.716 Y129.590 E2.67492
G1 X94.674 Y128.794 E2.69025
G1 X94.960 Y128.050 E2.70558
G1 X95.481 Y127.529 E2.71975
G1 X95.666 Y127.707 F6000.000
G1 F1800
G1 X96.287 Y127.469 E2.73255
G1 X96.994 Y127.496 E2.74615
G1 X97.600 Y127.805 E2.75924
G1 X99.744 Y129.949 E2.81757
G1 X100.161 Y130.464 E2.83033
G1 X100.339 Y131.128 E2.84356
G1 X100.232 Y131.807 E2.85678
G1 X99.857 Y132.384 E2.87001
G1 X99.281 Y132.759 E2.88324
G1 X98.602 Y132.866 E2.89646
G1 X97.937 Y132.688 E2.90969
G1 X97.422 Y132.271 E2.92245
G1 X95.278 Y130.127 E2.98078
G1 X94.970 Y129.522 E2.99385
G1 X94.934 Y128.835 E3.00707
G1 X95.180 Y128.193 E3.02030
G1 X95.624 Y127.750 E3.03237
G1 X95.645 Y127.308 F6000.000
G1 E1.03237 F1200.00000
G92 E0
G1 X127.384 Y97.906 F6000.000
G1 E2.00000 F1200.00000
G1 F1800
G1 X126.989 Y97.131 E2.01674
G1 X126.941 Y96.226 E2.03417
G1 X127.266 Y95.380 E2.05160
G1 X127.907 Y94.739 E2.06903
G1 X128.729 Y94.424 E2.08597
G1 X129.653 Y94.460 E2.10377
G1 X130.433 Y94.857 E2.12060
G1 X132.653 Y97.077 E2.18101
G1 X133.156 Y97.699 E2.19640
G1 X133.391 Y98.574 E2.21383
G1 X133.249 Y99.469 E2.23126
G1 X132.756 Y100.229 E2.24869
G1 X131.996 Y100.722 E2.26612
G1 X131.101 Y100.864 E2.28355
G1 X130.226 Y100.630 E2.30098
G1 X129.604 Y100.126 E2.31637
G1 X127.426 Y97.948 E2.37563
G1 X127.594 Y97.753 F6000.000
G1 F1800
G1 X127.243 Y97.063 E2.39053
G1 X127.201 Y96.267 E2.40586
G1 X127.487 Y95.523 E2.42119
G1 X128.050 Y94.960 E2.43652
G1 X128.772 Y94.683 E2.45139
G1 X129.587 Y94.715 E2.46709
G1 X130.280 Y95.068 E2.48205
G1 X132.462 Y97.250 E2.54142
G1 X132.922 Y97.818 E2.55549
G1 X133.128 Y98.588 E2.57082
G1 X133.004 Y99.375 E2.58615
G1 X132.570 Y100.043 E2.60148
G1 X131.902 Y100.477 E2.61681
G1 X131.115 Y100.602 E2.63213
G1 X130.345 Y100.395 E2.64746
G1 X129.777 Y99.935 E2.66154
G1 X127.637 Y97.795 E2.71975
G1 X127.805 Y97.600 F6000.000
G1 F1800
G1 X127.497 Y96.995 E2.73282
G1 X127.461 Y96.308 E2.74605
G1 X127.707 Y95.666 E2.75927
G1 X128.193 Y95.180 E2.77250
G1 X128.814 Y94.942 E2.78530
G1 X129.521 Y94.969 E2.79890
G1 X130.127 Y95.278 E2.81199
G1 X132.271 Y97.422 E2.87032
G1 X132.688 Y97.937 E2.88308
G1 X132.866 Y98.602 E2.89631
G1 X132.759 Y99.281 E2.90953
G1 X132.384 Y99.857 E2.92276
G1 X131.807 Y100.232 E2.93598
G1 X131.128 Y100.339 E2.94921
G1 X130.464 Y100.161 E2.96244
G1 X129.949 Y99.744 E2.97520
G1 X127.847 Y97.642 E3.03237
G1 X127.406 Y97.623 F6000.000
G1 E1.03237 F1200.00000
G92 E0
G1 X93.865 Y61.338 F6000.000
G1 E2.00000 F1200.00000
G1 F1800
G1 X93.105 Y61.832 E2.01743
G1 X92.210 Y61.973 E2.03486
G1 X91.335 Y61.739 E2.05230
G1 X90.713 Y61.235 E2.06768
G1 X88.493 Y59.015 E2.12809
G1 X88.098 Y58.240 E2.14483
G1 X88.051 Y57.335 E2.16226
G1 X88.375 Y56.489 E2.17969
G1 X89.016 Y55.848 E2.19712
G1 X89.838 Y55.533 E2.21406
G1 X90.763 Y55.569 E2.23186
G1 X91.542 Y55.966 E2.24869
G1 X93.762 Y58.186 E2.30910
G1 X94.266 Y58.808 E2.32449
G1 X94.500 Y59.683 E2.34192
G1 X94.358 Y60.578 E2.35935
G1 X93.898 Y61.288 E2.37563
G1 X93.679 Y61.152 F6000.000
G1 F1800
G1 X93.011 Y61.586 E2.39096
G1 X92.224 Y61.711 E2.40629
G1 X91.454 Y61.505 E2.42162
G1 X90.886 Y61.044 E2.43569
G1 X88.704 Y58.862 E2.49506
G1 X88.352 Y58.172 E2.50996
G1 X88.310 Y57.376 E2.52529
G1 X88.596 Y56.632 E2.54062
G1 X89.159 Y56.069 E2.55595
G1 X89.881 Y55.792 E2.57082
G1 X90.696 Y55.824 E2.58652
G1 X91.389 Y56.177 E2.60148
G1 X93.571 Y58.359 E2.66085
G1 X94.031 Y58.927 E2.67492
G1 X94.238 Y59.697 E2.69025
G1 X94.113 Y60.484 E2.70558
G1 X93.712 Y61.102 E2.71975
G1 X93.493 Y60.966 F6000.000
G1 F1800
G1 X92.917 Y61.341 E2.73298
G1 X92.238 Y61.448 E2.74621
G1 X91.573 Y61.270 E2.75943
G1 X91.058 Y60.853 E2.77220
G1 X88.914 Y58.709 E2.83052
G1 X88.606 Y58.104 E2.84359
G1 X88.570 Y57.417 E2.85682
G1 X88.816 Y56.775 E2.87005
G1 X89.302 Y56.289 E2.88327
G1 X89.923 Y56.051 E2.89607
G1 X90.630 Y56.078 E2.90967
G1 X91.236 Y56.387 E2.92276
G1 X93.380 Y58.531 E2.98109
G1 X93.797 Y59.047 E2.99385
G1 X93.975 Y59.711 E3.00708
G1 X93.868 Y60.390 E3.02030
G1 X93.526 Y60.916 E3.03238
G1 X93.597 Y61.353 F6000.000
G1 E1.03238 F1200.00000
G92 E0
G1 X61.235 Y90.713 F6000.000
G1 E2.00000 F1200.00000
G1 F1800
G1 X61.739 Y91.335 E2.01538
G1 X61.973 Y92.210 E2.03282
G1 X61.832 Y93.105 E2.05025
G1 X61.338 Y93.865 E2.06768
G1 X60.578 Y94.358 E2.08511
G1 X59.683 Y94.500 E2.10254
G1 X58.808 Y94.266 E2.11998
G1 X58.186 Y93.762 E2.13536
G1 X55.966 Y91.542 E2.19577
G1 X55.571 Y90.767 E2.21251
G1 X55.524 Y89.862 E2.22994
G1 X55.848 Y89.016 E2.24737
G1 X56.489 Y88.375 E2.26480
G1 X57.311 Y88.060 E2.28174
G1 X58.236 Y88.096 E2.29954
G1 X59.015 Y88.493 E2.31637
G1 X61.193 Y90.671 E2.37563
G1 X61.044 Y90.886 F6000.000
G1 F1800
G1 X61.505 Y91.454 E2.38970
G1 X61.711 Y92.224 E2.40503
G1 X61.586 Y93.011 E2.42036
G1 X61.152 Y93.679 E2.43569
G1 X60.484 Y94.113 E2.45102
G1 X59.697 Y94.238 E2.46635
G1 X58.927 Y94.031 E2.48168
G1 X58.359 Y93.571 E2.49575
G1 X56.177 Y91.389 E2.55512
G1 X55.825 Y90.699 E2.57003
G1 X55.783 Y89.903 E2.58536
G1 X56.069 Y89.159 E2.60068
G1 X56.632 Y88.596 E2.61601
G1 X57.354 Y88.319 E2.63088
G1 X58.169 Y88.351 E2.64658
G1 X58.862 Y88.704 E2.66154
G1 X61.002 Y90.843 E2.71975
G1 X60.853 Y91.058 F6000.000
G1 F1800
G1 X61.270 Y91.573 E2.73252
G1 X61.448 Y92.238 E2.74574
G1 X61.341 Y92.917 E2.75897
G1 X60.966 Y93.493 E2.77220
G1 X60.390 Y93.868 E2.78542
G1 X59.711 Y93.975 E2.79865
G1 X59.047 Y93.797 E2.81188
G1 X58.531 Y93.380 E2.82464
G1 X56.387 Y91.236 E2.88297
G1 X56.079 Y90.631 E2.89604
G1 X56.043 Y89.944 E2.90927
G1 X56.289 Y89.302 E2.92249
G1 X56.775 Y88.816 E2.93572
G1 X57.396 Y88.578 E2.94852
G1 X58.103 Y88.605 E2.96212
G1 X58.709 Y88.914 E2.97521
G1 X60.810 Y91.015 E3.03238
G1 X61.244 Y90.974 F6000.000
G1 E1.03238 F1200.00000
G92 E0
G1 X22.447 Y54.974 F6000.000
G1 E2.00000 F1200.00000
G1 F1800
G1 X21.687 Y55.467 E2.01743
G1 X20.792 Y55.609 E2.03486
G1 X19.917 Y55.375 E2.05230
G1 X19.296 Y54.871 E2.06768
G1 X17.075 Y52.651 E2.12809
G1 X16.680 Y51.876 E2.14483
G1 X16.633 Y50.971 E2.16226
G1 X16.958 Y50.125 E2.17969
G1 X17.598 Y49.484 E2.19713
G1 X18.420 Y49.169 E2.21406
G1 X19.345 Y49.205 E2.23186
G1 X20.124 Y49.602 E2.24869
G1 X22.345 Y51.823 E2.30910
G1 X22.848 Y52.444 E2.32449
G1 X23.082 Y53.319 E2.34192
G1 X22.941 Y54.214 E2.35935
G1 X22.480 Y54.924 E2.37563
G1 X22.261 Y54.788 F6000.000
G1 F1800
G1 X21.593 Y55.222 E2.39096
G1 X20.806 Y55.347 E2.40629
G1 X20.036 Y55.141 E2.42162
G1 X19.468 Y54.680 E2.43569
G1 X17.286 Y52.498 E2.49506
G1 X16.934 Y51.808 E2.50996
G1 X16.892 Y51.012 E2.52529
G1 X17.178 Y50.268 E2.54062
G1 X17.741 Y49.705 E2.55595
G1 X18.463 Y49.428 E2.57082
G1 X19.278 Y49.460 E2.58652
G1 X19.971 Y49.813 E2.60148
G1 X22.153 Y51.995 E2.66085
G1 X22.614 Y52.563 E2.67492
G1 X22.820 Y53.333 E2.69025
G1 X22.695 Y54.120 E2.70558
G1 X22.294 Y54.738 E2.71976
G1 X22.075 Y54.602 F6000.000
G1 F1800
G1 X21.499 Y54.977 E2.73298
G1 X20.820 Y55.084 E2.74621
G1 X20.156 Y54.906 E2.75944
G1 X19.640 Y54.489 E2.77220
G1 X17.496 Y52.345 E2.83052
G1 X17.188 Y51.740 E2.84359
G1 X17.152 Y51.053 E2.85682
G1 X17.398 Y50.411 E2.87005
G1 X17.885 Y49.925 E2.88328
G1 X18.506 Y49.687 E2.89607
G1 X19.212 Y49.714 E2.90967
G1 X19.818 Y50.023 E2.92276
G1 X21.962 Y52.167 E2.98109
G1 X22.379 Y52.683 E2.99385
G1 X22.557 Y53.347 E3.00708
G1 X22.450 Y54.026 E3.02031
G1 X22.108 Y54.552 E3.03238
G1 X22.179 Y54.989 F6000.000
G1 E1.03238 F1200.00000
G92 E0
G1 X51.823 Y22.345 F6000.000
G1 E2.00000 F1200.00000
G1 F1800
G1 X49.602 Y20.124 E2.06041
G1 X49.207 Y19.349 E2.07715
G1 X49.160 Y18.444 E2.09458
G1 X49.484 Y17.598 E2.11201
G1 X50.125 Y16.958 E2.12944
G1 X50.947 Y16.642 E2.14638
G1 X51.872 Y16.678 E2.16419
G1 X52.651 Y17.075 E2.18101
G1 X54.871 Y19.296 E2.24142
G1 X55.375 Y19.917 E2.25681
G1 X55.609 Y20.792 E2.27424
G1 X55.467 Y21.687 E2.29167
G1 X54.974 Y22.447 E2.30910
G1 X54.214 Y22.941 E2.32653
G1 X53.319 Y23.082 E2.34397
G1 X52.444 Y22.848 E2.36140
G1 X51.869 Y22.382 E2.37563
G1 X51.995 Y22.153 F6000.000
G1 F1800
G1 X49.813 Y19.971 E2.43500
G1 X49.461 Y19.281 E2.44990
G1 X49.419 Y18.485 E2.46523
G1 X49.705 Y17.741 E2.48056
G1 X50.268 Y17.178 E2.49589
G1 X50.990 Y16.901 E2.51076
G1 X51.805 Y16.933 E2.52646
G1 X52.498 Y17.286 E2.54142
G1 X54.680 Y19.468 E2.60078
G1 X55.141 Y20.036 E2.61486
G1 X55.347 Y20.806 E2.63019
G1 X55.222 Y21.593 E2.64552
G1 X54.788 Y22.261 E2.66085
G1 X54.120 Y22.695 E2.67618
G1 X53.333 Y22.820 E2.69151
G1 X52.563 Y22.614 E2.70683
G1 X52.041 Y22.191 E2.71976
G1 X52.167 Y21.962 F6000.000
G1 F1800
G1 X50.023 Y19.818 E2.77808
G1 X49.715 Y19.213 E2.79115
G1 X49.679 Y18.526 E2.80438
G1 X49.925 Y17.885 E2.81760
G1 X50.411 Y17.398 E2.83083
G1 X51.033 Y17.160 E2.84363
G1 X51.739 Y17.187 E2.85723
G1 X52.345 Y17.496 E2.87032
G1 X54.489 Y19.640 E2.92864
G1 X54.906 Y20.156 E2.94141
G1 X55.084 Y20.820 E2.95463
G1 X54.977 Y21.499 E2.96786
G1 X54.602 Y22.075 E2.98109
G1 X54.026 Y22.450 E2.99431
G1 X53.347 Y22.557 E3.00754
G1 X52.683 Y22.379 E3.02077
G1 X52.214 Y22.000 E3.03238
G1 X51.794 Y22.106 F6000.000
G1 E1.03238 F1200.00000
G92 E0
G1 X39.645 Y0.986 F6000.000
G1 E2.00000 F1200.00000
G1 F1800
G1 X149.014 Y110.355 E4.97567
G1 X110.355 Y149.014 E6.02748
G1 X0.986 Y39.645 E9.00315
G1 X39.602 Y1.028 E10.05380
G1 X39.645 Y0.622 F6000.000
G1 F1800
G1 X149.378 Y110.355 E13.03937
G1 X110.355 Y149.378 E14.10107
G1 X0.622 Y39.645 E17.08663
G1 X39.602 Y0.665 E18.14718
G1 X39.774 Y0.388 F6000.000
G1 F1800
G1 X149.741 Y110.355 E21.13910
G1 X110.355 Y149.741 E22.21070
G1 X0.259 Y39.645 E25.20615
G1 X39.645 Y0.259 E26.27774
G1 X39.732 Y0.346 E26.28011
G1 X39.877 Y0.775 F6000.000
G1 X39.536 Y1.459 F6000.000
G1 F1800
G1 X1.240 Y39.754 E27.32316
G1 X39.754 Y1.241 E28.37214
G1 X39.936 Y1.423 E28.37710
G1 X1.423 Y39.936 E29.42608
G1 X1.605 Y40.118 E29.43104
G1 X40.118 Y1.605 E30.48002
G1 X40.300 Y1.787 E30.48498
G1 X1.787 Y40.300 E31.53396
G1 X1.969 Y40.482 E31.53892
G1 X40.482 Y1.969 E32.58790
G1 X40.664 Y2.151 E32.59286
G1 X2.151 Y40.664 E33.64184
G1 X2.333 Y40.846 E33.64680
G1 X40.846 Y2.333 E34.69578
G1 X41.028 Y2.515 E34.70074
G1 X2.515 Y41.028 E35.74972
G1 X2.697 Y41.210 E35.75468
G1 X41.210 Y2.697 E36.80366
G1 X41.392 Y2.879 E36.80862
G1 X2.879 Y41.392 E37.85760
G1 X3.061 Y41.574 E37.86256
G1 X41.574 Y3.061 E38.91154
G1 X41.756 Y3.243 E38.91650
G1 X3.243 Y41.756 E39.96548
G1 X3.425 Y41.938 E39.97044
G1 X41.938 Y3.425 E41.01942
G1 X42.120 Y3.607 E41.02438
G1 X3.607 Y42.120 E42.07336
G1 X3.789 Y42.302 E42.07832
G1 X42.302 Y3.789 E43.12730
G1 X42.484 Y3.971 E43.13226
G1 X3.970 Y42.484 E44.18124
G1 X4.152 Y42.666 E44.18620
G1 X42.666 Y4.152 E45.23519
G1 X42.848 Y4.334 E45.24014
G1 X4.334 Y42.848 E46.28913
G1 X4.516 Y43.030 E46.29408
G1 X43.030 Y4.516 E47.34307
G1 X43.212 Y4.698 E47.34802
G1 X4.698 Y43.212 E48.39701
G1 X4.880 Y43.394 E48.40196
G1 X43.394 Y4.880 E49.45095
G1 X43.576 Y5.062 E49.45590
G1 X5.062 Y43.576 E50.50489
G1 X5.244 Y43.758 E50.50984
G1 X43.758 Y5.244 E51.55883
G1 X43.940 Y5.426 E51.56378
G1 X5.426 Y43.940 E52.61277
G1 X5.608 Y44.122 E52.61772
G1 X44.122 Y5.608 E53.66671
G1 X44.304 Y5.790 E53.67166
G1 X5.790 Y44.304 E54.72065
G1 X5.972 Y44.486 E54.72560
G1 X44.486 Y5.972 E55.77459
G1 X44.668 Y6.154 E55.77954
G1 X6.154 Y44.668 E56.82853
G1 X6.336 Y44.850 E56.83348
G1 X44.850 Y6.336 E57.88247
G1 X45.032 Y6.518 E57.88743
G1 X6.518 Y45.032 E58.93641
G1 X6.700 Y45.214 E58.94137
G1 X45.214 Y6.700 E59.99035
G1 X45.396 Y6.882 E59.99531
G1 X6.882 Y45.396 E61.04429
G1 X7.064 Y45.577 E61.04925
G1 X45.577 Y7.064 E62.09823
G1 X45.759 Y7.246 E62.10319
G1 X7.246 Y45.759 E63.15217
G1 X7.428 Y45.941 E63.15713
G1 X45.941 Y7.428 E64.20611
G1 X46.123 Y7.610 E64.21107
G1 X7.610 Y46.123 E65.26005
G1 X7.792 Y46.305 E65.26501
G1 X46.305 Y7.792 E66.31399
G1 X46.487 Y7.974 E66.31895
G1 X7.974 Y46.487 E67.36793
G1 X8.156 Y46.669 E67.37289
G1 X46.669 Y8.156 E68.42187
G1 X46.851 Y8.338 E68.42683
G1 X8.338 Y46.851 E69.47581
G1 X8.520 Y47.033 E69.48077
G1 X47.033 Y8.520 E70.52975
G1 X47.215 Y8.702 E70.53471
G1 X8.702 Y47.215 E71.58369
G1 X8.884 Y47.397 E71.58865
G1 X47.397 Y8.884 E72.63763
G1 X47.579 Y9.066 E72.64259
G1 X9.066 Y47.579 E73.69157
G1 X9.248 Y47.761 E73.69653
G1 X47.761 Y9.248 E74.74551
G1 X47.943 Y9.430 E74.75047
G1 X9.430 Y47.943 E75.79945
G1 X9.612 Y48.125 E75.80441
G1 X48.125 Y9.612 E76.85339
G1 X48.307 Y9.794 E76.85835
G1 X9.794 Y48.307 E77.90733
G1 X9.976 Y48.489 E77.91229
G1 X48.489 Y9.976 E78.96127
G1 X48.671 Y10.158 E78.96623
G1 X10.158 Y48.671 E80.01521
G1 X10.340 Y48.853 E80.02017
G1 X48.853 Y10.340 E81.06916
G1 X49.035 Y10.522 E81.07411
G1 X10.522 Y49.035 E82.12310
G1 X10.704 Y49.217 E82.12805
G1 X49.217 Y10.704 E83.17704
G1 X49.399 Y10.886 E83.18199
G1 X10.886 Y49.399 E84.23098
G1 X11.068 Y49.581 E84.23593
G1 X49.581 Y11.068 E85.28492
G1 X49.763 Y11.250 E85.28987
G1 X11.250 Y49.763 E86.33886
G1 X11.432 Y49.945 E86.34381
G1 X49.945 Y11.432 E87.39280
G1 X50.127 Y11.614 E87.39775
G1 X11.614 Y50.127 E88.44674
G1 X11.796 Y50.309 E88.45169
G1 X50.309 Y11.796 E89.50068
G1 X50.491 Y11.978 E89.50563
G1 X11.978 Y50.491 E90.55462
G1 X12.160 Y50.673 E90.55957
G1 X50.673 Y12.160 E91.60856
G1 X50.855 Y12.342 E91.61351
G1 X12.342 Y50.855 E92.66250
G1 X12.524 Y51.037 E92.66745
G1 X51.037 Y12.524 E93.71644
