; generated by Slic3r 1.3.1-dev (Build (Unknown revision)) on 2020-10-29 at 08:28:48

; external perimeters extrusion width = 0.44mm (2.86mm^3/s)
; perimeters extrusion width = 0.56mm (4.14mm^3/s)
; infill extrusion width = 0.50mm (3.66mm^3/s)
; solid infill extrusion width = 0.56mm (3.10mm^3/s)
; top infill extrusion width = 0.45mm (2.44mm^3/s)

M107
G92 E0
;D3D:START:START
T0
M104 S215 T0

G21
G90
M107
T0
G28
G29
M109 T0 S215 T0
G0 F3000
M107
T0
G92 E0
G0 X0 Y149 Z0.1 F3600
G1 Y49 E6.5 F1200
G0 Z1
G92 E0
; Filament gcode

G21 ; set units to millimeters
G90 ; use absolute coordinates
M82 ; use absolute distances for extrusion
G92 E0
G1 Z0.300 F6000.000
G1 E-2.00000 F1200.00000
G92 E0
G1 Z0.800 F6000.000
G1 X61.062 Y60.836 F6000.000
G1 Z0.300 F6000.000
G1 E2.00000 F1200.00000
G1 F1800.000
G1 X62.583 Y59.536 E2.08949
G1 X63.443 Y58.911 E2.13703
G1 X65.149 Y57.866 E2.22652
G1 X66.095 Y57.384 E2.27403
G1 X67.944 Y56.618 E2.36352
G1 X68.954 Y56.290 E2.41107
G1 X71.220 Y55.754 E2.51519
G1 X82.620 Y53.594 E3.03419
G1 X83.349 Y53.496 E3.06709
G1 X83.944 Y53.450 E3.09377
G1 X85.006 Y53.450 E3.14131
G1 X85.601 Y53.496 E3.16798
G1 X86.650 Y53.663 E3.21550
G1 X87.230 Y53.802 E3.24217
G1 X88.241 Y54.130 E3.28970
G1 X88.792 Y54.358 E3.31638
G1 X89.738 Y54.841 E3.36388
G1 X90.246 Y55.152 E3.39055
G1 X91.107 Y55.777 E3.43812
G1 X91.560 Y56.164 E3.46479
G1 X92.311 Y56.915 E3.51227
G1 X92.698 Y57.368 E3.53894
G1 X93.323 Y58.229 E3.58651
G1 X93.634 Y58.737 E3.61318
G1 X94.117 Y59.683 E3.66068
G1 X94.345 Y60.234 E3.68736
G1 X94.673 Y61.245 E3.73489
G1 X94.812 Y61.825 E3.76156
G1 X94.979 Y62.874 E3.80908
G1 X95.046 Y64.000 E3.85953
G1 X95.046 Y86.000 E4.84359
G1 X94.979 Y87.126 E4.89404
G1 X94.812 Y88.175 E4.94156
G1 X94.673 Y88.755 E4.96823
G1 X94.345 Y89.766 E5.01576
G1 X94.117 Y90.317 E5.04244
G1 X93.634 Y91.263 E5.08994
G1 X93.323 Y91.771 E5.11661
G1 X92.698 Y92.632 E5.16418
G1 X92.311 Y93.085 E5.19085
G1 X91.560 Y93.836 E5.23833
G1 X91.107 Y94.223 E5.26500
G1 X90.246 Y94.848 E5.31257
G1 X89.738 Y95.159 E5.33924
G1 X88.792 Y95.642 E5.38675
G1 X88.241 Y95.870 E5.41342
G1 X87.230 Y96.198 E5.46095
G1 X86.650 Y96.337 E5.48762
G1 X85.601 Y96.504 E5.53514
G1 X85.006 Y96.550 E5.56182
G1 X83.944 Y96.550 E5.60936
G1 X83.349 Y96.504 E5.63603
G1 X82.620 Y96.406 E5.66894
G1 X71.220 Y94.246 E6.18793
G1 X68.954 Y93.710 E6.29206
G1 X67.944 Y93.382 E6.33960
G1 X66.095 Y92.616 E6.42909
G1 X65.149 Y92.134 E6.47660
G1 X63.443 Y91.089 E6.56609
G1 X62.583 Y90.464 E6.61363
G1 X61.062 Y89.164 E6.70312
G1 X60.311 Y88.413 E6.75064
G1 X59.011 Y86.892 E6.84013
G1 X58.386 Y86.032 E6.88767
G1 X57.341 Y84.326 E6.97716
G1 X56.859 Y83.380 E7.02467
G1 X56.093 Y81.531 E7.11416
G1 X55.765 Y80.521 E7.16171
G1 X55.298 Y78.575 E7.25120
G1 X55.132 Y77.526 E7.29871
G1 X54.975 Y75.531 E7.38820
G1 X54.975 Y74.469 E7.43574
G1 X55.132 Y72.474 E7.52523
G1 X55.298 Y71.425 E7.57274
G1 X55.765 Y69.479 E7.66224
G1 X56.093 Y68.469 E7.70978
G1 X56.859 Y66.620 E7.79927
G1 X57.341 Y65.674 E7.84678
G1 X58.386 Y63.968 E7.93627
G1 X59.011 Y63.108 E7.98381
G1 X60.311 Y61.587 E8.07330
G1 X61.019 Y60.878 E8.11814
G1 X61.312 Y61.129 F6000.000
G1 F1800.000
G1 X62.834 Y59.829 E8.20763
G1 X63.644 Y59.240 E8.25246
G1 X65.350 Y58.195 E8.34195
G1 X66.243 Y57.740 E8.38675
G1 X68.091 Y56.975 E8.47625
G1 X69.045 Y56.665 E8.52108
G1 X71.292 Y56.133 E8.62437
G1 X82.692 Y53.973 E9.14337
G1 X83.379 Y53.881 E9.17440
G1 X83.974 Y53.834 E9.20108
G1 X84.976 Y53.834 E9.24591
G1 X85.571 Y53.881 E9.27258
G1 X86.560 Y54.038 E9.31740
G1 X87.140 Y54.177 E9.34407
G1 X88.093 Y54.486 E9.38889
G1 X88.644 Y54.715 E9.41557
G1 X89.536 Y55.169 E9.46036
G1 X90.045 Y55.481 E9.48703
G1 X90.856 Y56.070 E9.53189
G1 X91.309 Y56.458 E9.55856
G1 X92.017 Y57.166 E9.60334
G1 X92.405 Y57.619 E9.63002
G1 X92.994 Y58.430 E9.67487
G1 X93.306 Y58.939 E9.70154
G1 X93.760 Y59.831 E9.74634
G1 X93.988 Y60.382 E9.77301
G1 X94.298 Y61.335 E9.81784
G1 X94.437 Y61.915 E9.84451
G1 X94.594 Y62.904 E9.88932
G1 X94.661 Y64.000 E9.93842
G1 X94.661 Y86.000 E10.92248
G1 X94.594 Y87.096 E10.97158
G1 X94.437 Y88.085 E11.01639
G1 X94.298 Y88.665 E11.04306
G1 X93.989 Y89.618 E11.08789
G1 X93.760 Y90.169 E11.11456
G1 X93.306 Y91.061 E11.15936
G1 X92.994 Y91.570 E11.18602
G1 X92.405 Y92.381 E11.23089
G1 X92.017 Y92.834 E11.25756
G1 X91.309 Y93.542 E11.30233
G1 X90.856 Y93.930 E11.32901
G1 X90.045 Y94.519 E11.37387
G1 X89.536 Y94.831 E11.40054
G1 X88.644 Y95.285 E11.44533
G1 X88.093 Y95.514 E11.47201
G1 X87.140 Y95.823 E11.51683
G1 X86.560 Y95.962 E11.54350
G1 X85.571 Y96.119 E11.58832
G1 X84.976 Y96.166 E11.61499
G1 X83.974 Y96.166 E11.65982
G1 X83.379 Y96.119 E11.68650
G1 X82.692 Y96.027 E11.71753
G1 X71.292 Y93.867 E12.23653
G1 X69.045 Y93.335 E12.33982
G1 X68.091 Y93.025 E12.38465
G1 X66.243 Y92.260 E12.47414
G1 X65.350 Y91.805 E12.51895
G1 X63.644 Y90.760 E12.60844
G1 X62.834 Y90.171 E12.65327
G1 X61.312 Y88.871 E12.74276
G1 X60.604 Y88.163 E12.78757
G1 X59.304 Y86.641 E12.87707
G1 X58.715 Y85.831 E12.92190
G1 X57.670 Y84.125 E13.01139
G1 X57.215 Y83.232 E13.05619
G1 X56.450 Y81.384 E13.14568
G1 X56.140 Y80.430 E13.19052
G1 X55.673 Y78.485 E13.28001
G1 X55.516 Y77.496 E13.32482
G1 X55.359 Y75.501 E13.41431
G1 X55.359 Y74.499 E13.45914
G1 X55.516 Y72.504 E13.54863
G1 X55.673 Y71.515 E13.59344
G1 X56.140 Y69.570 E13.68293
G1 X56.450 Y68.616 E13.72777
G1 X57.215 Y66.768 E13.81726
G1 X57.670 Y65.875 E13.86206
G1 X58.715 Y64.169 E13.95155
G1 X59.304 Y63.359 E13.99638
G1 X60.604 Y61.837 E14.08588
G1 X61.270 Y61.171 E14.12801
G1 E12.12801 F1200.00000
G92 E0
G1 Z0.800 F6000.000
G1 X85.963 Y87.653 F6000.000
G1 Z0.300 F6000.000
G1 E2.00000 F1200.00000
G1 F1800.000
G1 X85.162 Y88.115 E2.04137
G1 X84.242 Y88.212 E2.08274
G1 X83.363 Y87.926 E2.12411
G1 X82.676 Y87.307 E2.16548
G1 X82.299 Y86.462 E2.20685
G1 X82.299 Y85.538 E2.24822
G1 X82.676 Y84.693 E2.28960
G1 X83.363 Y84.074 E2.33097
G1 X84.243 Y83.788 E2.37234
G1 X85.162 Y83.885 E2.41370
G1 X85.963 Y84.347 E2.45507
G1 X86.507 Y85.095 E2.49645
G1 X86.699 Y86.000 E2.53782
G1 X86.507 Y86.905 E2.57919
G1 X85.999 Y87.604 E2.61788
G1 X85.700 Y87.360 F6000.000
G1 F1800.000
G1 X85.040 Y87.740 E2.65191
G1 X84.284 Y87.820 E2.68595
G1 X83.560 Y87.585 E2.71999
G1 X82.994 Y87.076 E2.75402
G1 X82.685 Y86.381 E2.78806
G1 X82.685 Y85.619 E2.82210
G1 X82.994 Y84.924 E2.85614
G1 X83.560 Y84.415 E2.89018
G1 X84.284 Y84.180 E2.92422
G1 X85.040 Y84.260 E2.95825
G1 X85.700 Y84.640 E2.99229
G1 X86.147 Y85.256 E3.02633
G1 X86.305 Y86.000 E3.06037
G1 X86.147 Y86.744 E3.09441
G1 X85.735 Y87.311 E3.12576
G1 X85.783 Y87.751 F6000.000
G1 E1.12576 F1200.00000
G92 E0
G1 Z0.800 F6000.000
G1 X84.243 Y66.212 F6000.000
G1 Z0.300 F6000.000
G1 E2.00000 F1200.00000
G1 F1800.000
G1 X83.363 Y65.926 E2.04137
G1 X82.676 Y65.307 E2.08274
G1 X82.299 Y64.462 E2.12411
G1 X82.299 Y63.538 E2.16549
G1 X82.676 Y62.693 E2.20686
G1 X83.363 Y62.074 E2.24823
G1 X84.242 Y61.788 E2.28959
G1 X85.162 Y61.885 E2.33096
G1 X85.963 Y62.347 E2.37234
G1 X86.507 Y63.095 E2.41371
G1 X86.699 Y64.000 E2.45508
G1 X86.507 Y64.905 E2.49645
G1 X85.963 Y65.653 E2.53782
G1 X85.162 Y66.115 E2.57919
G1 X84.302 Y66.206 E2.61788
G1 X84.284 Y65.820 F6000.000
G1 F1800.000
G1 X83.560 Y65.585 E2.65191
G1 X82.994 Y65.076 E2.68595
G1 X82.685 Y64.381 E2.71999
G1 X82.685 Y63.619 E2.75403
G1 X82.994 Y62.924 E2.78807
G1 X83.560 Y62.415 E2.82210
G1 X84.284 Y62.180 E2.85614
G1 X85.040 Y62.260 E2.89018
G1 X85.700 Y62.640 E2.92422
G1 X86.147 Y63.256 E2.95825
G1 X86.305 Y64.000 E2.99229
G1 X86.147 Y64.744 E3.02633
G1 X85.700 Y65.360 E3.06037
G1 X85.040 Y65.740 E3.09441
G1 X84.343 Y65.814 E3.12576
G1 X84.049 Y66.144 F6000.000
G1 E1.12576 F1200.00000
G92 E0
G1 Z0.800 F6000.000
G1 X87.664 Y64.024 F6000.000
G1 Z0.300 F6000.000
G1 E2.00000 F1200.00000
G1 F1800.000
G1 X87.664 Y85.976 E2.98191
G1 X87.623 Y86.499 E3.00536
G1 X87.506 Y86.985 E3.02773
G1 X87.315 Y87.447 E3.05011
G1 X87.054 Y87.874 E3.07248
G1 X86.729 Y88.254 E3.09485
G1 X86.349 Y88.579 E3.11722
G1 X85.922 Y88.840 E3.13959
G1 X85.460 Y89.031 E3.16197
G1 X84.974 Y89.148 E3.18434
G1 X84.475 Y89.187 E3.20671
G1 X83.962 Y89.147 E3.22975
G1 X72.609 Y86.996 E3.74660
G1 X70.724 Y86.543 E3.83328
G1 X68.965 Y85.815 E3.91848
G1 X67.341 Y84.819 E4.00367
G1 X65.892 Y83.582 E4.08886
G1 X64.656 Y82.134 E4.17405
G1 X63.660 Y80.510 E4.25924
G1 X62.932 Y78.751 E4.34444
G1 X62.487 Y76.899 E4.42963
G1 X62.338 Y75.000 E4.51482
G1 X62.487 Y73.101 E4.60001
G1 X62.932 Y71.249 E4.68520
G1 X63.660 Y69.490 E4.77040
G1 X64.656 Y67.866 E4.85559
G1 X65.892 Y66.417 E4.94078
G1 X67.341 Y65.181 E5.02597
G1 X68.965 Y64.185 E5.11116
G1 X70.724 Y63.457 E5.19636
G1 X72.609 Y63.004 E5.28304
G1 X83.962 Y60.853 E5.79989
G1 X84.475 Y60.813 E5.82292
G1 X84.974 Y60.852 E5.84530
G1 X85.460 Y60.969 E5.86767
G1 X85.922 Y61.160 E5.89005
G1 X86.349 Y61.421 E5.91242
G1 X86.729 Y61.746 E5.93479
G1 X87.054 Y62.126 E5.95716
G1 X87.315 Y62.553 E5.97953
G1 X87.506 Y63.015 E6.00191
G1 X87.623 Y63.501 E6.02428
G1 X87.660 Y63.964 E6.04505
G1 X88.050 Y64.009 F6000.000
G1 F1800.000
G1 X88.050 Y85.991 E7.02831
G1 X88.005 Y86.559 E7.05380
G1 X87.874 Y87.105 E7.07888
G1 X87.660 Y87.623 E7.10397
G1 X87.367 Y88.101 E7.12906
G1 X87.002 Y88.527 E7.15415
G1 X86.576 Y88.892 E7.17923
G1 X86.098 Y89.185 E7.20432
G1 X85.580 Y89.399 E7.22941
G1 X85.034 Y89.530 E7.25450
G1 X84.475 Y89.574 E7.27959
G1 X83.910 Y89.530 E7.30492
G1 X72.528 Y87.373 E7.82312
G1 X70.605 Y86.911 E7.91158
G1 X68.789 Y86.159 E7.99949
G1 X67.113 Y85.132 E8.08739
G1 X65.619 Y83.856 E8.17530
G1 X64.343 Y82.362 E8.26321
G1 X63.316 Y80.686 E8.35112
G1 X62.564 Y78.870 E8.43902
G1 X62.105 Y76.959 E8.52693
G1 X61.951 Y75.000 E8.61484
G1 X62.105 Y73.041 E8.70274
G1 X62.564 Y71.130 E8.79065
G1 X63.316 Y69.314 E8.87856
G1 X64.343 Y67.638 E8.96646
G1 X65.619 Y66.144 E9.05437
G1 X67.113 Y64.868 E9.14228
G1 X68.789 Y63.841 E9.23019
G1 X70.605 Y63.089 E9.31809
G1 X72.528 Y62.627 E9.40655
G1 X83.910 Y60.470 E9.92476
G1 X84.475 Y60.426 E9.95009
G1 X85.034 Y60.470 E9.97518
G1 X85.580 Y60.601 E10.00027
G1 X86.098 Y60.815 E10.02535
G1 X86.576 Y61.108 E10.05044
G1 X87.002 Y61.473 E10.07553
G1 X87.367 Y61.899 E10.10062
G1 X87.660 Y62.377 E10.12570
G1 X87.874 Y62.895 E10.15079
G1 X88.005 Y63.441 E10.17588
G1 X88.045 Y63.949 E10.19868
G1 X87.714 Y64.227 F6000.000
G1 E8.19868 F1200.00000
G92 E0
G1 Z0.800 F6000.000
G1 X85.223 Y61.697 F6000.000
G1 Z0.300 F6000.000
G1 E2.00000 F1200.00000
G1 F1800.000
G1 X85.324 Y61.388 E2.00373
G1 F1800.000
G1 X85.366 Y61.257 E2.00620
G1 X85.502 Y61.195 E2.00889
G1 X85.667 Y61.962 F6000.000
G1 F1800.000
G1 X85.547 Y61.888 E2.01521
G1 X85.457 Y61.930 E2.01966
G1 X85.409 Y62.077 E2.02659
G1 X85.500 Y62.129 E2.03128
G1 X86.294 Y61.334 E2.08169
G1 X86.435 Y61.421 E2.08909
G1 X86.607 Y61.568 E2.09929
G1 X85.847 Y62.329 E2.14758
G1 X85.913 Y62.368 E2.15104
G1 X86.099 Y62.623 E2.16523
G1 X86.883 Y61.840 E2.21496
G1 X87.054 Y62.040 E2.22680
G1 X87.121 Y62.149 E2.23252
G1 X86.330 Y62.940 E2.28274
G1 X86.556 Y63.261 E2.30035
G1 X87.319 Y62.498 E2.34873
G1 X87.470 Y62.894 E2.36775
G1 X86.652 Y63.712 E2.41964
G1 X86.748 Y64.163 E2.44034
G1 X87.563 Y63.348 E2.49204
G1 X87.592 Y63.866 E2.51530
G1 X86.681 Y64.777 E2.57310
G1 X86.554 Y65.379 E2.60072
G1 X86.359 Y65.646 E2.61553
G1 X87.592 Y64.413 E2.69377
G1 X87.592 Y64.960 E2.71832
G1 X67.551 Y85.002 E3.99014
G1 X67.890 Y85.209 E4.00799
G1 X87.592 Y65.507 E5.25829
G1 X87.592 Y66.054 E5.28284
G1 X68.229 Y85.417 E6.51161
G1 X68.568 Y85.625 E6.52946
G1 X87.592 Y66.601 E7.73670
G1 X87.592 Y67.148 E7.76125
G1 X68.919 Y85.822 E8.94624
G1 X69.306 Y85.982 E8.96503
G1 X87.592 Y67.695 E10.12548
G1 X87.592 Y68.242 E10.15003
G1 X69.693 Y86.142 E11.28593
G1 X70.079 Y86.302 E11.30472
G1 X87.592 Y68.790 E12.41607
G1 X87.592 Y69.337 E12.44062
G1 X70.466 Y86.463 E13.52742
G1 X70.898 Y86.578 E13.54749
G1 X87.592 Y69.884 E14.60686
G1 X87.592 Y70.431 E14.63141
G1 X71.340 Y86.683 E15.66279
G1 X71.781 Y86.789 E15.68315
G1 X87.592 Y70.978 E16.68653
G1 X87.592 Y71.525 E16.71108
G1 X72.222 Y86.895 E17.68647
G1 X72.675 Y86.989 E17.70724
G1 X87.592 Y72.072 E18.65386
G1 X87.592 Y72.619 E18.67841
G1 X73.135 Y87.076 E19.59583
G1 X73.595 Y87.163 E19.61684
G1 X87.592 Y73.166 E20.50508
G1 X87.592 Y73.713 E20.52963
G1 X74.055 Y87.250 E21.38868
G1 X74.515 Y87.338 E21.40969
G1 X87.592 Y74.260 E22.23956
G1 X87.592 Y74.807 E22.26411
G1 X74.975 Y87.425 E23.06479
G1 X75.435 Y87.512 E23.08579
G1 X87.592 Y75.355 E23.85729
G1 X87.592 Y75.902 E23.88184
G1 X75.895 Y87.599 E24.62414
G1 X76.355 Y87.686 E24.64515
G1 X87.592 Y76.449 E25.35827
G1 X87.592 Y76.996 E25.38282
G1 X76.815 Y87.773 E26.06675
G1 X77.275 Y87.861 E26.08776
G1 X87.592 Y77.543 E26.74250
G1 X87.592 Y78.090 E26.76705
G1 X77.735 Y87.948 E27.39261
G1 X78.195 Y88.035 E27.41362
G1 X87.592 Y78.637 E28.00999
G1 X87.592 Y79.184 E28.03454
G1 X78.654 Y88.122 E28.60173
G1 X79.114 Y88.209 E28.62273
G1 X81.637 Y85.687 E28.78280
G1 X82.043 Y84.774 E28.82761
G1 X82.852 Y84.046 E28.87647
G1 X83.482 Y83.841 E28.90620
G1 X87.592 Y79.731 E29.16702
G1 X87.592 Y80.278 E29.19157
G1 X84.135 Y83.735 E29.41095
G1 X84.630 Y83.787 E29.43329
G1 X87.592 Y80.825 E29.62126
G1 X87.592 Y81.372 E29.64581
G1 X85.079 Y83.886 E29.80531
G1 X85.426 Y84.086 E29.82328
G1 X87.592 Y81.920 E29.96077
G1 X87.592 Y82.467 E29.98532
G1 X85.773 Y84.286 E30.10080
G1 X85.913 Y84.368 E30.10809
G1 X86.050 Y84.556 E30.11853
G1 X87.592 Y83.014 E30.21639
G1 X87.592 Y83.561 E30.24094
G1 X86.280 Y84.873 E30.32420
G1 X86.511 Y85.190 E30.34177
G1 X87.592 Y84.108 E30.41041
G1 X87.592 Y84.655 E30.43496
G1 X86.632 Y85.616 E30.49593
G1 X86.727 Y86.067 E30.51663
G1 X87.592 Y85.202 E30.57151
G1 X87.584 Y85.758 E30.59646
G1 X86.713 Y86.629 E30.65171
G1 X86.565 Y87.323 E30.68358
G1 X87.489 Y86.400 E30.74217
G1 X87.452 Y86.552 E30.74919
G1 X87.284 Y86.958 E30.76891
G1 X87.054 Y87.333 E30.78863
G1 X86.770 Y87.666 E30.80829
G1 X86.141 Y88.295 E30.84821
G1 E28.84821 F1200.00000
G92 E0
G1 Z0.800 F6000.000
G1 X84.233 Y89.109 F6000.000
G1 Z0.300 F6000.000
G1 E2.00000 F1200.00000
G1 F1800.000
G1 X85.098 Y88.243 E2.05492
G1 X85.094 Y88.230 E2.05556
G1 X84.507 Y88.288 E2.08205
G1 X83.715 Y89.079 E2.13226
G1 X83.254 Y88.993 E2.15332
G1 X84.094 Y88.154 E2.20662
G1 X83.681 Y88.019 E2.22610
G1 X82.794 Y88.906 E2.28238
G1 X82.334 Y88.819 E2.30338
G1 X83.332 Y87.821 E2.36671
G1 X83.044 Y87.562 E2.38409
G1 X81.874 Y88.732 E2.45834
G1 X81.414 Y88.645 E2.47934
G1 X82.756 Y87.303 E2.56450
G1 X82.670 Y87.226 E2.56968
G1 X82.552 Y86.960 E2.58273
G1 X80.954 Y88.558 E2.68413
G1 X80.494 Y88.471 E2.70513
G1 X82.383 Y86.581 E2.82502
G1 X82.227 Y86.231 E2.84223
G1 X82.227 Y86.190 E2.84405
G1 X80.034 Y88.383 E2.98322
G1 X79.574 Y88.296 E3.00422
G1 X82.227 Y85.643 E3.17258
G1 X82.227 Y85.142 E3.19507
G1 X82.264 Y85.060 E3.19912
G1 E1.19912 F1200.00000
G92 E0
G1 Z0.800 F6000.000
G1 X67.217 Y84.788 F6000.000
G1 Z0.300 F6000.000
G1 E2.00000 F1200.00000
G1 F1800.000
G1 X86.144 Y65.862 E3.20106
G1 X85.598 Y66.177 E3.22935
G1 X85.244 Y66.214 E3.24530
G1 X66.922 Y84.536 E4.40800
G1 X66.627 Y84.284 E4.42542
G1 X84.633 Y66.278 E5.56805
G1 X84.515 Y66.291 E5.57338
G1 X84.182 Y66.182 E5.58910
G1 X66.332 Y84.032 E6.72183
G1 X66.037 Y83.780 E6.73924
G1 X83.769 Y66.048 E7.86449
G1 X83.479 Y65.954 E7.87814
G1 X83.393 Y65.877 E7.88334
G1 X65.758 Y83.512 E9.00246
G1 X65.506 Y83.217 E9.01987
G1 X83.105 Y65.617 E10.13672
G1 X82.817 Y65.358 E10.15410
G1 X65.254 Y82.922 E11.26867
G1 X65.002 Y82.627 E11.28608
G1 X82.588 Y65.041 E12.40207
G1 X82.419 Y64.662 E12.42066
G1 X64.750 Y82.332 E13.54195
G1 X64.655 Y82.220 E13.54851
G1 X64.525 Y82.009 E13.55963
G1 X82.251 Y64.284 E14.68447
G1 X82.227 Y64.231 E14.68706
G1 X82.227 Y63.760 E14.70819
G1 X64.317 Y81.670 E15.84473
G1 X64.110 Y81.331 E15.86258
G1 X82.227 Y63.213 E17.01232
G1 X82.227 Y63.142 E17.01550
G1 X82.609 Y62.284 E17.05766
G1 X63.902 Y80.991 E18.24483
G1 X63.694 Y80.652 E18.26268
G1 X83.213 Y61.133 E19.50134
G1 X82.538 Y61.261 E19.53217
G1 X63.533 Y80.266 E20.73819
G1 X63.373 Y79.879 E20.75698
G1 X81.863 Y61.389 E21.93034
G1 X81.188 Y61.517 E21.96117
G1 X63.213 Y79.492 E23.10187
G1 X63.052 Y79.105 E23.12066
