; generated by Slic3r 1.3.0 on 2020-09-03 at 17:24:39

; external perimeters extrusion width = 0.45mm (4.34mm^3/s)
; perimeters extrusion width = 0.45mm (5.78mm^3/s)
; infill extrusion width = 0.45mm (7.52mm^3/s)
; solid infill extrusion width = 0.45mm (2.31mm^3/s)
; top infill extrusion width = 0.45mm (1.74mm^3/s)

; external perimeters extrusion width = 0.45mm (4.34mm^3/s)
; perimeters extrusion width = 0.45mm (5.78mm^3/s)
; infill extrusion width = 0.45mm (7.52mm^3/s)
; solid infill extrusion width = 0.45mm (2.31mm^3/s)
; top infill extrusion width = 0.45mm (1.74mm^3/s)

;D3D:START:START
T0
M104 S215 T0

G21
G90
M107
T0
G28
G29
M109 T0 S215 T0
G0 F3000
M107
T0
G92 E0
G0 X0 Y149 Z0.1 F3600
G1 Y49 E6.5 F1200
G0 Z1
G92 E0
; Filament gcode

G21 ; set units to millimeters
G90 ; use absolute coordinates
M82 ; use absolute distances for extrusion
G92 E0
G1 Z0.300 F6000.000
G1 E-0.50000 F1200.00000
G92 E0
G1 X51.006 Y65.980 F6000.000
G1 E0.52000 F1200.00000
G1 F1080
G1 X52.916 Y65.389 E0.57406
G1 X59.032 Y64.948 E0.73982
G1 X66.019 Y64.476 E0.92917
G1 X71.064 Y64.159 E1.06584
G1 X75.540 Y63.909 E1.18705
G1 X78.541 Y63.769 E1.26827
G1 X82.158 Y63.635 E1.36613
G1 X84.940 Y63.557 E1.44137
G1 X87.572 Y63.518 E1.51255
G1 X89.485 Y63.523 E1.56425
G1 X91.275 Y63.563 E1.61266
G1 X92.957 Y63.645 E1.65821
G1 X94.466 Y63.767 E1.69912
G1 X95.517 Y63.889 E1.72774
G1 X96.818 Y64.099 E1.76338
G1 X97.688 Y64.289 E1.78745
G1 X98.527 Y64.524 E1.81099
G1 X99.366 Y64.830 E1.83516
G1 X100.047 Y65.149 E1.85548
G1 X100.686 Y65.529 E1.87557
G1 X101.147 Y65.867 E1.89103
G1 X101.628 Y66.298 E1.90848
G1 X102.098 Y66.830 E1.92769
G1 X102.539 Y67.491 E1.94917
G1 X102.855 Y68.150 E1.96893
G1 X102.907 Y68.288 E1.97292
G1 X103.144 Y69.175 E1.99774
G1 X103.221 Y70.000 E2.02015
G1 X103.160 Y70.877 E2.04391
G1 X101.134 Y81.030 E2.32384
G1 X100.386 Y82.755 E2.37468
G1 X98.994 Y84.020 E2.42553
G1 X97.084 Y84.611 E2.47959
G1 X91.519 Y85.013 E2.63042
G1 X84.669 Y85.479 E2.81605
G1 X79.673 Y85.796 E2.95141
G1 X75.205 Y86.052 E3.07242
G1 X72.206 Y86.199 E3.15360
G1 X68.561 Y86.341 E3.25222
G1 X65.746 Y86.427 E3.32836
G1 X63.076 Y86.477 E3.40056
G1 X61.135 Y86.482 E3.45304
G1 X59.311 Y86.454 E3.50236
G1 X57.591 Y86.387 E3.54888
G1 X55.983 Y86.275 E3.59248
G1 X54.971 Y86.172 E3.61997
G1 X54.006 Y86.043 E3.64630
G1 X53.081 Y85.881 E3.67168
G1 X52.317 Y85.713 E3.69284
G1 X51.474 Y85.476 E3.71652
G1 X50.866 Y85.263 E3.73393
G1 X50.206 Y84.978 E3.75336
G1 X49.769 Y84.750 E3.76670
G1 X49.318 Y84.474 E3.78099
G1 X48.853 Y84.133 E3.79658
G1 X48.375 Y83.706 E3.81391
G1 X47.903 Y83.172 E3.83317
G1 X47.461 Y82.509 E3.85472
G1 X47.147 Y81.854 E3.87436
G1 X46.883 Y80.969 E3.89932
G1 X46.779 Y80.000 E3.92568
G1 X46.840 Y79.123 E3.94944
G1 X48.866 Y68.970 E4.22937
G1 X49.614 Y67.245 E4.28021
G1 X50.962 Y66.020 E4.32944
G1 X51.211 Y66.135 F6000.000
G1 F1080
G1 X52.934 Y65.624 E4.37804
G1 X59.048 Y65.183 E4.54377
G1 X66.035 Y64.712 E4.73309
G1 X71.078 Y64.394 E4.86973
G1 X75.552 Y64.144 E4.99088
G1 X78.551 Y64.004 E5.07203
G1 X82.157 Y63.870 E5.16961
G1 X84.930 Y63.792 E5.24462
G1 X86.947 Y63.759 E5.29914
G1 X88.863 Y63.753 E5.35096
G1 X90.682 Y63.781 E5.40015
G1 X92.395 Y63.848 E5.44649
G1 X93.995 Y63.959 E5.48986
G1 X95.412 Y64.113 E5.52837
G1 X96.334 Y64.251 E5.55358
G1 X97.316 Y64.443 E5.58063
G1 X98.186 Y64.666 E5.60493
G1 X99.050 Y64.957 E5.62957
G1 X99.694 Y65.236 E5.64855
G1 X100.392 Y65.619 E5.67007
G1 X100.862 Y65.943 E5.68552
G1 X101.464 Y66.466 E5.70707
G1 X101.914 Y66.977 E5.72548
G1 X102.336 Y67.610 E5.74603
G1 X102.634 Y68.234 E5.76474
G1 X102.687 Y68.371 E5.76872
G1 X102.913 Y69.218 E5.79242
G1 X102.986 Y70.000 E5.81365
G1 X102.928 Y70.838 E5.83635
G1 X100.903 Y80.984 E6.11608
G1 X100.165 Y82.658 E6.16555
G1 X98.789 Y83.865 E6.21503
G1 X97.066 Y84.376 E6.26363
G1 X90.951 Y84.817 E6.42939
G1 X83.963 Y85.289 E6.61875
G1 X78.922 Y85.606 E6.75531
G1 X74.442 Y85.856 E6.87662
G1 X71.449 Y85.996 E6.95762
G1 X67.843 Y86.130 E7.05520
G1 X65.070 Y86.208 E7.13021
G1 X63.053 Y86.241 E7.18473
G1 X61.137 Y86.247 E7.23655
G1 X59.318 Y86.219 E7.28573
G1 X57.605 Y86.152 E7.33208
G1 X56.005 Y86.041 E7.37544
G1 X55.000 Y85.938 E7.40274
G1 X54.044 Y85.810 E7.42884
G1 X53.129 Y85.651 E7.45394
G1 X52.371 Y85.483 E7.47493
G1 X51.542 Y85.251 E7.49820
G1 X50.953 Y85.044 E7.51507
G1 X50.306 Y84.764 E7.53415
G1 X49.881 Y84.543 E7.54709
G1 X49.446 Y84.276 E7.56090
G1 X48.998 Y83.947 E7.57592
G1 X48.539 Y83.536 E7.59257
G1 X48.087 Y83.025 E7.61102
G1 X47.664 Y82.390 E7.63164
G1 X47.367 Y81.770 E7.65025
G1 X47.114 Y80.925 E7.67409
G1 X47.014 Y80.000 E7.69924
G1 X47.072 Y79.162 E7.72195
G1 X49.097 Y69.016 E8.00167
G1 X49.835 Y67.342 E8.05115
G1 X51.166 Y66.175 E8.09900
G1 E7.59900 F1200.00000
G92 E0
G1 X55.797 Y79.912 F6000.000
G1 E0.52000 F1200.00000
G1 F1080
G1 X55.699 Y80.304 E0.53093
G1 X55.611 Y80.493 E0.53657
G1 X55.382 Y80.808 E0.54708
G1 X55.209 Y80.965 E0.55341
G1 X54.903 Y81.157 E0.56317
G1 X54.710 Y81.234 E0.56879
G1 X54.324 Y81.307 E0.57940
G1 X53.933 Y81.283 E0.59001
G1 X53.734 Y81.232 E0.59555
G1 X53.523 Y81.144 E0.60175
G1 X53.219 Y80.949 E0.61151
G1 X53.067 Y80.807 E0.61713
G1 X52.836 Y80.489 E0.62774
G1 X52.692 Y80.123 E0.63838
G1 X52.651 Y79.892 E0.64471
G1 X52.653 Y79.527 E0.65460
G1 X52.751 Y79.147 E0.66520
G1 X52.839 Y78.959 E0.67083
G1 X53.067 Y78.645 E0.68131
G1 X53.219 Y78.502 E0.68695
G1 X53.546 Y78.295 E0.69743
G1 X53.740 Y78.218 E0.70306
G1 X54.122 Y78.145 E0.71357
G1 X54.356 Y78.149 E0.71991
G1 X54.710 Y78.218 E0.72966
G1 X54.904 Y78.295 E0.73529
G1 X55.231 Y78.502 E0.74577
G1 X55.383 Y78.645 E0.75140
G1 X55.614 Y78.962 E0.76201
G1 X55.761 Y79.341 E0.77298
G1 X55.790 Y79.111 E0.77925
G1 X55.853 Y78.917 E0.78476
G1 X55.939 Y78.733 E0.79026
G1 X56.167 Y78.419 E0.80074
G1 X56.319 Y78.277 E0.80638
G1 X56.646 Y78.069 E0.81686
G1 X56.840 Y77.992 E0.82249
G1 X57.226 Y77.919 E0.83310
G1 X57.617 Y77.943 E0.84371
G1 X57.814 Y77.994 E0.84921
G1 X58.004 Y78.069 E0.85472
G1 X58.331 Y78.277 E0.86520
G1 X58.483 Y78.419 E0.87083
G1 X58.714 Y78.737 E0.88144
G1 X58.860 Y79.106 E0.89218
G1 X58.910 Y79.500 E0.90292
G1 X58.860 Y79.889 E0.91353
G1 X58.797 Y80.083 E0.91903
G1 X58.711 Y80.267 E0.92454
G1 X58.483 Y80.581 E0.93502
G1 X58.331 Y80.723 E0.94065
G1 X58.000 Y80.934 E0.95126
G1 X57.626 Y81.055 E0.96187
G1 X57.388 Y81.085 E0.96838
G1 X57.027 Y81.056 E0.97817
G1 X56.650 Y80.934 E0.98887
G1 X56.319 Y80.723 E0.99948
G1 X56.167 Y80.581 E1.00511
G1 X55.939 Y80.267 E1.01559
G1 X55.816 Y79.969 E1.02432
G1 E0.52432 F1200.00000
G92 E0
G1 X66.728 Y81.081 F6000.000
G1 E0.52000 F1200.00000
G1 F1080
G1 X66.494 Y81.077 E0.52633
G1 X66.140 Y81.008 E0.53609
G1 X65.946 Y80.931 E0.54171
G1 X65.618 Y80.723 E0.55222
G1 X65.450 Y80.560 E0.55856
G1 X65.236 Y80.263 E0.56844
G1 X65.092 Y79.897 E0.57907
G1 X65.051 Y79.667 E0.58541
G1 X65.053 Y79.301 E0.59529
G1 X65.151 Y78.921 E0.60589
G1 X65.239 Y78.733 E0.61152
G1 X65.467 Y78.419 E0.62200
G1 X65.619 Y78.277 E0.62764
G1 X65.946 Y78.069 E0.63812
G1 X66.140 Y77.992 E0.64375
G1 X66.522 Y77.919 E0.65426
G1 X66.756 Y77.923 E0.66060
G1 X67.110 Y77.992 E0.67035
G1 X67.304 Y78.069 E0.67598
G1 X67.631 Y78.277 E0.68646
G1 X67.783 Y78.419 E0.69209
G1 X68.013 Y78.736 E0.70269
G1 X68.150 Y79.076 E0.71258
G1 X68.197 Y79.305 E0.71891
G1 X68.197 Y79.695 E0.72945
G1 X68.150 Y79.924 E0.73578
G1 X68.013 Y80.264 E0.74567
G1 X67.783 Y80.581 E0.75627
G1 X67.631 Y80.723 E0.76190
G1 X67.304 Y80.931 E0.77238
G1 X67.110 Y81.008 E0.77802
G1 X66.787 Y81.069 E0.78691
G1 E0.28691 F1200.00000
G92 E0
G1 X96.600 Y80.013 F6000.000
G1 E0.52000 F1200.00000
G1 F1080
G1 X91.199 Y80.403 E0.66641
G1 X84.365 Y80.867 E0.85160
G1 X79.394 Y81.183 E0.98627
G1 X74.964 Y81.437 E1.10624
G1 X71.272 Y81.614 E1.20618
G1 X67.695 Y81.746 E1.30296
G1 X64.305 Y81.837 E1.39464
G1 X61.776 Y81.863 E1.46302
G1 X59.449 Y81.835 E1.52594
G1 X57.359 Y81.745 E1.58249
G1 X55.539 Y81.586 E1.63190
G1 X54.368 Y81.420 E1.66386
G1 X53.688 Y81.288 E1.68260
G1 X53.091 Y81.138 E1.69924
G1 X52.580 Y80.971 E1.71376
G1 X52.160 Y80.790 E1.72614
G1 X51.833 Y80.596 E1.73641
G1 X51.597 Y80.391 E1.74487
G1 X51.522 Y80.297 E1.74812
G1 X51.418 Y80.083 E1.75456
G1 X51.401 Y79.992 E1.75707
G1 X51.419 Y79.765 E1.76321
G1 X51.453 Y79.665 E1.76608
G1 X51.601 Y79.421 E1.77378
G1 X51.703 Y79.304 E1.77798
G1 X51.992 Y79.049 E1.78839
G1 X52.374 Y78.792 E1.80084
G1 X53.126 Y78.406 E1.82372
G1 X54.082 Y78.031 E1.85146
G1 X55.231 Y77.677 E1.88398
G1 X56.101 Y77.457 E1.90824
G1 X57.552 Y77.155 E1.94831
G1 X58.609 Y76.977 E1.97728
G1 X60.321 Y76.749 E2.02399
G1 X61.538 Y76.626 E2.05706
G1 X63.465 Y76.488 E2.10930
G1 X64.813 Y76.428 E2.14576
G1 X66.199 Y76.395 E2.18326
G1 X67.619 Y76.389 E2.22166
G1 X69.073 Y76.410 E2.26096
G1 X71.284 Y76.488 E2.32079
G1 X73.519 Y76.612 E2.38130
G1 X75.766 Y76.773 E2.44220
G1 X78.004 Y76.968 E2.50295
G1 X80.214 Y77.191 E2.56300
G1 X82.376 Y77.438 E2.62182
G1 X85.150 Y77.793 E2.69744
G1 X87.760 Y78.166 E2.76873
G1 X90.732 Y78.635 E2.85007
G1 X93.776 Y79.167 E2.93363
G1 X96.600 Y79.709 E3.01137
G1 X96.600 Y79.953 E3.01795
G1 X95.947 Y79.824 F6000.000
G1 F1080
G1 X95.666 Y79.770 E3.02570
G1 X95.586 Y79.850 E3.02877
G1 X95.226 Y79.876 E3.03858
G1 X95.386 Y79.716 E3.04472
G1 X95.105 Y79.662 E3.05247
G1 X94.865 Y79.902 E3.06168
G1 X94.505 Y79.928 E3.07149
G1 X94.825 Y79.608 E3.08376
G1 X94.544 Y79.554 E3.09151
G1 X94.144 Y79.954 E3.10685
G1 X93.784 Y79.980 E3.11666
G1 X94.263 Y79.501 E3.13507
G1 X93.983 Y79.447 E3.14282
G1 X93.423 Y80.006 E3.16430
G1 X93.063 Y80.032 E3.17411
G1 X93.702 Y79.393 E3.19863
G1 X93.417 Y79.344 E3.20648
G1 X92.702 Y80.058 E3.23391
G1 X92.342 Y80.084 E3.24372
G1 X93.132 Y79.294 E3.27406
G1 X92.848 Y79.244 E3.28190
G1 X91.981 Y80.110 E3.31515
G1 X91.621 Y80.136 E3.32496
G1 X92.563 Y79.194 E3.36112
G1 X92.278 Y79.145 E3.36896
G1 X91.260 Y80.162 E3.40803
G1 X90.901 Y80.187 E3.41780
G1 X91.993 Y79.095 E3.45973
G1 X91.709 Y79.045 E3.46757
G1 X90.542 Y80.212 E3.51234
G1 X90.183 Y80.236 E3.52210
G1 X91.424 Y78.995 E3.56971
G1 X91.139 Y78.946 E3.57755
G1 X89.825 Y80.260 E3.62801
G1 X89.466 Y80.285 E3.63777
G1 X90.854 Y78.896 E3.69107
G1 X90.568 Y78.848 E3.69895
G1 X89.107 Y80.309 E3.75503
G1 X88.748 Y80.333 E3.76479
G1 X90.279 Y78.802 E3.82355
G1 X89.990 Y78.757 E3.83149
G1 X88.389 Y80.358 E3.89294
G1 X88.030 Y80.382 E3.90270
G1 X89.701 Y78.711 E3.96683
G1 X89.413 Y78.665 E3.97477
G1 X87.671 Y80.407 E4.04159
G1 X87.313 Y80.431 E4.05135
G1 X89.124 Y78.620 E4.12086
G1 X88.835 Y78.574 E4.12880
G1 X86.954 Y80.455 E4.20099
G1 X86.595 Y80.480 E4.21075
G1 X88.546 Y78.529 E4.28563
G1 X88.257 Y78.483 E4.29357
G1 X86.236 Y80.504 E4.37114
G1 X85.877 Y80.528 E4.38090
G1 X87.968 Y78.437 E4.46115
G1 X87.679 Y78.392 E4.46910
G1 X85.518 Y80.553 E4.55202
G1 X85.160 Y80.577 E4.56178
G1 X87.386 Y78.351 E4.64724
G1 X87.094 Y78.309 E4.65526
G1 X84.801 Y80.602 E4.74326
G1 X84.442 Y80.626 E4.75302
G1 X86.801 Y78.267 E4.84355
G1 X86.508 Y78.225 E4.85158
G1 X84.084 Y80.649 E4.94460
G1 X83.727 Y80.672 E4.95432
G1 X86.216 Y78.183 E5.04982
G1 X85.923 Y78.142 E5.05784
G1 X83.370 Y80.694 E5.15582
G1 X83.013 Y80.717 E5.16553
G1 X85.630 Y78.100 E5.26599
G1 X85.338 Y78.058 E5.27401
G1 X82.656 Y80.740 E5.37694
G1 X82.298 Y80.763 E5.38665
G1 X85.044 Y78.017 E5.49202
G1 X84.747 Y77.979 E5.50014
G1 X81.941 Y80.785 E5.60783
G1 X81.584 Y80.808 E5.61755
G1 X84.451 Y77.941 E5.72757
G1 X84.154 Y77.903 E5.73569
G1 X81.227 Y80.831 E5.84804
G1 X80.870 Y80.853 E5.85775
G1 X83.858 Y77.865 E5.97244
G1 X83.561 Y77.827 E5.98055
G1 X80.513 Y80.876 E6.09756
G1 X80.155 Y80.899 E6.10727
G1 X83.265 Y77.789 E6.22662
G1 X82.968 Y77.751 E6.23473
G1 X79.798 Y80.922 E6.35640
G1 X79.441 Y80.944 E6.36611
G1 X82.672 Y77.713 E6.49011
G1 X82.375 Y77.675 E6.49822
G1 X79.086 Y80.965 E6.62447
G1 X78.731 Y80.985 E6.63412
G1 X82.076 Y77.641 E6.76248
G1 X81.775 Y77.607 E6.77068
G1 X78.376 Y81.006 E6.90113
G1 X78.021 Y81.026 E6.91078
G1 X81.475 Y77.572 E7.04333
G1 X81.175 Y77.538 E7.05153
G1 X77.667 Y81.046 E7.18617
G1 X77.312 Y81.067 E7.19582
G1 X80.875 Y77.504 E7.33256
G1 X80.574 Y77.470 E7.34076
G1 X76.957 Y81.087 E7.47959
G1 X76.602 Y81.107 E7.48924
G1 X80.274 Y77.435 E7.63017
G1 X79.971 Y77.404 E7.63843
G1 X76.247 Y81.128 E7.78136
G1 X75.893 Y81.148 E7.79100
G1 X79.668 Y77.373 E7.93589
G1 X79.364 Y77.342 E7.94418
G1 X75.538 Y81.168 E8.09103
G1 X75.183 Y81.189 E8.10067
G1 X79.060 Y77.312 E8.24948
G1 X78.756 Y77.281 E8.25776
G1 X74.829 Y81.208 E8.40848
G1 X74.478 Y81.225 E8.41803
G1 X78.453 Y77.250 E8.57057
G1 X78.149 Y77.219 E8.57886
G1 X74.127 Y81.242 E8.73322
G1 X73.776 Y81.258 E8.74277
G1 X77.843 Y77.190 E8.89889
G1 X77.536 Y77.164 E8.90727
G1 X73.424 Y81.275 E9.06507
G1 X73.073 Y81.292 E9.07461
G1 X77.228 Y77.137 E9.23408
G1 X76.920 Y77.110 E9.24246
G1 X72.722 Y81.309 E9.40361
G1 X72.370 Y81.326 E9.41315
G1 X76.613 Y77.083 E9.57597
G1 X76.305 Y77.056 E9.58435
G1 X72.019 Y81.342 E9.74884
G1 X71.668 Y81.359 E9.75838
G1 X75.997 Y77.030 E9.92455
G1 X75.689 Y77.004 E9.93295
G1 X71.317 Y81.376 E10.10076
G1 X70.969 Y81.389 E10.11021
G1 X75.377 Y76.981 E10.27939
G1 X75.065 Y76.959 E10.28788
G1 X70.621 Y81.402 E10.45842
G1 X70.274 Y81.415 E10.46785
G1 X74.753 Y76.936 E10.63974
G1 X74.441 Y76.914 E10.64823
G1 X69.927 Y81.428 E10.82147
G1 X69.579 Y81.441 E10.83090
G1 X74.129 Y76.892 E11.00550
G1 X73.817 Y76.869 E11.01399
G1 X69.232 Y81.454 E11.18994
G1 X68.885 Y81.467 E11.19938
G1 X73.505 Y76.847 E11.37668
G1 X73.188 Y76.829 E11.38530
G1 X68.537 Y81.479 E11.56377
G1 X68.190 Y81.492 E11.57320
G1 X72.871 Y76.812 E11.75283
G1 X72.554 Y76.794 E11.76145
G1 X67.843 Y81.505 E11.94224
G1 X67.498 Y81.516 E11.95162
G1 X72.237 Y76.777 E12.13350
G1 X71.920 Y76.759 E12.14212
G1 X68.010 Y80.669 E12.29216
G1 X68.221 Y80.379 E12.30191
G1 X68.382 Y79.962 E12.31402
G1 X71.603 Y76.742 E12.43762
G1 X71.286 Y76.724 E12.44623
G1 X68.433 Y79.577 E12.55573
G1 X68.426 Y79.250 E12.56463
G1 X70.963 Y76.713 E12.66199
G1 X70.640 Y76.701 E12.67076
G1 X68.364 Y78.977 E12.75811
G1 X68.268 Y78.739 E12.76509
G1 X70.317 Y76.690 E12.84372
G1 X69.994 Y76.678 E12.85249
G1 X68.149 Y78.523 E12.92329
G1 X68.009 Y78.329 E12.92979
G1 X69.671 Y76.667 E12.99359
G1 X69.348 Y76.655 E13.00236
G1 X67.847 Y78.156 E13.05997
G1 X67.656 Y78.013 E13.06645
G1 X69.024 Y76.645 E13.11898
G1 X68.694 Y76.640 E13.12793
G1 X67.451 Y77.883 E13.17565
G1 X67.218 Y77.782 E13.18255
G1 X68.365 Y76.635 E13.22655
G1 X68.035 Y76.630 E13.23550
G1 X66.945 Y77.720 E13.27731
G1 X66.781 Y77.688 E13.28186
G1 X66.645 Y77.686 E13.28554
G1 X67.705 Y76.626 E13.32621
G1 X67.371 Y76.626 E13.33528
G1 X66.269 Y77.728 E13.37758
G1 X66.074 Y77.765 E13.38296
G1 X65.839 Y77.858 E13.38982
G1 X65.744 Y77.918 E13.39289
G1 X67.035 Y76.627 E13.44245
G1 X66.699 Y76.629 E13.45157
G1 X63.243 Y80.085 E13.58421
G1 X63.243 Y79.750 E13.59329
G1 X66.363 Y76.630 E13.71305
G1 X66.024 Y76.635 E13.72226
G1 X63.243 Y79.416 E13.82899
G1 X63.243 Y79.081 E13.83807
G1 X65.681 Y76.643 E13.93165
G1 X65.338 Y76.651 E13.94095
G1 X63.243 Y78.747 E14.02138
G1 X63.243 Y78.412 E14.03046
G1 X64.996 Y76.659 E14.09774
G1 X64.650 Y76.671 E14.10714
G1 X63.243 Y78.078 E14.16113
G1 X63.243 Y77.744 E14.17021
G1 X64.300 Y76.687 E14.21077
G1 X63.950 Y76.702 E14.22028
G1 X63.243 Y77.409 E14.24741
G1 X63.243 Y77.075 E14.25649
G1 X63.600 Y76.718 E14.27018
G1 X63.243 Y76.740 E14.27988
G1 E13.77988 F1200.00000
G92 E0
G1 X63.243 Y80.085 F6000.000
G1 E0.52000 F1200.00000
G1 F1080
G1 X63.243 Y80.419 E0.52908
G1 X65.023 Y78.639 E0.59740
G1 X64.928 Y78.841 E0.60346
G1 X64.849 Y79.147 E0.61204
G1 X63.243 Y80.754 E0.67370
G1 X63.243 Y81.088 E0.68277
G1 X64.816 Y79.515 E0.74317
G1 X64.816 Y79.687 E0.74784
G1 X64.840 Y79.826 E0.75166
G1 X63.243 Y81.423 E0.81296
G1 X63.243 Y81.612 E0.81810
G1 X63.389 Y81.611 E0.82208
G1 X64.913 Y80.087 E0.88056
G1 X65.008 Y80.326 E0.88756
G1 X63.727 Y81.607 E0.93671
G1 X64.065 Y81.604 E0.94588
G1 X65.138 Y80.530 E0.98707
G1 X65.280 Y80.723 E0.99357
G1 X64.405 Y81.598 E1.02715
G1 X64.748 Y81.589 E1.03648
G1 X65.450 Y80.888 E1.06340
G1 X65.650 Y81.022 E1.06994
G1 X65.092 Y81.580 E1.09136
G1 X65.436 Y81.571 E1.10068
G1 X65.857 Y81.149 E1.11687
