; generated by Slic3r 1.3.0 on 2020-11-25 at 18:23:49

; external perimeters extrusion width = 0.44mm (1.51mm^3/s)
; perimeters extrusion width = 0.56mm (2.15mm^3/s)
; infill extrusion width = 0.50mm (2.87mm^3/s)
; solid infill extrusion width = 0.56mm (1.62mm^3/s)
; top infill extrusion width = 0.45mm (1.29mm^3/s)

M107
;D3D:START:START
T0
M104 S215 T0

G21
G90
M107
T0
G28
G29
M109 T0 S215 T0
G0 F3000
M107
T0
G92 E0
G0 X0 Y149 Z0.1 F3600
G1 Y49 E6.5 F1200
G0 Z1
G92 E0
; Filament gcode

G21 ; set units to millimeters
G90 ; use absolute coordinates
M82 ; use absolute distances for extrusion
G92 E0
G1 Z0.300 F6000.000
G1 E-2.00000 F1200.00000
G92 E0
G1 X56.309 Y51.522 F6000.000
G1 E2.00000 F1200.00000
G1 F1800
G1 X57.971 Y50.514 E2.08413
G1 X59.256 Y50.251 E2.14090
G1 X85.516 Y48.556 E3.28002
G1 X87.441 Y48.829 E3.36415
G1 X89.097 Y49.846 E3.44827
G1 X90.489 Y52.316 E3.57100
G1 X95.076 Y73.680 E4.51687
G1 X95.182 Y74.682 E4.56047
G1 X95.182 Y96.682 E5.51279
G1 X94.786 Y98.585 E5.59691
G1 X93.664 Y100.172 E5.68104
G1 X92.003 Y101.180 E5.76516
G1 X89.999 Y101.435 E5.85259
G1 X59.151 Y98.765 E7.19290
G1 X57.290 Y98.207 E7.27703
G1 X55.805 Y96.953 E7.36115
G1 X54.944 Y95.210 E7.44528
G1 X54.792 Y94.012 E7.49757
G1 X54.792 Y55.012 E9.18576
G1 X55.187 Y53.109 E9.26989
G1 X56.274 Y51.571 E9.35141
G1 X56.688 Y51.700 F6000.000
G1 F1800
G1 X58.321 Y50.806 E9.43203
G1 X59.280 Y50.635 E9.47421
G1 X85.541 Y48.941 E10.61332
G1 X87.383 Y49.218 E10.69394
G1 X88.943 Y50.235 E10.77456
G1 X90.112 Y52.397 E10.88092
G1 X94.699 Y73.761 E11.82680
G1 X94.796 Y74.682 E11.86688
G1 X94.796 Y96.682 E12.81919
G1 X94.401 Y98.502 E12.89981
G1 X93.286 Y99.994 E12.98042
G1 X91.652 Y100.888 E13.06104
G1 X90.033 Y101.051 E13.13151
G1 X59.185 Y98.381 E14.47182
G1 X57.406 Y97.830 E14.55244
G1 X56.016 Y96.591 E14.63305
G1 X55.177 Y94.012 E14.75044
G1 X55.177 Y55.012 E16.43863
G1 X55.573 Y53.192 E16.51924
G1 X56.652 Y51.748 E16.59726
G1 E14.59726 F1200.00000
G92 E0
G1 X81.438 Y87.040 F6000.000
G1 E2.00000 F1200.00000
G1 F1800
G1 X80.861 Y87.617 E2.03533
G1 X80.134 Y87.987 E2.07066
G1 X79.328 Y88.115 E2.10599
G1 X78.522 Y87.987 E2.14132
G1 X77.794 Y87.617 E2.17665
G1 X77.217 Y87.040 E2.21198
G1 X76.855 Y86.329 E2.24651
G1 X76.718 Y85.511 E2.28242
G1 X76.847 Y84.700 E2.31794
G1 X77.217 Y83.973 E2.35327
G1 X77.794 Y83.396 E2.38860
G1 X78.522 Y83.025 E2.42393
G1 X79.309 Y82.901 E2.45846
G1 X80.130 Y83.023 E2.49437
G1 X80.861 Y83.396 E2.52989
G1 X81.438 Y83.973 E2.56522
G1 X81.809 Y84.700 E2.60055
G1 X81.937 Y85.511 E2.63607
G1 X81.800 Y86.329 E2.67198
G1 X81.465 Y86.986 E2.70391
G1 X81.122 Y86.810 F6000.000
G1 F1800
G1 X80.632 Y87.301 E2.73395
G1 X80.013 Y87.616 E2.76400
G1 X79.328 Y87.725 E2.79404
G1 X78.642 Y87.616 E2.82408
G1 X78.024 Y87.301 E2.85413
G1 X77.533 Y86.810 E2.88417
G1 X77.226 Y86.207 E2.91349
G1 X77.109 Y85.509 E2.94411
G1 X77.218 Y84.821 E2.97427
G1 X77.533 Y84.202 E3.00431
G1 X78.024 Y83.712 E3.03435
G1 X78.642 Y83.397 E3.06439
G1 X79.311 Y83.291 E3.09370
G1 X80.011 Y83.395 E3.12433
G1 X80.632 Y83.712 E3.15449
G1 X81.122 Y84.202 E3.18453
G1 X81.437 Y84.821 E3.21457
G1 X81.546 Y85.509 E3.24473
G1 X81.430 Y86.207 E3.27535
G1 X81.150 Y86.757 E3.30207
G1 X80.806 Y86.581 F6000.000
G1 F1800
G1 X80.402 Y86.985 E3.32683
G1 X79.893 Y87.245 E3.35158
G1 X79.328 Y87.334 E3.37634
G1 X78.763 Y87.245 E3.40109
G1 X78.253 Y86.985 E3.42585
G1 X77.849 Y86.581 E3.45060
G1 X77.596 Y86.085 E3.47471
G1 X77.500 Y85.507 E3.50004
G1 X77.589 Y84.941 E3.52484
G1 X77.849 Y84.432 E3.54959
G1 X78.253 Y84.028 E3.57434
G1 X78.763 Y83.768 E3.59910
G1 X79.313 Y83.681 E3.62320
G1 X79.892 Y83.767 E3.64854
G1 X80.402 Y84.028 E3.67334
G1 X80.806 Y84.432 E3.69809
G1 X81.066 Y84.941 E3.72284
G1 X81.156 Y85.507 E3.74764
G1 X81.059 Y86.085 E3.77298
G1 X80.834 Y86.527 E3.79448
G1 X80.969 Y86.946 F6000.000
G1 E1.79448 F1200.00000
G92 E0
G1 X67.771 Y85.506 F6000.000
G1 E2.00000 F1200.00000
G1 F1800
G1 X67.644 Y86.312 E2.03533
G1 X67.273 Y87.040 E2.07066
G1 X66.696 Y87.617 E2.10599
G1 X65.969 Y87.987 E2.14132
G1 X65.163 Y88.115 E2.17665
G1 X64.357 Y87.987 E2.21198
G1 X63.629 Y87.617 E2.24731
G1 X63.052 Y87.040 E2.28264
G1 X62.682 Y86.312 E2.31797
G1 X62.554 Y85.506 E2.35330
G1 X62.682 Y84.700 E2.38863
G1 X63.052 Y83.973 E2.42396
G1 X63.629 Y83.396 E2.45929
G1 X64.357 Y83.025 E2.49462
G1 X65.144 Y82.901 E2.52915
G1 X65.965 Y83.023 E2.56506
G1 X66.696 Y83.396 E2.60058
G1 X67.273 Y83.973 E2.63591
G1 X67.644 Y84.700 E2.67124
G1 X67.762 Y85.447 E2.70397
G1 X67.381 Y85.506 F6000.000
G1 F1800
G1 X67.272 Y86.192 E2.73401
G1 X66.957 Y86.810 E2.76405
G1 X66.467 Y87.301 E2.79410
G1 X65.848 Y87.616 E2.82414
G1 X65.163 Y87.725 E2.85418
G1 X64.477 Y87.616 E2.88422
G1 X63.859 Y87.301 E2.91427
G1 X63.368 Y86.810 E2.94431
G1 X63.053 Y86.192 E2.97435
G1 X62.945 Y85.506 E3.00439
G1 X63.053 Y84.821 E3.03443
G1 X63.368 Y84.202 E3.06448
G1 X63.859 Y83.712 E3.09452
G1 X64.477 Y83.397 E3.12456
G1 X65.146 Y83.291 E3.15387
G1 X65.846 Y83.395 E3.18450
G1 X66.467 Y83.712 E3.21466
G1 X66.957 Y84.202 E3.24470
G1 X67.272 Y84.821 E3.27474
G1 X67.372 Y85.447 E3.30219
G1 X66.991 Y85.506 F6000.000
G1 F1800
G1 X66.901 Y86.071 E3.32694
G1 X66.641 Y86.581 E3.35170
G1 X66.237 Y86.985 E3.37645
G1 X65.728 Y87.245 E3.40121
G1 X65.163 Y87.334 E3.42596
G1 X64.598 Y87.245 E3.45072
G1 X64.088 Y86.985 E3.47547
G1 X63.684 Y86.581 E3.50023
G1 X63.424 Y86.071 E3.52498
G1 X63.335 Y85.506 E3.54974
G1 X63.424 Y84.941 E3.57449
G1 X63.684 Y84.432 E3.59925
G1 X64.088 Y84.028 E3.62400
G1 X64.598 Y83.768 E3.64875
G1 X65.148 Y83.681 E3.67285
G1 X65.727 Y83.767 E3.69819
G1 X66.237 Y84.028 E3.72299
G1 X66.641 Y84.432 E3.74774
G1 X66.901 Y84.941 E3.77250
G1 X66.981 Y85.447 E3.79466
G1 X67.337 Y85.706 F6000.000
G1 E1.79466 F1200.00000
G92 E0
G1 X60.559 Y78.008 F6000.000
G1 E2.00000 F1200.00000
G1 F1800
G1 X77.961 Y78.008 E2.75329
G1 X85.058 Y76.499 E3.06737
G1 X89.114 Y95.388 E3.90364
G1 X77.961 Y93.016 E4.39720
G1 X60.559 Y93.016 E5.15049
G1 X60.559 Y78.068 E5.79752
G1 X60.173 Y77.623 F6000.000
G1 F1800
G1 X77.921 Y77.623 E6.56575
G1 X85.355 Y76.042 E6.89474
G1 X89.616 Y95.889 E7.77343
G1 X77.921 Y93.401 E8.29100
G1 X60.173 Y93.401 E9.05923
G1 X60.173 Y77.683 E9.73965
G1 X59.788 Y77.237 F6000.000
G1 F1800
G1 X77.880 Y77.237 E10.52281
G1 X85.651 Y75.584 E10.86670
G1 X90.118 Y96.390 E11.78782
G1 X77.880 Y93.787 E12.32940
G1 X59.788 Y93.787 E13.11256
G1 X59.788 Y77.297 E13.82637
G1 X60.176 Y77.335 F6000.000
G1 X61.108 Y78.230 F6000.000
G1 F1800
G1 X60.781 Y78.558 E13.84666
G1 X60.781 Y79.110 E13.87084
G1 X61.660 Y78.230 E13.92533
G1 X62.212 Y78.230 E13.94952
G1 X60.781 Y79.662 E14.03822
G1 X60.781 Y80.214 E14.06240
G1 X62.764 Y78.230 E14.18530
G1 X63.316 Y78.230 E14.20949
G1 X60.781 Y80.766 E14.36659
G1 X60.781 Y81.318 E14.39078
G1 X63.868 Y78.230 E14.58209
G1 X64.420 Y78.230 E14.60627
G1 X60.781 Y81.870 E14.83178
G1 X60.781 Y82.422 E14.85597
G1 X64.972 Y78.230 E15.11568
G1 X65.524 Y78.230 E15.13987
G1 X60.781 Y82.974 E15.43379
G1 X60.781 Y83.526 E15.45797
G1 X66.076 Y78.230 E15.78610
G1 X66.628 Y78.230 E15.81028
G1 X60.781 Y84.078 E16.17261
G1 X60.781 Y84.630 E16.19679
G1 X67.180 Y78.230 E16.59332
G1 X67.732 Y78.230 E16.61751
G1 X60.781 Y85.182 E17.04824
G1 X60.781 Y85.734 E17.07243
G1 X62.864 Y83.651 E17.20150
G1 X62.474 Y84.416 E17.23913
G1 X62.441 Y84.626 E17.24844
G1 X60.781 Y86.286 E17.35129
G1 X60.781 Y86.838 E17.37548
G1 X62.337 Y85.282 E17.47189
G1 X62.327 Y85.343 E17.47460
G1 X62.396 Y85.775 E17.49377
G1 X60.781 Y87.390 E17.59383
G1 X60.781 Y87.942 E17.61801
G1 X62.471 Y86.251 E17.72274
G1 X62.653 Y86.621 E17.74081
G1 X60.781 Y88.494 E17.85682
G1 X60.781 Y89.046 E17.88101
G1 X62.840 Y86.987 E18.00857
G1 X62.900 Y87.106 E18.01440
G1 X63.087 Y87.292 E18.02596
G1 X60.781 Y89.598 E18.16882
G1 X60.781 Y90.150 E18.19300
G1 X63.363 Y87.568 E18.35297
G1 X63.564 Y87.769 E18.36542
G1 X63.663 Y87.820 E18.37031
G1 X60.781 Y90.702 E18.54888
G1 X60.781 Y91.254 E18.57307
G1 X64.029 Y88.006 E18.77430
G1 X64.394 Y88.192 E18.79228
G1 X60.781 Y91.806 E19.01617
G1 X60.781 Y92.358 E19.04036
G1 X64.869 Y88.269 E19.29367
G1 X65.353 Y88.338 E19.31508
G1 X60.897 Y92.794 E19.59120
G1 X61.449 Y92.794 E19.61538
G1 X66.009 Y88.234 E19.89794
G1 X66.253 Y88.195 E19.90877
G1 X66.959 Y87.835 E19.94351
G1 X62.001 Y92.794 E20.25076
G1 X62.553 Y92.794 E20.27495
G1 X77.116 Y78.230 E21.17735
G1 X77.668 Y78.230 E21.20154
G1 X63.105 Y92.794 E22.10394
G1 X63.657 Y92.794 E22.12813
G1 X78.235 Y78.215 E23.03145
G1 X78.936 Y78.066 E23.06286
G1 X64.209 Y92.794 E23.97542
G1 X64.761 Y92.794 E23.99961
G1 X79.637 Y77.917 E24.92141
G1 X80.338 Y77.768 E24.95282
G1 X65.313 Y92.794 E25.88386
G1 X65.865 Y92.794 E25.90804
G1 X81.040 Y77.619 E26.84832
G1 X81.741 Y77.470 E26.87973
G1 X66.417 Y92.794 E27.82925
G1 X66.969 Y92.794 E27.85344
G1 X82.442 Y77.321 E28.81219
G1 X83.143 Y77.172 E28.84360
G1 X67.521 Y92.794 E29.81160
G1 X68.073 Y92.794 E29.83578
G1 X76.508 Y84.359 E30.35844
G1 X76.738 Y83.907 E30.38065
G1 X77.401 Y83.244 E30.42176
G1 X77.853 Y83.013 E30.44399
G1 X83.844 Y77.023 E30.81520
G1 X84.545 Y76.873 E30.84660
G1 X78.669 Y82.749 E31.21068
G1 X79.144 Y82.674 E31.23175
G1 X79.277 Y82.694 E31.23762
G1 X84.970 Y77.000 E31.59041
G1 X85.068 Y77.455 E31.61078
G1 X79.757 Y82.766 E31.93986
G1 X80.085 Y82.815 E31.95442
G1 X80.201 Y82.874 E31.96010
G1 X85.165 Y77.909 E32.26772
G1 X85.263 Y78.364 E32.28808
G1 X80.567 Y83.060 E32.57909
G1 X80.931 Y83.248 E32.59705
G1 X85.361 Y78.818 E32.87152
G1 X85.458 Y79.272 E32.89188
G1 X81.207 Y83.524 E33.15530
G1 X81.483 Y83.800 E33.17240
G1 X85.556 Y79.727 E33.42477
G1 X85.653 Y80.181 E33.44513
G1 X81.704 Y84.130 E33.68984
G1 X81.891 Y84.496 E33.70782
G1 X85.751 Y80.636 E33.94702
G1 X85.848 Y81.090 E33.96738
G1 X82.041 Y84.898 E34.20331
G1 X82.116 Y85.374 E34.22445
G1 X85.946 Y81.545 E34.46175
G1 X86.044 Y81.999 E34.48211
G1 X82.124 Y85.919 E34.72501
G1 X82.013 Y86.582 E34.75445
G1 X86.141 Y82.453 E35.01025
G1 X86.239 Y82.908 E35.03062
G1 X76.353 Y92.794 E35.64318
G1 X76.905 Y92.794 E35.66737
G1 X86.336 Y83.362 E36.25178
G1 X86.434 Y83.817 E36.27214
G1 X77.457 Y92.794 E36.82840
G1 X77.838 Y92.794 E36.84511
G1 X77.979 Y92.824 E36.85141
G1 X86.531 Y84.271 E37.38136
G1 X86.629 Y84.726 E37.40172
G1 X78.434 Y92.920 E37.90951
G1 X78.889 Y93.017 E37.92990
G1 X86.727 Y85.180 E38.41552
G1 X86.824 Y85.634 E38.43589
G1 X79.344 Y93.114 E38.89936
G1 X79.800 Y93.211 E38.91975
G1 X86.922 Y86.089 E39.36106
G1 X87.019 Y86.543 E39.38142
G1 X80.255 Y93.308 E39.80057
G1 X80.710 Y93.405 E39.82096
G1 X87.117 Y86.998 E40.21795
G1 X87.214 Y87.452 E40.23831
G1 X81.165 Y93.501 E40.61315
G1 X81.620 Y93.598 E40.63354
G1 X87.312 Y87.907 E40.98621
G1 X87.410 Y88.361 E41.00657
G1 X82.076 Y93.695 E41.33708
G1 X82.531 Y93.792 E41.35747
G1 X87.507 Y88.815 E41.66583
G1 X87.605 Y89.270 E41.68619
G1 X82.986 Y93.889 E41.97238
G1 X83.441 Y93.985 E41.99277
G1 X87.702 Y89.724 E42.25681
G1 X87.800 Y90.179 E42.27717
G1 X83.896 Y94.082 E42.51905
G1 X84.352 Y94.179 E42.53944
G1 X87.897 Y90.633 E42.75915
G1 X87.995 Y91.088 E42.77952
G1 X84.807 Y94.276 E42.97707
G1 X85.262 Y94.373 E42.99746
G1 X88.093 Y91.542 E43.17286
G1 X88.190 Y91.996 E43.19322
G1 X85.717 Y94.469 E43.34646
G1 X86.172 Y94.566 E43.36685
G1 X88.288 Y92.451 E43.49793
G1 X88.385 Y92.905 E43.51829
G1 X86.627 Y94.663 E43.62721
G1 X87.083 Y94.760 E43.64760
G1 X88.483 Y93.360 E43.73436
G1 X88.580 Y93.814 E43.75472
G1 X87.538 Y94.857 E43.81932
G1 X87.993 Y94.953 E43.83971
G1 X88.678 Y94.269 E43.88215
G1 X88.776 Y94.723 E43.90252
G1 X88.448 Y95.050 E43.92280
G1 E41.92280 F1200.00000
G92 E0
G1 X75.801 Y92.794 F6000.000
G1 E2.00000 F1200.00000
G1 F1800
G1 X80.396 Y88.199 E2.28473
G1 X79.740 Y88.302 E2.31383
G1 X75.249 Y92.794 E2.59212
G1 X74.697 Y92.794 E2.61631
G1 X79.196 Y88.295 E2.89507
G1 X78.719 Y88.220 E2.91621
G1 X74.145 Y92.794 E3.19964
G1 X73.593 Y92.794 E3.22383
G1 X78.317 Y88.069 E3.51658
G1 X77.952 Y87.883 E3.53457
G1 X73.041 Y92.794 E3.83887
G1 X72.489 Y92.794 E3.86305
G1 X77.621 Y87.662 E4.18106
G1 X77.345 Y87.386 E4.19816
G1 X71.937 Y92.794 E4.53328
G1 X71.385 Y92.794 E4.55746
G1 X77.069 Y87.109 E4.90968
G1 X76.881 Y86.745 E4.92764
G1 X70.833 Y92.794 E5.30243
G1 X70.281 Y92.794 E5.32662
G1 X76.695 Y86.379 E5.72407
G1 X76.648 Y86.287 E5.72860
G1 X76.589 Y85.934 E5.74432
G1 X69.729 Y92.794 E6.16940
G1 X69.177 Y92.794 E6.19359
G1 X76.510 Y85.461 E6.64798
G1 X76.491 Y85.349 E6.65295
G1 X76.571 Y84.848 E6.67516
G1 X68.625 Y92.794 E7.16752
G1 X68.073 Y92.794 E7.19170
G1 E5.19170 F1200.00000
G92 E0
G1 X67.492 Y87.303 F6000.000
G1 E2.00000 F1200.00000
G1 F1800
G1 X76.564 Y78.230 E2.56218
G1 X76.012 Y78.230 E2.58637
G1 X67.890 Y86.352 E3.08965
G1 X67.994 Y85.697 E3.11875
G1 X75.460 Y78.230 E3.58139
G1 X74.908 Y78.230 E3.60557
G1 X67.926 Y85.213 E4.03824
G1 X67.849 Y84.738 E4.05932
G1 X74.356 Y78.230 E4.46255
G1 X73.804 Y78.230 E4.48674
G1 X67.662 Y84.372 E4.86731
G1 X67.476 Y84.007 E4.88530
G1 X73.252 Y78.230 E5.24321
G1 X72.700 Y78.230 E5.26740
G1 X67.224 Y83.706 E5.60670
G1 X66.948 Y83.430 E5.62381
G1 X72.148 Y78.230 E5.94601
G1 X71.596 Y78.230 E5.97019
G1 X66.643 Y83.183 E6.27710
G1 X66.278 Y82.997 E6.29508
G1 X71.044 Y78.230 E6.59044
G1 X70.492 Y78.230 E6.61462
G1 X65.909 Y82.813 E6.89860
G1 X65.429 Y82.741 E6.91987
G1 X69.940 Y78.230 E7.19939
G1 X69.388 Y78.230 E7.22358
G1 X64.938 Y82.680 E7.49933
G1 X64.282 Y82.784 E7.52842
G1 X68.836 Y78.230 E7.81061
G1 X68.284 Y78.230 E7.83480
G1 X63.307 Y83.208 E8.14321
G1 X63.236 Y83.244 E8.14669
G1 X62.573 Y83.907 E8.18780
G1 X62.537 Y83.978 E8.19128
G1 E6.19128 F1200.00000
G92 E0
G1 X77.217 Y65.040 F6000.000
G1 E2.00000 F1200.00000
G1 F1800
G1 X76.847 Y64.313 E2.03533
G1 X76.719 Y63.506 E2.07066
G1 X76.847 Y62.700 E2.10599
G1 X77.217 Y61.973 E2.14132
G1 X77.794 Y61.396 E2.17665
G1 X78.522 Y61.025 E2.21198
G1 X79.309 Y60.901 E2.24651
G1 X80.130 Y61.023 E2.28242
G1 X80.861 Y61.396 E2.31794
G1 X81.438 Y61.973 E2.35327
G1 X81.809 Y62.700 E2.38860
G1 X81.936 Y63.506 E2.42393
G1 X81.809 Y64.313 E2.45926
G1 X81.438 Y65.040 E2.49459
G1 X80.861 Y65.617 E2.52991
G1 X80.134 Y65.987 E2.56525
G1 X79.328 Y66.115 E2.60058
G1 X78.522 Y65.987 E2.63590
G1 X77.794 Y65.617 E2.67124
G1 X77.260 Y65.082 E2.70397
G1 X77.533 Y64.810 F6000.000
G1 F1800
G1 X77.218 Y64.192 E2.73401
G1 X77.110 Y63.506 E2.76405
G1 X77.218 Y62.821 E2.79410
G1 X77.533 Y62.202 E2.82414
G1 X78.024 Y61.712 E2.85418
G1 X78.642 Y61.397 E2.88422
G1 X79.311 Y61.291 E2.91353
G1 X80.011 Y61.395 E2.94416
G1 X80.632 Y61.712 E2.97432
G1 X81.122 Y62.202 E3.00436
G1 X81.437 Y62.821 E3.03440
G1 X81.546 Y63.506 E3.06444
G1 X81.437 Y64.192 E3.09449
G1 X81.122 Y64.810 E3.12453
G1 X80.632 Y65.301 E3.15457
G1 X80.013 Y65.616 E3.18462
G1 X79.328 Y65.725 E3.21466
G1 X78.642 Y65.616 E3.24470
G1 X78.024 Y65.301 E3.27474
G1 X77.576 Y64.853 E3.30219
G1 X77.849 Y64.581 F6000.000
G1 F1800
G1 X77.589 Y64.071 E3.32694
G1 X77.500 Y63.506 E3.35170
G1 X77.589 Y62.941 E3.37645
G1 X77.849 Y62.432 E3.40121
G1 X78.253 Y62.028 E3.42596
G1 X78.763 Y61.768 E3.45072
G1 X79.313 Y61.681 E3.47481
G1 X79.892 Y61.767 E3.50015
G1 X80.402 Y62.028 E3.52495
G1 X80.806 Y62.432 E3.54970
G1 X81.066 Y62.941 E3.57446
G1 X81.156 Y63.506 E3.59921
G1 X81.066 Y64.071 E3.62397
G1 X80.806 Y64.581 E3.64872
G1 X80.402 Y64.985 E3.67347
G1 X79.893 Y65.245 E3.69823
G1 X79.328 Y65.334 E3.72298
G1 X78.763 Y65.245 E3.74774
G1 X78.253 Y64.985 E3.77250
G1 X77.891 Y64.623 E3.79465
G1 X77.451 Y64.623 F6000.000
G1 E1.79465 F1200.00000
G92 E0
G1 X67.771 Y63.506 F6000.000
G1 E2.00000 F1200.00000
G1 F1800
G1 X67.644 Y64.312 E2.03533
G1 X67.273 Y65.040 E2.07066
G1 X66.696 Y65.617 E2.10599
G1 X65.969 Y65.987 E2.14132
G1 X65.163 Y66.115 E2.17665
G1 X64.357 Y65.987 E2.21198
G1 X63.629 Y65.617 E2.24731
G1 X63.052 Y65.040 E2.28264
G1 X62.682 Y64.312 E2.31797
G1 X62.554 Y63.506 E2.35330
G1 X62.682 Y62.700 E2.38863
G1 X63.052 Y61.973 E2.42396
G1 X63.629 Y61.396 E2.45929
G1 X64.357 Y61.025 E2.49462
G1 X65.144 Y60.901 E2.52915
G1 X65.965 Y61.023 E2.56506
G1 X66.700 Y61.398 E2.60077
G1 X67.282 Y61.989 E2.63668
G1 X67.644 Y62.700 E2.67121
G1 X67.762 Y63.447 E2.70394
G1 X67.381 Y63.506 F6000.000
G1 F1800
