; generated by Slic3r 1.3.1-dev (Build (Unknown revision)) on 2020-06-18 at 22:19:36

; external perimeters extrusion width = 0.44mm (3.57mm^3/s)
; perimeters extrusion width = 0.56mm (5.17mm^3/s)
; infill extrusion width = 0.50mm (5.48mm^3/s)
; solid infill extrusion width = 0.56mm (3.62mm^3/s)
; top infill extrusion width = 0.56mm (2.07mm^3/s)

; external perimeters extrusion width = 0.44mm (2.86mm^3/s)
; perimeters extrusion width = 0.56mm (4.14mm^3/s)
; infill extrusion width = 0.50mm (3.66mm^3/s)
; solid infill extrusion width = 0.56mm (3.10mm^3/s)
; top infill extrusion width = 0.45mm (2.44mm^3/s)

; external perimeters extrusion width = 0.44mm (2.86mm^3/s)
; perimeters extrusion width = 0.56mm (4.14mm^3/s)
; infill extrusion width = 0.50mm (4.57mm^3/s)
; solid infill extrusion width = 0.56mm (3.10mm^3/s)
; top infill extrusion width = 0.45mm (2.44mm^3/s)

M107
G92 E0
;D3D:START:START
T0
M104 S215 T0

G21
G90
M107
T0
G28
G29
M109 T0 S215 T0
G0 F3000
M107
T0
G92 E0
G0 X0 Y149 Z0.1 F3600
G1 Y49 E6.5 F1200
G0 Z1
G92 E0
; Filament gcode

G21 ; set units to millimeters
G90 ; use absolute coordinates
M82 ; use absolute distances for extrusion
G92 E0
G1 E-1.00000 F1200.00000
G92 E0
G1 Z0.200 F6000.000
G1 X41.806 Y56.069 F6000.000
G1 E1.00000 F1200.00000
G1 F1800.000
G1 X43.931 Y55.258 E1.04472
G1 X45.415 Y55.147 E1.07399
G1 X61.545 Y55.832 E1.39150
G1 X74.290 Y56.430 E1.64241
G1 X90.260 Y57.249 E1.95690
G1 X106.385 Y58.161 E2.27452
G1 X108.597 Y58.690 E2.31924
G1 X110.492 Y59.947 E2.36396
G1 X111.840 Y61.778 E2.40869
G1 X112.514 Y64.664 E2.46697
G1 X112.514 Y65.025 E2.47406
G1 X112.117 Y67.264 E2.51878
G1 X110.975 Y69.230 E2.56350
G1 X108.492 Y71.043 E2.62397
G1 X52.574 Y94.192 E3.81417
G1 X51.603 Y94.507 E3.83424
G1 X51.069 Y94.636 E3.84504
G1 X50.059 Y94.795 E3.86515
G1 X49.511 Y94.839 E3.87596
G1 X48.489 Y94.839 E3.89605
G1 X47.941 Y94.795 E3.90686
G1 X46.931 Y94.636 E3.92697
G1 X46.397 Y94.507 E3.93777
G1 X45.423 Y94.191 E3.95792
G1 X44.916 Y93.980 E3.96871
G1 X44.006 Y93.517 E3.98879
G1 X43.538 Y93.230 E3.99959
G1 X42.714 Y92.631 E4.01962
G1 X42.296 Y92.275 E4.03042
G1 X41.573 Y91.552 E4.05054
G1 X41.216 Y91.134 E4.06134
G1 X40.614 Y90.306 E4.08147
G1 X40.327 Y89.838 E4.09227
G1 X39.862 Y88.924 E4.11243
G1 X39.652 Y88.417 E4.12323
G1 X39.336 Y87.444 E4.14334
G1 X39.208 Y86.910 E4.15414
G1 X39.049 Y85.902 E4.17422
G1 X37.531 Y65.858 E4.56953
G1 X37.495 Y65.180 E4.58288
G1 X37.495 Y64.508 E4.59609
G1 X37.522 Y63.986 E4.60638
G1 X37.593 Y63.301 E4.61992
G1 X37.675 Y62.784 E4.63022
G1 X37.819 Y62.113 E4.64372
G1 X37.955 Y61.607 E4.65402
G1 X38.161 Y60.971 E4.66717
G1 X38.348 Y60.482 E4.67746
G1 X38.630 Y59.850 E4.69108
G1 X38.868 Y59.383 E4.70138
G1 X39.207 Y58.797 E4.71469
G1 X39.492 Y58.358 E4.72499
G1 X40.090 Y57.561 E4.74459
G1 X41.761 Y56.109 E4.78813
G1 X41.977 Y56.267 F6000.000
G1 F1800.000
G1 X44.067 Y55.494 E4.83195
G1 X45.405 Y55.403 E4.85832
G1 X61.534 Y56.089 E5.17580
G1 X74.277 Y56.687 E5.42668
G1 X90.246 Y57.505 E5.74115
G1 X106.370 Y58.418 E6.05875
G1 X108.535 Y58.944 E6.10257
G1 X110.379 Y60.195 E6.14639
G1 X111.668 Y62.013 E6.19022
G1 X112.257 Y64.664 E6.24363
G1 X112.257 Y65.025 E6.25071
G1 X111.860 Y67.217 E6.29454
G1 X110.720 Y69.132 E6.33836
G1 X108.393 Y70.806 E6.39473
G1 X52.475 Y93.954 E7.58493
G1 X51.543 Y94.257 E7.60421
G1 X51.009 Y94.386 E7.61501
G1 X50.039 Y94.539 E7.63433
G1 X49.491 Y94.582 E7.64514
G1 X48.509 Y94.582 E7.66444
G1 X47.961 Y94.539 E7.67525
G1 X46.991 Y94.386 E7.69456
G1 X46.457 Y94.257 E7.70536
G1 X45.522 Y93.953 E7.72471
G1 X45.015 Y93.743 E7.73550
G1 X44.141 Y93.297 E7.75479
G1 X43.673 Y93.011 E7.76559
G1 X42.881 Y92.436 E7.78483
G1 X42.463 Y92.079 E7.79563
G1 X41.768 Y91.385 E7.81495
G1 X41.411 Y90.967 E7.82576
G1 X40.833 Y90.172 E7.84509
G1 X40.546 Y89.704 E7.85589
G1 X40.099 Y88.826 E7.87526
G1 X39.889 Y88.319 E7.88606
G1 X39.586 Y87.384 E7.90538
G1 X39.458 Y86.850 E7.91618
G1 X39.305 Y85.882 E7.93546
G1 X37.788 Y65.839 E8.33076
G1 X37.751 Y65.167 E8.34398
G1 X37.751 Y64.522 E8.35668
G1 X37.778 Y63.999 E8.36697
G1 X37.847 Y63.341 E8.37997
G1 X37.929 Y62.825 E8.39027
G1 X38.067 Y62.179 E8.40324
G1 X38.203 Y61.674 E8.41353
G1 X38.401 Y61.063 E8.42617
G1 X38.588 Y60.574 E8.43646
G1 X38.859 Y59.966 E8.44954
G1 X39.097 Y59.500 E8.45984
G1 X39.422 Y58.937 E8.47263
G1 X39.707 Y58.498 E8.48292
G1 X40.290 Y57.723 E8.50200
G1 X41.932 Y56.306 E8.54464
G1 E7.54464 F1200.00000
G92 E0
G1 X49.572 Y66.604 F6000.000
G1 E1.00000 F1200.00000
G1 F1800.000
G1 X49.195 Y66.685 E1.00760
G1 X48.807 Y66.685 E1.01522
G1 X48.429 Y66.605 E1.02281
G1 X48.075 Y66.448 E1.03043
G1 X47.762 Y66.220 E1.03805
G1 X47.503 Y65.933 E1.04565
G1 X47.312 Y65.602 E1.05318
G1 X47.239 Y65.413 E1.05714
G1 X47.159 Y65.039 E1.06468
G1 X47.159 Y64.651 E1.07230
G1 X47.239 Y64.276 E1.07984
G1 X47.311 Y64.088 E1.08380
G1 X47.503 Y63.757 E1.09133
G1 X47.761 Y63.469 E1.09893
G1 X48.075 Y63.242 E1.10655
G1 X48.428 Y63.084 E1.11417
G1 X48.806 Y63.004 E1.12176
G1 X49.194 Y63.004 E1.12938
G1 X49.572 Y63.084 E1.13698
G1 X49.925 Y63.242 E1.14459
G1 X50.239 Y63.469 E1.15221
G1 X50.497 Y63.757 E1.15981
G1 X50.689 Y64.088 E1.16734
G1 X50.761 Y64.276 E1.17131
G1 X50.841 Y64.651 E1.17884
G1 X50.841 Y65.037 E1.18644
G1 X50.761 Y65.416 E1.19405
G1 X50.603 Y65.769 E1.20166
G1 X50.378 Y66.079 E1.20919
G1 X50.236 Y66.222 E1.21314
G1 X49.926 Y66.447 E1.22069
G1 X49.627 Y66.580 E1.22712
G1 E0.22712 F1200.00000
G92 E0
G1 X64.150 Y63.694 F6000.000
G1 E1.00000 F1200.00000
G1 F1800.000
G1 X53.900 Y63.694 E1.20158
G1 X52.271 Y67.590 E1.28461
G1 X45.226 Y67.880 E1.42327
G1 X45.077 Y67.695 E1.42795
G1 X44.800 Y67.269 E1.43795
G1 X44.569 Y66.817 E1.44793
G1 X44.388 Y66.343 E1.45791
G1 X44.256 Y65.852 E1.46790
G1 X44.176 Y65.351 E1.47788
G1 X44.150 Y64.844 E1.48786
G1 X44.176 Y64.337 E1.49784
G1 X44.256 Y63.836 E1.50782
G1 X44.388 Y63.346 E1.51781
G1 X44.569 Y62.872 E1.52779
G1 X44.800 Y62.420 E1.53777
G1 X45.077 Y61.994 E1.54776
G1 X45.226 Y61.809 E1.55244
G1 X61.252 Y62.490 E1.86790
G1 X73.959 Y63.086 E2.11807
G1 X85.038 Y63.645 E2.33622
G1 X94.258 Y64.141 E2.51782
G1 X105.253 Y64.772 E2.73439
G1 X105.253 Y64.917 E2.73725
G1 X94.187 Y65.552 E2.95524
G1 X85.024 Y66.044 E3.13569
G1 X73.901 Y66.606 E3.35471
G1 X63.450 Y67.098 E3.56048
G1 X64.150 Y65.885 E3.58802
G1 X64.150 Y63.754 E3.62991
G1 E2.62991 F1200.00000
G92 E0
G1 X49.608 Y86.714 F6000.000
G1 E1.00000 F1200.00000
G1 F1800.000
G1 X49.307 Y86.786 E1.00609
G1 X49.000 Y86.811 E1.01214
G1 X48.693 Y86.786 E1.01820
G1 X48.392 Y86.714 E1.02428
G1 X48.107 Y86.596 E1.03035
G1 X47.844 Y86.435 E1.03641
G1 X47.610 Y86.235 E1.04247
G1 X47.409 Y86.000 E1.04855
G1 X47.248 Y85.736 E1.05463
G1 X47.131 Y85.452 E1.06067
G1 X47.058 Y85.153 E1.06674
G1 X47.034 Y84.844 E1.07282
G1 X47.058 Y84.536 E1.07890
G1 X47.131 Y84.236 E1.08496
G1 X47.248 Y83.953 E1.09100
G1 X47.409 Y83.689 E1.09708
G1 X47.610 Y83.454 E1.10317
G1 X47.844 Y83.254 E1.10922
G1 X48.107 Y83.093 E1.11529
G1 X48.392 Y82.974 E1.12135
G1 X48.693 Y82.902 E1.12744
G1 X49.000 Y82.878 E1.13349
G1 X49.307 Y82.902 E1.13955
G1 X49.608 Y82.974 E1.14563
G1 X49.893 Y83.093 E1.15170
G1 X50.156 Y83.254 E1.15776
G1 X50.390 Y83.454 E1.16382
G1 X50.591 Y83.689 E1.16990
G1 X50.752 Y83.953 E1.17598
G1 X50.869 Y84.236 E1.18202
G1 X50.942 Y84.536 E1.18809
G1 X50.966 Y84.844 E1.19417
G1 X50.942 Y85.153 E1.20025
G1 X50.869 Y85.452 E1.20631
G1 X50.752 Y85.736 E1.21235
G1 X50.591 Y86.000 E1.21843
G1 X50.390 Y86.235 E1.22452
G1 X50.156 Y86.435 E1.23057
G1 X49.893 Y86.596 E1.23663
G1 X49.663 Y86.691 E1.24152
G1 X49.528 Y86.469 F6000.000
G1 F1800.000
G1 X49.267 Y86.532 E1.24681
G1 X49.000 Y86.553 E1.25207
G1 X48.733 Y86.532 E1.25733
G1 X48.472 Y86.469 E1.26262
G1 X48.224 Y86.366 E1.26788
G1 X47.996 Y86.226 E1.27316
G1 X47.792 Y86.053 E1.27842
G1 X47.618 Y85.849 E1.28370
G1 X47.478 Y85.620 E1.28898
G1 X47.376 Y85.373 E1.29423
G1 X47.313 Y85.112 E1.29950
G1 X47.292 Y84.844 E1.30479
G1 X47.313 Y84.577 E1.31007
G1 X47.376 Y84.316 E1.31534
G1 X47.478 Y84.069 E1.32059
G1 X47.618 Y83.840 E1.32587
G1 X47.792 Y83.636 E1.33115
G1 X47.996 Y83.462 E1.33641
G1 X48.224 Y83.322 E1.34169
G1 X48.472 Y83.220 E1.34695
G1 X48.733 Y83.157 E1.35224
G1 X49.000 Y83.136 E1.35750
G1 X49.267 Y83.157 E1.36276
G1 X49.528 Y83.220 E1.36805
G1 X49.776 Y83.322 E1.37332
G1 X50.004 Y83.462 E1.37859
G1 X50.207 Y83.636 E1.38385
G1 X50.382 Y83.840 E1.38914
G1 X50.522 Y84.069 E1.39441
G1 X50.624 Y84.316 E1.39967
G1 X50.687 Y84.577 E1.40494
G1 X50.708 Y84.844 E1.41022
G1 X50.687 Y85.112 E1.41550
G1 X50.624 Y85.373 E1.42077
G1 X50.522 Y85.620 E1.42602
G1 X50.382 Y85.849 E1.43130
G1 X50.207 Y86.053 E1.43659
G1 X50.004 Y86.226 E1.44185
G1 X49.776 Y86.366 E1.44712
G1 X49.584 Y86.446 E1.45121
G1 X49.449 Y86.224 F6000.000
G1 F1800.000
G1 X49.226 Y86.277 E1.45570
G1 X49.000 Y86.295 E1.46016
G1 X48.774 Y86.277 E1.46463
G1 X48.551 Y86.224 E1.46912
G1 X48.342 Y86.137 E1.47359
G1 X48.148 Y86.018 E1.47807
G1 X47.975 Y85.870 E1.48254
G1 X47.826 Y85.697 E1.48702
G1 X47.708 Y85.503 E1.49150
G1 X47.621 Y85.293 E1.49597
G1 X47.567 Y85.072 E1.50044
G1 X47.550 Y84.844 E1.50492
G1 X47.567 Y84.617 E1.50940
G1 X47.621 Y84.396 E1.51388
G1 X47.708 Y84.186 E1.51835
G1 X47.826 Y83.992 E1.52282
G1 X47.975 Y83.819 E1.52731
G1 X48.148 Y83.671 E1.53178
G1 X48.342 Y83.552 E1.53625
G1 X48.551 Y83.465 E1.54072
G1 X48.774 Y83.412 E1.54521
G1 X49.000 Y83.394 E1.54968
G1 X49.226 Y83.412 E1.55415
G1 X49.449 Y83.465 E1.55864
G1 X49.658 Y83.552 E1.56311
G1 X49.852 Y83.671 E1.56758
G1 X50.025 Y83.819 E1.57206
G1 X50.174 Y83.992 E1.57654
G1 X50.292 Y84.186 E1.58101
G1 X50.379 Y84.396 E1.58548
G1 X50.433 Y84.617 E1.58996
G1 X50.450 Y84.844 E1.59444
G1 X50.433 Y85.072 E1.59892
G1 X50.379 Y85.293 E1.60340
G1 X50.292 Y85.503 E1.60787
G1 X50.174 Y85.697 E1.61234
G1 X50.025 Y85.870 E1.61682
G1 X49.852 Y86.018 E1.62130
G1 X49.658 Y86.137 E1.62577
G1 X49.504 Y86.201 E1.62906
G1 X49.449 Y86.224 F6000.000
G1 E0.62906 F1200.00000
G92 E0
G1 X63.336 Y64.509 F6000.000
G1 E1.00000 F1200.00000
G1 F1800.000
G1 X63.336 Y65.667 E1.02277
G1 X51.548 Y86.094 E1.48659
G1 X51.293 Y86.510 E1.49618
G1 X51.004 Y86.848 E1.50493
G1 X50.665 Y87.137 E1.51369
G1 X50.286 Y87.369 E1.52243
G1 X49.876 Y87.540 E1.53117
G1 X49.444 Y87.643 E1.53991
G1 X49.000 Y87.678 E1.54866
G1 X48.556 Y87.643 E1.55742
G1 X48.124 Y87.540 E1.56616
G1 X47.714 Y87.369 E1.57490
G1 X47.335 Y87.137 E1.58364
G1 X46.996 Y86.848 E1.59240
G1 X46.707 Y86.510 E1.60114
G1 X46.475 Y86.131 E1.60988
G1 X46.305 Y85.720 E1.61862
G1 X46.201 Y85.288 E1.62737
G1 X46.166 Y84.844 E1.63612
G1 X46.201 Y84.401 E1.64487
G1 X46.304 Y83.970 E1.65359
G1 X54.442 Y64.509 E2.06843
G1 X63.276 Y64.509 E2.24215
G1 X63.593 Y64.252 F6000.000
G1 F1800.000
G1 X63.593 Y65.735 E2.27133
G1 X51.769 Y86.225 E2.73657
G1 X51.502 Y86.662 E2.74663
G1 X51.186 Y87.031 E2.75618
G1 X50.817 Y87.346 E2.76573
G1 X50.404 Y87.599 E2.77526
G1 X49.956 Y87.785 E2.78480
G1 X49.484 Y87.898 E2.79434
G1 X49.000 Y87.936 E2.80389
G1 X48.516 Y87.898 E2.81344
G1 X48.044 Y87.785 E2.82298
G1 X47.596 Y87.599 E2.83251
G1 X47.183 Y87.346 E2.84205
G1 X46.814 Y87.031 E2.85160
G1 X46.498 Y86.662 E2.86114
G1 X46.245 Y86.248 E2.87068
G1 X46.059 Y85.800 E2.88021
G1 X45.946 Y85.328 E2.88976
G1 X45.908 Y84.844 E2.89930
G1 X45.946 Y84.361 E2.90884
G1 X46.059 Y83.890 E2.91837
G1 X54.271 Y64.252 E3.33698
G1 X63.533 Y64.252 E3.51913
G1 X63.850 Y63.994 F6000.000
G1 F1800.000
G1 X63.850 Y65.804 E3.55472
G1 X51.990 Y86.357 E4.02137
G1 X51.710 Y86.813 E4.03190
G1 X51.369 Y87.213 E4.04224
G1 X50.969 Y87.554 E4.05259
G1 X50.521 Y87.829 E4.06292
G1 X50.035 Y88.030 E4.07325
G1 X49.524 Y88.153 E4.08358
G1 X49.000 Y88.194 E4.09393
G1 X48.476 Y88.153 E4.10428
G1 X47.965 Y88.030 E4.11461
G1 X47.479 Y87.829 E4.12494
G1 X47.031 Y87.554 E4.13527
G1 X46.631 Y87.213 E4.14562
G1 X46.290 Y86.813 E4.15596
G1 X46.015 Y86.365 E4.16629
G1 X45.814 Y85.880 E4.17663
G1 X45.692 Y85.368 E4.18696
G1 X45.650 Y84.844 E4.19730
G1 X45.692 Y84.320 E4.20764
G1 X45.814 Y83.810 E4.21797
G1 X54.100 Y63.994 E4.64035
G1 X63.790 Y63.994 E4.83092
G1 X63.753 Y64.382 F6000.000
G1 E3.83092 F1200.00000
G92 E0
G1 X49.443 Y66.275 F6000.000
G1 E1.00000 F1200.00000
G1 F1800.000
G1 X49.157 Y66.336 E1.00797
G1 X48.843 Y66.336 E1.01653
G1 X48.537 Y66.271 E1.02505
G1 X48.250 Y66.143 E1.03360
G1 X47.996 Y65.959 E1.04215
G1 X47.787 Y65.726 E1.05067
G1 X47.628 Y65.450 E1.05937
G1 X47.578 Y65.312 E1.06335
G1 X47.509 Y65.001 E1.07202
G1 X47.509 Y64.687 E1.08058
G1 X47.542 Y64.514 E1.08539
G1 X47.628 Y64.239 E1.09324
G1 X47.788 Y63.962 E1.10193
G1 X47.997 Y63.730 E1.11046
G1 X48.251 Y63.546 E1.11900
G1 X48.538 Y63.418 E1.12756
G1 X48.844 Y63.353 E1.13608
G1 X49.158 Y63.353 E1.14463
G1 X49.464 Y63.419 E1.15316
G1 X49.750 Y63.546 E1.16171
G1 X50.008 Y63.734 E1.17039
G1 X50.197 Y63.949 E1.17820
G1 X50.296 Y64.097 E1.18304
G1 X50.423 Y64.383 E1.19157
G1 X50.492 Y64.688 E1.20010
G1 X50.491 Y65.001 E1.20861
G1 X50.458 Y65.175 E1.21344
G1 X50.372 Y65.450 E1.22127
G1 X50.213 Y65.726 E1.22997
G1 X50.004 Y65.959 E1.23849
G1 X49.750 Y66.143 E1.24704
G1 X49.500 Y66.255 E1.25451
G1 X49.443 Y66.275 F6000.000
G1 E0.25451 F1200.00000
G92 E0
G1 X51.096 Y64.771 F6000.000
G1 E1.00000 F1200.00000
G1 F1800.000
G1 X51.096 Y62.157 E1.05144
G1 X50.839 Y62.146 E1.05651
G1 X50.839 Y63.989 E1.09279
G1 X50.706 Y63.759 E1.09802
G1 X50.582 Y63.621 E1.10168
G1 X50.582 Y62.135 E1.13092
G1 X50.325 Y62.124 E1.13599
G1 X50.325 Y63.368 E1.16047
G1 X50.067 Y63.181 E1.16673
G1 X50.067 Y62.113 E1.18776
G1 X49.810 Y62.102 E1.19282
G1 X49.810 Y63.063 E1.21175
G1 X49.651 Y62.993 E1.21517
G1 X49.553 Y62.972 E1.21715
G1 X49.553 Y62.091 E1.23449
G1 X49.296 Y62.080 E1.23956
G1 X49.296 Y62.917 E1.25604
G1 X49.038 Y62.901 E1.26111
G1 X49.038 Y62.069 E1.27749
G1 X48.781 Y62.057 E1.28256
G1 X48.781 Y62.901 E1.29916
G1 X48.524 Y62.955 E1.30433
G1 X48.524 Y62.046 E1.32222
G1 X48.267 Y62.035 E1.32729
G1 X48.267 Y63.029 E1.34684
G1 X48.009 Y63.143 E1.35238
G1 X48.009 Y62.024 E1.37441
G1 X47.752 Y62.013 E1.37947
G1 X47.752 Y63.312 E1.40504
G1 X47.588 Y63.431 E1.40903
G1 X47.495 Y63.535 E1.41177
G1 X47.495 Y62.002 E1.44193
G1 X47.238 Y61.991 E1.44700
G1 X47.238 Y63.856 E1.48370
G1 X47.079 Y64.131 E1.48995
G1 X46.980 Y64.410 E1.49576
G1 X46.980 Y61.981 E1.54356
G1 X46.723 Y61.971 E1.54862
G1 X46.723 Y67.715 E1.66168
G1 X46.466 Y67.726 E1.66674
G1 X46.466 Y61.961 E1.78021
G1 X46.209 Y61.950 E1.78527
G1 X46.209 Y67.737 E1.89914
G1 X45.951 Y67.747 E1.90421
G1 X45.951 Y61.940 E2.01849
G1 X45.694 Y61.930 E2.02356
G1 X45.694 Y67.758 E2.13825
G1 X45.437 Y67.769 E2.14331
G1 X45.437 Y61.920 E2.25841
G1 X45.345 Y61.916 E2.26022
G1 X45.180 Y62.153 E2.26590
G1 X45.180 Y67.536 E2.37184
G1 X45.023 Y67.294 E2.37751
G1 X44.922 Y67.098 E2.38186
G1 X44.922 Y62.591 E2.47054
G1 X44.804 Y62.822 E2.47565
G1 X44.665 Y63.186 E2.48332
G1 X44.665 Y66.502 E2.54858
G1 X44.508 Y65.953 E2.55983
G1 X44.432 Y65.478 E2.56929
G1 X44.408 Y64.686 E2.58489
G1 E1.58489 F1200.00000
G92 E0
G1 X46.980 Y65.279 F6000.000
G1 E1.00000 F1200.00000
G1 F1800.000
G1 X46.980 Y67.705 E1.04775
G1 X47.238 Y67.694 E1.05281
G1 X47.238 Y65.833 E1.08945
G1 X47.294 Y65.931 E1.09168
G1 X47.495 Y66.154 E1.09758
G1 X47.495 Y67.684 E1.12769
G1 X47.752 Y67.673 E1.13276
G1 X47.752 Y66.377 E1.15827
G1 X48.009 Y66.545 E1.16433
G1 X48.009 Y67.662 E1.18631
G1 X48.267 Y67.652 E1.19137
G1 X48.267 Y66.660 E1.21090
G1 X48.349 Y66.697 E1.21268
G1 X48.524 Y66.734 E1.21619
G1 X48.524 Y67.641 E1.23405
G1 X48.781 Y67.631 E1.23912
G1 X48.781 Y66.788 E1.25570
G1 X49.038 Y66.788 E1.26077
G1 X49.038 Y67.620 E1.27714
G1 X49.296 Y67.609 E1.28221
G1 X49.296 Y66.772 E1.29869
G1 X49.553 Y66.717 E1.30387
G1 X49.553 Y67.599 E1.32122
G1 X49.810 Y67.588 E1.32628
G1 X49.810 Y66.626 E1.34523
G1 X50.067 Y66.508 E1.35080
G1 X50.067 Y67.578 E1.37185
G1 X50.325 Y67.567 E1.37692
G1 X50.325 Y66.321 E1.40144
G1 X50.582 Y66.081 E1.40836
G1 X50.582 Y67.556 E1.43739
G1 X50.839 Y67.546 E1.44246
G1 X50.839 Y65.716 E1.47846
G1 X51.006 Y65.341 E1.48654
G1 X51.096 Y64.917 E1.49507
G1 X51.096 Y67.535 E1.54659
G1 X51.354 Y67.525 E1.55166
G1 X51.354 Y62.168 E1.65708
