; generated by Slic3r 1.3.0 on 2020-04-16 at 20:35:48

; external perimeters extrusion width = 0.44mm (2.86mm^3/s)
; perimeters extrusion width = 0.56mm (4.14mm^3/s)
; infill extrusion width = 0.50mm (5.48mm^3/s)
; solid infill extrusion width = 0.56mm (3.10mm^3/s)
; top infill extrusion width = 0.45mm (2.44mm^3/s)

M107
;D3D:START:START
T0
M104 S215 T0

G21
G90
M107
T0
G28
G29
M109 T0 S215 T0
G0 F3000
M107
T0
G92 E0
G0 X0 Y149 Z0.1 F3600
G1 Y49 E6.5 F1200
G0 Z1
G92 E0
; Filament gcode

G21 ; set units to millimeters
G90 ; use absolute coordinates
M82 ; use absolute distances for extrusion
G92 E0
G1 Z0.200 F6000.000
G1 E-2.00000 F1200.00000
G92 E0
G1 X25.332 Y45.713 F6000.000
G1 E2.00000 F1200.00000
G1 F1800
G1 X26.976 Y44.780 E2.03636
G1 X28.333 Y44.571 E2.06279
G1 X111.667 Y44.571 E3.66601
G1 X113.515 Y44.967 E3.70236
G1 X114.554 Y45.616 E3.72594
G1 X121.246 Y51.184 E3.89342
G1 X121.713 Y51.633 E3.90589
G1 X123.111 Y53.187 E3.94611
G1 X123.666 Y53.950 E3.96426
G1 X124.712 Y55.761 E4.00448
G1 X125.095 Y56.623 E4.02264
G1 X125.741 Y58.611 E4.06286
G1 X125.938 Y59.534 E4.08101
G1 X126.156 Y61.614 E4.12124
G1 X126.156 Y62.557 E4.13938
G1 X125.938 Y64.636 E4.17961
G1 X125.741 Y65.559 E4.19776
G1 X125.095 Y67.548 E4.23798
G1 X124.677 Y68.470 E4.25747
G1 X123.666 Y70.220 E4.29635
G1 X123.111 Y70.984 E4.31451
G1 X121.712 Y72.537 E4.35473
G1 X121.012 Y73.169 E4.37288
G1 X119.320 Y74.398 E4.41310
G1 X118.989 Y74.617 E4.42074
G1 X93.989 Y89.617 E4.98163
G1 X93.503 Y89.870 E4.99218
G1 X91.593 Y90.720 E5.03240
G1 X90.782 Y90.992 E5.04886
G1 X29.358 Y105.311 E6.26225
G1 X27.469 Y105.345 E6.29861
G1 X25.731 Y104.603 E6.33497
G1 X24.449 Y103.214 E6.37132
G1 X23.819 Y100.915 E6.41720
G1 X23.819 Y49.085 E7.41432
G1 X24.215 Y47.237 E7.45068
G1 X25.297 Y45.762 E7.48588
G1 X25.584 Y45.835 F6000.000
G1 F1800
G1 X27.207 Y44.980 E7.52118
G1 X28.333 Y44.828 E7.54304
G1 X111.667 Y44.828 E9.14626
G1 X113.458 Y45.224 E9.18155
G1 X114.390 Y45.813 E9.20276
G1 X121.081 Y51.382 E9.37024
G1 X121.522 Y51.805 E9.38200
G1 X122.920 Y53.359 E9.42222
G1 X123.444 Y54.079 E9.43934
G1 X124.489 Y55.890 E9.47956
G1 X124.851 Y56.703 E9.49668
G1 X125.497 Y58.691 E9.53690
G1 X125.682 Y59.561 E9.55403
G1 X125.900 Y61.641 E9.59425
G1 X125.900 Y62.530 E9.61136
G1 X125.682 Y64.609 E9.65158
G1 X125.497 Y65.480 E9.66871
G1 X124.851 Y67.468 E9.70893
G1 X124.454 Y68.341 E9.72738
G1 X123.444 Y70.092 E9.76626
G1 X122.920 Y70.812 E9.78339
G1 X121.521 Y72.365 E9.82361
G1 X120.860 Y72.961 E9.84072
G1 X119.169 Y74.190 E9.88094
G1 X118.857 Y74.396 E9.88814
G1 X93.857 Y89.396 E10.44904
G1 X93.398 Y89.635 E10.45899
G1 X91.488 Y90.485 E10.49921
G1 X90.723 Y90.742 E10.51473
G1 X29.300 Y105.061 E11.72812
G1 X27.465 Y105.082 E11.76342
G1 X25.792 Y104.330 E11.79871
G1 X24.591 Y102.943 E11.83401
G1 X24.076 Y100.915 E11.87427
G1 X24.076 Y49.085 E12.87140
G1 X24.472 Y47.294 E12.90669
G1 X25.548 Y45.883 E12.94083
G1 E10.94083 F1200.00000
G92 E0
G1 X65.391 Y77.861 F6000.000
G1 E2.00000 F1200.00000
G1 F1800
G1 X64.502 Y75.717 E2.04465
G1 X64.502 Y63.453 E2.28059
G1 X65.391 Y61.309 E2.32524
G1 X67.535 Y60.421 E2.36988
G1 X85.799 Y60.421 E2.72126
G1 X87.943 Y61.309 E2.76591
G1 X88.831 Y63.453 E2.81056
G1 X88.831 Y75.717 E3.04650
G1 X87.943 Y77.861 E3.09115
G1 X85.799 Y78.750 E3.13579
G1 X67.535 Y78.750 E3.48717
G1 X65.446 Y77.884 E3.53066
G1 X65.587 Y77.665 F6000.000
G1 F1800
G1 X64.760 Y75.666 E3.57228
G1 X64.760 Y63.504 E3.80626
G1 X65.587 Y61.506 E3.84787
G1 X67.586 Y60.678 E3.88948
G1 X85.748 Y60.678 E4.23889
G1 X87.746 Y61.506 E4.28051
G1 X88.574 Y63.504 E4.32212
G1 X88.574 Y75.666 E4.55610
G1 X87.746 Y77.665 E4.59771
G1 X85.748 Y78.492 E4.63933
G1 X67.586 Y78.492 E4.98874
G1 X65.643 Y77.688 E5.02920
G1 X65.784 Y77.468 F6000.000
G1 F1800
G1 X65.017 Y75.615 E5.06778
G1 X65.017 Y63.556 E5.29979
G1 X65.784 Y61.703 E5.33837
G1 X67.637 Y60.935 E5.37695
G1 X85.696 Y60.935 E5.72439
G1 X87.549 Y61.703 E5.76297
G1 X88.317 Y63.556 E5.80156
G1 X88.317 Y75.615 E6.03357
G1 X87.549 Y77.468 E6.07215
G1 X85.696 Y78.235 E6.11073
G1 X67.637 Y78.235 E6.45817
G1 X65.840 Y77.491 E6.49560
G1 X65.396 Y77.567 F6000.000
G1 E4.49560 F1200.00000
G92 E0
G1 X70.967 Y59.240 F6000.000
G1 E2.00000 F1200.00000
G1 F1800
G1 X70.702 Y59.135 E2.00547
G1 X70.453 Y58.998 E2.01095
G1 X70.222 Y58.830 E2.01645
G1 X69.995 Y58.615 E2.02246
G1 X69.690 Y58.195 E2.03244
G1 X69.560 Y57.919 E2.03831
G1 X69.472 Y57.649 E2.04378
G1 X69.419 Y57.369 E2.04925
G1 X69.401 Y57.085 E2.05473
G1 X69.419 Y56.801 E2.06020
G1 X69.472 Y56.522 E2.06567
G1 X69.560 Y56.251 E2.07114
G1 X69.681 Y55.994 E2.07662
G1 X69.834 Y55.754 E2.08209
G1 X70.015 Y55.534 E2.08757
G1 X70.223 Y55.340 E2.09304
G1 X70.453 Y55.173 E2.09851
G1 X70.702 Y55.035 E2.10399
G1 X70.967 Y54.931 E2.10946
G1 X71.242 Y54.860 E2.11493
G1 X71.524 Y54.824 E2.12041
G1 X71.809 Y54.824 E2.12588
G1 X72.091 Y54.860 E2.13135
G1 X72.367 Y54.931 E2.13683
G1 X72.631 Y55.035 E2.14230
G1 X72.881 Y55.173 E2.14777
G1 X73.111 Y55.340 E2.15325
G1 X73.318 Y55.534 E2.15872
G1 X73.500 Y55.754 E2.16419
G1 X73.652 Y55.994 E2.16967
G1 X73.773 Y56.251 E2.17514
G1 X73.861 Y56.522 E2.18062
G1 X73.914 Y56.802 E2.18609
G1 X73.932 Y57.085 E2.19156
G1 X73.914 Y57.369 E2.19703
G1 X73.861 Y57.650 E2.20253
G1 X73.763 Y57.947 E2.20854
G1 X73.513 Y58.401 E2.21852
G1 X73.318 Y58.636 E2.22439
G1 X73.110 Y58.832 E2.22989
G1 X72.856 Y59.014 E2.23590
G1 X72.387 Y59.235 E2.24588
G1 X72.091 Y59.311 E2.25175
G1 X71.809 Y59.346 E2.25722
G1 X71.524 Y59.346 E2.26270
G1 X71.242 Y59.311 E2.26817
G1 X71.025 Y59.255 E2.27249
G1 X71.046 Y58.995 F6000.000
G1 F1800
G1 X70.812 Y58.902 E2.27734
G1 X70.591 Y58.781 E2.28219
G1 X70.386 Y58.632 E2.28706
G1 X70.189 Y58.445 E2.29229
G1 X69.912 Y58.064 E2.30134
G1 X69.800 Y57.824 E2.30644
G1 X69.722 Y57.585 E2.31129
G1 X69.675 Y57.337 E2.31614
G1 X69.659 Y57.085 E2.32099
G1 X69.675 Y56.834 E2.32584
G1 X69.722 Y56.586 E2.33069
G1 X69.800 Y56.346 E2.33554
G1 X69.907 Y56.118 E2.34039
G1 X70.042 Y55.905 E2.34525
G1 X70.203 Y55.711 E2.35010
G1 X70.387 Y55.538 E2.35495
G1 X70.591 Y55.390 E2.35980
G1 X70.812 Y55.269 E2.36465
G1 X71.046 Y55.176 E2.36950
G1 X71.290 Y55.113 E2.37435
G1 X71.541 Y55.081 E2.37920
G1 X71.793 Y55.081 E2.38405
G1 X72.043 Y55.113 E2.38890
G1 X72.287 Y55.176 E2.39376
G1 X72.522 Y55.269 E2.39861
G1 X72.743 Y55.390 E2.40346
G1 X72.947 Y55.538 E2.40831
G1 X73.130 Y55.711 E2.41316
G1 X73.291 Y55.905 E2.41801
G1 X73.426 Y56.118 E2.42286
G1 X73.534 Y56.346 E2.42771
G1 X73.612 Y56.586 E2.43257
G1 X73.659 Y56.834 E2.43742
G1 X73.675 Y57.085 E2.44227
G1 X73.659 Y57.337 E2.44712
G1 X73.611 Y57.585 E2.45198
G1 X73.526 Y57.844 E2.45722
G1 X73.299 Y58.256 E2.46627
G1 X73.130 Y58.460 E2.47136
G1 X72.946 Y58.633 E2.47623
G1 X72.725 Y58.792 E2.48146
G1 X72.299 Y58.992 E2.49051
G1 X72.043 Y59.058 E2.49561
G1 X71.793 Y59.089 E2.50046
G1 X71.541 Y59.089 E2.50531
G1 X71.290 Y59.058 E2.51016
G1 X71.104 Y59.010 E2.51386
G1 X71.126 Y58.750 F6000.000
G1 F1800
G1 X70.921 Y58.669 E2.51809
G1 X70.729 Y58.563 E2.52231
G1 X70.551 Y58.434 E2.52655
G1 X70.383 Y58.275 E2.53100
G1 X70.135 Y57.933 E2.53913
G1 X70.039 Y57.730 E2.54344
G1 X69.971 Y57.521 E2.54767
G1 X69.930 Y57.305 E2.55190
G1 X69.916 Y57.085 E2.55613
G1 X69.930 Y56.866 E2.56036
G1 X69.971 Y56.650 E2.56459
G1 X70.039 Y56.441 E2.56882
G1 X70.133 Y56.242 E2.57304
G1 X70.251 Y56.057 E2.57727
G1 X70.391 Y55.887 E2.58150
G1 X70.551 Y55.737 E2.58573
G1 X70.729 Y55.608 E2.58996
G1 X70.921 Y55.502 E2.59419
G1 X71.126 Y55.421 E2.59842
G1 X71.339 Y55.366 E2.60265
G1 X71.557 Y55.339 E2.60688
G1 X71.777 Y55.339 E2.61110
G1 X71.995 Y55.366 E2.61533
G1 X72.208 Y55.421 E2.61956
G1 X72.412 Y55.502 E2.62379
G1 X72.605 Y55.608 E2.62802
G1 X72.782 Y55.737 E2.63225
G1 X72.943 Y55.887 E2.63648
G1 X73.083 Y56.057 E2.64071
G1 X73.200 Y56.242 E2.64493
G1 X73.294 Y56.441 E2.64916
G1 X73.362 Y56.650 E2.65339
G1 X73.403 Y56.866 E2.65762
G1 X73.417 Y57.085 E2.66185
G1 X73.403 Y57.305 E2.66608
G1 X73.362 Y57.521 E2.67031
G1 X73.290 Y57.741 E2.67476
G1 X73.086 Y58.111 E2.68289
G1 X72.943 Y58.284 E2.68721
G1 X72.782 Y58.434 E2.69144
G1 X72.595 Y58.569 E2.69589
G1 X72.212 Y58.749 E2.70402
G1 X71.995 Y58.805 E2.70834
G1 X71.777 Y58.832 E2.71257
G1 X71.557 Y58.832 E2.71679
G1 X71.184 Y58.765 E2.72408
G1 X70.962 Y58.897 F6000.000
G1 E0.72408 F1200.00000
G92 E0
G1 X79.419 Y57.369 F6000.000
G1 E2.00000 F1200.00000
G1 F1800
G1 X79.401 Y57.085 E2.00547
G1 X79.419 Y56.801 E2.01095
G1 X79.472 Y56.522 E2.01642
G1 X79.560 Y56.251 E2.02189
G1 X79.681 Y55.994 E2.02737
G1 X79.834 Y55.754 E2.03284
G1 X80.015 Y55.534 E2.03832
G1 X80.223 Y55.340 E2.04379
G1 X80.453 Y55.173 E2.04926
G1 X80.702 Y55.035 E2.05474
G1 X80.967 Y54.931 E2.06021
G1 X81.242 Y54.860 E2.06568
G1 X81.524 Y54.824 E2.07116
G1 X81.809 Y54.824 E2.07663
G1 X82.091 Y54.860 E2.08210
G1 X82.367 Y54.931 E2.08758
G1 X82.631 Y55.035 E2.09305
G1 X82.881 Y55.173 E2.09852
G1 X83.111 Y55.340 E2.10400
G1 X83.318 Y55.534 E2.10947
G1 X83.500 Y55.754 E2.11494
G1 X83.652 Y55.994 E2.12042
G1 X83.773 Y56.251 E2.12589
G1 X83.861 Y56.522 E2.13136
G1 X83.914 Y56.802 E2.13684
G1 X83.932 Y57.085 E2.14231
G1 X83.914 Y57.369 E2.14778
G1 X83.861 Y57.650 E2.15328
G1 X83.763 Y57.947 E2.15929
G1 X83.513 Y58.401 E2.16927
G1 X83.318 Y58.636 E2.17514
G1 X83.110 Y58.832 E2.18064
G1 X82.856 Y59.014 E2.18665
G1 X82.387 Y59.235 E2.19663
G1 X82.091 Y59.311 E2.20250
G1 X81.809 Y59.346 E2.20797
G1 X81.524 Y59.346 E2.21345
G1 X81.242 Y59.311 E2.21892
G1 X80.967 Y59.240 E2.22439
G1 X80.702 Y59.135 E2.22987
G1 X80.453 Y58.998 E2.23534
G1 X80.222 Y58.830 E2.24084
G1 X79.995 Y58.615 E2.24685
G1 X79.690 Y58.195 E2.25683
G1 X79.560 Y57.919 E2.26270
G1 X79.472 Y57.649 E2.26817
G1 X79.430 Y57.428 E2.27249
G1 X79.675 Y57.337 F6000.000
G1 F1800
G1 X79.659 Y57.085 E2.27734
G1 X79.675 Y56.834 E2.28219
G1 X79.722 Y56.586 E2.28705
G1 X79.800 Y56.346 E2.29190
G1 X79.907 Y56.118 E2.29675
G1 X80.042 Y55.905 E2.30160
G1 X80.203 Y55.711 E2.30645
G1 X80.387 Y55.538 E2.31130
G1 X80.591 Y55.390 E2.31615
G1 X80.812 Y55.269 E2.32100
G1 X81.046 Y55.176 E2.32585
G1 X81.290 Y55.113 E2.33070
G1 X81.541 Y55.081 E2.33556
G1 X81.793 Y55.081 E2.34041
G1 X82.043 Y55.113 E2.34526
G1 X82.287 Y55.176 E2.35011
G1 X82.522 Y55.269 E2.35496
G1 X82.743 Y55.390 E2.35981
G1 X82.947 Y55.538 E2.36466
G1 X83.130 Y55.711 E2.36951
G1 X83.291 Y55.905 E2.37437
G1 X83.426 Y56.118 E2.37922
G1 X83.534 Y56.346 E2.38407
G1 X83.612 Y56.586 E2.38892
G1 X83.659 Y56.834 E2.39377
G1 X83.675 Y57.085 E2.39862
G1 X83.659 Y57.337 E2.40347
G1 X83.611 Y57.585 E2.40834
G1 X83.526 Y57.844 E2.41357
G1 X83.299 Y58.256 E2.42262
G1 X83.130 Y58.460 E2.42772
G1 X82.946 Y58.633 E2.43258
G1 X82.725 Y58.792 E2.43781
G1 X82.299 Y58.992 E2.44686
G1 X82.043 Y59.058 E2.45196
G1 X81.793 Y59.089 E2.45681
G1 X81.541 Y59.089 E2.46166
G1 X81.290 Y59.058 E2.46651
G1 X81.046 Y58.995 E2.47136
G1 X80.812 Y58.902 E2.47621
G1 X80.591 Y58.781 E2.48107
G1 X80.386 Y58.632 E2.48593
G1 X80.189 Y58.445 E2.49116
G1 X79.912 Y58.064 E2.50022
G1 X79.800 Y57.824 E2.50531
G1 X79.722 Y57.585 E2.51016
G1 X79.686 Y57.396 E2.51386
G1 X79.930 Y57.305 F6000.000
G1 F1800
G1 X79.916 Y57.085 E2.51809
G1 X79.930 Y56.866 E2.52232
G1 X79.971 Y56.650 E2.52654
G1 X80.039 Y56.441 E2.53077
G1 X80.133 Y56.242 E2.53500
G1 X80.251 Y56.057 E2.53923
G1 X80.391 Y55.887 E2.54346
G1 X80.551 Y55.737 E2.54769
G1 X80.729 Y55.608 E2.55192
G1 X80.921 Y55.502 E2.55615
G1 X81.126 Y55.421 E2.56037
G1 X81.339 Y55.366 E2.56460
G1 X81.557 Y55.339 E2.56883
G1 X81.777 Y55.339 E2.57306
G1 X81.995 Y55.366 E2.57729
G1 X82.208 Y55.421 E2.58152
G1 X82.412 Y55.502 E2.58575
G1 X82.605 Y55.608 E2.58998
G1 X82.782 Y55.737 E2.59420
G1 X82.943 Y55.887 E2.59843
G1 X83.083 Y56.057 E2.60266
G1 X83.200 Y56.242 E2.60689
G1 X83.294 Y56.441 E2.61112
G1 X83.362 Y56.650 E2.61535
G1 X83.403 Y56.866 E2.61958
G1 X83.417 Y57.085 E2.62380
G1 X83.403 Y57.305 E2.62803
G1 X83.362 Y57.521 E2.63227
G1 X83.290 Y57.741 E2.63672
G1 X83.086 Y58.111 E2.64484
G1 X82.943 Y58.284 E2.64916
G1 X82.782 Y58.434 E2.65340
G1 X82.595 Y58.569 E2.65785
G1 X82.212 Y58.749 E2.66597
G1 X81.995 Y58.805 E2.67029
G1 X81.777 Y58.832 E2.67452
G1 X81.557 Y58.832 E2.67875
G1 X81.339 Y58.805 E2.68298
G1 X81.126 Y58.750 E2.68721
G1 X80.921 Y58.669 E2.69144
G1 X80.729 Y58.563 E2.69567
G1 X80.551 Y58.434 E2.69990
G1 X80.383 Y58.275 E2.70435
G1 X80.135 Y57.933 E2.71248
G1 X80.039 Y57.730 E2.71679
G1 X79.941 Y57.364 E2.72408
G1 X79.727 Y57.220 F6000.000
G1 E0.72408 F1200.00000
G92 E0
G1 X89.401 Y57.085 F6000.000
G1 E2.00000 F1200.00000
G1 F1800
G1 X89.419 Y56.801 E2.00547
G1 X89.472 Y56.522 E2.01095
G1 X89.560 Y56.251 E2.01642
G1 X89.681 Y55.994 E2.02189
G1 X89.834 Y55.754 E2.02737
G1 X90.015 Y55.534 E2.03284
G1 X90.223 Y55.340 E2.03831
G1 X90.453 Y55.173 E2.04379
G1 X90.702 Y55.035 E2.04926
G1 X90.967 Y54.931 E2.05473
G1 X91.242 Y54.860 E2.06021
G1 X91.524 Y54.824 E2.06568
G1 X91.809 Y54.824 E2.07115
G1 X92.091 Y54.860 E2.07663
G1 X92.367 Y54.931 E2.08210
G1 X92.631 Y55.035 E2.08757
G1 X92.881 Y55.173 E2.09305
G1 X93.111 Y55.340 E2.09852
G1 X93.318 Y55.534 E2.10399
G1 X93.500 Y55.754 E2.10947
G1 X93.652 Y55.994 E2.11494
G1 X93.773 Y56.251 E2.12041
G1 X93.861 Y56.522 E2.12589
G1 X93.914 Y56.802 E2.13136
G1 X93.932 Y57.085 E2.13684
G1 X93.914 Y57.369 E2.14231
G1 X93.861 Y57.649 E2.14778
G1 X93.773 Y57.919 E2.15326
G1 X93.651 Y58.178 E2.15875
G1 X93.483 Y58.441 E2.16476
G1 X93.127 Y58.819 E2.17474
G1 X92.881 Y58.998 E2.18061
G1 X92.630 Y59.136 E2.18611
G1 X92.339 Y59.250 E2.19212
G1 X91.830 Y59.346 E2.20210
G1 X91.524 Y59.346 E2.20797
G1 X91.242 Y59.311 E2.21345
G1 X90.967 Y59.240 E2.21892
G1 X90.702 Y59.135 E2.22439
G1 X90.453 Y58.998 E2.22987
G1 X90.222 Y58.830 E2.23537
G1 X89.995 Y58.615 E2.24138
G1 X89.690 Y58.195 E2.25136
G1 X89.560 Y57.919 E2.25723
G1 X89.472 Y57.649 E2.26270
G1 X89.419 Y57.369 E2.26817
G1 X89.405 Y57.145 E2.27249
G1 X89.659 Y57.085 F6000.000
G1 F1800
G1 X89.675 Y56.834 E2.27734
G1 X89.722 Y56.586 E2.28219
G1 X89.800 Y56.346 E2.28704
G1 X89.907 Y56.118 E2.29189
G1 X90.042 Y55.905 E2.29675
G1 X90.203 Y55.711 E2.30160
G1 X90.387 Y55.538 E2.30645
G1 X90.591 Y55.390 E2.31130
G1 X90.812 Y55.269 E2.31615
G1 X91.046 Y55.176 E2.32100
G1 X91.290 Y55.113 E2.32585
G1 X91.541 Y55.081 E2.33070
G1 X91.793 Y55.081 E2.33556
G1 X92.043 Y55.113 E2.34041
G1 X92.287 Y55.176 E2.34526
G1 X92.522 Y55.269 E2.35011
G1 X92.743 Y55.390 E2.35496
G1 X92.947 Y55.538 E2.35981
G1 X93.130 Y55.711 E2.36466
G1 X93.291 Y55.905 E2.36951
G1 X93.426 Y56.118 E2.37436
G1 X93.534 Y56.346 E2.37921
G1 X93.612 Y56.586 E2.38407
G1 X93.659 Y56.834 E2.38892
G1 X93.675 Y57.085 E2.39377
G1 X93.659 Y57.337 E2.39862
G1 X93.612 Y57.585 E2.40347
G1 X93.534 Y57.825 E2.40832
G1 X93.426 Y58.053 E2.41319
G1 X93.279 Y58.282 E2.41842
G1 X92.957 Y58.625 E2.42747
G1 X92.743 Y58.781 E2.43256
G1 X92.521 Y58.903 E2.43743
G1 X92.268 Y59.002 E2.44266
G1 X91.805 Y59.089 E2.45172
G1 X91.541 Y59.089 E2.45681
G1 X91.290 Y59.058 E2.46166
G1 X91.046 Y58.995 E2.46651
G1 X90.812 Y58.902 E2.47136
G1 X90.591 Y58.781 E2.47621
G1 X90.386 Y58.632 E2.48108
G1 X90.189 Y58.445 E2.48631
G1 X89.912 Y58.064 E2.49536
G1 X89.800 Y57.824 E2.50046
G1 X89.722 Y57.585 E2.50531
G1 X89.675 Y57.337 E2.51016
G1 X89.663 Y57.145 E2.51386
G1 X89.916 Y57.085 F6000.000
G1 F1800
G1 X89.930 Y56.866 E2.51809
G1 X89.971 Y56.650 E2.52232
G1 X90.039 Y56.441 E2.52654
G1 X90.133 Y56.242 E2.53077
G1 X90.251 Y56.057 E2.53500
G1 X90.391 Y55.887 E2.53923
G1 X90.551 Y55.737 E2.54346
G1 X90.729 Y55.608 E2.54769
G1 X90.921 Y55.502 E2.55192
G1 X91.126 Y55.421 E2.55614
G1 X91.339 Y55.366 E2.56037
G1 X91.557 Y55.339 E2.56460
G1 X91.777 Y55.339 E2.56883
G1 X91.995 Y55.366 E2.57306
G1 X92.208 Y55.421 E2.57729
G1 X92.412 Y55.502 E2.58152
G1 X92.605 Y55.608 E2.58575
G1 X92.782 Y55.737 E2.58997
G1 X92.943 Y55.887 E2.59420
G1 X93.083 Y56.057 E2.59843
G1 X93.200 Y56.242 E2.60266
G1 X93.294 Y56.441 E2.60689
G1 X93.362 Y56.650 E2.61112
G1 X93.403 Y56.866 E2.61535
G1 X93.417 Y57.085 E2.61958
G1 X93.403 Y57.305 E2.62380
G1 X93.362 Y57.521 E2.62803
G1 X93.294 Y57.730 E2.63226
G1 X93.200 Y57.929 E2.63650
G1 X93.076 Y58.124 E2.64094
