; generated by Slic3r 1.3.1-dev (Build (Unknown revision)) on 2020-11-25 at 01:59:48

; external perimeters extrusion width = 0.44mm (2.86mm^3/s)
; perimeters extrusion width = 0.56mm (4.14mm^3/s)
; infill extrusion width = 0.50mm (3.66mm^3/s)
; solid infill extrusion width = 0.56mm (3.10mm^3/s)
; top infill extrusion width = 0.45mm (2.44mm^3/s)

M107
G92 E0
;D3D:START:START
T0
M104 S215 T0

G21
G90
M107
T0
G28
G29
M109 T0 S215 T0
G0 F3000
M107
T0
G92 E0
G0 X0 Y149 Z0.1 F3600
G1 Y49 E6.5 F1200
G0 Z1
G92 E0
; Filament gcode

G21 ; set units to millimeters
G90 ; use absolute coordinates
M82 ; use absolute distances for extrusion
G92 E0
G1 Z0.300 F6000.000
G1 E-2.00000 F1200.00000
G92 E0
G1 Z0.800 F6000.000
G1 X56.321 Y18.137 F6000.000
G1 Z0.300 F6000.000
G1 E2.00000 F1200.00000
G1 F1800.000
G1 X58.217 Y16.803 E2.10372
G1 X60.453 Y16.186 E2.20744
G1 X62.765 Y16.360 E2.31116
G1 X64.883 Y17.303 E2.41488
G1 X65.897 Y18.137 E2.47361
G1 X181.863 Y134.103 E9.80930
G1 X183.197 Y135.999 E9.91302
G1 X183.814 Y138.234 E10.01674
G1 X183.640 Y140.547 E10.12046
G1 X182.697 Y142.665 E10.22418
G1 X181.863 Y143.679 E10.28291
G1 X143.679 Y181.863 E12.69832
G1 X141.783 Y183.197 E12.80204
G1 X139.547 Y183.814 E12.90576
G1 X137.235 Y183.640 E13.00948
G1 X135.117 Y182.697 E13.11320
G1 X134.103 Y181.863 E13.17193
G1 X18.137 Y65.897 E20.50762
G1 X16.803 Y64.001 E20.61134
G1 X16.186 Y61.766 E20.71506
G1 X16.360 Y59.453 E20.81878
G1 X17.303 Y57.335 E20.92250
G1 X18.137 Y56.321 E20.98123
G1 X56.279 Y18.180 E23.39395
G1 X56.594 Y18.410 F6000.000
G1 F1800.000
G1 X58.441 Y17.124 E23.49465
G1 X60.621 Y16.558 E23.59535
G1 X62.861 Y16.785 E23.69605
G1 X65.624 Y18.410 E23.83947
G1 X181.590 Y134.376 E31.17516
G1 X182.876 Y136.223 E31.27587
G1 X183.442 Y138.402 E31.37657
G1 X183.215 Y140.642 E31.47727
G1 X181.590 Y143.406 E31.62069
G1 X143.406 Y181.590 E34.03609
G1 X141.559 Y182.876 E34.13680
G1 X139.379 Y183.442 E34.23750
G1 X137.139 Y183.215 E34.33820
G1 X134.376 Y181.590 E34.48162
G1 X18.410 Y65.624 E41.81731
G1 X17.124 Y63.777 E41.91801
G1 X16.558 Y61.598 E42.01871
G1 X16.785 Y59.358 E42.11941
G1 X18.410 Y56.594 E42.26283
G1 X56.551 Y18.453 E44.67556
G1 E42.67556 F1200.00000
G92 E0
G1 Z0.800 F6000.000
G1 X123.731 Y155.517 F6000.000
G1 Z0.300 F6000.000
G1 E2.00000 F1200.00000
G1 F1800.000
G1 X124.708 Y155.142 E2.04684
G1 X125.754 Y155.196 E2.09368
G1 X126.639 Y155.647 E2.13812
G1 X128.909 Y157.917 E2.28170
G1 X129.468 Y158.607 E2.32140
G1 X129.739 Y159.619 E2.36825
G1 X129.575 Y160.653 E2.41509
G1 X129.004 Y161.531 E2.46194
G1 X128.126 Y162.102 E2.50878
G1 X127.092 Y162.266 E2.55563
G1 X126.080 Y161.994 E2.60247
G1 X125.390 Y161.436 E2.64217
G1 X123.121 Y159.166 E2.78575
G1 X122.670 Y158.281 E2.83019
G1 X122.615 Y157.235 E2.87703
G1 X122.990 Y156.258 E2.92387
G1 X123.688 Y155.559 E2.96803
G1 X123.945 Y155.848 F6000.000
G1 F1800.000
G1 X124.770 Y155.531 E3.00754
G1 X125.652 Y155.577 E3.04705
G1 X126.410 Y155.963 E3.08509
G1 X128.622 Y158.176 E3.22503
G1 X129.116 Y158.786 E3.26016
G1 X129.345 Y159.639 E3.29968
G1 X129.207 Y160.512 E3.33919
G1 X128.726 Y161.253 E3.37870
G1 X127.985 Y161.734 E3.41821
G1 X127.112 Y161.872 E3.45772
G1 X126.259 Y161.643 E3.49724
G1 X125.649 Y161.149 E3.53237
G1 X123.436 Y158.937 E3.67231
G1 X123.050 Y158.179 E3.71035
G1 X123.004 Y157.297 E3.74985
G1 X123.321 Y156.472 E3.78937
G1 X123.903 Y155.890 E3.82619
G1 X124.160 Y156.178 F6000.000
G1 F1800.000
G1 X124.832 Y155.921 E3.85837
G1 X125.550 Y155.958 E3.89055
G1 X126.180 Y156.279 E3.92219
G1 X128.335 Y158.434 E4.05849
G1 X128.765 Y158.965 E4.08906
G1 X128.951 Y159.660 E4.12124
G1 X128.839 Y160.371 E4.15342
G1 X128.447 Y160.974 E4.18560
G1 X127.844 Y161.366 E4.21777
G1 X127.133 Y161.478 E4.24995
G1 X126.438 Y161.292 E4.28213
G1 X125.907 Y160.862 E4.31270
G1 X123.752 Y158.707 E4.44901
G1 X123.431 Y158.077 E4.48064
G1 X123.394 Y157.359 E4.51282
G1 X123.651 Y156.687 E4.54500
G1 X124.118 Y156.221 E4.57449
G1 X124.139 Y155.779 F6000.000
G1 E2.57449 F1200.00000
G92 E0
G1 Z0.800 F6000.000
G1 X119.221 Y144.418 F6000.000
G1 Z0.300 F6000.000
G1 E2.00000 F1200.00000
G1 F1800.000
G1 X114.610 Y127.208 E2.79695
G1 X127.208 Y114.610 E3.59391
G1 X144.418 Y119.221 E4.39086
G1 X149.030 Y136.431 E5.18781
G1 X136.431 Y149.030 E5.98476
G1 X119.279 Y144.434 E6.77903
G1 X119.536 Y144.103 F6000.000
G1 F1800.000
G1 X115.040 Y127.324 E7.55607
G1 X127.324 Y115.040 E8.33311
G1 X144.103 Y119.536 E9.11014
G1 X148.600 Y136.316 E9.88718
G1 X136.316 Y148.600 E10.66421
G1 X119.594 Y144.119 E11.43857
G1 X119.851 Y143.789 F6000.000
G1 F1800.000
G1 X115.470 Y127.439 E12.19568
G1 X127.439 Y115.470 E12.95280
G1 X143.789 Y119.851 E13.70992
G1 X148.170 Y136.201 E14.46704
G1 X136.201 Y148.170 E15.22416
G1 X119.909 Y143.804 E15.97859
G1 X119.465 Y143.892 F6000.000
G1 E13.97859 F1200.00000
G92 E0
G1 Z0.800 F6000.000
G1 X112.861 Y125.459 F6000.000
G1 Z0.300 F6000.000
G1 E2.00000 F1200.00000
G1 F1800.000
G1 X95.651 Y120.848 E2.79695
G1 X91.040 Y103.638 E3.59390
G1 X103.638 Y91.040 E4.39085
G1 X120.848 Y95.651 E5.18781
G1 X125.459 Y112.861 E5.98476
G1 X112.903 Y125.417 E6.77902
G1 X112.746 Y125.029 F6000.000
G1 F1800.000
G1 X95.966 Y120.533 E7.55606
G1 X91.470 Y103.753 E8.33309
G1 X103.753 Y91.470 E9.11013
G1 X120.533 Y95.966 E9.88716
G1 X125.029 Y112.746 E10.66420
G1 X112.788 Y124.987 E11.43855
G1 X112.630 Y124.599 F6000.000
G1 F1800.000
G1 X96.281 Y120.218 E12.19566
G1 X91.900 Y103.869 E12.95278
G1 X103.869 Y91.900 E13.70990
G1 X120.218 Y96.281 E14.46702
G1 X124.599 Y112.630 E15.22413
G1 X112.673 Y124.557 E15.97857
G1 X112.527 Y124.986 F6000.000
G1 E13.97857 F1200.00000
G92 E0
G1 Z0.800 F6000.000
G1 X87.148 Y118.227 F6000.000
G1 Z0.300 F6000.000
G1 E2.00000 F1200.00000
G1 F1800.000
G1 X86.578 Y119.105 E2.04685
G1 X85.700 Y119.675 E2.09369
G1 X84.665 Y119.839 E2.14054
G1 X83.654 Y119.568 E2.18738
G1 X82.964 Y119.009 E2.22708
G1 X80.694 Y116.740 E2.37066
G1 X80.243 Y115.855 E2.41510
G1 X80.188 Y114.809 E2.46194
G1 X80.564 Y113.831 E2.50878
G1 X81.304 Y113.091 E2.55562
G1 X82.282 Y112.715 E2.60246
G1 X83.328 Y112.770 E2.64931
G1 X84.213 Y113.221 E2.69374
G1 X86.483 Y115.491 E2.83732
G1 X87.041 Y116.181 E2.87703
G1 X87.312 Y117.192 E2.92387
G1 X87.158 Y118.167 E2.96803
G1 X86.780 Y118.085 F6000.000
G1 F1800.000
G1 X86.299 Y118.826 E3.00754
G1 X85.559 Y119.307 E3.04705
G1 X84.686 Y119.446 E3.08657
G1 X83.833 Y119.217 E3.12608
G1 X83.222 Y118.722 E3.16121
G1 X81.010 Y116.510 E3.30116
G1 X80.624 Y115.753 E3.33919
G1 X80.578 Y114.870 E3.37870
G1 X80.894 Y114.046 E3.41821
G1 X81.519 Y113.421 E3.45772
G1 X82.344 Y113.105 E3.49723
G1 X83.226 Y113.151 E3.53674
G1 X83.983 Y113.537 E3.57477
G1 X86.196 Y115.749 E3.71472
G1 X86.690 Y116.360 E3.74985
G1 X86.918 Y117.213 E3.78936
G1 X86.790 Y118.026 E3.82619
G1 X86.412 Y117.944 F6000.000
G1 F1800.000
G1 X86.021 Y118.547 E3.85837
G1 X85.417 Y118.939 E3.89055
G1 X84.707 Y119.052 E3.92273
G1 X84.012 Y118.866 E3.95491
G1 X83.481 Y118.436 E3.98547
G1 X81.326 Y116.281 E4.12178
G1 X81.005 Y115.651 E4.15342
G1 X80.967 Y114.932 E4.18559
G1 X81.225 Y114.261 E4.21777
G1 X81.734 Y113.752 E4.24995
G1 X82.405 Y113.494 E4.28212
G1 X83.124 Y113.532 E4.31430
G1 X83.754 Y113.853 E4.34594
G1 X85.909 Y116.008 E4.48225
G1 X86.339 Y116.539 E4.51281
G1 X86.525 Y117.234 E4.54499
G1 X86.422 Y117.885 E4.57449
G1 X86.664 Y118.255 F6000.000
G1 E2.57449 F1200.00000
G92 E0
G1 Z0.800 F6000.000
G1 X89.291 Y101.889 F6000.000
G1 Z0.300 F6000.000
G1 E2.00000 F1200.00000
G1 F1800.000
G1 X72.081 Y97.278 E2.79695
G1 X67.469 Y80.068 E3.59391
G1 X80.068 Y67.469 E4.39086
G1 X97.278 Y72.081 E5.18781
G1 X101.889 Y89.291 E5.98476
G1 X89.333 Y101.847 E6.77903
G1 X89.175 Y101.459 F6000.000
G1 F1800.000
G1 X72.396 Y96.963 E7.55607
G1 X67.900 Y80.183 E8.33310
G1 X80.183 Y67.900 E9.11014
G1 X96.963 Y72.396 E9.88717
G1 X101.459 Y89.175 E10.66421
G1 X89.218 Y101.417 E11.43856
G1 X89.060 Y101.029 F6000.000
G1 F1800.000
G1 X72.710 Y96.648 E12.19568
G1 X68.330 Y80.298 E12.95280
G1 X80.298 Y68.330 E13.70992
G1 X96.648 Y72.710 E14.46703
G1 X101.029 Y89.060 E15.22415
G1 X89.103 Y100.987 E15.97859
G1 X88.957 Y101.415 F6000.000
G1 E13.97859 F1200.00000
G92 E0
G1 Z0.800 F6000.000
G1 X44.722 Y75.800 F6000.000
G1 Z0.300 F6000.000
G1 E2.00000 F1200.00000
G1 F1800.000
G1 X44.152 Y76.679 E2.04685
G1 X43.273 Y77.249 E2.09369
G1 X42.239 Y77.413 E2.14053
G1 X41.227 Y77.142 E2.18738
G1 X40.538 Y76.583 E2.22708
G1 X38.268 Y74.313 E2.37066
G1 X37.817 Y73.428 E2.41509
G1 X37.762 Y72.382 E2.46194
G1 X38.137 Y71.405 E2.50879
G1 X38.878 Y70.664 E2.55563
G1 X39.855 Y70.289 E2.60247
G1 X40.901 Y70.344 E2.64931
G1 X41.786 Y70.795 E2.69374
G1 X44.056 Y73.064 E2.83732
G1 X44.615 Y73.754 E2.87703
G1 X44.886 Y74.766 E2.92387
G1 X44.731 Y75.741 E2.96803
G1 X44.354 Y75.659 F6000.000
G1 F1800.000
G1 X43.873 Y76.400 E3.00754
G1 X43.132 Y76.881 E3.04706
G1 X42.260 Y77.019 E3.08657
G1 X41.406 Y76.790 E3.12608
G1 X40.796 Y76.296 E3.16121
G1 X38.584 Y74.084 E3.30116
G1 X38.198 Y73.326 E3.33919
G1 X38.151 Y72.444 E3.37870
G1 X38.468 Y71.619 E3.41822
G1 X39.093 Y70.995 E3.45772
G1 X39.917 Y70.678 E3.49723
G1 X40.799 Y70.724 E3.53674
G1 X41.557 Y71.111 E3.57478
G1 X43.769 Y73.323 E3.71472
G1 X44.264 Y73.933 E3.74986
G1 X44.492 Y74.787 E3.78937
G1 X44.363 Y75.600 E3.82619
G1 X43.986 Y75.518 F6000.000
G1 F1800.000
G1 X43.594 Y76.121 E3.85837
G1 X42.991 Y76.513 E3.89055
G1 X42.280 Y76.625 E3.92273
G1 X41.585 Y76.439 E3.95491
G1 X41.054 Y76.009 E3.98547
G1 X38.900 Y73.854 E4.12178
G1 X38.578 Y73.224 E4.15342
G1 X38.541 Y72.506 E4.18560
G1 X38.799 Y71.834 E4.21778
G1 X39.307 Y71.325 E4.24995
G1 X39.979 Y71.068 E4.28213
G1 X40.697 Y71.105 E4.31431
G1 X41.327 Y71.426 E4.34594
G1 X43.482 Y73.581 E4.48225
G1 X43.912 Y74.112 E4.51282
G1 X44.098 Y74.807 E4.54499
G1 X43.995 Y75.458 E4.57449
G1 X44.238 Y75.829 F6000.000
G1 E2.57449 F1200.00000
G92 E0
G1 Z0.800 F6000.000
G1 X48.511 Y73.708 F6000.000
G1 Z0.300 F6000.000
G1 E2.00000 F1200.00000
G1 F1800.000
G1 X43.899 Y56.498 E2.79695
G1 X56.498 Y43.899 E3.59390
G1 X73.708 Y48.511 E4.39085
G1 X78.319 Y65.721 E5.18780
G1 X65.721 Y78.319 E5.98475
G1 X48.569 Y73.723 E6.77903
G1 X48.825 Y73.393 F6000.000
G1 F1800.000
G1 X44.329 Y56.613 E7.55606
G1 X56.613 Y44.329 E8.33309
G1 X73.393 Y48.825 E9.11012
G1 X77.889 Y65.605 E9.88716
G1 X65.605 Y77.889 E10.66420
G1 X48.883 Y73.408 E11.43855
G1 X49.140 Y73.078 F6000.000
G1 F1800.000
G1 X44.759 Y56.728 E12.19566
G1 X56.728 Y44.759 E12.95278
G1 X73.078 Y49.140 E13.70990
G1 X77.459 Y65.490 E14.46702
G1 X65.490 Y77.459 E15.22413
G1 X49.198 Y73.093 E15.97857
G1 X48.754 Y73.181 F6000.000
G1 E13.97857 F1200.00000
G92 E0
G1 Z0.800 F6000.000
G1 X73.064 Y44.056 F6000.000
G1 Z0.300 F6000.000
G1 E2.00000 F1200.00000
G1 F1800.000
G1 X70.795 Y41.786 E2.14358
G1 X70.344 Y40.901 E2.18801
G1 X70.289 Y39.855 E2.23486
G1 X70.664 Y38.878 E2.28170
G1 X71.405 Y38.137 E2.32854
G1 X72.382 Y37.762 E2.37538
G1 X73.428 Y37.817 E2.42223
G1 X74.313 Y38.268 E2.46666
G1 X76.583 Y40.538 E2.61024
G1 X77.142 Y41.227 E2.64994
G1 X77.413 Y42.239 E2.69679
G1 X77.249 Y43.273 E2.74363
G1 X76.679 Y44.152 E2.79048
G1 X75.800 Y44.722 E2.83732
G1 X74.766 Y44.886 E2.88417
G1 X73.754 Y44.615 E2.93101
G1 X73.111 Y44.094 E2.96803
G1 X73.323 Y43.769 F6000.000
G1 F1800.000
G1 X71.111 Y41.557 E3.10798
G1 X70.724 Y40.799 E3.14601
G1 X70.678 Y39.917 E3.18552
G1 X70.995 Y39.093 E3.22503
G1 X71.619 Y38.468 E3.26454
G1 X72.444 Y38.151 E3.30405
G1 X73.326 Y38.198 E3.34356
G1 X74.084 Y38.584 E3.38160
G1 X76.296 Y40.796 E3.52154
G1 X76.790 Y41.406 E3.55667
G1 X77.019 Y42.260 E3.59619
G1 X76.881 Y43.132 E3.63570
G1 X76.400 Y43.873 E3.67521
G1 X75.659 Y44.354 E3.71472
G1 X74.787 Y44.492 E3.75423
G1 X73.933 Y44.264 E3.79374
G1 X73.369 Y43.807 E3.82619
G1 X73.581 Y43.482 F6000.000
G1 F1800.000
G1 X71.426 Y41.327 E3.96250
G1 X71.105 Y40.697 E3.99414
G1 X71.068 Y39.979 E4.02632
G1 X71.325 Y39.307 E4.05849
G1 X71.834 Y38.799 E4.09067
G1 X72.506 Y38.541 E4.12285
G1 X73.224 Y38.578 E4.15503
G1 X73.854 Y38.900 E4.18666
G1 X76.009 Y41.054 E4.32297
G1 X76.439 Y41.585 E4.35354
G1 X76.625 Y42.280 E4.38572
G1 X76.513 Y42.991 E4.41789
G1 X76.121 Y43.594 E4.45007
G1 X75.518 Y43.986 E4.48225
G1 X74.807 Y44.098 E4.51443
G1 X74.112 Y43.912 E4.54661
G1 X73.628 Y43.520 E4.57449
G1 X73.208 Y43.626 F6000.000
G1 E2.57449 F1200.00000
G92 E0
G1 Z0.800 F6000.000
G1 X113.091 Y81.304 F6000.000
G1 Z0.300 F6000.000
G1 E2.00000 F1200.00000
G1 F1800.000
G1 X113.831 Y80.564 E2.04684
G1 X114.809 Y80.188 E2.09368
G1 X115.855 Y80.243 E2.14053
G1 X116.740 Y80.694 E2.18496
G1 X119.009 Y82.964 E2.32854
G1 X119.568 Y83.654 E2.36824
G1 X119.839 Y84.665 E2.41509
G1 X119.675 Y85.700 E2.46194
G1 X119.105 Y86.578 E2.50878
G1 X118.227 Y87.148 E2.55562
G1 X117.192 Y87.312 E2.60247
G1 X116.181 Y87.041 E2.64931
G1 X115.491 Y86.483 E2.68901
G1 X113.221 Y84.213 E2.83260
G1 X112.770 Y83.328 E2.87703
G1 X112.715 Y82.282 E2.92387
G1 X113.069 Y81.360 E2.96803
G1 X113.421 Y81.519 F6000.000
G1 F1800.000
G1 X114.046 Y80.894 E3.00754
G1 X114.870 Y80.578 E3.04705
G1 X115.753 Y80.624 E3.08656
G1 X116.510 Y81.010 E3.12459
G1 X118.722 Y83.222 E3.26454
G1 X119.217 Y83.833 E3.29967
G1 X119.446 Y84.686 E3.33918
G1 X119.307 Y85.559 E3.37870
G1 X118.826 Y86.299 E3.41821
G1 X118.085 Y86.780 E3.45772
G1 X117.213 Y86.918 E3.49723
G1 X116.360 Y86.690 E3.53674
G1 X115.749 Y86.196 E3.57188
G1 X113.537 Y83.983 E3.71182
G1 X113.151 Y83.226 E3.74986
G1 X113.105 Y82.344 E3.78937
G1 X113.400 Y81.575 E3.82619
G1 X113.752 Y81.734 F6000.000
G1 F1800.000
G1 X114.261 Y81.225 E3.85837
G1 X114.932 Y80.967 E3.89054
G1 X115.651 Y81.005 E3.92272
G1 X116.281 Y81.326 E3.95436
G1 X118.436 Y83.481 E4.09067
G1 X118.866 Y84.012 E4.12123
G1 X119.052 Y84.707 E4.15341
G1 X118.939 Y85.417 E4.18559
G1 X118.547 Y86.021 E4.21777
G1 X117.944 Y86.412 E4.24995
G1 X117.234 Y86.525 E4.28213
G1 X116.539 Y86.339 E4.31430
G1 X116.008 Y85.909 E4.34487
G1 X113.853 Y83.754 E4.48118
G1 X113.532 Y83.124 E4.51281
G1 X113.494 Y82.405 E4.54499
G1 X113.730 Y81.790 E4.57449
G1 X113.570 Y81.377 F6000.000
G1 E2.57449 F1200.00000
G92 E0
G1 Z0.800 F6000.000
G1 X155.517 Y123.731 F6000.000
G1 Z0.300 F6000.000
G1 E2.00000 F1200.00000
G1 F1800.000
G1 X156.258 Y122.990 E2.04684
G1 X157.235 Y122.615 E2.09369
G1 X158.281 Y122.670 E2.14053
G1 X159.166 Y123.121 E2.18496
G1 X161.436 Y125.390 E2.32854
G1 X161.994 Y126.080 E2.36824
G1 X162.266 Y127.092 E2.41509
G1 X162.102 Y128.126 E2.46194
G1 X161.531 Y129.004 E2.50878
G1 X160.653 Y129.575 E2.55562
G1 X159.619 Y129.739 E2.60247
G1 X158.607 Y129.468 E2.64931
G1 X157.917 Y128.909 E2.68902
G1 X155.647 Y126.639 E2.83260
G1 X155.196 Y125.754 E2.87703
G1 X155.142 Y124.708 E2.92387
G1 X155.495 Y123.787 E2.96803
G1 X155.848 Y123.945 F6000.000
G1 F1800.000
G1 X156.472 Y123.321 E3.00754
G1 X157.297 Y123.004 E3.04705
G1 X158.179 Y123.050 E3.08656
G1 X158.937 Y123.436 E3.12459
G1 X161.149 Y125.649 E3.26454
G1 X161.643 Y126.259 E3.29967
G1 X161.872 Y127.112 E3.33919
G1 X161.734 Y127.985 E3.37870
G1 X161.253 Y128.726 E3.41821
G1 X160.512 Y129.207 E3.45772
G1 X159.639 Y129.345 E3.49723
G1 X158.786 Y129.116 E3.53674
G1 X158.176 Y128.622 E3.57188
G1 X155.963 Y126.410 E3.71182
G1 X155.577 Y125.652 E3.74986
G1 X155.531 Y124.770 E3.78937
G1 X155.826 Y124.001 E3.82619
G1 X156.178 Y124.160 F6000.000
G1 F1800.000
G1 X156.687 Y123.651 E3.85837
G1 X157.359 Y123.394 E3.89055
G1 X158.077 Y123.431 E3.92273
G1 X158.707 Y123.752 E3.95436
G1 X160.862 Y125.907 E4.09067
G1 X161.292 Y126.438 E4.12123
G1 X161.478 Y127.133 E4.15341
G1 X161.366 Y127.844 E4.18559
G1 X160.974 Y128.447 E4.21777
G1 X160.371 Y128.839 E4.24995
G1 X159.660 Y128.951 E4.28213
G1 X158.965 Y128.765 E4.31431
G1 X158.434 Y128.335 E4.34487
G1 X156.279 Y126.180 E4.48118
G1 X155.958 Y125.550 E4.51282
G1 X155.921 Y124.832 E4.54500
G1 X156.157 Y124.216 E4.57449
G1 X155.997 Y123.804 F6000.000
G1 E2.57449 F1200.00000
G92 E0
G1 Z0.800 F6000.000
G1 X175.666 Y138.891 F6000.000
G1 Z0.300 F6000.000
G1 E2.00000 F1200.00000
G1 F1800.000
G1 X138.891 Y175.666 E4.32628
G1 X24.334 Y61.109 E11.57285
G1 X61.109 Y24.334 E13.89913
G1 X175.623 Y138.848 E21.14302
G1 X176.211 Y138.891 F6000.000
G1 F1800.000
