; generated by Slic3r 1.3.1-dev (Build (Unknown revision)) on 2020-06-18 at 22:15:26

; external perimeters extrusion width = 0.44mm (2.86mm^3/s)
; perimeters extrusion width = 0.56mm (4.14mm^3/s)
; infill extrusion width = 0.50mm (3.66mm^3/s)
; solid infill extrusion width = 0.56mm (3.10mm^3/s)
; top infill extrusion width = 0.45mm (2.44mm^3/s)

M107
G92 E0
;D3D:START:START
T0
M104 S215 T0

G21
G90
M107
T0
G28
G29
M109 T0 S215 T0
G0 F3000
M107
T0
G92 E0
G0 X0 Y149 Z0.1 F3600
G1 Y49 E6.5 F1200
G0 Z1
G92 E0
; Filament gcode

G21 ; set units to millimeters
G90 ; use absolute coordinates
M82 ; use absolute distances for extrusion
G92 E0
G1 Z0.200 F6000.000
G1 E-2.00000 F1200.00000
G92 E0
G1 Z0.700 F6000.000
G1 X0.000 Y33.486 F6000.000
G1 Z0.200 F6000.000
G1 E2.00000 F1200.00000
G1 F1800.000
G1 X150.000 Y33.486 E4.88579
G1 X152.239 Y33.883 E4.92954
G1 X154.205 Y35.025 E4.97329
G1 X155.659 Y36.774 E5.01704
G1 X156.514 Y40.000 E5.08125
G1 X156.514 Y110.000 E6.42796
G1 X156.117 Y112.239 E6.47171
G1 X154.975 Y114.205 E6.51546
G1 X153.226 Y115.659 E6.55921
G1 X150.000 Y116.514 E6.62342
G1 X0.000 Y116.514 E9.50921
G1 X-2.239 Y116.117 E9.55296
G1 X-4.205 Y114.975 E9.59671
G1 X-5.659 Y113.226 E9.64046
G1 X-6.514 Y110.000 E9.70467
G1 X-6.514 Y40.000 E11.05137
G1 X-6.117 Y37.761 E11.09512
G1 X-4.975 Y35.795 E11.13887
G1 X-3.226 Y34.341 E11.18262
G1 X-0.058 Y33.501 E11.24568
G1 X0.000 Y33.743 F6000.000
G1 F1800.000
G1 X150.000 Y33.743 E14.13147
G1 X152.193 Y34.140 E14.17434
G1 X154.107 Y35.280 E14.21721
G1 X155.501 Y37.019 E14.26008
G1 X156.257 Y40.000 E14.31926
G1 X156.257 Y110.000 E15.66596
G1 X155.860 Y112.193 E15.70883
G1 X154.720 Y114.107 E15.75170
G1 X152.981 Y115.501 E15.79458
G1 X150.000 Y116.257 E15.85375
G1 X0.000 Y116.257 E18.73954
G1 X-2.193 Y115.860 E18.78241
G1 X-4.107 Y114.720 E18.82529
G1 X-5.501 Y112.981 E18.86816
G1 X-6.257 Y110.000 E18.92733
G1 X-6.257 Y40.000 E20.27403
G1 X-5.860 Y37.807 E20.31691
G1 X-4.720 Y35.893 E20.35978
G1 X-2.981 Y34.499 E20.40265
G1 X-0.058 Y33.758 E20.46067
G1 E18.46067 F1200.00000
G92 E0
G1 Z0.700 F6000.000
G1 X59.157 Y103.652 F6000.000
G1 Z0.200 F6000.000
G1 E2.00000 F1200.00000
G1 F1800.000
G1 X59.333 Y103.374 E2.00634
G1 X59.611 Y103.173 E2.01293
G1 X59.943 Y103.087 E2.01952
G1 X60.283 Y103.130 E2.02612
G1 X60.583 Y103.295 E2.03271
G1 X60.801 Y103.559 E2.03930
G1 X60.903 Y103.873 E2.04564
G1 X60.903 Y104.114 E2.05029
G1 X60.843 Y104.348 E2.05493
G1 X60.667 Y104.626 E2.06127
G1 X60.389 Y104.827 E2.06786
G1 X60.057 Y104.913 E2.07445
G1 X59.717 Y104.870 E2.08104
G1 X59.417 Y104.705 E2.08763
G1 X59.199 Y104.441 E2.09423
G1 X59.097 Y104.127 E2.10057
G1 X59.097 Y103.886 E2.10521
G1 X59.142 Y103.710 E2.10870
G1 X59.722 Y103.409 F6000.000
G1 F1800.000
G1 X59.959 Y103.349 E2.11340
G1 X60.202 Y103.379 E2.11811
G1 X60.416 Y103.497 E2.12281
G1 X60.572 Y103.686 E2.12752
G1 X60.646 Y103.914 E2.13213
G1 X60.646 Y104.082 E2.13537
G1 X60.604 Y104.244 E2.13860
G1 X60.476 Y104.447 E2.14321
G1 X60.278 Y104.591 E2.14792
G1 X60.041 Y104.651 E2.15263
G1 X59.798 Y104.621 E2.15733
G1 X59.584 Y104.503 E2.16204
G1 X59.428 Y104.314 E2.16674
G1 X59.354 Y104.086 E2.17136
G1 X59.354 Y103.918 E2.17459
G1 X59.396 Y103.756 E2.17782
G1 X59.524 Y103.553 E2.18244
G1 X59.674 Y103.445 E2.18599
G1 X59.743 Y103.166 F6000.000
G1 E0.18599 F1200.00000
G92 E0
G1 Z0.700 F6000.000
G1 X50.855 Y86.817 F6000.000
G1 Z0.200 F6000.000
G1 E2.00000 F1200.00000
G1 F1800.000
G1 X50.621 Y86.910 E2.00485
G1 X50.376 Y86.972 E2.00970
G1 X50.126 Y87.004 E2.01455
G1 X49.874 Y87.004 E2.01940
G1 X49.624 Y86.972 E2.02425
G1 X49.379 Y86.910 E2.02911
G1 X49.145 Y86.817 E2.03396
G1 X48.924 Y86.695 E2.03881
G1 X48.720 Y86.547 E2.04366
G1 X48.536 Y86.375 E2.04851
G1 X48.376 Y86.180 E2.05336
G1 X48.240 Y85.967 E2.05821
G1 X48.133 Y85.739 E2.06306
G1 X48.055 Y85.499 E2.06791
G1 X48.008 Y85.252 E2.07277
G1 X47.992 Y85.000 E2.07762
G1 X48.008 Y84.748 E2.08247
G1 X48.055 Y84.501 E2.08732
G1 X48.133 Y84.261 E2.09217
G1 X48.240 Y84.033 E2.09702
G1 X48.376 Y83.820 E2.10187
G1 X48.536 Y83.626 E2.10672
G1 X48.720 Y83.453 E2.11157
G1 X48.924 Y83.305 E2.11643
G1 X49.145 Y83.183 E2.12128
G1 X49.380 Y83.090 E2.12613
G1 X49.624 Y83.028 E2.13098
G1 X49.874 Y82.996 E2.13583
G1 X50.126 Y82.996 E2.14068
G1 X50.376 Y83.028 E2.14553
G1 X50.620 Y83.090 E2.15038
G1 X50.855 Y83.183 E2.15523
G1 X51.076 Y83.305 E2.16008
G1 X51.280 Y83.453 E2.16494
G1 X51.464 Y83.626 E2.16979
G1 X51.624 Y83.820 E2.17464
G1 X51.760 Y84.033 E2.17949
G1 X51.867 Y84.261 E2.18434
G1 X51.945 Y84.501 E2.18919
G1 X51.992 Y84.748 E2.19404
G1 X52.008 Y85.000 E2.19889
G1 X51.992 Y85.252 E2.20374
G1 X51.945 Y85.499 E2.20860
G1 X51.867 Y85.739 E2.21345
G1 X51.760 Y85.967 E2.21830
G1 X51.624 Y86.180 E2.22315
G1 X51.464 Y86.375 E2.22800
G1 X51.280 Y86.547 E2.23285
G1 X51.076 Y86.695 E2.23770
G1 X50.907 Y86.788 E2.24140
G1 X50.745 Y86.584 F6000.000
G1 F1800.000
G1 X50.541 Y86.665 E2.24563
G1 X50.328 Y86.719 E2.24986
G1 X50.110 Y86.747 E2.25408
G1 X49.890 Y86.747 E2.25831
G1 X49.672 Y86.719 E2.26254
G1 X49.459 Y86.665 E2.26677
G1 X49.255 Y86.584 E2.27100
G1 X49.062 Y86.478 E2.27523
G1 X48.884 Y86.349 E2.27946
G1 X48.724 Y86.198 E2.28368
G1 X48.584 Y86.029 E2.28791
G1 X48.466 Y85.843 E2.29214
G1 X48.373 Y85.644 E2.29637
G1 X48.305 Y85.435 E2.30060
G1 X48.263 Y85.219 E2.30483
G1 X48.250 Y85.000 E2.30906
G1 X48.263 Y84.781 E2.31329
G1 X48.305 Y84.565 E2.31751
G1 X48.373 Y84.356 E2.32174
G1 X48.466 Y84.157 E2.32597
G1 X48.584 Y83.971 E2.33020
G1 X48.724 Y83.802 E2.33443
G1 X48.884 Y83.651 E2.33866
G1 X49.062 Y83.522 E2.34289
G1 X49.255 Y83.416 E2.34712
G1 X49.459 Y83.335 E2.35134
G1 X49.672 Y83.281 E2.35557
G1 X49.890 Y83.253 E2.35980
G1 X50.110 Y83.253 E2.36403
G1 X50.328 Y83.281 E2.36826
G1 X50.541 Y83.335 E2.37249
G1 X50.745 Y83.416 E2.37672
G1 X50.938 Y83.522 E2.38094
G1 X51.116 Y83.651 E2.38517
G1 X51.276 Y83.802 E2.38940
G1 X51.416 Y83.971 E2.39363
G1 X51.534 Y84.157 E2.39786
G1 X51.627 Y84.356 E2.40209
G1 X51.695 Y84.565 E2.40632
G1 X51.737 Y84.781 E2.41055
G1 X51.750 Y85.000 E2.41477
G1 X51.737 Y85.219 E2.41900
G1 X51.695 Y85.435 E2.42323
G1 X51.627 Y85.644 E2.42746
G1 X51.534 Y85.843 E2.43169
G1 X51.416 Y86.029 E2.43592
G1 X51.276 Y86.198 E2.44015
G1 X51.116 Y86.349 E2.44437
G1 X50.798 Y86.555 E2.45166
G1 X50.727 Y86.803 F6000.000
G1 E0.45166 F1200.00000
G92 E0
G1 Z0.700 F6000.000
G1 X52.493 Y79.987 F6000.000
G1 Z0.200 F6000.000
G1 E2.00000 F1200.00000
G1 F1800.000
G1 X52.512 Y79.686 E2.00581
G1 X52.571 Y79.376 E2.01187
G1 X52.668 Y79.077 E2.01793
G1 X52.802 Y78.792 E2.02399
G1 X52.971 Y78.526 E2.03005
G1 X53.172 Y78.283 E2.03611
G1 X53.401 Y78.068 E2.04217
G1 X53.656 Y77.883 E2.04823
G1 X53.932 Y77.731 E2.05428
G1 X54.225 Y77.615 E2.06034
G1 X54.530 Y77.537 E2.06640
G1 X54.842 Y77.497 E2.07246
G1 X65.158 Y77.497 E2.27091
G1 X65.470 Y77.537 E2.27697
G1 X65.775 Y77.615 E2.28302
G1 X66.068 Y77.731 E2.28908
G1 X66.344 Y77.883 E2.29514
G1 X66.599 Y78.068 E2.30120
G1 X66.828 Y78.283 E2.30726
G1 X67.029 Y78.526 E2.31332
G1 X67.198 Y78.792 E2.31938
G1 X67.332 Y79.077 E2.32544
G1 X67.429 Y79.376 E2.33150
G1 X67.488 Y79.686 E2.33756
G1 X67.507 Y79.987 E2.34337
G1 X67.507 Y100.013 E2.72863
G1 X67.488 Y100.314 E2.73445
G1 X67.429 Y100.624 E2.74050
G1 X67.332 Y100.923 E2.74656
G1 X67.198 Y101.208 E2.75262
G1 X67.029 Y101.474 E2.75868
G1 X66.828 Y101.717 E2.76474
G1 X66.599 Y101.932 E2.77080
G1 X66.344 Y102.118 E2.77686
G1 X66.068 Y102.269 E2.78292
G1 X65.775 Y102.385 E2.78898
G1 X65.470 Y102.463 E2.79503
G1 X65.158 Y102.503 E2.80109
G1 X54.842 Y102.503 E2.99954
G1 X54.530 Y102.463 E3.00560
G1 X54.225 Y102.385 E3.01166
G1 X53.932 Y102.269 E3.01772
G1 X53.656 Y102.118 E3.02377
G1 X53.401 Y101.932 E3.02984
G1 X53.172 Y101.717 E3.03590
G1 X52.971 Y101.474 E3.04195
G1 X52.802 Y101.208 E3.04801
G1 X52.668 Y100.923 E3.05407
G1 X52.571 Y100.624 E3.06013
G1 X52.512 Y100.314 E3.06619
G1 X52.493 Y100.013 E3.07200
G1 X52.493 Y80.047 E3.45611
G1 X52.750 Y79.995 F6000.000
G1 F1800.000
G1 X52.767 Y79.718 E3.46146
G1 X52.820 Y79.440 E3.46690
G1 X52.908 Y79.172 E3.47233
G1 X53.028 Y78.916 E3.47777
G1 X53.180 Y78.677 E3.48321
G1 X53.360 Y78.460 E3.48864
G1 X53.566 Y78.266 E3.49408
G1 X53.794 Y78.100 E3.49952
G1 X54.042 Y77.964 E3.50495
G1 X54.305 Y77.860 E3.51039
G1 X54.578 Y77.790 E3.51583
G1 X54.859 Y77.754 E3.52126
G1 X65.141 Y77.754 E3.71909
G1 X65.422 Y77.790 E3.72452
G1 X65.695 Y77.860 E3.72996
G1 X65.958 Y77.964 E3.73539
G1 X66.206 Y78.100 E3.74083
G1 X66.434 Y78.266 E3.74627
G1 X66.640 Y78.460 E3.75170
G1 X66.820 Y78.677 E3.75714
G1 X66.972 Y78.916 E3.76258
G1 X67.092 Y79.172 E3.76801
G1 X67.180 Y79.440 E3.77345
G1 X67.233 Y79.718 E3.77889
G1 X67.250 Y79.995 E3.78423
G1 X67.250 Y100.005 E4.16919
G1 X67.233 Y100.282 E4.17453
G1 X67.180 Y100.560 E4.17997
G1 X67.092 Y100.828 E4.18541
G1 X66.972 Y101.084 E4.19085
G1 X66.820 Y101.323 E4.19628
G1 X66.640 Y101.540 E4.20172
G1 X66.434 Y101.734 E4.20715
G1 X66.206 Y101.900 E4.21259
G1 X65.958 Y102.036 E4.21803
G1 X65.695 Y102.140 E4.22346
G1 X65.422 Y102.210 E4.22890
G1 X65.141 Y102.246 E4.23434
G1 X54.859 Y102.246 E4.43216
G1 X54.578 Y102.210 E4.43760
G1 X54.305 Y102.140 E4.44303
G1 X54.042 Y102.036 E4.44847
G1 X53.794 Y101.900 E4.45391
G1 X53.566 Y101.734 E4.45934
G1 X53.360 Y101.540 E4.46478
G1 X53.180 Y101.323 E4.47022
G1 X53.028 Y101.084 E4.47565
G1 X52.908 Y100.828 E4.48109
G1 X52.820 Y100.560 E4.48653
G1 X52.767 Y100.282 E4.49196
G1 X52.750 Y100.005 E4.49731
G1 X52.750 Y80.055 E4.88111
G1 X52.515 Y79.846 F6000.000
G1 E2.88111 F1200.00000
G92 E0
G1 Z0.700 F6000.000
G1 X50.376 Y66.972 F6000.000
G1 Z0.200 F6000.000
G1 E2.00000 F1200.00000
G1 F1800.000
G1 X50.126 Y67.004 E2.00485
G1 X49.874 Y67.004 E2.00970
G1 X49.624 Y66.972 E2.01455
G1 X49.380 Y66.910 E2.01940
G1 X49.145 Y66.817 E2.02425
G1 X48.924 Y66.695 E2.02911
G1 X48.720 Y66.547 E2.03396
G1 X48.536 Y66.374 E2.03881
G1 X48.376 Y66.180 E2.04366
G1 X48.240 Y65.967 E2.04851
G1 X48.133 Y65.739 E2.05336
G1 X48.055 Y65.499 E2.05821
G1 X48.008 Y65.252 E2.06306
G1 X47.992 Y65.000 E2.06791
G1 X48.008 Y64.748 E2.07277
G1 X48.055 Y64.501 E2.07762
G1 X48.133 Y64.261 E2.08247
G1 X48.240 Y64.033 E2.08732
G1 X48.376 Y63.820 E2.09217
G1 X48.536 Y63.625 E2.09702
G1 X48.720 Y63.453 E2.10187
G1 X48.924 Y63.305 E2.10672
G1 X49.145 Y63.183 E2.11157
G1 X49.379 Y63.090 E2.11642
G1 X49.624 Y63.028 E2.12128
G1 X49.874 Y62.996 E2.12613
G1 X50.126 Y62.996 E2.13098
G1 X50.376 Y63.028 E2.13583
G1 X50.621 Y63.090 E2.14068
G1 X50.855 Y63.183 E2.14553
G1 X51.076 Y63.305 E2.15038
G1 X51.280 Y63.453 E2.15523
G1 X51.464 Y63.625 E2.16008
G1 X51.624 Y63.820 E2.16493
G1 X51.760 Y64.033 E2.16979
G1 X51.867 Y64.261 E2.17464
G1 X51.945 Y64.501 E2.17949
G1 X51.992 Y64.748 E2.18434
G1 X52.008 Y65.000 E2.18919
G1 X51.992 Y65.252 E2.19404
G1 X51.945 Y65.499 E2.19889
G1 X51.867 Y65.739 E2.20374
G1 X51.760 Y65.967 E2.20859
G1 X51.624 Y66.180 E2.21345
G1 X51.464 Y66.374 E2.21830
G1 X51.280 Y66.547 E2.22315
G1 X51.076 Y66.695 E2.22800
G1 X50.855 Y66.817 E2.23285
G1 X50.620 Y66.910 E2.23770
G1 X50.434 Y66.957 E2.24140
G1 X50.328 Y66.719 F6000.000
G1 F1800.000
G1 X50.110 Y66.747 E2.24563
G1 X49.890 Y66.747 E2.24986
G1 X49.672 Y66.719 E2.25408
G1 X49.459 Y66.665 E2.25831
G1 X49.255 Y66.584 E2.26254
G1 X49.062 Y66.478 E2.26677
G1 X48.884 Y66.349 E2.27100
G1 X48.724 Y66.198 E2.27523
G1 X48.584 Y66.029 E2.27946
G1 X48.466 Y65.843 E2.28369
G1 X48.373 Y65.644 E2.28791
G1 X48.305 Y65.435 E2.29214
G1 X48.263 Y65.219 E2.29637
G1 X48.250 Y65.000 E2.30060
G1 X48.263 Y64.781 E2.30483
G1 X48.305 Y64.565 E2.30906
G1 X48.373 Y64.356 E2.31329
G1 X48.466 Y64.157 E2.31751
G1 X48.584 Y63.971 E2.32174
G1 X48.724 Y63.802 E2.32597
G1 X48.884 Y63.651 E2.33020
G1 X49.062 Y63.522 E2.33443
G1 X49.255 Y63.416 E2.33866
G1 X49.459 Y63.335 E2.34289
G1 X49.672 Y63.281 E2.34712
G1 X49.890 Y63.253 E2.35134
G1 X50.110 Y63.253 E2.35557
G1 X50.328 Y63.281 E2.35980
G1 X50.541 Y63.335 E2.36403
G1 X50.745 Y63.416 E2.36826
G1 X50.938 Y63.522 E2.37249
G1 X51.116 Y63.651 E2.37672
G1 X51.276 Y63.802 E2.38094
G1 X51.416 Y63.971 E2.38517
G1 X51.534 Y64.157 E2.38940
G1 X51.627 Y64.356 E2.39363
G1 X51.695 Y64.565 E2.39786
G1 X51.737 Y64.781 E2.40209
G1 X51.750 Y65.000 E2.40632
G1 X51.737 Y65.219 E2.41055
G1 X51.695 Y65.435 E2.41478
G1 X51.627 Y65.644 E2.41900
G1 X51.534 Y65.843 E2.42323
G1 X51.416 Y66.029 E2.42746
G1 X51.276 Y66.198 E2.43169
G1 X51.116 Y66.349 E2.43592
G1 X50.938 Y66.478 E2.44015
G1 X50.745 Y66.584 E2.44438
G1 X50.386 Y66.704 E2.45166
G1 X50.256 Y66.927 F6000.000
G1 E0.45166 F1200.00000
G92 E0
G1 Z0.700 F6000.000
G1 X52.493 Y70.013 F6000.000
G1 Z0.200 F6000.000
G1 E2.00000 F1200.00000
G1 F1800.000
G1 X52.493 Y49.987 E2.38527
G1 X52.512 Y49.686 E2.39108
G1 X52.571 Y49.376 E2.39714
G1 X52.668 Y49.077 E2.40320
G1 X52.802 Y48.792 E2.40926
G1 X52.971 Y48.526 E2.41531
G1 X53.172 Y48.283 E2.42137
G1 X53.401 Y48.068 E2.42743
G1 X53.656 Y47.882 E2.43349
G1 X53.932 Y47.731 E2.43955
G1 X54.225 Y47.615 E2.44561
G1 X54.530 Y47.537 E2.45167
G1 X54.842 Y47.497 E2.45773
G1 X65.158 Y47.497 E2.65617
G1 X65.470 Y47.537 E2.66223
G1 X65.775 Y47.615 E2.66829
G1 X66.068 Y47.731 E2.67435
G1 X66.344 Y47.882 E2.68041
G1 X66.599 Y48.068 E2.68647
G1 X66.828 Y48.283 E2.69253
G1 X67.029 Y48.526 E2.69859
G1 X67.198 Y48.792 E2.70464
G1 X67.332 Y49.077 E2.71070
G1 X67.429 Y49.376 E2.71676
G1 X67.488 Y49.686 E2.72282
G1 X67.507 Y49.987 E2.72863
G1 X67.507 Y70.013 E3.11390
G1 X67.488 Y70.314 E3.11971
G1 X67.429 Y70.624 E3.12577
G1 X67.332 Y70.923 E3.13183
G1 X67.198 Y71.208 E3.13789
G1 X67.029 Y71.474 E3.14395
G1 X66.828 Y71.717 E3.15001
G1 X66.599 Y71.932 E3.15607
G1 X66.344 Y72.117 E3.16213
G1 X66.068 Y72.269 E3.16818
G1 X65.775 Y72.385 E3.17424
G1 X65.470 Y72.463 E3.18030
G1 X65.158 Y72.503 E3.18636
G1 X54.842 Y72.503 E3.38481
G1 X54.530 Y72.463 E3.39087
G1 X54.225 Y72.385 E3.39692
G1 X53.932 Y72.269 E3.40298
G1 X53.656 Y72.117 E3.40904
G1 X53.401 Y71.932 E3.41510
G1 X53.172 Y71.717 E3.42116
G1 X52.971 Y71.474 E3.42722
G1 X52.802 Y71.208 E3.43328
G1 X52.668 Y70.923 E3.43934
G1 X52.571 Y70.624 E3.44540
G1 X52.512 Y70.314 E3.45145
G1 X52.497 Y70.073 E3.45611
G1 X52.750 Y70.005 F6000.000
G1 F1800.000
G1 X52.750 Y49.995 E3.84107
G1 X52.767 Y49.718 E3.84641
G1 X52.820 Y49.440 E3.85185
G1 X52.908 Y49.172 E3.85729
G1 X53.028 Y48.916 E3.86272
G1 X53.180 Y48.677 E3.86816
G1 X53.360 Y48.460 E3.87360
G1 X53.566 Y48.266 E3.87903
G1 X53.794 Y48.100 E3.88447
G1 X54.042 Y47.964 E3.88991
G1 X54.305 Y47.860 E3.89534
G1 X54.578 Y47.790 E3.90078
G1 X54.859 Y47.754 E3.90622
G1 X65.141 Y47.754 E4.10404
G1 X65.422 Y47.790 E4.10948
G1 X65.695 Y47.860 E4.11491
G1 X65.958 Y47.964 E4.12035
G1 X66.206 Y48.100 E4.12579
G1 X66.434 Y48.266 E4.13122
G1 X66.640 Y48.460 E4.13666
G1 X66.820 Y48.677 E4.14210
G1 X66.972 Y48.916 E4.14753
G1 X67.092 Y49.172 E4.15297
G1 X67.180 Y49.440 E4.15841
G1 X67.233 Y49.718 E4.16384
G1 X67.250 Y49.995 E4.16919
G1 X67.250 Y70.005 E4.55414
G1 X67.233 Y70.282 E4.55949
G1 X67.180 Y70.560 E4.56493
G1 X67.092 Y70.828 E4.57036
G1 X66.972 Y71.084 E4.57580
G1 X66.820 Y71.323 E4.58124
G1 X66.640 Y71.540 E4.58667
G1 X66.434 Y71.734 E4.59211
G1 X66.206 Y71.900 E4.59755
G1 X65.958 Y72.036 E4.60298
G1 X65.695 Y72.140 E4.60842
G1 X65.422 Y72.210 E4.61386
G1 X65.141 Y72.246 E4.61929
G1 X54.859 Y72.246 E4.81712
G1 X54.578 Y72.210 E4.82255
G1 X54.305 Y72.140 E4.82799
G1 X54.042 Y72.036 E4.83342
G1 X53.794 Y71.900 E4.83886
G1 X53.566 Y71.734 E4.84430
G1 X53.360 Y71.540 E4.84974
G1 X53.180 Y71.323 E4.85517
G1 X53.028 Y71.084 E4.86061
G1 X52.908 Y70.828 E4.86605
G1 X52.820 Y70.560 E4.87148
G1 X52.767 Y70.282 E4.87692
G1 X52.754 Y70.065 E4.88111
G1 X52.395 Y69.819 F6000.000
G1 E2.88111 F1200.00000
G92 E0
G1 Z0.700 F6000.000
G1 X47.507 Y70.013 F6000.000
G1 Z0.200 F6000.000
G1 E2.00000 F1200.00000
G1 F1800.000
G1 X47.488 Y70.314 E2.00581
G1 X47.429 Y70.624 E2.01187
G1 X47.332 Y70.923 E2.01793
G1 X47.198 Y71.208 E2.02399
G1 X47.029 Y71.474 E2.03005
G1 X46.828 Y71.717 E2.03611
G1 X46.599 Y71.932 E2.04217
G1 X46.344 Y72.117 E2.04823
G1 X46.068 Y72.269 E2.05428
G1 X45.775 Y72.385 E2.06034
G1 X45.470 Y72.463 E2.06640
