; generated by Slic3r 1.3.1-dev (Build (Unknown revision)) on 2020-05-23 at 11:05:22

; external perimeters extrusion width = 0.44mm (2.86mm^3/s)
; perimeters extrusion width = 0.56mm (4.14mm^3/s)
; infill extrusion width = 0.50mm (3.66mm^3/s)
; solid infill extrusion width = 0.56mm (3.10mm^3/s)
; top infill extrusion width = 0.45mm (2.44mm^3/s)

M107
G92 E0
;D3D:START:START
T0
M104 S215 T0

G21
G90
M107
T0
G28
G29
M109 T0 S215 T0
G0 F3000
M107
T0
G92 E0
G0 X0 Y149 Z0.1 F3600
G1 Y49 E6.5 F1200
G0 Z1
G92 E0
; Filament gcode

G21 ; set units to millimeters
G90 ; use absolute coordinates
M82 ; use absolute distances for extrusion
G92 E0
G1 Z0.200 F6000.000
G1 E-2.00000 F1200.00000
G92 E0
G1 Z0.700 F6000.000
G1 X73.275 Y73.527 F6000.000
G1 Z0.200 F6000.000
G1 E2.00000 F1200.00000
G1 F1800.000
G1 X73.657 Y73.173 E2.01001
G1 X73.971 Y72.981 E2.01710
G1 X74.312 Y72.840 E2.02420
G1 X74.809 Y72.741 E2.03395
G1 X75.191 Y72.741 E2.04130
G1 X75.688 Y72.840 E2.05105
G1 X76.041 Y72.986 E2.05840
G1 X76.473 Y73.275 E2.06840
G1 X76.827 Y73.657 E2.07841
G1 X77.019 Y73.971 E2.08550
G1 X77.160 Y74.312 E2.09260
G1 X77.259 Y74.809 E2.10235
G1 X77.259 Y75.191 E2.10970
G1 X77.160 Y75.688 E2.11945
G1 X77.014 Y76.041 E2.12680
G1 X76.725 Y76.473 E2.13681
G1 X76.343 Y76.827 E2.14681
G1 X76.029 Y77.019 E2.15391
G1 X75.688 Y77.160 E2.16100
G1 X75.191 Y77.259 E2.17075
G1 X74.809 Y77.259 E2.17810
G1 X74.312 Y77.160 E2.18785
G1 X73.959 Y77.014 E2.19520
G1 X73.527 Y76.725 E2.20521
G1 X73.173 Y76.343 E2.21521
G1 X72.981 Y76.029 E2.22231
G1 X72.840 Y75.688 E2.22940
G1 X72.741 Y75.191 E2.23916
G1 X72.741 Y74.809 E2.24650
G1 X72.840 Y74.312 E2.25626
G1 X72.986 Y73.959 E2.26360
G1 X73.241 Y73.576 E2.27246
G1 X73.472 Y73.695 F6000.000
G1 F1800.000
G1 X73.813 Y73.379 E2.28139
G1 X74.088 Y73.211 E2.28761
G1 X74.387 Y73.087 E2.29383
G1 X74.834 Y72.998 E2.30260
G1 X75.166 Y72.998 E2.30898
G1 X75.613 Y73.087 E2.31776
G1 X75.919 Y73.214 E2.32413
G1 X76.305 Y73.472 E2.33306
G1 X76.621 Y73.813 E2.34200
G1 X76.789 Y74.088 E2.34822
G1 X76.913 Y74.387 E2.35443
G1 X77.002 Y74.834 E2.36321
G1 X77.002 Y75.166 E2.36959
G1 X76.913 Y75.613 E2.37836
G1 X76.786 Y75.919 E2.38474
G1 X76.528 Y76.305 E2.39367
G1 X76.187 Y76.621 E2.40261
G1 X75.912 Y76.789 E2.40882
G1 X75.613 Y76.913 E2.41504
G1 X75.166 Y77.002 E2.42382
G1 X74.834 Y77.002 E2.43019
G1 X74.387 Y76.913 E2.43897
G1 X74.081 Y76.786 E2.44535
G1 X73.695 Y76.528 E2.45428
G1 X73.379 Y76.187 E2.46321
G1 X73.211 Y75.912 E2.46943
G1 X73.087 Y75.613 E2.47565
G1 X72.998 Y75.166 E2.48443
G1 X72.998 Y74.834 E2.49080
G1 X73.087 Y74.387 E2.49958
G1 X73.214 Y74.081 E2.50595
G1 X73.438 Y73.745 E2.51373
G1 X73.668 Y73.863 F6000.000
G1 F1800.000
G1 X73.969 Y73.585 E2.52159
G1 X74.205 Y73.440 E2.52694
G1 X74.462 Y73.334 E2.53228
G1 X74.860 Y73.255 E2.54008
G1 X75.140 Y73.255 E2.54548
G1 X75.538 Y73.334 E2.55329
G1 X75.797 Y73.441 E2.55868
G1 X76.137 Y73.668 E2.56655
G1 X76.415 Y73.969 E2.57441
G1 X76.560 Y74.205 E2.57975
G1 X76.666 Y74.462 E2.58509
G1 X76.745 Y74.860 E2.59290
G1 X76.745 Y75.140 E2.59829
G1 X76.666 Y75.538 E2.60610
G1 X76.559 Y75.797 E2.61150
G1 X76.332 Y76.137 E2.61936
G1 X76.031 Y76.415 E2.62722
G1 X75.795 Y76.560 E2.63256
G1 X75.538 Y76.666 E2.63790
G1 X75.140 Y76.745 E2.64571
G1 X74.860 Y76.745 E2.65111
G1 X74.462 Y76.666 E2.65891
G1 X74.203 Y76.559 E2.66431
G1 X73.863 Y76.332 E2.67217
G1 X73.585 Y76.031 E2.68003
G1 X73.440 Y75.795 E2.68538
G1 X73.334 Y75.538 E2.69072
G1 X73.255 Y75.140 E2.69852
G1 X73.255 Y74.860 E2.70392
G1 X73.334 Y74.462 E2.71172
G1 X73.441 Y74.203 E2.71712
G1 X73.635 Y73.913 E2.72383
G1 X73.540 Y73.484 F6000.000
G1 E0.72383 F1200.00000
G92 E0
G1 Z0.700 F6000.000
G1 X69.132 Y69.988 F6000.000
G1 Z0.200 F6000.000
G1 E2.00000 F1200.00000
G1 F1800.000
G1 X69.543 Y69.543 E2.01166
G1 X69.988 Y69.132 E2.02332
G1 X70.464 Y68.756 E2.03497
G1 X70.968 Y68.420 E2.04663
G1 X71.496 Y68.124 E2.05829
G1 X72.047 Y67.870 E2.06995
G1 X72.615 Y67.660 E2.08161
G1 X73.198 Y67.496 E2.09326
G1 X73.793 Y67.378 E2.10492
G1 X74.394 Y67.306 E2.11658
G1 X75.000 Y67.283 E2.12824
G1 X75.606 Y67.306 E2.13990
G1 X76.207 Y67.378 E2.15156
G1 X76.802 Y67.496 E2.16321
G1 X77.385 Y67.660 E2.17487
G1 X77.953 Y67.870 E2.18653
G1 X78.504 Y68.124 E2.19819
G1 X79.032 Y68.420 E2.20985
G1 X79.536 Y68.756 E2.22150
G1 X80.012 Y69.132 E2.23316
G1 X80.457 Y69.543 E2.24482
G1 X80.868 Y69.988 E2.25648
G1 X81.244 Y70.464 E2.26814
G1 X81.580 Y70.968 E2.27979
G1 X81.876 Y71.496 E2.29145
G1 X82.130 Y72.047 E2.30311
G1 X82.340 Y72.615 E2.31477
G1 X82.504 Y73.198 E2.32643
G1 X82.622 Y73.793 E2.33808
G1 X82.694 Y74.394 E2.34974
G1 X82.717 Y75.000 E2.36140
G1 X82.694 Y75.606 E2.37306
G1 X82.622 Y76.207 E2.38472
G1 X82.504 Y76.802 E2.39638
G1 X82.340 Y77.385 E2.40803
G1 X82.130 Y77.953 E2.41969
G1 X81.876 Y78.504 E2.43135
G1 X81.580 Y79.032 E2.44301
G1 X81.244 Y79.536 E2.45467
G1 X80.868 Y80.012 E2.46632
G1 X80.457 Y80.457 E2.47798
G1 X80.012 Y80.868 E2.48964
G1 X79.536 Y81.244 E2.50130
G1 X79.032 Y81.580 E2.51296
G1 X78.504 Y81.876 E2.52461
G1 X77.953 Y82.130 E2.53627
G1 X77.385 Y82.340 E2.54793
G1 X76.802 Y82.504 E2.55959
G1 X76.207 Y82.622 E2.57125
G1 X75.606 Y82.694 E2.58290
G1 X75.000 Y82.717 E2.59456
G1 X74.394 Y82.694 E2.60622
G1 X73.793 Y82.622 E2.61788
G1 X73.198 Y82.504 E2.62954
G1 X72.615 Y82.340 E2.64120
G1 X72.047 Y82.130 E2.65285
G1 X71.496 Y81.876 E2.66451
G1 X70.968 Y81.580 E2.67617
G1 X70.464 Y81.244 E2.68783
G1 X69.988 Y80.868 E2.69949
G1 X69.543 Y80.457 E2.71114
G1 X69.132 Y80.012 E2.72280
G1 X68.756 Y79.536 E2.73446
G1 X68.420 Y79.032 E2.74612
G1 X68.124 Y78.504 E2.75778
G1 X67.870 Y77.953 E2.76943
G1 X67.660 Y77.385 E2.78109
G1 X67.496 Y76.802 E2.79275
G1 X67.378 Y76.207 E2.80441
G1 X67.306 Y75.606 E2.81607
G1 X67.283 Y75.000 E2.82772
G1 X67.306 Y74.394 E2.83938
G1 X67.378 Y73.793 E2.85104
G1 X67.496 Y73.198 E2.86270
G1 X67.660 Y72.615 E2.87436
G1 X67.870 Y72.047 E2.88602
G1 X68.124 Y71.496 E2.89767
G1 X68.420 Y70.968 E2.90933
G1 X68.756 Y70.464 E2.92099
G1 X69.094 Y70.035 E2.93149
G1 X68.936 Y69.821 F6000.000
G1 F1800.000
G1 X69.361 Y69.361 E2.94354
G1 X69.821 Y68.936 E2.95559
G1 X70.313 Y68.548 E2.96763
G1 X70.833 Y68.200 E2.97968
G1 X71.380 Y67.894 E2.99173
G1 X71.948 Y67.632 E3.00377
G1 X72.536 Y67.416 E3.01582
G1 X73.138 Y67.246 E3.02787
G1 X73.752 Y67.123 E3.03991
G1 X74.374 Y67.050 E3.05196
G1 X75.000 Y67.025 E3.06401
G1 X75.626 Y67.050 E3.07605
G1 X76.248 Y67.123 E3.08810
G1 X76.862 Y67.246 E3.10015
G1 X77.464 Y67.416 E3.11219
G1 X78.052 Y67.632 E3.12424
G1 X78.620 Y67.894 E3.13629
G1 X79.167 Y68.200 E3.14833
G1 X79.687 Y68.548 E3.16038
G1 X80.179 Y68.936 E3.17243
G1 X80.639 Y69.361 E3.18447
G1 X81.064 Y69.821 E3.19652
G1 X81.452 Y70.313 E3.20857
G1 X81.800 Y70.833 E3.22061
G1 X82.106 Y71.380 E3.23266
G1 X82.368 Y71.948 E3.24471
G1 X82.584 Y72.536 E3.25676
G1 X82.754 Y73.138 E3.26880
G1 X82.877 Y73.752 E3.28085
G1 X82.950 Y74.374 E3.29290
G1 X82.975 Y75.000 E3.30494
G1 X82.950 Y75.626 E3.31699
G1 X82.877 Y76.248 E3.32904
G1 X82.754 Y76.862 E3.34108
G1 X82.584 Y77.464 E3.35313
G1 X82.368 Y78.052 E3.36518
G1 X82.106 Y78.620 E3.37722
G1 X81.800 Y79.167 E3.38927
G1 X81.452 Y79.687 E3.40132
G1 X81.064 Y80.179 E3.41336
G1 X80.639 Y80.639 E3.42541
G1 X80.179 Y81.064 E3.43746
G1 X79.687 Y81.452 E3.44950
G1 X79.167 Y81.800 E3.46155
G1 X78.620 Y82.106 E3.47360
G1 X78.052 Y82.368 E3.48564
G1 X77.464 Y82.584 E3.49769
G1 X76.862 Y82.754 E3.50974
G1 X76.248 Y82.877 E3.52178
G1 X75.626 Y82.950 E3.53383
G1 X75.000 Y82.975 E3.54588
G1 X74.374 Y82.950 E3.55792
G1 X73.752 Y82.877 E3.56997
G1 X73.138 Y82.754 E3.58202
G1 X72.536 Y82.584 E3.59406
G1 X71.948 Y82.368 E3.60611
G1 X71.380 Y82.106 E3.61816
G1 X70.833 Y81.800 E3.63020
G1 X70.313 Y81.452 E3.64225
G1 X69.821 Y81.064 E3.65430
G1 X69.361 Y80.639 E3.66634
G1 X68.936 Y80.179 E3.67839
G1 X68.548 Y79.687 E3.69044
G1 X68.200 Y79.167 E3.70248
G1 X67.894 Y78.620 E3.71453
G1 X67.632 Y78.052 E3.72658
G1 X67.416 Y77.464 E3.73862
G1 X67.246 Y76.862 E3.75067
G1 X67.123 Y76.248 E3.76272
G1 X67.050 Y75.626 E3.77476
G1 X67.025 Y75.000 E3.78681
G1 X67.050 Y74.374 E3.79886
G1 X67.123 Y73.752 E3.81091
G1 X67.246 Y73.138 E3.82295
G1 X67.416 Y72.536 E3.83500
G1 X67.632 Y71.948 E3.84705
G1 X67.894 Y71.380 E3.85909
G1 X68.200 Y70.833 E3.87114
G1 X68.548 Y70.313 E3.88319
G1 X68.899 Y69.868 E3.89408
G1 X68.740 Y69.654 F6000.000
G1 F1800.000
G1 X69.179 Y69.179 E3.90651
G1 X69.654 Y68.740 E3.91895
G1 X70.161 Y68.340 E3.93138
G1 X70.699 Y67.981 E3.94382
G1 X71.263 Y67.665 E3.95625
G1 X71.850 Y67.395 E3.96869
G1 X72.456 Y67.171 E3.98113
G1 X73.078 Y66.995 E3.99356
G1 X73.712 Y66.869 E4.00600
G1 X74.354 Y66.793 E4.01843
G1 X75.000 Y66.768 E4.03087
G1 X75.646 Y66.793 E4.04330
G1 X76.288 Y66.869 E4.05574
G1 X76.922 Y66.995 E4.06817
G1 X77.544 Y67.171 E4.08061
G1 X78.150 Y67.395 E4.09304
G1 X78.737 Y67.665 E4.10548
G1 X79.301 Y67.981 E4.11791
G1 X79.839 Y68.340 E4.13035
G1 X80.346 Y68.740 E4.14279
G1 X80.821 Y69.179 E4.15522
G1 X81.260 Y69.654 E4.16766
G1 X81.660 Y70.161 E4.18009
G1 X82.019 Y70.699 E4.19253
G1 X82.335 Y71.263 E4.20496
G1 X82.605 Y71.850 E4.21740
G1 X82.829 Y72.456 E4.22983
G1 X83.005 Y73.078 E4.24227
G1 X83.131 Y73.712 E4.25470
G1 X83.207 Y74.354 E4.26714
G1 X83.232 Y75.000 E4.27957
G1 X83.207 Y75.646 E4.29201
G1 X83.131 Y76.288 E4.30445
G1 X83.005 Y76.922 E4.31688
G1 X82.829 Y77.544 E4.32932
G1 X82.605 Y78.150 E4.34175
G1 X82.335 Y78.737 E4.35419
G1 X82.019 Y79.301 E4.36662
G1 X81.660 Y79.839 E4.37906
G1 X81.260 Y80.346 E4.39149
G1 X80.821 Y80.821 E4.40393
G1 X80.346 Y81.260 E4.41636
G1 X79.839 Y81.660 E4.42880
G1 X79.301 Y82.019 E4.44123
G1 X78.737 Y82.335 E4.45367
G1 X78.150 Y82.605 E4.46611
G1 X77.544 Y82.829 E4.47854
G1 X76.922 Y83.005 E4.49098
G1 X76.288 Y83.131 E4.50341
G1 X75.646 Y83.207 E4.51585
G1 X75.000 Y83.232 E4.52828
G1 X74.354 Y83.207 E4.54072
G1 X73.712 Y83.131 E4.55315
G1 X73.078 Y83.005 E4.56559
G1 X72.456 Y82.829 E4.57802
G1 X71.850 Y82.605 E4.59046
G1 X71.263 Y82.335 E4.60289
G1 X70.699 Y82.019 E4.61533
G1 X70.161 Y81.660 E4.62777
G1 X69.654 Y81.260 E4.64020
G1 X69.179 Y80.821 E4.65264
G1 X68.740 Y80.346 E4.66507
G1 X68.340 Y79.839 E4.67751
G1 X67.981 Y79.301 E4.68994
G1 X67.665 Y78.737 E4.70238
G1 X67.395 Y78.150 E4.71481
G1 X67.171 Y77.544 E4.72725
G1 X66.995 Y76.922 E4.73968
G1 X66.869 Y76.288 E4.75212
G1 X66.793 Y75.646 E4.76455
G1 X66.768 Y75.000 E4.77699
G1 X66.793 Y74.354 E4.78943
G1 X66.869 Y73.712 E4.80186
G1 X66.995 Y73.078 E4.81430
G1 X67.171 Y72.456 E4.82673
G1 X67.395 Y71.850 E4.83917
G1 X67.665 Y71.263 E4.85160
G1 X67.981 Y70.699 E4.86404
G1 X68.340 Y70.161 E4.87647
G1 X68.703 Y69.701 E4.88775
G1 X69.134 Y69.727 F6000.000
G1 X69.836 Y69.614 F6000.000
G1 F1800.000
G1 X69.218 Y70.264 E4.90503
G1 X68.855 Y70.724 E4.91630
G1 X68.438 Y71.376 E4.93121
G1 X71.376 Y68.438 E5.01119
G1 X71.722 Y68.244 E5.01884
G1 X72.114 Y68.063 E5.02715
G1 X68.063 Y72.114 E5.13745
G1 X67.830 Y72.711 E5.14978
G1 X72.711 Y67.830 E5.28268
G1 X73.229 Y67.676 E5.29308
G1 X67.676 Y73.229 E5.44427
G1 X67.571 Y73.698 E5.45351
G1 X73.698 Y67.571 E5.62031
G1 X74.133 Y67.500 E5.62879
G1 X67.500 Y74.133 E5.80936
G1 X67.453 Y74.543 E5.81733
G1 X74.543 Y67.453 E6.01037
G1 X74.922 Y67.438 E6.01766
G1 X67.438 Y74.922 E6.22142
G1 X67.438 Y75.286 E6.22843
G1 X75.286 Y67.438 E6.44211
G1 X75.636 Y67.451 E6.44885
G1 X67.451 Y75.636 E6.67169
G1 X67.486 Y75.966 E6.67806
G1 X75.966 Y67.486 E6.90893
G1 X76.290 Y67.525 E6.91522
G1 X67.525 Y76.290 E7.15384
G1 X67.586 Y76.594 E7.15980
G1 X76.594 Y67.586 E7.40504
G1 X76.894 Y67.649 E7.41095
G1 X67.649 Y76.894 E7.66264
G1 X67.729 Y77.178 E7.66831
G1 X77.178 Y67.729 E7.92555
G1 X77.459 Y67.812 E7.93119
G1 X67.812 Y77.459 E8.19381
G1 X67.910 Y77.724 E8.19927
G1 X77.724 Y67.910 E8.46646
G1 X77.988 Y68.010 E8.47189
G1 X68.010 Y77.988 E8.74356
G1 X68.125 Y78.237 E8.74884
G1 X78.237 Y68.125 E9.02416
G1 X78.486 Y68.239 E9.02943
G1 X73.951 Y72.775 E9.15291
G1 X74.128 Y72.702 E9.15659
G1 X74.453 Y72.637 E9.16297
G1 X78.720 Y68.369 E9.27915
G1 X78.953 Y68.500 E9.28430
G1 X74.861 Y72.593 E9.39572
G1 X75.107 Y72.593 E9.40047
G1 X75.205 Y72.612 E9.40239
G1 X79.175 Y68.642 E9.51047
G1 X79.393 Y68.788 E9.51552
G1 X75.508 Y72.673 E9.62128
G1 X75.654 Y72.702 E9.62414
G1 X75.788 Y72.757 E9.62693
G1 X79.603 Y68.942 E9.73080
G1 X79.807 Y69.102 E9.73579
G1 X76.045 Y72.864 E9.83820
G1 X76.264 Y73.008 E9.84325
G1 X80.006 Y69.266 E9.94512
G1 X80.195 Y69.441 E9.95008
G1 X76.483 Y73.154 E10.05115
G1 X76.667 Y73.333 E10.05611
G1 X80.384 Y69.616 E10.15730
G1 X80.559 Y69.805 E10.16226
G1 X76.842 Y73.522 E10.26345
G1 X76.923 Y73.610 E10.26576
G1 X76.997 Y73.730 E10.26848
G1 X80.734 Y69.994 E10.37021
G1 X80.898 Y70.193 E10.37519
G1 X77.135 Y73.956 E10.47762
G1 X77.243 Y74.212 E10.48297
G1 X81.058 Y70.397 E10.58685
G1 X81.212 Y70.607 E10.59186
G1 X77.327 Y74.492 E10.69762
G1 X77.388 Y74.795 E10.70357
G1 X81.358 Y70.825 E10.81166
G1 X81.500 Y71.047 E10.81673
G1 X77.407 Y75.139 E10.92815
G1 X77.407 Y75.325 E10.93173
G1 X77.363 Y75.547 E10.93609
G1 X81.631 Y71.280 E11.05227
G1 X81.761 Y71.514 E11.05742
G1 X77.225 Y76.049 E11.18090
G1 E9.18090 F1200.00000
G92 E0
G1 Z0.700 F6000.000
G1 X72.775 Y73.951 F6000.000
G1 Z0.200 F6000.000
G1 E2.00000 F1200.00000
G1 F1800.000
G1 X68.239 Y78.486 E2.12347
G1 X68.369 Y78.720 E2.12862
G1 X72.637 Y74.453 E2.24481
G1 X72.593 Y74.675 E2.24916
G1 X72.593 Y74.861 E2.25275
G1 X68.500 Y78.953 E2.36417
G1 X68.642 Y79.175 E2.36924
G1 X72.612 Y75.205 E2.47732
G1 X72.673 Y75.508 E2.48328
G1 X68.788 Y79.393 E2.58904
G1 X68.942 Y79.603 E2.59405
G1 X72.757 Y75.788 E2.69792
G1 X72.865 Y76.044 E2.70327
G1 X69.102 Y79.807 E2.80571
G1 X69.266 Y80.006 E2.81069
G1 X73.003 Y76.270 E2.91241
G1 X73.077 Y76.390 E2.91513
G1 X73.158 Y76.478 E2.91744
G1 X69.441 Y80.195 E3.01864
G1 X69.616 Y80.384 E3.02359
G1 X73.333 Y76.667 E3.12479
G1 X73.517 Y76.846 E3.12974
G1 X69.805 Y80.559 E3.23082
G1 X69.994 Y80.734 E3.23577
G1 X73.736 Y76.992 E3.33764
G1 X73.955 Y77.136 E3.34270
G1 X70.193 Y80.898 E3.44511
G1 X70.397 Y81.058 E3.45009
G1 X74.212 Y77.243 E3.55397
G1 X74.346 Y77.298 E3.55676
G1 X74.492 Y77.327 E3.55962
G1 X70.607 Y81.212 E3.66538
G1 X70.825 Y81.358 E3.67042
G1 X74.795 Y77.388 E3.77851
G1 X74.893 Y77.407 E3.78043
G1 X75.139 Y77.407 E3.78517
G1 X71.047 Y81.500 E3.89660
G1 X71.280 Y81.631 E3.90174
G1 X75.547 Y77.363 E4.01793
G1 X75.872 Y77.298 E4.02430
G1 X76.049 Y77.225 E4.02799
G1 X71.514 Y81.761 E4.15146
G1 X71.763 Y81.875 E4.15674
G1 X81.875 Y71.763 E4.43206
G1 X81.990 Y72.012 E4.43734
G1 X72.012 Y81.990 E4.70901
G1 X72.276 Y82.090 E4.71444
G1 X82.090 Y72.276 E4.98163
G1 X82.188 Y72.542 E4.98708
G1 X72.542 Y82.188 E5.24971
G1 X72.822 Y82.271 E5.25534
G1 X82.271 Y72.822 E5.51258
G1 X82.351 Y73.106 E5.51826
G1 X73.106 Y82.351 E5.76995
G1 X73.406 Y82.414 E5.77586
G1 X82.414 Y73.406 E6.02110
G1 X82.475 Y73.710 E6.02705
G1 X73.710 Y82.475 E6.26567
G1 X74.034 Y82.514 E6.27196
G1 X82.514 Y74.034 E6.50283
G1 X82.549 Y74.364 E6.50921
G1 X74.364 Y82.549 E6.73204
G1 X74.714 Y82.562 E6.73878
G1 X82.562 Y74.714 E6.95246
G1 X82.562 Y75.078 E6.95947
G1 X75.078 Y82.562 E7.16323
G1 X75.457 Y82.547 E7.17052
G1 X82.547 Y75.457 E7.36356
G1 X82.500 Y75.867 E7.37153
G1 X75.867 Y82.500 E7.55210
G1 X76.302 Y82.429 E7.56058
G1 X82.429 Y76.302 E7.72738
G1 X82.324 Y76.771 E7.73662
G1 X76.771 Y82.324 E7.88780
G1 X77.289 Y82.170 E7.89821
G1 X82.170 Y77.289 E8.03110
G1 X81.937 Y77.886 E8.04343
G1 X77.886 Y81.937 E8.15373
G1 X78.278 Y81.756 E8.16204
G1 X78.624 Y81.562 E8.16969
G1 X81.562 Y78.624 E8.24967
G1 X81.145 Y79.276 E8.26457
G1 X80.782 Y79.736 E8.27585
G1 X80.164 Y80.386 E8.29311
G1 Z0.400 F6000.000
G1 E6.29311 F1200.00000
G92 E0
G1 Z0.900 F6000.000
G1 X72.869 Y73.180 F6000.000
G1 Z0.400 F6000.000
G1 E2.00000 F1200.00000
G1 F1800.000
G1 X73.335 Y72.749 E2.02458
G1 X73.730 Y72.507 E2.04248
G1 X74.157 Y72.330 E2.06038
G1 X74.757 Y72.211 E2.08404
G1 X75.243 Y72.211 E2.10286
G1 X75.843 Y72.330 E2.12651
G1 X76.292 Y72.516 E2.14533
G1 X76.820 Y72.869 E2.16990
G1 X77.251 Y73.335 E2.19448
G1 X77.493 Y73.730 E2.21238
G1 X77.670 Y74.157 E2.23029
G1 X77.789 Y74.757 E2.25394
G1 X77.789 Y75.243 E2.27276
