; generated by Slic3r 1.3.0 on 2020-05-05 at 09:29:49

; external perimeters extrusion width = 0.44mm (2.86mm^3/s)
; perimeters extrusion width = 0.56mm (4.14mm^3/s)
; infill extrusion width = 0.50mm (5.48mm^3/s)
; solid infill extrusion width = 0.56mm (3.10mm^3/s)
; top infill extrusion width = 0.45mm (2.44mm^3/s)

M107
;D3D:START:START
T0
M104 S215 T0

G21
G90
M107
T0
G28
G29
M109 T0 S215 T0
G0 F3000
M107
T0
G92 E0
G0 X0 Y149 Z0.1 F3600
G1 Y49 E6.5 F1200
G0 Z1
G92 E0
; Filament gcode

G21 ; set units to millimeters
G90 ; use absolute coordinates
M82 ; use absolute distances for extrusion
G92 E0
G1 Z0.200 F6000.000
G1 E-2.00000 F1200.00000
G92 E0
G1 X60.624 Y66.928 F6000.000
G1 E2.00000 F1200.00000
G1 F1800
G1 X62.267 Y65.995 E2.03636
G1 X63.625 Y65.786 E2.06279
G1 X86.375 Y65.786 E2.50047
G1 X88.223 Y66.181 E2.53682
G1 X89.747 Y67.299 E2.57318
G1 X90.680 Y68.942 E2.60954
G1 X90.889 Y70.300 E2.63597
G1 X90.889 Y75.500 E2.73601
G1 X90.494 Y77.348 E2.77237
G1 X89.376 Y78.872 E2.80872
G1 X87.999 Y79.712 E2.83975
G1 X77.486 Y83.765 E3.05652
G1 X77.064 Y83.907 E3.06510
G1 X76.472 Y84.059 E3.07685
G1 X75.751 Y84.174 E3.09089
G1 X75.142 Y84.212 E3.10264
G1 X74.412 Y84.189 E3.11669
G1 X73.966 Y84.138 E3.12532
G1 X73.369 Y84.024 E3.13702
G1 X72.669 Y83.821 E3.15104
G1 X62.001 Y79.712 E3.37098
G1 X60.419 Y78.678 E3.40733
G1 X59.399 Y77.087 E3.44369
G1 X59.111 Y75.500 E3.47472
G1 X59.111 Y70.300 E3.57476
G1 X59.506 Y68.452 E3.61112
G1 X60.588 Y66.976 E3.64632
G1 X60.876 Y67.050 F6000.000
G1 F1800
G1 X62.499 Y66.195 E3.68162
G1 X63.625 Y66.043 E3.70348
G1 X86.375 Y66.043 E4.14116
G1 X88.166 Y66.438 E4.17645
G1 X89.625 Y67.551 E4.21175
G1 X90.480 Y69.174 E4.24704
G1 X90.632 Y70.300 E4.26890
G1 X90.632 Y75.500 E4.36894
G1 X90.237 Y77.291 E4.40424
G1 X89.124 Y78.750 E4.43953
G1 X87.907 Y79.472 E4.46676
G1 X77.246 Y83.578 E4.68656
G1 X76.834 Y83.706 E4.69485
G1 X76.153 Y83.859 E4.70827
G1 X75.727 Y83.918 E4.71655
G1 X75.134 Y83.955 E4.72799
G1 X74.436 Y83.933 E4.74141
G1 X74.007 Y83.884 E4.74973
G1 X73.425 Y83.773 E4.76113
G1 X72.756 Y83.579 E4.77453
G1 X62.093 Y79.472 E4.99435
G1 X60.564 Y78.459 E5.02964
G1 X59.603 Y76.896 E5.06494
G1 X59.368 Y75.500 E5.09217
G1 X59.368 Y70.300 E5.19221
G1 X59.763 Y68.509 E5.22750
G1 X60.839 Y67.097 E5.26165
G1 E3.26165 F1200.00000
G92 E0
G1 X76.281 Y78.648 F6000.000
G1 E2.00000 F1200.00000
G1 F1800
G1 X75.968 Y78.860 E2.00727
G1 X75.627 Y79.008 E2.01442
G1 X75.376 Y79.072 E2.01940
G1 X75.120 Y79.105 E2.02437
G1 X74.748 Y79.093 E2.03152
G1 X74.379 Y79.011 E2.03880
G1 X74.032 Y78.860 E2.04607
G1 X73.719 Y78.648 E2.05335
G1 X73.452 Y78.381 E2.06062
G1 X73.240 Y78.068 E2.06790
G1 X73.092 Y77.727 E2.07505
G1 X73.028 Y77.476 E2.08002
G1 X72.995 Y77.220 E2.08500
G1 X73.007 Y76.848 E2.09215
G1 X73.089 Y76.479 E2.09942
G1 X73.237 Y76.138 E2.10657
G1 X73.376 Y75.920 E2.11154
G1 X73.540 Y75.721 E2.11652
G1 X73.819 Y75.475 E2.12367
G1 X74.145 Y75.282 E2.13094
G1 X74.500 Y75.154 E2.13822
G1 X74.874 Y75.095 E2.14549
G1 X75.252 Y75.107 E2.15277
G1 X75.621 Y75.189 E2.16004
G1 X75.968 Y75.340 E2.16732
G1 X76.281 Y75.552 E2.17459
G1 X76.548 Y75.819 E2.18186
G1 X76.760 Y76.132 E2.18914
G1 X76.908 Y76.473 E2.19629
G1 X76.972 Y76.724 E2.20126
G1 X77.005 Y76.980 E2.20624
G1 X76.993 Y77.352 E2.21339
G1 X76.911 Y77.721 E2.22066
G1 X76.760 Y78.068 E2.22794
G1 X76.548 Y78.381 E2.23521
G1 X76.323 Y78.605 E2.24133
G1 X76.116 Y78.449 F6000.000
G1 F1800
G1 X75.843 Y78.634 E2.24767
G1 X75.543 Y78.764 E2.25396
G1 X75.328 Y78.819 E2.25824
G1 X75.108 Y78.847 E2.26251
G1 X74.781 Y78.837 E2.26881
G1 X74.459 Y78.765 E2.27515
G1 X74.157 Y78.634 E2.28148
G1 X73.884 Y78.449 E2.28782
G1 X73.651 Y78.216 E2.29416
G1 X73.466 Y77.943 E2.30050
G1 X73.336 Y77.643 E2.30680
G1 X73.281 Y77.428 E2.31107
G1 X73.253 Y77.208 E2.31534
G1 X73.263 Y76.881 E2.32164
G1 X73.335 Y76.559 E2.32798
G1 X73.465 Y76.259 E2.33427
G1 X73.584 Y76.071 E2.33854
G1 X73.726 Y75.900 E2.34282
G1 X73.971 Y75.684 E2.34911
G1 X74.255 Y75.516 E2.35545
G1 X74.565 Y75.404 E2.36179
G1 X74.890 Y75.353 E2.36813
G1 X75.219 Y75.363 E2.37447
G1 X75.541 Y75.435 E2.38081
G1 X75.843 Y75.566 E2.38715
G1 X76.116 Y75.751 E2.39349
G1 X76.349 Y75.984 E2.39983
G1 X76.534 Y76.257 E2.40617
G1 X76.664 Y76.557 E2.41246
G1 X76.719 Y76.772 E2.41673
G1 X76.747 Y76.992 E2.42101
G1 X76.737 Y77.319 E2.42730
G1 X76.665 Y77.641 E2.43364
G1 X76.534 Y77.943 E2.43998
G1 X76.349 Y78.216 E2.44632
G1 X76.158 Y78.406 E2.45150
G1 X76.171 Y78.774 F6000.000
G1 X76.968 Y78.412 F6000.000
G1 F1800
G1 X76.897 Y78.324 E2.45369
G1 X76.987 Y78.192 E2.45674
G1 X77.156 Y77.801 E2.46495
G1 X77.249 Y77.384 E2.47316
G1 X77.262 Y76.968 E2.48117
G1 X77.225 Y76.675 E2.48684
G1 X77.152 Y76.390 E2.49252
G1 X76.987 Y76.008 E2.50052
G1 X76.747 Y75.655 E2.50873
G1 X76.445 Y75.353 E2.51694
G1 X76.092 Y75.113 E2.52515
G1 X75.701 Y74.944 E2.53336
G1 X75.284 Y74.851 E2.54157
G1 X74.858 Y74.837 E2.54978
G1 X74.436 Y74.904 E2.55799
G1 X74.035 Y75.049 E2.56620
G1 X73.667 Y75.266 E2.57441
G1 X73.355 Y75.541 E2.58242
G1 X73.167 Y75.768 E2.58809
G1 X73.009 Y76.017 E2.59377
G1 X72.844 Y76.399 E2.60177
G1 X72.751 Y76.816 E2.60998
G1 X72.738 Y77.232 E2.61799
G1 X72.775 Y77.525 E2.62366
G1 X72.848 Y77.810 E2.62934
G1 X73.013 Y78.192 E2.63735
G1 X73.106 Y78.328 E2.64051
G1 X73.035 Y78.417 E2.64269
G1 X64.289 Y75.044 E2.82303
G1 X64.289 Y70.964 E2.90153
G1 X85.711 Y70.964 E3.31365
G1 X85.711 Y75.044 E3.39215
G1 X77.024 Y78.391 E3.57124
G1 E1.57124 F1200.00000
G92 E0
G1 X85.968 Y75.221 F6000.000
G1 E2.00000 F1200.00000
G1 F1800
G1 X75.679 Y79.184 E2.21212
G1 X75.411 Y79.253 E2.21745
G1 X75.138 Y79.288 E2.22275
G1 X74.869 Y79.288 E2.22792
G1 X74.449 Y79.221 E2.23610
G1 X74.179 Y79.134 E2.24156
G1 X64.032 Y75.221 E2.45079
G1 X64.032 Y70.707 E2.53762
G1 X85.968 Y70.707 E2.95964
G1 X85.968 Y75.161 E3.04532
G1 X86.225 Y75.397 F6000.000
G1 F1800
G1 X75.758 Y79.430 E3.26112
G1 X75.459 Y79.506 E3.26705
G1 X75.154 Y79.545 E3.27297
G1 X74.849 Y79.545 E3.27884
G1 X74.389 Y79.472 E3.28780
G1 X74.093 Y79.376 E3.29378
G1 X63.775 Y75.397 E3.50654
G1 X63.775 Y70.450 E3.60171
G1 X86.225 Y70.450 E4.03362
G1 X86.225 Y75.337 E4.12764
G1 X85.831 Y75.466 F6000.000
G1 X85.344 Y74.977 F6000.000
G1 F1800
G1 X85.563 Y74.758 E4.13363
G1 X85.563 Y74.392 E4.14073
G1 X84.748 Y75.207 E4.16307
G1 X84.152 Y75.436 E4.17546
G1 X85.563 Y74.026 E4.21415
G1 X85.563 Y73.659 E4.22125
G1 X83.556 Y75.666 E4.27629
G1 X82.960 Y75.896 E4.28868
G1 X85.563 Y73.293 E4.36007
G1 X85.563 Y72.926 E4.36717
G1 X82.364 Y76.125 E4.45491
G1 X81.768 Y76.355 E4.46730
G1 X85.563 Y72.560 E4.57138
G1 X85.563 Y72.193 E4.57849
G1 X81.172 Y76.585 E4.69892
G1 X80.575 Y76.814 E4.71131
G1 X85.563 Y71.827 E4.84809
G1 X85.563 Y71.460 E4.85520
G1 X79.979 Y77.044 E5.00833
G1 X79.383 Y77.274 E5.02072
G1 X85.544 Y71.112 E5.18970
G1 X85.178 Y71.112 E5.19680
G1 X78.787 Y77.503 E5.37208
G1 X78.191 Y77.733 E5.38447
G1 X84.811 Y71.112 E5.56604
G1 X84.445 Y71.112 E5.57315
G1 X77.595 Y77.962 E5.76102
G1 X77.451 Y78.018 E5.76400
G1 X77.470 Y77.959 E5.76519
G1 X77.311 Y77.907 E5.76844
G1 X77.319 Y77.872 E5.76915
G1 X84.079 Y71.112 E5.95453
G1 X83.712 Y71.112 E5.96164
G1 X77.400 Y77.425 E6.13476
G1 X77.409 Y77.049 E6.14205
G1 X83.346 Y71.112 E6.30487
G1 X82.979 Y71.112 E6.31198
G1 X77.366 Y76.725 E6.46591
G1 X77.291 Y76.433 E6.47175
G1 X82.613 Y71.112 E6.61768
G1 X82.246 Y71.112 E6.62479
G1 X77.183 Y76.175 E6.76365
G1 X77.062 Y75.930 E6.76895
G1 X81.880 Y71.112 E6.90109
G1 X81.513 Y71.112 E6.90819
G1 X76.913 Y75.712 E7.03435
G1 X76.748 Y75.511 E7.03940
G1 X81.147 Y71.112 E7.16003
G1 X80.780 Y71.112 E7.16714
G1 X76.565 Y75.328 E7.28274
G1 X76.359 Y75.167 E7.28781
G1 X80.414 Y71.112 E7.39901
G1 X80.047 Y71.112 E7.40612
G1 X76.141 Y75.019 E7.51326
G1 X75.891 Y74.902 E7.51861
G1 X79.681 Y71.112 E7.62255
G1 X79.314 Y71.112 E7.62966
G1 X75.629 Y74.798 E7.73074
G1 X75.329 Y74.731 E7.73669
G1 X78.948 Y71.112 E7.83594
G1 X78.581 Y71.112 E7.84304
G1 X74.997 Y74.697 E7.94136
G1 X74.732 Y74.689 E7.94648
G1 X74.621 Y74.706 E7.94868
G1 X78.215 Y71.112 E8.04725
G1 X77.848 Y71.112 E8.05436
G1 X74.161 Y74.800 E8.15549
G1 X73.816 Y74.924 E8.16261
G1 X73.459 Y75.135 E8.17063
G1 X77.482 Y71.112 E8.28096
G1 X77.116 Y71.112 E8.28806
G1 X70.798 Y77.430 E8.46133
G1 X70.533 Y77.328 E8.46683
G1 X76.749 Y71.112 E8.63729
G1 X76.383 Y71.112 E8.64440
G1 X70.269 Y77.226 E8.81207
G1 X70.004 Y77.124 E8.81757
G1 X76.016 Y71.112 E8.98244
G1 X75.650 Y71.112 E8.98954
G1 X69.740 Y77.022 E9.15162
G1 X69.475 Y76.920 E9.15712
G1 X75.283 Y71.112 E9.31639
G1 X74.917 Y71.112 E9.32350
G1 X69.211 Y76.818 E9.47998
G1 X68.946 Y76.716 E9.48548
G1 X74.550 Y71.112 E9.63916
G1 X74.184 Y71.112 E9.64627
G1 X68.682 Y76.614 E9.79716
G1 X68.418 Y76.512 E9.80265
G1 X73.817 Y71.112 E9.95074
G1 X73.451 Y71.112 E9.95785
G1 X68.153 Y76.410 E10.10314
G1 X67.889 Y76.308 E10.10864
G1 X73.084 Y71.112 E10.25113
G1 X72.718 Y71.112 E10.25824
G1 X67.624 Y76.206 E10.39794
G1 X67.360 Y76.104 E10.40344
G1 X72.351 Y71.112 E10.54034
G1 X71.985 Y71.112 E10.54744
G1 X67.095 Y76.002 E10.68155
G1 X66.831 Y75.900 E10.68705
G1 X71.618 Y71.112 E10.81835
G1 X71.252 Y71.112 E10.82546
G1 X66.566 Y75.798 E10.95397
G1 X66.302 Y75.696 E10.95947
G1 X70.885 Y71.112 E11.08518
G1 X70.519 Y71.112 E11.09228
G1 X66.037 Y75.594 E11.21520
G1 X65.773 Y75.492 E11.22070
G1 X70.153 Y71.112 E11.34081
G1 X69.786 Y71.112 E11.34792
G1 X65.508 Y75.390 E11.46524
G1 X65.244 Y75.288 E11.47074
G1 X69.420 Y71.112 E11.58526
G1 X69.053 Y71.112 E11.59237
G1 X64.979 Y75.186 E11.70410
G1 X64.715 Y75.084 E11.70959
G1 X68.687 Y71.112 E11.81852
G1 X68.320 Y71.112 E11.82563
G1 X64.450 Y74.982 E11.93176
G1 X64.437 Y74.977 E11.93204
G1 X64.437 Y74.629 E11.93879
G1 X67.954 Y71.112 E12.03523
G1 X67.587 Y71.112 E12.04234
G1 X64.437 Y74.262 E12.12873
G1 X64.437 Y73.896 E12.13584
G1 X67.221 Y71.112 E12.21218
G1 X66.854 Y71.112 E12.21928
G1 X64.437 Y73.529 E12.28558
G1 X64.437 Y73.163 E12.29268
G1 X66.488 Y71.112 E12.34892
G1 X66.121 Y71.112 E12.35603
G1 X64.437 Y72.796 E12.40222
G1 X64.437 Y72.430 E12.40932
G1 X65.755 Y71.112 E12.44546
G1 X65.388 Y71.112 E12.45257
G1 X64.437 Y72.063 E12.47866
G1 X64.437 Y71.697 E12.48576
G1 X65.022 Y71.112 E12.50180
G1 X64.655 Y71.112 E12.50891
G1 X64.437 Y71.330 E12.51489
G1 E10.51489 F1200.00000
G92 E0
G1 X70.798 Y77.430 F6000.000
G1 E2.00000 F1200.00000
G1 F1800
G1 X71.062 Y77.532 E2.00550
G1 X73.036 Y75.558 E2.05962
G1 X72.890 Y75.788 E2.06490
G1 X72.695 Y76.266 E2.07491
G1 X71.327 Y77.634 E2.11243
G1 X71.591 Y77.736 E2.11793
G1 X72.602 Y76.725 E2.14565
G1 X72.590 Y77.103 E2.15299
G1 X71.856 Y77.838 E2.17313
G1 X72.120 Y77.940 E2.17863
G1 X72.627 Y77.433 E2.19252
G1 X72.699 Y77.728 E2.19840
G1 X72.460 Y77.967 E2.20495
G1 X72.795 Y78.052 F6000.000
G1 F1800
G1 X72.848 Y78.207 E2.20508
G1 X73.171 Y78.453 F6000.000
G1 F1800
G1 X73.613 Y78.778 E2.21233
G1 E0.21233 F1200.00000
G92 E0
G1 X76.391 Y78.772 F6000.000
G1 E2.00000 F1200.00000
G1 F1800
G1 X76.832 Y78.448 E2.00734
G1 X77.162 Y78.200 F6000.000
G1 F1800
G1 X77.225 Y78.005 E2.00765
G1 Z0.400 F6000.000
G1 X76.789 Y76.762 F6000.000
G1 F1800
G1 X76.821 Y77.100 E2.01774
G1 X76.789 Y77.438 E2.02782
G1 X76.731 Y77.663 E2.03471
G1 X76.646 Y77.878 E2.04161
G1 X76.473 Y78.170 E2.05169
G1 X76.247 Y78.427 E2.06188
G1 X75.976 Y78.637 E2.07206
G1 X75.670 Y78.793 E2.08224
G1 X75.341 Y78.889 E2.09243
G1 X75.000 Y78.921 E2.10261
G1 X74.659 Y78.889 E2.11280
G1 X74.323 Y78.791 E2.12318
G1 X73.932 Y78.575 E2.13645
G1 X73.673 Y78.347 E2.14674
G1 X73.463 Y78.076 E2.15692
G1 X73.307 Y77.770 E2.16711
G1 X73.211 Y77.441 E2.17729
G1 X73.179 Y77.100 E2.18748
G1 X73.211 Y76.759 E2.19766
G1 X73.307 Y76.430 E2.20784
G1 X73.463 Y76.124 E2.21803
G1 X73.673 Y75.853 E2.22821
G1 X73.930 Y75.627 E2.23840
G1 X74.225 Y75.452 E2.24858
G1 X74.550 Y75.335 E2.25887
G1 X74.993 Y75.279 E2.27214
G1 X75.341 Y75.311 E2.28252
G1 X75.670 Y75.407 E2.29271
G1 X75.976 Y75.562 E2.30289
G1 X76.247 Y75.773 E2.31308
G1 X76.473 Y76.030 E2.32326
G1 X76.646 Y76.322 E2.33334
G1 X76.774 Y76.704 E2.34533
G1 X77.107 Y76.881 F6000.000
G1 X77.758 Y77.540 F6000.000
G1 F2400
G1 X77.799 Y77.100 E2.36243
G1 X77.752 Y76.594 E2.38209
G1 X77.660 Y76.236 E2.39641
G1 X77.523 Y75.892 E2.41073
G1 X77.265 Y75.454 E2.43039
G1 X76.916 Y75.059 E2.45078
G1 X76.500 Y74.736 E2.47117
G1 X76.031 Y74.497 E2.49155
G1 X75.524 Y74.350 E2.51197
G1 X74.977 Y74.299 E2.53323
G1 X74.321 Y74.382 E2.55881
G1 X73.808 Y74.567 E2.57991
G1 X73.355 Y74.835 E2.60030
G1 X72.959 Y75.184 E2.62069
G1 X72.636 Y75.600 E2.64108
G1 X72.397 Y76.069 E2.66147
G1 X72.250 Y76.575 E2.68186
G1 X72.201 Y77.100 E2.70225
G1 X72.242 Y77.543 E2.71947
G1 X64.819 Y74.681 E3.02734
G1 X64.819 Y71.494 E3.15064
G1 X85.181 Y71.494 E3.93856
G1 X85.181 Y74.680 E4.06185
G1 X77.814 Y77.519 E4.36734
G1 X76.925 Y78.415 F6000.000
G1 F2400
G1 X77.167 Y77.804 E4.39277
G1 X77.241 Y77.517 E4.40426
G1 X77.280 Y77.100 E4.42045
G1 X77.241 Y76.683 E4.43664
G1 X77.167 Y76.396 E4.44813
G1 X77.058 Y76.120 E4.45961
G1 X76.845 Y75.760 E4.47581
G1 X76.561 Y75.438 E4.49241
G1 X76.222 Y75.175 E4.50902
G1 X75.839 Y74.980 E4.52562
G1 X75.427 Y74.860 E4.54225
G1 X74.986 Y74.819 E4.55939
G1 X74.443 Y74.888 E4.58057
G1 X74.029 Y75.037 E4.59758
G1 X73.660 Y75.255 E4.61419
G1 X73.338 Y75.539 E4.63079
G1 X73.075 Y75.878 E4.64740
G1 X72.880 Y76.261 E4.66400
G1 X72.760 Y76.673 E4.68061
G1 X72.720 Y77.100 E4.69722
G1 X72.760 Y77.527 E4.71382
G1 X72.880 Y77.939 E4.73043
G1 X73.136 Y78.442 E4.75226
G1 X64.302 Y75.035 E5.11864
G1 X64.302 Y70.977 E5.27568
G1 X85.698 Y70.977 E6.10361
G1 X85.698 Y75.035 E6.26065
G1 X76.981 Y78.394 E6.62213
G1 X86.155 Y75.349 F6000.000
G1 F2160
G1 X75.736 Y79.363 E6.95390
G1 X75.446 Y79.437 E6.96281
G1 X75.148 Y79.475 E6.97173
G1 X74.698 Y79.460 E6.98510
G1 X74.408 Y79.405 E6.99388
G1 X74.116 Y79.310 E7.00299
G1 X63.845 Y75.349 E7.33013
G1 X63.845 Y70.520 E7.47362
G1 X86.155 Y70.520 E8.13658
G1 X86.155 Y75.289 E8.27829
G1 X85.761 Y75.418 F6000.000
G1 X84.883 Y72.231 F6000.000
G1 F1800
G1 X84.444 Y71.792 E8.30280
G1 X83.698 Y71.792 E8.33227
G1 X84.883 Y72.977 E8.39846
G1 X84.883 Y73.723 E8.42793
G1 X82.952 Y71.792 E8.53580
G1 X82.205 Y71.792 E8.56527
G1 X84.883 Y74.470 E8.71481
G1 X84.883 Y74.545 E8.71779
G1 X84.399 Y74.731 E8.73828
G1 X81.459 Y71.792 E8.90245
G1 X80.713 Y71.792 E8.93192
G1 X83.860 Y74.939 E9.10768
G1 X83.321 Y75.147 E9.13048
G1 X79.967 Y71.792 E9.31783
G1 X79.220 Y71.792 E9.34730
G1 X82.783 Y75.354 E9.54624
G1 X82.244 Y75.562 E9.56904
G1 X78.474 Y71.792 E9.77958
G1 X77.728 Y71.792 E9.80905
G1 X81.705 Y75.769 E10.03117
G1 X81.166 Y75.977 E10.05397
G1 X76.982 Y71.792 E10.28768
G1 X76.235 Y71.792 E10.31715
G1 X80.628 Y76.184 E10.56246
G1 X80.089 Y76.392 E10.58526
G1 X75.489 Y71.792 E10.84215
G1 X74.743 Y71.792 E10.87162
G1 X79.550 Y76.599 E11.14011
G1 X79.012 Y76.807 E11.16291
G1 X77.849 Y75.644 E11.22783
G1 X77.770 Y75.444 E11.23633
G1 X77.466 Y74.930 E11.25993
G1 X77.052 Y74.461 E11.28460
G1 X76.559 Y74.078 E11.30927
G1 X75.998 Y73.794 E11.33410
G1 X73.996 Y71.792 E11.44590
G1 X73.250 Y71.792 E11.47537
G1 X75.484 Y74.026 E11.60013
G1 X75.188 Y73.998 E11.61188
G1 X74.764 Y74.052 E11.62875
G1 X72.504 Y71.792 E11.75498
G1 X71.758 Y71.792 E11.78445
G1 X74.156 Y74.190 E11.91840
G1 X73.806 Y74.316 E11.93309
G1 X73.636 Y74.417 E11.94088
G1 X71.011 Y71.792 E12.08748
G1 X70.265 Y71.792 E12.11695
G1 X73.183 Y74.710 E12.27991
G1 X72.789 Y75.062 E12.30079
G1 X69.519 Y71.792 E12.48341
G1 X68.773 Y71.792 E12.51288
G1 X72.463 Y75.482 E12.71897
G1 X72.201 Y75.966 E12.74071
G1 X68.026 Y71.792 E12.97384
G1 X67.280 Y71.792 E13.00331
G1 X72.010 Y76.522 E13.26748
G1 X71.959 Y76.697 E13.27469
G1 X71.930 Y77.004 E13.28683
G1 X71.629 Y76.887 E13.29958
G1 X66.534 Y71.792 E13.58415
G1 X65.787 Y71.792 E13.61362
G1 X70.415 Y76.419 E13.87204
G1 X69.200 Y75.951 E13.92345
G1 X65.117 Y71.867 E14.15148
G1 X65.117 Y72.614 E14.18095
G1 X67.985 Y75.482 E14.34114
G1 X66.771 Y75.014 E14.39256
G1 X65.117 Y73.360 E14.48491
G1 X65.117 Y74.106 E14.51438
G1 X65.556 Y74.545 E14.53889
G1 X73.442 Y78.472 F6000.000
G1 F1200
G1 X73.548 Y78.618 E14.53987
G1 F1200
G1 X73.682 Y78.791 E14.54241
