; generated by Slic3r 1.3.0 on 2020-07-23 at 22:42:26

; external perimeters extrusion width = 0.42mm (4.00mm^3/s)
; perimeters extrusion width = 0.40mm (5.03mm^3/s)
; infill extrusion width = 0.42mm (6.93mm^3/s)
; solid infill extrusion width = 0.42mm (2.13mm^3/s)
; top infill extrusion width = 0.42mm (1.60mm^3/s)

; external perimeters extrusion width = 0.42mm (4.00mm^3/s)
; perimeters extrusion width = 0.40mm (5.03mm^3/s)
; infill extrusion width = 0.42mm (6.93mm^3/s)
; solid infill extrusion width = 0.42mm (2.13mm^3/s)
; top infill extrusion width = 0.42mm (1.60mm^3/s)

;D3D:START:START
T0
M104 S215 T0

G21
G90
M107
T0
G28
G29
M109 T0 S215 T0
G0 F3000
M107
T0
G92 E0
G0 X0 Y149 Z0.1 F3600
G1 Y49 E6.5 F1200
G0 Z1
G92 E0
; Filament gcode

G21 ; set units to millimeters
G90 ; use absolute coordinates
M82 ; use absolute distances for extrusion
G92 E0
G1 Z0.300 F6000.000
G1 E-0.50000 F1200.00000
G92 E0
G1 X50.995 Y65.987 F6000.000
G1 E0.50000 F1200.00000
G1 F1080
G1 X52.917 Y65.389 E0.55445
G1 X59.607 Y64.908 E0.73578
G1 X67.425 Y64.385 E0.94762
G1 X73.282 Y64.030 E1.10627
G1 X76.275 Y63.872 E1.18730
G1 X82.175 Y63.634 E1.34694
G1 X84.906 Y63.557 E1.42082
G1 X87.543 Y63.518 E1.49212
G1 X90.019 Y63.531 E1.55906
G1 X92.305 Y63.608 E1.62089
G1 X94.375 Y63.759 E1.67701
G1 X96.245 Y63.999 E1.72799
G1 X96.622 Y64.066 E1.73835
G1 X97.917 Y64.352 E1.77420
G1 X98.517 Y64.530 E1.79112
G1 X99.474 Y64.888 E1.81876
G1 X100.494 Y65.429 E1.84997
G1 X101.098 Y65.857 E1.86998
G1 X102.542 Y67.568 E1.93051
G1 X102.781 Y68.065 E1.94540
G1 X103.220 Y69.893 E1.99625
G1 X103.137 Y70.864 E2.02260
G1 X101.137 Y81.017 E2.30236
G1 X100.393 Y82.744 E2.35321
G1 X99.005 Y84.013 E2.40406
G1 X97.083 Y84.611 E2.45850
G1 X85.354 Y85.433 E2.77639
G1 X76.718 Y85.970 E3.01032
G1 X73.725 Y86.128 E3.09136
G1 X70.746 Y86.260 E3.17198
G1 X65.094 Y86.443 E3.32487
G1 X62.457 Y86.482 E3.39617
G1 X59.982 Y86.469 E3.46309
G1 X57.516 Y86.382 E3.52980
G1 X55.364 Y86.214 E3.58816
G1 X53.755 Y86.001 E3.63204
G1 X53.378 Y85.934 E3.64240
G1 X52.084 Y85.648 E3.67823
G1 X51.483 Y85.470 E3.69517
G1 X50.526 Y85.112 E3.72281
G1 X49.506 Y84.571 E3.75402
G1 X48.902 Y84.143 E3.77403
G1 X47.460 Y82.436 E3.83446
G1 X47.220 Y81.936 E3.84944
G1 X46.780 Y80.108 E3.90029
G1 X46.863 Y79.136 E3.92666
G1 X48.863 Y68.983 E4.20642
G1 X49.607 Y67.256 E4.25727
G1 X50.950 Y66.027 E4.30649
G1 X51.199 Y66.142 F6000.000
G1 F1080
G1 X52.935 Y65.624 E4.35546
G1 X59.623 Y65.143 E4.53676
G1 X67.440 Y64.621 E4.74857
G1 X73.296 Y64.266 E4.90719
G1 X76.288 Y64.107 E4.98818
G1 X82.181 Y63.870 E5.14766
G1 X84.913 Y63.793 E5.22154
G1 X87.547 Y63.754 E5.29276
G1 X90.018 Y63.767 E5.35957
G1 X92.297 Y63.843 E5.42121
G1 X94.365 Y63.995 E5.47728
G1 X96.214 Y64.233 E5.52769
G1 X96.571 Y64.296 E5.53750
G1 X97.866 Y64.582 E5.57335
G1 X98.435 Y64.751 E5.58938
G1 X99.392 Y65.109 E5.61702
G1 X100.358 Y65.621 E5.64658
G1 X100.962 Y66.049 E5.66659
G1 X102.330 Y67.670 E5.72394
G1 X102.568 Y68.167 E5.73883
G1 X102.906 Y70.819 E5.81111
G1 X100.906 Y80.971 E6.09087
G1 X100.173 Y82.648 E6.14035
G1 X98.801 Y83.858 E6.18982
G1 X97.065 Y84.376 E6.23879
G1 X90.377 Y84.857 E6.42009
G1 X82.560 Y85.379 E6.63189
G1 X76.704 Y85.734 E6.79051
G1 X73.712 Y85.893 E6.87151
G1 X67.819 Y86.130 E7.03099
G1 X65.087 Y86.207 E7.10486
G1 X62.453 Y86.246 E7.17608
G1 X59.983 Y86.233 E7.24287
G1 X57.704 Y86.157 E7.30453
G1 X55.636 Y86.005 E7.36058
G1 X53.786 Y85.767 E7.41102
G1 X52.135 Y85.418 E7.45665
G1 X51.565 Y85.249 E7.47270
G1 X50.608 Y84.891 E7.50034
G1 X49.642 Y84.379 E7.52991
G1 X49.038 Y83.951 E7.54992
G1 X47.672 Y82.333 E7.60716
G1 X47.432 Y81.834 E7.62214
G1 X47.094 Y79.181 E7.69444
G1 X49.094 Y69.029 E7.97420
G1 X49.827 Y67.352 E8.02367
G1 X51.154 Y66.181 E8.07152
G1 E7.57152 F1200.00000
G92 E0
G1 X54.861 Y81.157 F6000.000
G1 E0.50000 F1200.00000
G1 F1080
G1 X54.519 Y81.222 E0.50941
G1 X54.331 Y81.222 E0.51450
G1 X53.984 Y81.156 E0.52404
G1 X53.665 Y81.006 E0.53358
G1 X53.513 Y80.895 E0.53867
G1 X53.271 Y80.638 E0.54821
G1 X53.099 Y80.325 E0.55788
G1 X53.011 Y79.983 E0.56741
G1 X53.000 Y79.800 E0.57238
G1 X53.011 Y79.617 E0.57735
G1 X53.099 Y79.275 E0.58688
G1 X53.269 Y78.966 E0.59642
G1 X53.389 Y78.821 E0.60152
G1 X53.657 Y78.599 E0.61092
G1 X53.989 Y78.443 E0.62084
G1 X54.331 Y78.378 E0.63024
G1 X54.519 Y78.378 E0.63534
G1 X54.866 Y78.444 E0.64488
G1 X55.185 Y78.594 E0.65441
G1 X55.337 Y78.705 E0.65951
G1 X55.579 Y78.962 E0.66905
G1 X55.751 Y79.275 E0.67871
G1 X55.839 Y79.617 E0.68825
G1 X55.850 Y79.800 E0.69322
G1 X55.839 Y79.983 E0.69818
G1 X55.751 Y80.325 E0.70772
G1 X55.581 Y80.634 E0.71726
G1 X55.461 Y80.779 E0.72235
G1 X55.193 Y81.001 E0.73176
G1 X54.917 Y81.135 E0.74006
G1 X57.761 Y80.857 F6000.000
G1 F1080
G1 X57.419 Y80.922 E0.74946
G1 X57.231 Y80.922 E0.75456
G1 X56.884 Y80.856 E0.76410
G1 X56.565 Y80.706 E0.77363
G1 X56.413 Y80.595 E0.77873
G1 X56.171 Y80.338 E0.78827
G1 X55.999 Y80.025 E0.79793
G1 X55.911 Y79.683 E0.80747
G1 X55.900 Y79.500 E0.81244
G1 X55.911 Y79.317 E0.81740
G1 X55.999 Y78.975 E0.82694
G1 X56.169 Y78.666 E0.83648
G1 X56.289 Y78.521 E0.84157
G1 X56.557 Y78.299 E0.85098
G1 X56.889 Y78.143 E0.86089
G1 X57.231 Y78.078 E0.87030
G1 X57.419 Y78.078 E0.87540
G1 X57.766 Y78.144 E0.88493
G1 X58.085 Y78.294 E0.89447
G1 X58.237 Y78.405 E0.89957
G1 X58.479 Y78.662 E0.90910
G1 X58.651 Y78.975 E0.91877
G1 X58.739 Y79.317 E0.92830
G1 X58.750 Y79.500 E0.93327
G1 X58.739 Y79.683 E0.93824
G1 X58.651 Y80.025 E0.94778
G1 X58.481 Y80.334 E0.95731
G1 X58.361 Y80.479 E0.96241
G1 X58.093 Y80.701 E0.97182
G1 X57.817 Y80.835 E0.98011
G1 E0.48011 F1200.00000
G92 E0
G1 X66.715 Y80.923 F6000.000
G1 E0.50000 F1200.00000
G1 F1080
G1 X66.363 Y80.901 E0.50954
G1 X66.180 Y80.854 E0.51463
G1 X65.865 Y80.706 E0.52404
G1 X65.716 Y80.598 E0.52901
G1 X65.580 Y80.469 E0.53408
G1 X65.375 Y80.187 E0.54351
G1 X65.245 Y79.859 E0.55305
G1 X65.210 Y79.670 E0.55825
G1 X65.210 Y79.321 E0.56768
G1 X65.299 Y78.975 E0.57734
G1 X65.469 Y78.666 E0.58688
G1 X65.589 Y78.521 E0.59198
G1 X65.857 Y78.299 E0.60138
G1 X66.018 Y78.210 E0.60635
G1 X66.189 Y78.143 E0.61132
G1 X66.535 Y78.077 E0.62086
G1 X66.887 Y78.099 E0.63039
G1 X67.070 Y78.146 E0.63549
G1 X67.385 Y78.294 E0.64490
G1 X67.537 Y78.405 E0.64999
G1 X67.776 Y78.658 E0.65940
G1 X67.877 Y78.817 E0.66449
G1 X68.005 Y79.141 E0.67390
G1 X68.040 Y79.326 E0.67900
G1 X68.040 Y79.674 E0.68841
G1 X68.005 Y79.859 E0.69350
G1 X67.877 Y80.183 E0.70291
G1 X67.776 Y80.342 E0.70800
G1 X67.537 Y80.595 E0.71741
G1 X67.385 Y80.706 E0.72251
G1 X67.066 Y80.856 E0.73204
G1 X66.773 Y80.912 E0.74009
G1 E0.24009 F1200.00000
G92 E0
G1 X96.600 Y80.012 F6000.000
G1 E0.50000 F1200.00000
G1 F1080
G1 X85.045 Y80.822 E0.81319
G1 X76.447 Y81.356 E1.04607
G1 X73.482 Y81.513 E1.12636
G1 X67.694 Y81.746 E1.28297
G1 X64.965 Y81.823 E1.35679
G1 X62.391 Y81.861 E1.42640
G1 X60.010 Y81.848 E1.49077
G1 X57.858 Y81.774 E1.54899
G1 X55.967 Y81.632 E1.60024
G1 X54.369 Y81.420 E1.64383
G1 X53.092 Y81.138 E1.67920
G1 X52.163 Y80.790 E1.70602
G1 X51.607 Y80.396 E1.72445
G1 X51.409 Y79.984 E1.73680
G1 X51.522 Y79.542 E1.74914
G1 X51.995 Y79.048 E1.76763
G1 X52.854 Y78.534 E1.79470
G1 X54.082 Y78.031 E1.83058
G1 X55.657 Y77.565 E1.87499
G1 X57.552 Y77.155 E1.92740
G1 X59.734 Y76.819 E1.98711
G1 X62.168 Y76.573 E2.05325
G1 X64.813 Y76.428 E2.12485
G1 X67.622 Y76.389 E2.20080
G1 X70.537 Y76.456 E2.27965
G1 X73.519 Y76.612 E2.36038
G1 X76.514 Y76.834 E2.44157
G1 X79.482 Y77.114 E2.52217
G1 X82.376 Y77.438 E2.60091
G1 X85.150 Y77.793 E2.67652
G1 X87.761 Y78.166 E2.74782
G1 X90.167 Y78.542 E2.81366
G1 X92.331 Y78.908 E2.87302
G1 X94.221 Y79.249 E2.92494
G1 X96.600 Y79.710 E2.99045
G1 X96.600 Y79.952 E2.99700
G1 X95.941 Y79.822 F6000.000
G1 F1080
G1 X95.661 Y79.768 E3.00474
G1 X95.582 Y79.848 E3.00779
G1 X95.222 Y79.873 E3.01756
G1 X95.381 Y79.714 E3.02366
G1 X95.101 Y79.660 E3.03140
G1 X94.863 Y79.898 E3.04054
G1 X94.503 Y79.923 E3.05032
G1 X94.821 Y79.605 E3.06251
G1 X94.541 Y79.551 E3.07025
G1 X94.144 Y79.948 E3.08549
G1 X93.784 Y79.974 E3.09527
G1 X94.261 Y79.497 E3.11356
G1 X93.978 Y79.446 E3.12136
G1 X93.425 Y79.999 E3.14258
G1 X93.065 Y80.024 E3.15235
G1 X93.693 Y79.396 E3.17643
G1 X93.408 Y79.347 E3.18427
G1 X92.706 Y80.049 E3.21123
G1 X92.346 Y80.074 E3.22100
G1 X93.124 Y79.297 E3.25082
G1 X92.839 Y79.247 E3.25866
G1 X91.987 Y80.100 E3.29136
G1 X91.627 Y80.125 E3.30113
G1 X92.554 Y79.198 E3.33670
G1 X92.270 Y79.148 E3.34453
G1 X91.268 Y80.150 E3.38297
G1 X90.908 Y80.175 E3.39274
G1 X91.985 Y79.098 E3.43405
G1 X91.700 Y79.049 E3.44189
G1 X90.549 Y80.200 E3.48606
G1 X90.189 Y80.226 E3.49584
G1 X91.415 Y78.999 E3.54288
G1 X91.131 Y78.950 E3.55072
G1 X89.830 Y80.251 E3.60064
G1 X89.470 Y80.276 E3.61041
G1 X90.846 Y78.900 E3.66320
G1 X90.561 Y78.850 E3.67104
G1 X89.111 Y80.301 E3.72669
G1 X88.751 Y80.326 E3.73647
G1 X90.277 Y78.801 E3.79500
G1 X89.990 Y78.753 E3.80288
G1 X88.392 Y80.352 E3.86420
G1 X88.032 Y80.377 E3.87397
G1 X89.701 Y78.708 E3.93799
G1 X89.412 Y78.663 E3.94593
G1 X87.673 Y80.402 E4.01265
G1 X87.313 Y80.427 E4.02242
G1 X89.123 Y78.618 E4.09184
G1 X88.834 Y78.572 E4.09978
G1 X86.954 Y80.452 E4.17190
G1 X86.594 Y80.478 E4.18168
G1 X88.545 Y78.527 E4.25650
G1 X88.256 Y78.482 E4.26444
G1 X86.235 Y80.503 E4.34196
G1 X85.875 Y80.528 E4.35174
G1 X87.966 Y78.437 E4.43196
G1 X87.677 Y78.392 E4.43991
G1 X85.516 Y80.553 E4.52282
G1 X85.156 Y80.578 E4.53259
G1 X87.384 Y78.350 E4.61807
G1 X87.092 Y78.308 E4.62608
G1 X84.799 Y80.602 E4.71405
G1 X84.442 Y80.624 E4.72374
G1 X86.799 Y78.267 E4.81416
G1 X86.507 Y78.225 E4.82217
G1 X84.086 Y80.646 E4.91504
G1 X83.729 Y80.668 E4.92473
G1 X86.214 Y78.183 E5.02005
G1 X85.922 Y78.141 E5.02807
G1 X83.373 Y80.690 E5.12584
G1 X83.016 Y80.712 E5.13553
G1 X85.629 Y78.100 E5.23575
G1 X85.337 Y78.058 E5.24377
G1 X82.660 Y80.734 E5.34644
G1 X82.303 Y80.757 E5.35613
G1 X85.043 Y78.017 E5.46122
G1 X84.747 Y77.979 E5.46932
G1 X81.947 Y80.779 E5.57672
G1 X81.591 Y80.801 E5.58641
G1 X84.450 Y77.941 E5.69611
G1 X84.154 Y77.903 E5.70421
G1 X81.234 Y80.823 E5.81621
G1 X80.878 Y80.845 E5.82590
G1 X83.858 Y77.865 E5.94021
G1 X83.561 Y77.827 E5.94831
G1 X80.521 Y80.867 E6.06493
G1 X80.165 Y80.889 E6.07462
G1 X83.265 Y77.789 E6.19353
G1 X82.969 Y77.751 E6.20164
G1 X79.808 Y80.912 E6.32286
G1 X79.452 Y80.934 E6.33255
G1 X82.672 Y77.714 E6.45607
G1 X82.376 Y77.676 E6.46418
G1 X79.096 Y80.956 E6.59001
G1 X78.739 Y80.978 E6.59970
G1 X82.076 Y77.641 E6.72769
G1 X81.775 Y77.608 E6.73589
G1 X78.383 Y81.000 E6.86602
G1 X78.026 Y81.022 E6.87571
G1 X81.474 Y77.574 E7.00797
G1 X81.174 Y77.541 E7.01618
G1 X77.670 Y81.044 E7.15059
G1 X77.313 Y81.067 E7.16028
G1 X80.873 Y77.507 E7.29682
G1 X80.572 Y77.473 E7.30503
G1 X76.957 Y81.089 E7.44372
G1 X76.601 Y81.111 E7.45340
G1 X80.272 Y77.440 E7.59423
G1 X79.971 Y77.406 E7.60244
G1 X76.246 Y81.131 E7.74534
G1 X75.893 Y81.150 E7.75492
G1 X79.670 Y77.372 E7.89983
G1 X79.368 Y77.340 E7.90807
G1 X75.540 Y81.168 E8.05492
G1 X75.187 Y81.187 E8.06451
G1 X79.063 Y77.311 E8.21319
G1 X78.757 Y77.282 E8.22151
G1 X74.834 Y81.206 E8.37201
G1 X74.481 Y81.224 E8.38159
G1 X78.452 Y77.254 E8.53391
G1 X78.146 Y77.225 E8.54223
G1 X74.128 Y81.243 E8.69637
G1 X73.775 Y81.262 E8.70595
G1 X77.841 Y77.196 E8.86191
G1 X77.535 Y77.167 E8.87023
G1 X73.423 Y81.280 E9.02798
G1 X73.075 Y81.294 E9.03744
G1 X77.230 Y77.139 E9.19683
G1 X76.924 Y77.110 E9.20515
G1 X72.726 Y81.308 E9.36619
G1 X72.378 Y81.322 E9.37565
G1 X76.619 Y77.081 E9.53832
G1 X76.310 Y77.056 E9.54673
G1 X72.030 Y81.336 E9.71092
G1 X71.681 Y81.350 E9.72038
G1 X75.999 Y77.032 E9.88600
G1 X75.688 Y77.009 E9.89446
G1 X71.333 Y81.364 E10.06151
G1 X70.985 Y81.378 E10.07097
G1 X75.376 Y76.986 E10.23944
G1 X75.065 Y76.963 E10.24790
G1 X70.636 Y81.392 E10.41780
G1 X70.288 Y81.406 E10.42726
G1 X74.754 Y76.940 E10.59859
G1 X74.443 Y76.917 E10.60705
G1 X69.939 Y81.420 E10.77981
G1 X69.591 Y81.434 E10.78926
G1 X74.132 Y76.893 E10.96345
G1 X73.821 Y76.870 E10.97191
G1 X69.243 Y81.448 E11.14752
G1 X68.894 Y81.462 E11.15697
G1 X73.510 Y76.847 E11.33401
G1 X73.192 Y76.830 E11.34264
G1 X68.546 Y81.476 E11.52085
G1 X68.198 Y81.490 E11.53031
G1 X72.874 Y76.814 E11.70969
G1 X72.556 Y76.797 E11.71832
G1 X67.849 Y81.504 E11.89888
G1 X67.503 Y81.516 E11.90827
G1 X72.239 Y76.781 E12.08992
G1 X71.921 Y76.764 E12.09855
G1 X67.159 Y81.526 E12.28119
G1 X66.815 Y81.535 E12.29053
G1 X67.384 Y80.967 E12.31233
G1 X67.139 Y81.082 E12.31967
G1 X66.886 Y81.130 E12.32665
G1 X66.471 Y81.545 E12.34256
G1 X66.127 Y81.555 E12.35189
G1 X66.534 Y81.148 E12.36750
G1 X66.236 Y81.112 E12.37564
G1 X65.784 Y81.564 E12.39300
G1 X65.440 Y81.574 E12.40234
G1 X65.989 Y81.025 E12.42341
G1 X65.762 Y80.918 E12.43023
G1 X65.096 Y81.584 E12.45577
G1 X64.754 Y81.591 E12.46503
G1 X65.574 Y80.771 E12.49648
G1 X65.395 Y80.616 E12.50290
G1 X64.415 Y81.596 E12.54050
G1 X64.076 Y81.601 E12.54970
G1 X65.255 Y80.422 E12.59491
G1 X65.167 Y80.301 E12.59896
G1 X65.131 Y80.211 E12.60159
G1 X63.737 Y81.606 E12.65509
G1 X63.397 Y81.611 E12.66430
G1 X65.036 Y79.971 E12.72717
G1 X64.975 Y79.698 E12.73477
G1 X63.243 Y81.431 E12.80123
G1 X63.243 Y81.097 E12.81030
G1 X64.974 Y79.365 E12.87673
G1 X64.974 Y79.291 E12.87872
G1 X65.065 Y78.940 E12.88855
G1 X63.243 Y80.762 E12.95843
G1 X63.243 Y80.428 E12.96750
G1 X67.038 Y76.633 E13.11308
G1 X66.699 Y76.637 E13.12228
G1 X63.243 Y80.094 E13.25486
G1 X63.243 Y79.759 E13.26393
G1 X66.360 Y76.642 E13.38350
G1 X66.021 Y76.647 E13.39270
G1 X63.243 Y79.425 E13.49927
G1 X63.243 Y79.091 E13.50833
G1 X65.682 Y76.652 E13.60190
G1 X65.343 Y76.656 E13.61109
G1 X63.243 Y78.756 E13.69165
G1 X63.243 Y78.422 E13.70072
G1 X65.004 Y76.661 E13.76827
G1 X64.658 Y76.673 E13.77766
G1 X63.243 Y78.088 E13.83195
G1 X63.243 Y77.754 E13.84102
G1 X64.304 Y76.692 E13.88174
G1 X63.951 Y76.711 E13.89135
G1 X63.243 Y77.419 E13.91850
G1 X63.243 Y77.085 E13.92756
G1 X63.597 Y76.731 E13.94114
G1 X63.243 Y76.750 E13.95075
G1 X65.065 Y78.940 F6000.000
G1 F1080
G1 X65.273 Y78.533 E13.96317
G1 X65.422 Y78.353 E13.96949
G1 X65.730 Y78.098 E13.98034
G1 X66.064 Y77.941 E13.99035
G1 X67.377 Y76.628 E14.04073
G1 X67.713 Y76.627 E14.04983
G1 X66.495 Y77.845 E14.09654
G1 X66.815 Y77.858 E14.10525
G1 X68.039 Y76.634 E14.15220
G1 X68.366 Y76.642 E14.16106
G1 X67.098 Y77.910 E14.20969
G1 X67.333 Y78.009 E14.21661
G1 X68.693 Y76.649 E14.26877
G1 X69.020 Y76.657 E14.27763
G1 X67.552 Y78.124 E14.33392
G1 X67.737 Y78.273 E14.34036
G1 X69.346 Y76.665 E14.40208
G1 X69.673 Y76.672 E14.41095
G1 X67.899 Y78.446 E14.47899
G1 X68.042 Y78.638 E14.48547
G1 X70.000 Y76.680 E14.56058
G1 X70.326 Y76.687 E14.56945
G1 X68.149 Y78.865 E14.65298
G1 X68.238 Y79.110 E14.66005
G1 X70.650 Y76.698 E14.75255
G1 X70.968 Y76.715 E14.76118
G1 X68.276 Y79.407 E14.86444
G1 X68.265 Y79.752 E14.87380
G1 X71.285 Y76.731 E14.98966
G1 X71.603 Y76.748 E14.99829
G1 X68.105 Y80.246 E15.13249
G1 E14.63249 F1200.00000
G92 E0
G1 X63.007 Y81.616 F6000.000
G1 E0.50000 F1200.00000
G1 F1080
G1 X63.007 Y81.275 E0.50945
G1 X62.661 Y81.621 E0.52302
G1 X62.316 Y81.625 E0.53256
G1 X63.007 Y80.934 E0.55963
G1 X63.007 Y80.592 E0.56907
G1 X61.977 Y81.623 E0.60942
G1 X61.637 Y81.621 E0.61882
G1 X63.007 Y80.251 E0.67246
G1 X63.007 Y79.910 E0.68190
G1 X61.298 Y81.619 E0.74883
G1 X60.959 Y81.617 E0.75822
G1 X63.007 Y79.569 E0.83843
G1 X63.007 Y79.228 E0.84788
G1 X60.619 Y81.615 E0.94137
G1 X60.280 Y81.614 E0.95076
G1 X63.007 Y78.886 E1.05754
G1 X63.007 Y78.545 E1.06699
G1 X59.943 Y81.610 E1.18698
G1 X59.613 Y81.598 E1.19612
G1 X63.007 Y78.204 E1.32902
G1 X63.007 Y77.863 E1.33847
G1 X59.283 Y81.587 E1.48428
G1 X58.953 Y81.576 E1.49342
G1 X63.007 Y77.521 E1.65216
G1 X63.007 Y77.180 E1.66161
G1 X58.623 Y81.564 E1.83326
G1 X58.293 Y81.553 E1.84240
G1 X63.007 Y76.839 E2.02696
G1 X63.007 Y76.763 E2.02906
G1 X62.726 Y76.779 E2.03685
G1 X57.963 Y81.542 E2.22333
G1 X57.642 Y81.521 E2.23224
G1 X58.464 Y80.700 E2.26439
G1 X58.220 Y80.902 E2.27314
G1 X57.834 Y81.083 E2.28495
G1 X57.717 Y81.106 E2.28825
G1 X57.325 Y81.498 E2.30360
G1 X57.008 Y81.474 E2.31242
G1 X57.323 Y81.158 E2.32478
G1 X57.208 Y81.158 E2.32796
G1 X57.018 Y81.122 E2.33332
G1 X56.690 Y81.450 E2.34617
