; generated by Slic3r 1.3.0 on 2020-04-25 at 18:32:04

; external perimeters extrusion width = 0.44mm (2.86mm^3/s)
; perimeters extrusion width = 0.56mm (4.14mm^3/s)
; infill extrusion width = 0.50mm (3.66mm^3/s)
; solid infill extrusion width = 0.56mm (3.10mm^3/s)
; top infill extrusion width = 0.45mm (2.44mm^3/s)

M107
;D3D:START:START
T0
M104 S215 T0

G21
G90
M107
T0
G28
G29
M109 T0 S215 T0
G0 F3000
M107
T0
G92 E0
G0 X0 Y149 Z0.1 F3600
G1 Y49 E6.5 F1200
G0 Z1
G92 E0
; Filament gcode

G21 ; set units to millimeters
G90 ; use absolute coordinates
M82 ; use absolute distances for extrusion
G92 E0
G1 Z0.200 F6000.000
G1 E-2.00000 F1200.00000
G92 E0
G1 Z0.700 F6000.000
G1 X120.884 Y78.586 F6000.000
G1 Z0.200 F6000.000
G1 E2.00000 F1200.00000
G1 F1800
G1 X135.783 Y78.586 E2.28664
G1 X135.783 Y106.414 E2.82202
G1 X120.884 Y106.414 E3.10866
G1 X120.884 Y78.646 E3.64289
G1 X121.141 Y78.843 F6000.000
G1 F1800
G1 X135.526 Y78.843 E3.91964
G1 X135.526 Y106.157 E4.44513
G1 X121.141 Y106.157 E4.72188
G1 X121.141 Y78.903 E5.24621
G1 X121.398 Y79.100 F6000.000
G1 F1800
G1 X135.269 Y79.100 E5.51307
G1 X135.269 Y105.900 E6.02866
G1 X121.398 Y105.900 E6.29552
G1 X121.398 Y79.160 E6.80996
G1 X121.335 Y78.705 F6000.000
G1 E4.80996 F1200.00000
G92 E0
G1 Z0.700 F6000.000
G1 X114.116 Y78.586 F6000.000
G1 Z0.200 F6000.000
G1 E2.00000 F1200.00000
G1 F1800
G1 X114.116 Y106.414 E2.53538
G1 X99.217 Y106.414 E2.82202
G1 X99.217 Y78.586 E3.35740
G1 X114.056 Y78.586 E3.64289
G1 X113.859 Y78.843 F6000.000
G1 F1800
G1 X113.859 Y106.157 E4.16838
G1 X99.474 Y106.157 E4.44513
G1 X99.474 Y78.843 E4.97061
G1 X113.799 Y78.843 E5.24621
G1 X113.602 Y79.100 F6000.000
G1 F1800
G1 X113.602 Y105.900 E5.76180
G1 X99.731 Y105.900 E6.02866
G1 X99.731 Y79.100 E6.54426
G1 X113.542 Y79.100 E6.80996
G1 X113.976 Y78.957 F6000.000
G1 E4.80996 F1200.00000
G92 E0
G1 Z0.700 F6000.000
G1 X92.450 Y78.586 F6000.000
G1 Z0.200 F6000.000
G1 E2.00000 F1200.00000
G1 F1800
G1 X92.450 Y98.164 E2.37666
G1 X77.550 Y98.164 E2.66331
G1 X77.550 Y78.586 E3.03997
G1 X92.390 Y78.586 E3.32547
G1 X92.193 Y78.843 F6000.000
G1 F1800
G1 X92.193 Y97.907 E3.69223
G1 X77.807 Y97.907 E3.96899
G1 X77.807 Y78.843 E4.33576
G1 X92.133 Y78.843 E4.61136
G1 X91.936 Y79.100 F6000.000
G1 F1800
G1 X91.936 Y97.650 E4.96824
G1 X78.064 Y97.650 E5.23511
G1 X78.064 Y79.100 E5.59198
G1 X91.876 Y79.100 E5.85770
G1 X92.317 Y78.978 F6000.000
G1 E3.85770 F1200.00000
G92 E0
G1 Z0.700 F6000.000
G1 X70.783 Y78.586 F6000.000
G1 Z0.200 F6000.000
G1 E2.00000 F1200.00000
G1 F1800
G1 X70.783 Y98.164 E2.37666
G1 X55.883 Y98.164 E2.66331
G1 X55.883 Y78.586 E3.03997
G1 X70.723 Y78.586 E3.32547
G1 X70.526 Y78.843 F6000.000
G1 F1800
G1 X70.526 Y97.907 E3.69223
G1 X56.141 Y97.907 E3.96899
G1 X56.141 Y78.843 E4.33576
G1 X70.466 Y78.843 E4.61137
G1 X70.269 Y79.100 F6000.000
G1 F1800
G1 X70.269 Y97.650 E4.96824
G1 X56.398 Y97.650 E5.23511
G1 X56.398 Y79.100 E5.59199
G1 X70.209 Y79.100 E5.85770
G1 X70.650 Y78.978 F6000.000
G1 E3.85770 F1200.00000
G92 E0
G1 Z0.700 F6000.000
G1 X49.117 Y78.586 F6000.000
G1 Z0.200 F6000.000
G1 E2.00000 F1200.00000
G1 F1800
G1 X49.117 Y106.414 E2.53538
G1 X34.217 Y106.414 E2.82203
G1 X34.217 Y78.586 E3.35741
G1 X49.057 Y78.586 E3.64290
G1 X48.859 Y78.843 F6000.000
G1 F1800
G1 X48.859 Y106.157 E4.16839
G1 X34.474 Y106.157 E4.44515
G1 X34.474 Y78.843 E4.97064
G1 X48.799 Y78.843 E5.24624
G1 X48.602 Y79.100 F6000.000
G1 F1800
G1 X48.602 Y105.900 E5.76184
G1 X34.731 Y105.900 E6.02870
G1 X34.731 Y79.100 E6.54430
G1 X48.542 Y79.100 E6.81001
G1 X48.976 Y78.957 F6000.000
G1 E4.81001 F1200.00000
G92 E0
G1 Z0.700 F6000.000
G1 X27.450 Y78.586 F6000.000
G1 Z0.200 F6000.000
G1 E2.00000 F1200.00000
G1 F1800
G1 X27.450 Y106.414 E2.53538
G1 X12.550 Y106.414 E2.82203
G1 X12.550 Y78.586 E3.35741
G1 X27.390 Y78.586 E3.64290
G1 X27.193 Y78.843 F6000.000
G1 F1800
G1 X27.193 Y106.157 E4.16839
G1 X12.807 Y106.157 E4.44515
G1 X12.807 Y78.843 E4.97064
G1 X27.133 Y78.843 E5.24624
G1 X26.936 Y79.100 F6000.000
G1 F1800
G1 X26.936 Y105.900 E5.76184
G1 X13.064 Y105.900 E6.02870
G1 X13.064 Y79.100 E6.54430
G1 X26.876 Y79.100 E6.81001
G1 X27.309 Y78.957 F6000.000
G1 E4.81001 F1200.00000
G92 E0
G1 Z0.700 F6000.000
G1 X27.450 Y71.414 F6000.000
G1 Z0.200 F6000.000
G1 E2.00000 F1200.00000
G1 F1800
G1 X12.550 Y71.414 E2.28665
G1 X12.550 Y43.586 E2.82203
G1 X27.450 Y43.586 E3.10868
G1 X27.450 Y71.354 E3.64290
G1 X27.193 Y71.157 F6000.000
G1 F1800
G1 X12.807 Y71.157 E3.91966
G1 X12.807 Y43.843 E4.44515
G1 X27.193 Y43.843 E4.72191
G1 X27.193 Y71.097 E5.24624
G1 X26.936 Y70.900 F6000.000
G1 F1800
G1 X13.064 Y70.900 E5.51311
G1 X13.064 Y44.100 E6.02870
G1 X26.936 Y44.100 E6.29557
G1 X26.936 Y70.840 E6.81001
G1 X26.999 Y71.295 F6000.000
G1 E4.81001 F1200.00000
G92 E0
G1 Z0.700 F6000.000
G1 X34.217 Y71.414 F6000.000
G1 Z0.200 F6000.000
G1 E2.00000 F1200.00000
G1 F1800
G1 X34.217 Y43.586 E2.53538
G1 X49.117 Y43.586 E2.82203
G1 X49.117 Y71.414 E3.35741
G1 X34.277 Y71.414 E3.64290
G1 X34.474 Y71.157 F6000.000
G1 F1800
G1 X34.474 Y43.843 E4.16839
G1 X48.859 Y43.843 E4.44515
G1 X48.859 Y71.157 E4.97064
G1 X34.534 Y71.157 E5.24624
G1 X34.731 Y70.900 F6000.000
G1 F1800
G1 X34.731 Y44.100 E5.76184
G1 X48.602 Y44.100 E6.02870
G1 X48.602 Y70.900 E6.54430
G1 X34.791 Y70.900 E6.81001
G1 X34.357 Y71.043 F6000.000
G1 E4.81001 F1200.00000
G92 E0
G1 Z0.700 F6000.000
G1 X55.883 Y71.414 F6000.000
G1 Z0.200 F6000.000
G1 E2.00000 F1200.00000
G1 F1800
G1 X55.883 Y51.836 E2.37666
G1 X70.783 Y51.836 E2.66331
G1 X70.783 Y71.414 E3.03997
G1 X55.943 Y71.414 E3.32547
G1 X56.141 Y71.157 F6000.000
G1 F1800
G1 X56.141 Y52.093 E3.69223
G1 X70.526 Y52.093 E3.96899
G1 X70.526 Y71.157 E4.33576
G1 X56.201 Y71.157 E4.61137
G1 X56.398 Y70.900 F6000.000
G1 F1800
G1 X56.398 Y52.350 E4.96824
G1 X70.269 Y52.350 E5.23511
G1 X70.269 Y70.900 E5.59199
G1 X56.458 Y70.900 E5.85770
G1 X56.017 Y71.022 F6000.000
G1 E3.85770 F1200.00000
G92 E0
G1 Z0.700 F6000.000
G1 X64.336 Y49.664 F6000.000
G1 Z0.200 F6000.000
G1 E2.00000 F1200.00000
G1 F1800
G1 X64.336 Y46.336 E2.06403
G1 X85.664 Y46.336 E2.47436
G1 X85.664 Y49.664 E2.53839
G1 X64.396 Y49.664 E2.94757
G1 X64.593 Y49.407 F6000.000
G1 F1800
G1 X64.593 Y46.593 E3.00171
G1 X85.407 Y46.593 E3.40214
G1 X85.407 Y49.407 E3.45628
G1 X64.653 Y49.407 E3.85556
G1 X64.850 Y49.150 F6000.000
G1 F1800
G1 X64.850 Y46.850 E3.89981
G1 X85.150 Y46.850 E4.29036
G1 X85.150 Y49.150 E4.33461
G1 X64.910 Y49.150 E4.72400
G1 X64.450 Y49.165 F6000.000
G1 E2.72400 F1200.00000
G92 E0
G1 Z0.700 F6000.000
G1 X77.550 Y51.836 F6000.000
G1 Z0.200 F6000.000
G1 E2.00000 F1200.00000
G1 F1800
G1 X92.450 Y51.836 E2.28665
G1 X92.450 Y71.414 E2.66331
G1 X77.550 Y71.414 E2.94996
G1 X77.550 Y51.896 E3.32547
G1 X77.807 Y52.093 F6000.000
G1 F1800
G1 X92.193 Y52.093 E3.60222
G1 X92.193 Y71.157 E3.96899
G1 X77.807 Y71.157 E4.24575
G1 X77.807 Y52.153 E4.61136
G1 X78.064 Y52.350 F6000.000
G1 F1800
G1 X91.936 Y52.350 E4.87823
G1 X91.936 Y70.900 E5.23511
G1 X78.064 Y70.900 E5.50197
G1 X78.064 Y52.410 E5.85770
G1 X77.979 Y51.959 F6000.000
G1 E3.85770 F1200.00000
G92 E0
G1 Z0.700 F6000.000
G1 X99.217 Y43.586 F6000.000
G1 Z0.200 F6000.000
G1 E2.00000 F1200.00000
G1 F1800
G1 X114.116 Y43.586 E2.28664
G1 X114.116 Y71.414 E2.82202
G1 X99.217 Y71.414 E3.10866
G1 X99.217 Y43.646 E3.64289
G1 X99.474 Y43.843 F6000.000
G1 F1800
G1 X113.859 Y43.843 E3.91964
G1 X113.859 Y71.157 E4.44513
G1 X99.474 Y71.157 E4.72188
G1 X99.474 Y43.903 E5.24621
G1 X99.731 Y44.100 F6000.000
G1 F1800
G1 X113.602 Y44.100 E5.51307
G1 X113.602 Y70.900 E6.02866
G1 X99.731 Y70.900 E6.29552
G1 X99.731 Y44.160 E6.80996
G1 X99.668 Y43.705 F6000.000
G1 E4.80996 F1200.00000
G92 E0
G1 Z0.700 F6000.000
G1 X120.884 Y43.586 F6000.000
G1 Z0.200 F6000.000
G1 E2.00000 F1200.00000
G1 F1800
G1 X135.783 Y43.586 E2.28664
G1 X135.783 Y71.414 E2.82202
G1 X120.884 Y71.414 E3.10866
G1 X120.884 Y43.646 E3.64289
G1 X121.141 Y43.843 F6000.000
G1 F1800
G1 X135.526 Y43.843 E3.91964
G1 X135.526 Y71.157 E4.44513
G1 X121.141 Y71.157 E4.72188
G1 X121.141 Y43.903 E5.24621
G1 X121.398 Y44.100 F6000.000
G1 F1800
G1 X135.269 Y44.100 E5.51307
G1 X135.269 Y70.900 E6.02866
G1 X121.398 Y70.900 E6.29552
G1 X121.398 Y44.160 E6.80996
G1 X121.335 Y43.705 F6000.000
G1 E4.80996 F1200.00000
G92 E0
G1 Z0.700 F6000.000
G1 X85.664 Y100.336 F6000.000
G1 Z0.200 F6000.000
G1 E2.00000 F1200.00000
G1 F1800
G1 X85.664 Y103.664 E2.06403
G1 X64.336 Y103.664 E2.47436
G1 X64.336 Y100.336 E2.53839
G1 X85.604 Y100.336 E2.94757
G1 X85.407 Y100.593 F6000.000
G1 F1800
G1 X85.407 Y103.407 E3.00171
G1 X64.593 Y103.407 E3.40214
G1 X64.593 Y100.593 E3.45628
G1 X85.347 Y100.593 E3.85556
G1 X85.150 Y100.850 F6000.000
G1 F1800
G1 X85.150 Y103.150 E3.89981
G1 X64.850 Y103.150 E4.29036
G1 X64.850 Y100.850 E4.33461
G1 X85.090 Y100.850 E4.72400
G1 X85.550 Y100.835 F6000.000
G1 E2.72400 F1200.00000
G92 E0
G1 Z0.700 F6000.000
G1 X139.336 Y109.336 F6000.000
G1 Z0.200 F6000.000
G1 E2.00000 F1200.00000
G1 F1800
G1 X10.664 Y109.336 E4.47547
G1 X10.664 Y40.664 E5.79662
G1 X139.336 Y40.664 E8.27208
G1 X139.336 Y109.276 E9.59208
G1 X139.593 Y109.593 F6000.000
G1 F1800
G1 X10.407 Y109.593 E12.07744
G1 X10.407 Y40.407 E13.40848
G1 X139.593 Y40.407 E15.89384
G1 X139.593 Y109.533 E17.22372
G1 X139.850 Y109.850 F6000.000
G1 F1800
G1 X10.150 Y109.850 E19.71898
G1 X10.150 Y40.150 E21.05991
G1 X139.850 Y40.150 E23.55516
G1 X139.850 Y109.790 E24.89494
G1 X139.455 Y109.785 F6000.000
G1 X138.970 Y109.188 F6000.000
G1 F1800
G1 X139.188 Y108.970 E24.90089
G1 X139.188 Y108.605 E24.90791
G1 X138.605 Y109.188 E24.92378
G1 X138.241 Y109.188 E24.93080
G1 X139.188 Y108.241 E24.95661
G1 X139.188 Y107.877 E24.96363
G1 X137.877 Y109.188 E24.99936
G1 X137.513 Y109.188 E25.00638
G1 X139.188 Y107.513 E25.05204
G1 X139.188 Y107.148 E25.05906
G1 X137.148 Y109.188 E25.11464
G1 X136.784 Y109.188 E25.12166
G1 X139.188 Y106.784 E25.18718
G1 X139.188 Y106.420 E25.19420
G1 X136.420 Y109.188 E25.26964
G1 X136.056 Y109.188 E25.27666
G1 X139.188 Y106.056 E25.36202
G1 X139.188 Y105.692 E25.36904
G1 X135.692 Y109.188 E25.46434
G1 X135.327 Y109.188 E25.47136
G1 X139.188 Y105.327 E25.57658
G1 X139.188 Y104.963 E25.58360
G1 X134.963 Y109.188 E25.69875
G1 X134.599 Y109.188 E25.70577
G1 X139.188 Y104.599 E25.83085
G1 X139.188 Y104.235 E25.83787
G1 X134.235 Y109.188 E25.97287
G1 X133.870 Y109.188 E25.97989
G1 X139.188 Y103.871 E26.12483
G1 X139.188 Y103.506 E26.13185
G1 X135.931 Y106.763 E26.22061
G1 X135.931 Y106.399 E26.22763
G1 X139.188 Y103.142 E26.31640
G1 X139.188 Y102.778 E26.32342
G1 X135.931 Y106.035 E26.41218
G1 X135.931 Y105.670 E26.41920
G1 X139.188 Y102.414 E26.50797
G1 X139.188 Y102.049 E26.51499
G1 X135.931 Y105.306 E26.60376
G1 X135.931 Y104.942 E26.61078
G1 X139.188 Y101.685 E26.69954
G1 X139.188 Y101.321 E26.70656
G1 X135.931 Y104.578 E26.79533
G1 X135.931 Y104.213 E26.80235
G1 X139.188 Y100.957 E26.89112
G1 X139.188 Y100.593 E26.89813
G1 X135.931 Y103.849 E26.98690
G1 X135.931 Y103.485 E26.99392
G1 X139.188 Y100.228 E27.08269
G1 X139.188 Y99.864 E27.08971
G1 X135.931 Y103.121 E27.17847
G1 X135.931 Y102.757 E27.18549
G1 X139.188 Y99.500 E27.27426
G1 X139.188 Y99.136 E27.28128
G1 X135.931 Y102.392 E27.37005
G1 X135.931 Y102.028 E27.37706
G1 X139.188 Y98.771 E27.46583
G1 X139.188 Y98.407 E27.47285
G1 X135.931 Y101.664 E27.56162
G1 X135.931 Y101.300 E27.56864
G1 X139.188 Y98.043 E27.65740
G1 X139.188 Y97.679 E27.66442
G1 X135.931 Y100.935 E27.75319
G1 X135.931 Y100.571 E27.76021
G1 X139.188 Y97.315 E27.84898
G1 X139.188 Y96.950 E27.85600
G1 X135.931 Y100.207 E27.94476
G1 X135.931 Y99.843 E27.95178
G1 X139.188 Y96.586 E28.04055
G1 X139.188 Y96.222 E28.04757
G1 X135.931 Y99.479 E28.13633
G1 X135.931 Y99.114 E28.14335
G1 X139.188 Y95.858 E28.23212
G1 X139.188 Y95.493 E28.23914
G1 X135.931 Y98.750 E28.32791
G1 X135.931 Y98.386 E28.33493
G1 X139.188 Y95.129 E28.42369
G1 X139.188 Y94.765 E28.43071
G1 X135.931 Y98.022 E28.51948
G1 X135.931 Y97.658 E28.52650
G1 X139.188 Y94.401 E28.61526
G1 X139.188 Y94.037 E28.62228
G1 X135.931 Y97.293 E28.71105
G1 X135.931 Y96.929 E28.71807
G1 X139.188 Y93.672 E28.80684
G1 X139.188 Y93.308 E28.81386
G1 X135.931 Y96.565 E28.90262
G1 X135.931 Y96.201 E28.90964
G1 X139.188 Y92.944 E28.99841
G1 X139.188 Y92.580 E29.00543
G1 X135.931 Y95.836 E29.09419
G1 X135.931 Y95.472 E29.10121
G1 X139.188 Y92.215 E29.18998
G1 X139.188 Y91.851 E29.19700
G1 X135.931 Y95.108 E29.28577
G1 X135.931 Y94.744 E29.29279
G1 X139.188 Y91.487 E29.38155
G1 X139.188 Y91.123 E29.38857
G1 X135.931 Y94.380 E29.47734
G1 X135.931 Y94.015 E29.48436
G1 X139.188 Y90.759 E29.57312
G1 X139.188 Y90.394 E29.58014
G1 X135.931 Y93.651 E29.66891
G1 X135.931 Y93.287 E29.67593
G1 X139.188 Y90.030 E29.76470
G1 X139.188 Y89.666 E29.77172
G1 X135.931 Y92.923 E29.86048
G1 X135.931 Y92.558 E29.86750
G1 X139.188 Y89.302 E29.95627
G1 X139.188 Y88.938 E29.96329
G1 X135.931 Y92.194 E30.05205
G1 X135.931 Y91.830 E30.05907
G1 X139.188 Y88.573 E30.14784
G1 X139.188 Y88.209 E30.15486
G1 X135.931 Y91.466 E30.24363
G1 X135.931 Y91.102 E30.25065
G1 X139.188 Y87.845 E30.33941
G1 X139.188 Y87.481 E30.34643
G1 X135.931 Y90.737 E30.43520
G1 X135.931 Y90.373 E30.44222
G1 X139.188 Y87.116 E30.53098
G1 X139.188 Y86.752 E30.53800
G1 X135.931 Y90.009 E30.62677
G1 X135.931 Y89.645 E30.63379
G1 X139.188 Y86.388 E30.72256
G1 X139.188 Y86.024 E30.72958
G1 X135.931 Y89.280 E30.81834
G1 X135.931 Y88.916 E30.82536
G1 X139.188 Y85.660 E30.91413
G1 X139.188 Y85.295 E30.92115
G1 X135.931 Y88.552 E31.00991
G1 X135.931 Y88.188 E31.01693
G1 X139.188 Y84.931 E31.10570
G1 X139.188 Y84.567 E31.11272
G1 X135.931 Y87.824 E31.20149
G1 X135.931 Y87.459 E31.20851
G1 X139.188 Y84.203 E31.29727
G1 X139.188 Y83.838 E31.30429
G1 X135.931 Y87.095 E31.39306
G1 X135.931 Y86.731 E31.40008
G1 X139.188 Y83.474 E31.48884
G1 X139.188 Y83.110 E31.49586
G1 X135.931 Y86.367 E31.58463
G1 X135.931 Y86.002 E31.59165
G1 X139.188 Y82.746 E31.68042
G1 X139.188 Y82.382 E31.68744
G1 X135.931 Y85.638 E31.77620
G1 X135.931 Y85.274 E31.78322
G1 X139.188 Y82.017 E31.87199
G1 X139.188 Y81.653 E31.87901
G1 X135.931 Y84.910 E31.96777
G1 X135.931 Y84.546 E31.97479
G1 X139.188 Y81.289 E32.06356
G1 X139.188 Y80.925 E32.07058
G1 X135.931 Y84.181 E32.15935
G1 X135.931 Y83.817 E32.16637
G1 X139.188 Y80.560 E32.25513
G1 X139.188 Y80.196 E32.26215
G1 X135.931 Y83.453 E32.35092
G1 X135.931 Y83.089 E32.35794
G1 X139.188 Y79.832 E32.44670
G1 X139.188 Y79.468 E32.45372
G1 X135.931 Y82.725 E32.54249
G1 X135.931 Y82.360 E32.54951
G1 X139.188 Y79.104 E32.63828
G1 X139.188 Y78.739 E32.64530
G1 X135.931 Y81.996 E32.73406
G1 X135.931 Y81.632 E32.74108
G1 X139.188 Y78.375 E32.82985
G1 X139.188 Y78.011 E32.83687
G1 X135.931 Y81.268 E32.92564
G1 X135.931 Y80.903 E32.93265
G1 X139.188 Y77.647 E33.02142
G1 X139.188 Y77.282 E33.02844
G1 X135.931 Y80.539 E33.11721
G1 X135.931 Y80.175 E33.12423
G1 X139.188 Y76.918 E33.21299
G1 X139.188 Y76.554 E33.22001
G1 X135.931 Y79.811 E33.30878
G1 X135.931 Y79.447 E33.31580
G1 X139.188 Y76.190 E33.40457
G1 X139.188 Y75.826 E33.41159
G1 X135.931 Y79.082 E33.50035
G1 X135.931 Y78.718 E33.50737
G1 X139.188 Y75.461 E33.59614
G1 X139.188 Y75.097 E33.60316
G1 X135.847 Y78.438 E33.69421
G1 X135.483 Y78.438 E33.70123
G1 X139.188 Y74.733 E33.80221
G1 X139.188 Y74.369 E33.80923
G1 X135.119 Y78.438 E33.92014
G1 X134.755 Y78.438 E33.92716
G1 X139.188 Y74.005 E34.04800
G1 X139.188 Y73.640 E34.05502
G1 X134.390 Y78.438 E34.18578
G1 X134.026 Y78.438 E34.19280
G1 X139.188 Y73.276 E34.33350
G1 X139.188 Y72.912 E34.34052
G1 X133.662 Y78.438 E34.49114
G1 X133.298 Y78.438 E34.49815
G1 X139.188 Y72.548 E34.65870
G1 X139.188 Y72.183 E34.66572
G1 X132.933 Y78.438 E34.83619
G1 X132.569 Y78.438 E34.84321
G1 X139.188 Y71.819 E35.02362
G1 X139.188 Y71.455 E35.03064
G1 X132.205 Y78.438 E35.22096
G1 X131.841 Y78.438 E35.22798
G1 X139.188 Y71.091 E35.42824
G1 X139.188 Y70.727 E35.43526
G1 X131.477 Y78.438 E35.64544
G1 X131.112 Y78.438 E35.65246
G1 X139.188 Y70.362 E35.87257
G1 X139.188 Y69.998 E35.87959
G1 X130.748 Y78.438 E36.10963
G1 X130.384 Y78.438 E36.11665
G1 X139.188 Y69.634 E36.35661
G1 X139.188 Y69.270 E36.36363
