; generated by Slic3r 1.3.0 on 2020-05-05 at 09:39:40

; external perimeters extrusion width = 0.44mm (2.86mm^3/s)
; perimeters extrusion width = 0.56mm (4.14mm^3/s)
; infill extrusion width = 0.50mm (3.66mm^3/s)
; solid infill extrusion width = 0.56mm (3.10mm^3/s)
; top infill extrusion width = 0.45mm (2.44mm^3/s)

M107
;D3D:START:START
T0
M104 S215 T0

G21
G90
M107
T0
G28
G29
M109 T0 S215 T0
G0 F3000
M107
T0
G92 E0
G0 X0 Y149 Z0.1 F3600
G1 Y49 E6.5 F1200
G0 Z1
G92 E0
; Filament gcode

G21 ; set units to millimeters
G90 ; use absolute coordinates
M82 ; use absolute distances for extrusion
G92 E0
G1 Z0.200 F6000.000
G1 E-2.00000 F1200.00000
G92 E0
G1 Z0.700 F6000.000
G1 X68.336 Y79.164 F6000.000
G1 Z0.200 F6000.000
G1 E2.00000 F1200.00000
G1 F1800
G1 X72.029 Y79.164 E2.07105
G1 X72.542 Y78.975 E2.08158
G1 X73.021 Y78.840 E2.09115
G1 X73.509 Y78.743 E2.10072
G1 X74.003 Y78.684 E2.11029
G1 X74.500 Y78.665 E2.11986
G1 X74.997 Y78.684 E2.12943
G1 X75.491 Y78.743 E2.13900
G1 X75.979 Y78.840 E2.14857
G1 X76.458 Y78.975 E2.15814
G1 X76.924 Y79.147 E2.16771
G1 X77.376 Y79.355 E2.17728
G1 X77.810 Y79.598 E2.18685
G1 X78.224 Y79.875 E2.19642
G1 X78.614 Y80.183 E2.20599
G1 X78.980 Y80.520 E2.21556
G1 X79.317 Y80.886 E2.22513
G1 X79.625 Y81.276 E2.23470
G1 X79.898 Y81.684 E2.24414
G1 X80.421 Y82.664 E2.26551
G1 X85.836 Y82.664 E2.36969
G1 X85.836 Y83.836 E2.39223
G1 X80.142 Y83.836 E2.50178
G1 X79.983 Y83.219 E2.51404
G1 X79.826 Y82.794 E2.52275
G1 X79.636 Y82.383 E2.53146
G1 X79.415 Y81.988 E2.54017
G1 X79.164 Y81.612 E2.54888
G1 X78.883 Y81.256 E2.55759
G1 X78.576 Y80.924 E2.56629
G1 X78.244 Y80.616 E2.57500
G1 X77.888 Y80.336 E2.58371
G1 X77.512 Y80.085 E2.59242
G1 X77.117 Y79.864 E2.60113
G1 X76.706 Y79.674 E2.60983
G1 X76.281 Y79.517 E2.61854
G1 X75.846 Y79.395 E2.62725
G1 X75.402 Y79.306 E2.63596
G1 X74.952 Y79.253 E2.64467
G1 X74.500 Y79.235 E2.65338
G1 X74.048 Y79.253 E2.66208
G1 X73.598 Y79.306 E2.67079
G1 X73.154 Y79.395 E2.67950
G1 X72.719 Y79.517 E2.68821
G1 X72.294 Y79.674 E2.69692
G1 X71.883 Y79.864 E2.70563
G1 X71.484 Y80.087 E2.71441
G1 X71.112 Y80.336 E2.72304
G1 X70.756 Y80.617 E2.73175
G1 X70.424 Y80.924 E2.74046
G1 X70.117 Y81.256 E2.74916
G1 X69.836 Y81.612 E2.75787
G1 X69.585 Y81.988 E2.76658
G1 X69.364 Y82.383 E2.77529
G1 X69.174 Y82.794 E2.78400
G1 X69.017 Y83.219 E2.79271
G1 X68.895 Y83.654 E2.80141
G1 X68.806 Y84.098 E2.81012
G1 X68.753 Y84.548 E2.81883
G1 X68.735 Y85.000 E2.82754
G1 X68.753 Y85.452 E2.83625
G1 X68.806 Y85.902 E2.84495
G1 X68.895 Y86.346 E2.85366
G1 X69.017 Y86.781 E2.86237
G1 X69.174 Y87.206 E2.87108
G1 X69.364 Y87.617 E2.87979
G1 X69.585 Y88.012 E2.88849
G1 X69.836 Y88.388 E2.89720
G1 X70.117 Y88.744 E2.90591
G1 X70.424 Y89.076 E2.91462
G1 X70.756 Y89.383 E2.92333
G1 X71.112 Y89.664 E2.93204
G1 X71.484 Y89.913 E2.94066
G1 X71.883 Y90.136 E2.94945
G1 X72.294 Y90.326 E2.95816
G1 X72.719 Y90.483 E2.96687
G1 X73.154 Y90.605 E2.97558
G1 X73.598 Y90.694 E2.98429
G1 X74.048 Y90.747 E2.99299
G1 X74.500 Y90.765 E3.00170
G1 X74.952 Y90.747 E3.01041
G1 X75.402 Y90.694 E3.01912
G1 X75.846 Y90.605 E3.02783
G1 X76.281 Y90.483 E3.03653
G1 X76.702 Y90.327 E3.04516
G1 X77.117 Y90.136 E3.05395
G1 X77.512 Y89.915 E3.06266
G1 X77.888 Y89.664 E3.07137
G1 X78.244 Y89.383 E3.08008
G1 X78.576 Y89.076 E3.08878
G1 X78.881 Y88.747 E3.09741
G1 X79.164 Y88.389 E3.10620
G1 X79.415 Y88.012 E3.11491
G1 X79.636 Y87.617 E3.12361
G1 X79.826 Y87.206 E3.13232
G1 X79.983 Y86.781 E3.14103
G1 X80.142 Y86.164 E3.15329
G1 X85.836 Y86.164 E3.26285
G1 X85.836 Y87.336 E3.28539
G1 X80.421 Y87.336 E3.38957
G1 X79.898 Y88.316 E3.41094
G1 X79.625 Y88.724 E3.42038
G1 X79.317 Y89.114 E3.42995
G1 X78.980 Y89.480 E3.43952
G1 X78.614 Y89.817 E3.44909
G1 X78.224 Y90.125 E3.45866
G1 X77.810 Y90.402 E3.46823
G1 X77.376 Y90.645 E3.47779
G1 X76.919 Y90.855 E3.48747
G1 X76.458 Y91.025 E3.49694
G1 X75.979 Y91.160 E3.50651
G1 X75.491 Y91.257 E3.51608
G1 X74.997 Y91.316 E3.52565
G1 X74.500 Y91.335 E3.53522
G1 X74.003 Y91.316 E3.54479
G1 X73.509 Y91.257 E3.55436
G1 X73.021 Y91.160 E3.56393
G1 X72.542 Y91.025 E3.57350
G1 X72.029 Y90.836 E3.58403
G1 X68.336 Y90.836 E3.65508
G1 X68.336 Y99.336 E3.81860
G1 X66.664 Y99.336 E3.85077
G1 X66.664 Y70.664 E4.40237
G1 X68.336 Y70.664 E4.43453
G1 X68.336 Y79.104 E4.59690
G1 X68.593 Y78.907 F6000.000
G1 F1800
G1 X71.983 Y78.907 E4.66212
G1 X72.463 Y78.730 E4.67196
G1 X72.961 Y78.590 E4.68192
G1 X73.469 Y78.489 E4.69188
G1 X73.983 Y78.428 E4.70184
G1 X74.500 Y78.407 E4.71180
G1 X75.017 Y78.428 E4.72176
G1 X75.531 Y78.489 E4.73172
G1 X76.039 Y78.590 E4.74168
G1 X76.537 Y78.730 E4.75163
G1 X77.023 Y78.909 E4.76159
G1 X77.493 Y79.126 E4.77155
G1 X77.945 Y79.379 E4.78151
G1 X78.375 Y79.666 E4.79147
G1 X78.782 Y79.987 E4.80143
G1 X79.162 Y80.338 E4.81139
G1 X79.513 Y80.718 E4.82135
G1 X79.834 Y81.125 E4.83130
G1 X80.119 Y81.552 E4.84118
G1 X80.575 Y82.407 E4.85983
G1 X86.093 Y82.407 E4.96599
G1 X86.093 Y84.093 E4.99842
G1 X79.931 Y84.093 E5.11698
G1 X79.855 Y83.714 E5.12441
G1 X79.738 Y83.298 E5.13273
G1 X79.588 Y82.892 E5.14104
G1 X79.407 Y82.500 E5.14937
G1 X79.196 Y82.122 E5.15768
G1 X78.956 Y81.763 E5.16600
G1 X78.688 Y81.423 E5.17432
G1 X78.394 Y81.106 E5.18264
G1 X78.077 Y80.812 E5.19096
G1 X77.737 Y80.544 E5.19928
G1 X77.378 Y80.304 E5.20760
G1 X77.000 Y80.093 E5.21592
G1 X76.608 Y79.912 E5.22424
G1 X76.202 Y79.762 E5.23256
G1 X75.786 Y79.645 E5.24088
G1 X75.362 Y79.560 E5.24920
G1 X74.932 Y79.510 E5.25752
G1 X74.500 Y79.493 E5.26584
G1 X74.068 Y79.510 E5.27416
G1 X73.638 Y79.560 E5.28248
G1 X73.214 Y79.645 E5.29080
G1 X72.798 Y79.762 E5.29912
G1 X72.392 Y79.912 E5.30744
G1 X71.999 Y80.093 E5.31576
G1 X71.619 Y80.306 E5.32415
G1 X71.263 Y80.544 E5.33239
G1 X70.923 Y80.812 E5.34071
G1 X70.606 Y81.106 E5.34903
G1 X70.312 Y81.423 E5.35735
G1 X70.044 Y81.763 E5.36567
G1 X69.804 Y82.122 E5.37399
G1 X69.593 Y82.500 E5.38231
G1 X69.412 Y82.892 E5.39063
G1 X69.262 Y83.298 E5.39895
G1 X69.145 Y83.714 E5.40727
G1 X69.060 Y84.138 E5.41559
G1 X69.010 Y84.568 E5.42391
G1 X68.993 Y85.000 E5.43223
G1 X69.010 Y85.432 E5.44055
G1 X69.060 Y85.862 E5.44887
G1 X69.145 Y86.286 E5.45719
G1 X69.262 Y86.702 E5.46551
G1 X69.412 Y87.108 E5.47383
G1 X69.593 Y87.500 E5.48215
G1 X69.804 Y87.878 E5.49046
G1 X70.044 Y88.237 E5.49878
G1 X70.312 Y88.577 E5.50710
G1 X70.606 Y88.894 E5.51542
G1 X70.923 Y89.188 E5.52374
G1 X71.263 Y89.456 E5.53206
G1 X71.619 Y89.694 E5.54030
G1 X71.999 Y89.907 E5.54870
G1 X72.392 Y90.088 E5.55702
G1 X72.798 Y90.238 E5.56534
G1 X73.214 Y90.355 E5.57366
G1 X73.638 Y90.440 E5.58198
G1 X74.068 Y90.490 E5.59030
G1 X74.500 Y90.507 E5.59862
G1 X74.932 Y90.490 E5.60694
G1 X75.362 Y90.440 E5.61526
G1 X75.786 Y90.355 E5.62358
G1 X76.202 Y90.238 E5.63190
G1 X76.604 Y90.090 E5.64014
G1 X77.000 Y89.907 E5.64853
G1 X77.378 Y89.696 E5.65685
G1 X77.737 Y89.456 E5.66517
G1 X78.077 Y89.188 E5.67349
G1 X78.394 Y88.894 E5.68181
G1 X78.685 Y88.580 E5.69005
G1 X78.956 Y88.237 E5.69845
G1 X79.196 Y87.878 E5.70677
G1 X79.407 Y87.500 E5.71509
G1 X79.588 Y87.108 E5.72341
G1 X79.738 Y86.702 E5.73173
G1 X79.855 Y86.286 E5.74005
G1 X79.931 Y85.907 E5.74748
G1 X86.093 Y85.907 E5.86603
G1 X86.093 Y87.593 E5.89847
G1 X80.575 Y87.593 E6.00463
G1 X80.119 Y88.448 E6.02327
G1 X79.834 Y88.875 E6.03315
G1 X79.513 Y89.282 E6.04311
G1 X79.162 Y89.662 E6.05307
G1 X78.782 Y90.013 E6.06303
G1 X78.375 Y90.334 E6.07299
G1 X77.945 Y90.621 E6.08294
G1 X77.493 Y90.874 E6.09290
G1 X77.018 Y91.093 E6.10297
G1 X76.537 Y91.270 E6.11282
G1 X76.039 Y91.410 E6.12278
G1 X75.531 Y91.511 E6.13274
G1 X75.017 Y91.572 E6.14270
G1 X74.500 Y91.593 E6.15266
G1 X73.983 Y91.572 E6.16261
G1 X73.469 Y91.511 E6.17257
G1 X72.961 Y91.410 E6.18253
G1 X72.463 Y91.270 E6.19249
G1 X71.983 Y91.093 E6.20233
G1 X68.593 Y91.093 E6.26755
G1 X68.593 Y99.593 E6.43108
G1 X66.407 Y99.593 E6.47313
G1 X66.407 Y70.407 E7.03463
G1 X68.593 Y70.407 E7.07668
G1 X68.593 Y78.847 E7.23905
G1 X68.850 Y78.650 F6000.000
G1 F1800
G1 X71.937 Y78.650 E7.29844
G1 X72.383 Y78.485 E7.30759
G1 X72.901 Y78.339 E7.31794
G1 X73.428 Y78.234 E7.32829
G1 X73.963 Y78.171 E7.33864
G1 X74.500 Y78.150 E7.34898
G1 X75.037 Y78.171 E7.35933
G1 X75.572 Y78.234 E7.36968
G1 X76.099 Y78.339 E7.38003
G1 X76.617 Y78.485 E7.39037
G1 X77.121 Y78.671 E7.40072
G1 X77.610 Y78.897 E7.41107
G1 X78.079 Y79.159 E7.42142
G1 X78.526 Y79.458 E7.43176
G1 X78.949 Y79.791 E7.44211
G1 X79.344 Y80.156 E7.45246
G1 X79.709 Y80.551 E7.46281
G1 X80.042 Y80.974 E7.47315
G1 X80.340 Y81.420 E7.48347
G1 X80.729 Y82.150 E7.49940
G1 X86.350 Y82.150 E7.60753
G1 X86.350 Y84.350 E7.64986
G1 X79.706 Y84.350 E7.77769
G1 X79.605 Y83.774 E7.78893
G1 X79.493 Y83.378 E7.79686
G1 X79.350 Y82.991 E7.80479
G1 X79.178 Y82.616 E7.81272
G1 X78.976 Y82.257 E7.82065
G1 X78.747 Y81.914 E7.82858
G1 X78.492 Y81.590 E7.83651
G1 X78.212 Y81.288 E7.84444
G1 X77.910 Y81.008 E7.85238
G1 X77.586 Y80.753 E7.86031
G1 X77.243 Y80.523 E7.86824
G1 X76.883 Y80.322 E7.87617
G1 X76.509 Y80.150 E7.88410
G1 X76.122 Y80.007 E7.89203
G1 X75.726 Y79.895 E7.89996
G1 X75.321 Y79.815 E7.90789
G1 X74.912 Y79.766 E7.91582
G1 X74.500 Y79.750 E7.92375
G1 X74.088 Y79.766 E7.93168
G1 X73.679 Y79.815 E7.93961
G1 X73.274 Y79.895 E7.94755
G1 X72.878 Y80.007 E7.95548
G1 X72.491 Y80.150 E7.96341
G1 X72.116 Y80.322 E7.97134
G1 X71.753 Y80.526 E7.97935
G1 X71.414 Y80.753 E7.98720
G1 X71.090 Y81.008 E7.99513
G1 X70.788 Y81.288 E8.00306
G1 X70.508 Y81.590 E8.01099
G1 X70.253 Y81.914 E8.01892
G1 X70.024 Y82.257 E8.02686
G1 X69.822 Y82.616 E8.03478
G1 X69.650 Y82.991 E8.04272
G1 X69.507 Y83.378 E8.05065
G1 X69.395 Y83.774 E8.05858
G1 X69.315 Y84.179 E8.06651
G1 X69.266 Y84.588 E8.07444
G1 X69.250 Y85.000 E8.08237
G1 X69.266 Y85.412 E8.09030
G1 X69.315 Y85.821 E8.09823
G1 X69.395 Y86.226 E8.10616
G1 X69.507 Y86.622 E8.11409
G1 X69.650 Y87.009 E8.12203
G1 X69.822 Y87.384 E8.12996
G1 X70.024 Y87.743 E8.13789
G1 X70.253 Y88.086 E8.14582
G1 X70.508 Y88.410 E8.15375
G1 X70.788 Y88.712 E8.16168
G1 X71.090 Y88.992 E8.16961
G1 X71.414 Y89.247 E8.17754
G1 X71.753 Y89.474 E8.18540
G1 X72.116 Y89.678 E8.19340
G1 X72.491 Y89.850 E8.20133
G1 X72.878 Y89.993 E8.20926
G1 X73.274 Y90.105 E8.21720
G1 X73.679 Y90.185 E8.22513
G1 X74.088 Y90.234 E8.23306
G1 X74.500 Y90.250 E8.24099
G1 X74.912 Y90.234 E8.24892
G1 X75.321 Y90.185 E8.25685
G1 X75.726 Y90.105 E8.26478
G1 X76.122 Y89.993 E8.27271
G1 X76.505 Y89.852 E8.28056
G1 X76.883 Y89.678 E8.28857
G1 X77.243 Y89.476 E8.29650
G1 X77.586 Y89.247 E8.30444
G1 X77.910 Y88.992 E8.31237
G1 X78.212 Y88.712 E8.32030
G1 X78.489 Y88.413 E8.32815
G1 X78.747 Y88.086 E8.33616
G1 X78.976 Y87.743 E8.34409
G1 X79.178 Y87.384 E8.35202
G1 X79.350 Y87.009 E8.35995
G1 X79.493 Y86.622 E8.36788
G1 X79.605 Y86.226 E8.37581
G1 X79.706 Y85.650 E8.38706
G1 X86.350 Y85.650 E8.51488
G1 X86.350 Y87.850 E8.55721
G1 X80.729 Y87.850 E8.66535
G1 X80.340 Y88.580 E8.68127
G1 X80.042 Y89.026 E8.69159
G1 X79.709 Y89.449 E8.70193
G1 X79.344 Y89.844 E8.71228
G1 X78.949 Y90.209 E8.72263
G1 X78.526 Y90.542 E8.73298
G1 X78.079 Y90.841 E8.74332
G1 X77.610 Y91.103 E8.75367
G1 X77.116 Y91.330 E8.76412
G1 X76.617 Y91.515 E8.77437
G1 X76.099 Y91.661 E8.78471
G1 X75.572 Y91.766 E8.79506
G1 X75.037 Y91.829 E8.80541
G1 X74.500 Y91.850 E8.81576
G1 X73.963 Y91.829 E8.82610
G1 X73.428 Y91.766 E8.83645
G1 X72.901 Y91.661 E8.84680
G1 X72.383 Y91.515 E8.85715
G1 X71.937 Y91.350 E8.86630
G1 X68.850 Y91.350 E8.92569
G1 X68.850 Y99.850 E9.08922
G1 X66.150 Y99.850 E9.14116
G1 X66.150 Y70.150 E9.71255
G1 X68.850 Y70.150 E9.76449
G1 X68.850 Y78.590 E9.92687
G1 X68.891 Y79.048 F6000.000
G1 E7.92687 F1200.00000
G92 E0
G1 Z0.700 F6000.000
G1 X72.077 Y79.450 F6000.000
G1 Z0.200 F6000.000
G1 E2.00000 F1200.00000
G1 F1800
G1 X72.630 Y79.246 E2.01252
G1 X73.094 Y79.116 E2.02273
G1 X73.554 Y79.025 E2.03268
G1 X74.019 Y78.969 E2.04263
G1 X74.500 Y78.950 E2.05284
G1 X74.981 Y78.969 E2.06306
G1 X75.446 Y79.025 E2.07301
G1 X75.906 Y79.116 E2.08296
G1 X76.370 Y79.246 E2.09317
G1 X76.815 Y79.411 E2.10325
G1 X77.247 Y79.609 E2.11333
G1 X77.666 Y79.845 E2.12354
G1 X78.056 Y80.105 E2.13349
G1 X78.424 Y80.396 E2.14345
G1 X78.778 Y80.722 E2.15366
G1 X79.104 Y81.076 E2.16387
G1 X79.395 Y81.444 E2.17382
G1 X79.653 Y81.831 E2.18369
G1 X80.152 Y82.793 E2.20670
G1 X80.306 Y82.948 F6000.000
G1 F1800
G1 X80.088 Y83.167 E2.21273
G1 X80.171 Y83.453 E2.21854
G1 X80.812 Y82.812 E2.23622
G1 X81.180 Y82.812 E2.24342
G1 X80.305 Y83.688 E2.26760
G1 X80.674 Y83.688 E2.27480
G1 X81.549 Y82.812 E2.29898
G1 X81.918 Y82.812 E2.30618
G1 X81.043 Y83.688 E2.33035
G1 X81.411 Y83.688 E2.33756
G1 X82.287 Y82.812 E2.36173
G1 X82.656 Y82.812 E2.36894
G1 X81.780 Y83.688 E2.39311
G1 X82.149 Y83.688 E2.40031
G1 X83.025 Y82.812 E2.42449
G1 X83.394 Y82.812 E2.43169
G1 X82.518 Y83.688 E2.45587
G1 X82.887 Y83.688 E2.46307
G1 X83.763 Y82.812 E2.48725
G1 X84.132 Y82.812 E2.49445
G1 X83.256 Y83.688 E2.51863
G1 X83.625 Y83.688 E2.52583
G1 X84.501 Y82.812 E2.55000
G1 X84.870 Y82.812 E2.55721
G1 X83.994 Y83.688 E2.58138
G1 X84.363 Y83.688 E2.58858
G1 X85.239 Y82.812 E2.61276
G1 X85.607 Y82.812 E2.61996
G1 X84.732 Y83.688 E2.64414
G1 X85.101 Y83.688 E2.65134
G1 X85.688 Y83.101 E2.66755
G1 X85.688 Y83.470 E2.67475
G1 X85.470 Y83.688 E2.68078
G1 E0.68078 F1200.00000
G92 E0
G1 Z0.700 F6000.000
G1 X85.470 Y87.188 F6000.000
G1 Z0.200 F6000.000
G1 E2.00000 F1200.00000
G1 F1800
G1 X85.688 Y86.970 E2.00602
G1 X85.688 Y86.601 E2.01320
G1 X85.101 Y87.188 E2.02938
G1 X84.733 Y87.188 E2.03657
G1 X85.608 Y86.312 E2.06071
G1 X85.240 Y86.312 E2.06790
G1 X84.364 Y87.188 E2.09204
G1 X83.996 Y87.188 E2.09923
G1 X84.871 Y86.312 E2.12337
G1 X84.503 Y86.312 E2.13056
G1 X83.627 Y87.188 E2.15470
G1 X83.259 Y87.188 E2.16189
G1 X84.135 Y86.312 E2.18603
G1 X83.766 Y86.312 E2.19322
G1 X82.890 Y87.188 E2.21736
G1 X82.522 Y87.188 E2.22455
G1 X83.398 Y86.312 E2.24869
G1 X83.029 Y86.312 E2.25588
G1 X82.153 Y87.188 E2.28002
G1 X81.785 Y87.188 E2.28721
G1 X82.661 Y86.312 E2.31135
G1 X82.292 Y86.312 E2.31854
G1 X81.417 Y87.188 E2.34268
G1 X81.048 Y87.188 E2.34987
G1 X81.924 Y86.312 E2.37401
G1 X81.555 Y86.312 E2.38120
G1 X80.680 Y87.188 E2.40534
G1 X80.362 Y87.188 E2.41153
G1 X80.328 Y87.171 E2.41227
G1 X81.187 Y86.312 E2.43595
G1 X80.818 Y86.312 E2.44314
G1 X80.093 Y87.037 E2.46313
G1 X80.232 Y86.531 E2.47337
G1 X80.450 Y86.312 E2.47939
G1 X80.152 Y87.207 F6000.000
G1 F1800
G1 X79.653 Y88.169 E2.50240
G1 X79.395 Y88.556 E2.51227
G1 X79.101 Y88.928 E2.52232
G1 X78.778 Y89.278 E2.53243
G1 X78.424 Y89.604 E2.54264
G1 X78.056 Y89.895 E2.55260
G1 X77.666 Y90.155 E2.56255
G1 X77.247 Y90.390 E2.57275
G1 X76.810 Y90.591 E2.58295
G1 X76.364 Y90.756 E2.59305
G1 X75.912 Y90.883 E2.60300
G1 X75.452 Y90.974 E2.61295
G1 X74.975 Y91.031 E2.62317
G1 X74.500 Y91.050 E2.63325
G1 X74.019 Y91.031 E2.64346
G1 X73.554 Y90.975 E2.65341
G1 X73.094 Y90.884 E2.66336
G1 X72.630 Y90.754 E2.67357
G1 X72.077 Y90.550 E2.68609
G1 X71.339 Y90.688 F6000.000
G1 F1800
G1 X71.808 Y90.219 E2.69895
G1 X71.574 Y90.087 E2.70417
G1 X70.973 Y90.688 E2.72064
G1 X70.607 Y90.688 E2.72774
G1 X71.347 Y89.948 E2.74803
G1 X71.127 Y89.801 E2.75315
G1 X70.240 Y90.688 E2.77747
G1 X69.874 Y90.688 E2.78458
G1 X70.918 Y89.643 E2.81321
G1 X70.713 Y89.482 E2.81827
G1 X69.507 Y90.688 E2.85134
G1 X69.141 Y90.688 E2.85845
G1 X70.522 Y89.307 E2.89632
G1 X70.333 Y89.129 E2.90134
G1 X68.774 Y90.688 E2.94408
G1 X68.408 Y90.688 E2.95118
G1 X70.157 Y88.939 E2.99914
G1 X69.985 Y88.745 E3.00417
G1 X68.042 Y90.688 E3.05746
G1 X67.970 Y90.688 E3.05885
G1 X67.970 Y90.760 E3.06025
G1 E1.06025 F1200.00000
G92 E0
G1 Z0.700 F6000.000
G1 X66.812 Y83.856 F6000.000
G1 Z0.200 F6000.000
G1 E2.00000 F1200.00000
G1 F1800
G1 X71.356 Y79.312 E2.12459
G1 X70.989 Y79.312 E2.13170
G1 X66.812 Y83.489 E2.24625
G1 X66.812 Y83.123 E2.25335
G1 X70.623 Y79.312 E2.35785
G1 X70.256 Y79.312 E2.36495
G1 X66.812 Y82.756 E2.45940
G1 X66.812 Y82.390 E2.46651
G1 X69.890 Y79.312 E2.55091
G1 X69.524 Y79.312 E2.55801
G1 X66.812 Y82.024 E2.63237
G1 X66.812 Y81.657 E2.63947
G1 X69.157 Y79.312 E2.70377
G1 X68.791 Y79.312 E2.71088
G1 X66.812 Y81.291 E2.76513
G1 X66.812 Y80.924 E2.77224
G1 X68.424 Y79.312 E2.81645
