<<<<<<< Updated upstream
; generated by Slic3r 1.3.0 on 2020-04-24 at 11:32:29
=======
; generated by Slic3r 1.3.0 on 2020-04-24 at 13:36:51
>>>>>>> Stashed changes

; external perimeters extrusion width = 0.44mm (2.86mm^3/s)
; perimeters extrusion width = 0.56mm (4.14mm^3/s)
; infill extrusion width = 0.50mm (5.48mm^3/s)
; solid infill extrusion width = 0.56mm (3.10mm^3/s)
; top infill extrusion width = 0.45mm (2.44mm^3/s)

M107
;D3D:START:START
T0
M104 S215 T0

G21
G90
M107
T0
G28
G29
M109 T0 S215 T0
G0 F3000
M107
T0
G92 E0
G0 X0 Y149 Z0.1 F3600
G1 Y49 E6.5 F1200
G0 Z1
G92 E0
; Filament gcode

G21 ; set units to millimeters
G90 ; use absolute coordinates
M82 ; use absolute distances for extrusion
G92 E0
G1 Z0.200 F6000.000
G1 E-2.00000 F1200.00000
G92 E0
G1 X61.999 Y56.628 F6000.000
G1 E2.00000 F1200.00000
G1 F1800
G1 X63.642 Y55.695 E2.03636
G1 X65.000 Y55.486 E2.06279
G1 X85.000 Y55.486 E2.44756
G1 X86.848 Y55.881 E2.48392
G1 X88.372 Y56.999 E2.52027
G1 X89.305 Y58.642 E2.55663
G1 X89.514 Y60.000 E2.58306
G1 X89.514 Y90.000 E3.16022
G1 X89.119 Y91.848 E3.19658
G1 X88.001 Y93.372 E3.23294
G1 X86.358 Y94.305 E3.26929
G1 X85.000 Y94.514 E3.29572
G1 X65.000 Y94.514 E3.68050
G1 X63.152 Y94.119 E3.71685
G1 X61.628 Y93.001 E3.75321
G1 X60.695 Y91.358 E3.78957
G1 X60.486 Y90.000 E3.81600
G1 X60.486 Y60.000 E4.39316
G1 X60.881 Y58.152 E4.42951
G1 X61.963 Y56.676 E4.46472
G1 X62.251 Y56.750 F6000.000
G1 F1800
G1 X63.874 Y55.895 E4.50001
G1 X65.000 Y55.743 E4.52187
G1 X85.000 Y55.743 E4.90665
G1 X86.791 Y56.138 E4.94194
G1 X88.250 Y57.251 E4.97724
G1 X89.105 Y58.874 E5.01253
G1 X89.257 Y60.000 E5.03439
G1 X89.257 Y90.000 E5.61155
G1 X88.862 Y91.791 E5.64685
G1 X87.749 Y93.250 E5.68214
G1 X86.126 Y94.105 E5.71744
G1 X85.000 Y94.257 E5.73930
G1 X65.000 Y94.257 E6.12407
G1 X63.209 Y93.862 E6.15937
G1 X61.750 Y92.749 E6.19466
G1 X60.895 Y91.126 E6.22996
G1 X60.743 Y90.000 E6.25182
G1 X60.743 Y60.000 E6.82898
G1 X61.138 Y58.209 E6.86427
G1 X62.214 Y56.797 E6.89841
G1 E4.89841 F1200.00000
G92 E0
G1 X82.664 Y87.664 F6000.000
G1 E2.00000 F1200.00000
G1 F1800
G1 X75.836 Y87.664 E2.13137
G1 X75.836 Y62.336 E2.61865
G1 X82.664 Y62.336 E2.75002
G1 X82.664 Y87.604 E3.23614
G1 X82.407 Y87.407 F6000.000
G1 F1800
G1 X76.093 Y87.407 E3.35762
G1 X76.093 Y62.593 E3.83501
G1 X82.407 Y62.593 E3.95649
G1 X82.407 Y87.347 E4.43272
G1 X82.150 Y87.150 F6000.000
G1 F1800
G1 X76.350 Y87.150 E4.54431
G1 X76.350 Y62.850 E5.01181
G1 X82.150 Y62.850 E5.12339
G1 X82.150 Y87.090 E5.58973
G1 X82.181 Y87.549 F6000.000
G1 E3.58973 F1200.00000
G92 E0
G1 X74.164 Y87.664 F6000.000
G1 E2.00000 F1200.00000
G1 F1800
G1 X67.336 Y87.664 E2.13137
G1 X67.336 Y62.336 E2.61865
G1 X74.164 Y62.336 E2.75002
G1 X74.164 Y87.604 E3.23614
G1 X73.907 Y87.407 F6000.000
G1 F1800
G1 X67.593 Y87.407 E3.35762
G1 X67.593 Y62.593 E3.83501
G1 X73.907 Y62.593 E3.95649
G1 X73.907 Y87.347 E4.43272
G1 X73.650 Y87.150 F6000.000
G1 F1800
G1 X67.850 Y87.150 E4.54431
G1 X67.850 Y62.850 E5.01181
G1 X73.650 Y62.850 E5.12339
G1 X73.650 Y87.090 E5.58973
G1 X73.681 Y87.549 F6000.000
G1 E3.58973 F1200.00000
G92 E0
G1 X65.664 Y89.336 F6000.000
G1 E2.00000 F1200.00000
G1 F1800
G1 X65.664 Y60.664 E2.55160
G1 X84.336 Y60.664 E2.91082
G1 X84.336 Y89.336 E3.46243
G1 X65.724 Y89.336 E3.82049
G1 X65.407 Y89.593 F6000.000
G1 F1800
G1 X65.407 Y60.407 E4.38198
G1 X84.593 Y60.407 E4.75109
G1 X84.593 Y89.593 E5.31259
G1 X65.467 Y89.593 E5.68054
G1 X65.150 Y89.850 F6000.000
G1 F1800
G1 X65.150 Y60.150 E6.25193
G1 X84.850 Y60.150 E6.63093
G1 X84.850 Y89.850 E7.20232
G1 X65.210 Y89.850 E7.58017
G1 X65.228 Y89.458 F6000.000
G1 E5.58017 F1200.00000
G92 E0
G1 X73.029 Y89.188 F6000.000
G1 E2.00000 F1200.00000
G1 F1800
G1 X74.405 Y87.812 E2.03754
G1 X74.040 Y87.812 E2.04458
G1 X72.664 Y89.188 E2.08213
G1 X72.300 Y89.188 E2.08916
G1 X73.675 Y87.812 E2.12671
G1 X73.311 Y87.812 E2.13375
G1 X71.935 Y89.188 E2.17129
G1 X71.570 Y89.188 E2.17833
G1 X72.946 Y87.812 E2.21587
G1 X72.581 Y87.812 E2.22291
G1 X71.206 Y89.188 E2.26046
G1 X70.841 Y89.188 E2.26749
G1 X72.217 Y87.812 E2.30504
G1 X71.852 Y87.812 E2.31208
G1 X70.476 Y89.188 E2.34962
G1 X70.112 Y89.188 E2.35666
G1 X71.487 Y87.812 E2.39420
G1 X71.123 Y87.812 E2.40124
G1 X69.747 Y89.188 E2.43878
G1 X69.382 Y89.188 E2.44582
G1 X70.758 Y87.812 E2.48337
G1 X70.393 Y87.812 E2.49040
G1 X69.018 Y89.188 E2.52795
G1 X68.653 Y89.188 E2.53499
G1 X70.029 Y87.812 E2.57253
G1 X69.664 Y87.812 E2.57957
G1 X68.288 Y89.188 E2.61711
G1 X67.924 Y89.188 E2.62415
G1 X69.299 Y87.812 E2.66170
G1 X68.935 Y87.812 E2.66873
G1 X67.559 Y89.188 E2.70628
G1 X67.194 Y89.188 E2.71332
G1 X68.570 Y87.812 E2.75086
G1 X68.205 Y87.812 E2.75790
G1 X66.829 Y89.188 E2.79544
G1 X66.465 Y89.188 E2.80248
G1 X67.840 Y87.812 E2.84003
G1 X67.476 Y87.812 E2.84706
G1 X66.100 Y89.188 E2.88461
G1 X65.812 Y89.188 E2.89016
G1 X65.812 Y89.111 E2.89165
G1 X67.188 Y87.735 E2.92919
G1 X67.188 Y87.371 E2.93623
G1 X65.812 Y88.746 E2.97377
G1 X65.812 Y88.382 E2.98081
G1 X67.188 Y87.006 E3.01835
G1 X67.188 Y86.641 E3.02539
G1 X65.812 Y88.017 E3.06294
G1 X65.812 Y87.652 E3.06997
G1 X67.188 Y86.277 E3.10752
G1 X67.188 Y85.912 E3.11456
G1 X65.812 Y87.288 E3.15210
G1 X65.812 Y86.923 E3.15914
G1 X67.188 Y85.547 E3.19668
G1 X67.188 Y85.183 E3.20372
G1 X65.812 Y86.558 E3.24127
G1 X65.812 Y86.194 E3.24830
G1 X67.188 Y84.818 E3.28585
G1 X67.188 Y84.453 E3.29289
G1 X65.812 Y85.829 E3.33043
G1 X65.812 Y85.464 E3.33747
G1 X67.188 Y84.089 E3.37501
G1 X67.188 Y83.724 E3.38205
G1 X65.812 Y85.100 E3.41959
G1 X65.812 Y84.735 E3.42663
G1 X67.188 Y83.359 E3.46418
G1 X67.188 Y82.995 E3.47121
G1 X65.812 Y84.370 E3.50876
G1 X65.812 Y84.006 E3.51580
G1 X67.188 Y82.630 E3.55334
G1 X67.188 Y82.265 E3.56038
G1 X65.812 Y83.641 E3.59792
G1 X65.812 Y83.276 E3.60496
G1 X67.188 Y81.900 E3.64251
G1 X67.188 Y81.536 E3.64954
G1 X65.812 Y82.911 E3.68709
G1 X65.812 Y82.547 E3.69413
G1 X67.188 Y81.171 E3.73167
G1 X67.188 Y80.806 E3.73871
G1 X65.812 Y82.182 E3.77625
G1 X65.812 Y81.817 E3.78329
G1 X67.188 Y80.442 E3.82084
G1 X67.188 Y80.077 E3.82787
G1 X65.812 Y81.453 E3.86542
G1 X65.812 Y81.088 E3.87245
G1 X67.188 Y79.712 E3.91000
G1 X67.188 Y79.348 E3.91704
G1 X65.812 Y80.723 E3.95458
G1 X65.812 Y80.359 E3.96162
G1 X67.188 Y78.983 E3.99916
G1 X67.188 Y78.618 E4.00620
G1 X65.812 Y79.994 E4.04375
G1 X65.812 Y79.629 E4.05078
G1 X67.188 Y78.254 E4.08833
G1 X67.188 Y77.889 E4.09537
G1 X65.812 Y79.265 E4.13291
G1 X65.812 Y78.900 E4.13995
G1 X67.188 Y77.524 E4.17749
G1 X67.188 Y77.160 E4.18453
G1 X65.812 Y78.535 E4.22208
G1 X65.812 Y78.171 E4.22911
G1 X67.188 Y76.795 E4.26666
G1 X67.188 Y76.430 E4.27370
G1 X65.812 Y77.806 E4.31124
G1 X65.812 Y77.441 E4.31828
G1 X67.188 Y76.066 E4.35582
G1 X67.188 Y75.701 E4.36286
G1 X65.812 Y77.077 E4.40040
G1 X65.812 Y76.712 E4.40744
G1 X67.188 Y75.336 E4.44499
G1 X67.188 Y74.971 E4.45202
G1 X65.812 Y76.347 E4.48957
G1 X65.812 Y75.983 E4.49661
G1 X67.188 Y74.607 E4.53415
G1 X67.188 Y74.242 E4.54119
G1 X65.812 Y75.618 E4.57873
G1 X65.812 Y75.253 E4.58577
G1 X67.188 Y73.877 E4.62332
G1 X67.188 Y73.513 E4.63035
G1 X65.812 Y74.888 E4.66790
G1 X65.812 Y74.524 E4.67494
G1 X67.188 Y73.148 E4.71248
G1 X67.188 Y72.783 E4.71952
G1 X65.812 Y74.159 E4.75706
G1 X65.812 Y73.794 E4.76410
G1 X67.188 Y72.419 E4.80164
G1 X67.188 Y72.054 E4.80868
G1 X65.812 Y73.430 E4.84623
G1 X65.812 Y73.065 E4.85326
G1 X67.188 Y71.689 E4.89081
G1 X67.188 Y71.325 E4.89785
G1 X65.812 Y72.700 E4.93539
G1 X65.812 Y72.336 E4.94243
G1 X67.188 Y70.960 E4.97997
G1 X67.188 Y70.595 E4.98701
G1 X65.812 Y71.971 E5.02456
G1 X65.812 Y71.606 E5.03159
G1 X67.188 Y70.231 E5.06914
G1 X67.188 Y69.866 E5.07618
G1 X65.812 Y71.242 E5.11372
G1 X65.812 Y70.877 E5.12076
G1 X67.188 Y69.501 E5.15830
G1 X67.188 Y69.137 E5.16534
G1 X65.812 Y70.512 E5.20288
G1 X65.812 Y70.148 E5.20992
G1 X67.188 Y68.772 E5.24747
G1 X67.188 Y68.407 E5.25450
G1 X65.812 Y69.783 E5.29205
G1 X65.812 Y69.418 E5.29909
G1 X67.188 Y68.043 E5.33663
G1 X67.188 Y67.678 E5.34367
G1 X65.812 Y69.054 E5.38121
G1 X65.812 Y68.689 E5.38825
G1 X67.188 Y67.313 E5.42580
G1 X67.188 Y66.948 E5.43283
G1 X65.812 Y68.324 E5.47038
G1 X65.812 Y67.959 E5.47742
G1 X67.188 Y66.584 E5.51496
G1 X67.188 Y66.219 E5.52200
G1 X65.812 Y67.595 E5.55954
G1 X65.812 Y67.230 E5.56658
G1 X67.188 Y65.854 E5.60412
G1 X67.188 Y65.490 E5.61116
G1 X65.812 Y66.865 E5.64871
G1 X65.812 Y66.501 E5.65574
G1 X67.188 Y65.125 E5.69329
G1 X67.188 Y64.760 E5.70033
G1 X65.812 Y66.136 E5.73787
G1 X65.812 Y65.771 E5.74491
G1 X67.188 Y64.396 E5.78245
G1 X67.188 Y64.031 E5.78949
G1 X65.812 Y65.407 E5.82704
G1 X65.812 Y65.042 E5.83407
G1 X67.188 Y63.666 E5.87162
G1 X67.188 Y63.302 E5.87866
G1 X65.812 Y64.677 E5.91620
G1 X65.812 Y64.313 E5.92324
G1 X67.188 Y62.937 E5.96078
G1 X67.188 Y62.572 E5.96782
G1 X65.812 Y63.948 E6.00536
G1 X65.812 Y63.583 E6.01240
G1 X67.188 Y62.208 E6.04995
G1 X65.812 Y61.030 F6000.000
G1 F1800
G1 X66.031 Y60.812 E6.05590
G1 X66.395 Y60.812 E6.06294
G1 X65.812 Y61.395 E6.07885
G1 X65.812 Y61.760 E6.08589
G1 X66.760 Y60.812 E6.11175
G1 X67.125 Y60.812 E6.11879
G1 X65.812 Y62.125 E6.15461
G1 X65.812 Y62.489 E6.16164
G1 X67.489 Y60.812 E6.20741
G1 X67.854 Y60.812 E6.21445
G1 X65.812 Y62.854 E6.27017
G1 X65.812 Y63.219 E6.27721
G1 X68.219 Y60.812 E6.34289
G1 X68.583 Y60.812 E6.34992
G1 X67.208 Y62.188 E6.38747
G1 X67.572 Y62.188 E6.39451
G1 X68.948 Y60.812 E6.43205
G1 X69.313 Y60.812 E6.43909
G1 X67.937 Y62.188 E6.47663
G1 X68.302 Y62.188 E6.48367
G1 X69.677 Y60.812 E6.52122
G1 X70.042 Y60.812 E6.52825
G1 X68.666 Y62.188 E6.56580
G1 X69.031 Y62.188 E6.57284
G1 X70.407 Y60.812 E6.61038
G1 X70.771 Y60.812 E6.61742
G1 X69.396 Y62.188 E6.65496
G1 X69.760 Y62.188 E6.66200
G1 X71.136 Y60.812 E6.69955
G1 X71.501 Y60.812 E6.70658
G1 X70.125 Y62.188 E6.74413
G1 X70.490 Y62.188 E6.75117
G1 X71.865 Y60.812 E6.78871
G1 X72.230 Y60.812 E6.79575
G1 X70.854 Y62.188 E6.83329
G1 X71.219 Y62.188 E6.84033
G1 X72.595 Y60.812 E6.87787
G1 X72.959 Y60.812 E6.88491
G1 X71.584 Y62.188 E6.92246
G1 X71.948 Y62.188 E6.92949
G1 X73.324 Y60.812 E6.96704
G1 X73.689 Y60.812 E6.97408
G1 X72.313 Y62.188 E7.01162
G1 X72.678 Y62.188 E7.01866
G1 X74.054 Y60.812 E7.05620
G1 X74.418 Y60.812 E7.06324
G1 X73.043 Y62.188 E7.10079
G1 X73.407 Y62.188 E7.10782
G1 X74.783 Y60.812 E7.14537
G1 X75.148 Y60.812 E7.15241
G1 X73.772 Y62.188 E7.18995
G1 X74.137 Y62.188 E7.19699
G1 X75.512 Y60.812 E7.23453
G1 X75.877 Y60.812 E7.24157
G1 X74.312 Y62.377 E7.28428
G1 X74.312 Y62.742 E7.29131
G1 X76.242 Y60.812 E7.34397
G1 X76.606 Y60.812 E7.35101
G1 X74.312 Y63.106 E7.41362
G1 X74.312 Y63.471 E7.42066
G1 X75.470 Y62.313 E7.45225
G1 X75.470 Y62.188 E7.45467
G1 X75.595 Y62.188 E7.45710
G1 X76.971 Y60.812 E7.49464
G1 X77.336 Y60.812 E7.50168
G1 X75.960 Y62.188 E7.53922
G1 X76.325 Y62.188 E7.54626
G1 X77.700 Y60.812 E7.58381
G1 X78.065 Y60.812 E7.59084
G1 X76.689 Y62.188 E7.62839
G1 X77.054 Y62.188 E7.63542
G1 X78.430 Y60.812 E7.67297
G1 X78.794 Y60.812 E7.68001
G1 X77.419 Y62.188 E7.71755
G1 X77.783 Y62.188 E7.72459
G1 X79.159 Y60.812 E7.76213
G1 X79.524 Y60.812 E7.76917
G1 X78.148 Y62.188 E7.80672
G1 X78.513 Y62.188 E7.81375
G1 X79.888 Y60.812 E7.85130
G1 X80.253 Y60.812 E7.85834
G1 X78.877 Y62.188 E7.89588
G1 X79.242 Y62.188 E7.90292
G1 X80.618 Y60.812 E7.94046
G1 X80.983 Y60.812 E7.94750
G1 X79.607 Y62.188 E7.98505
G1 X79.971 Y62.188 E7.99208
G1 X81.347 Y60.812 E8.02963
G1 X81.712 Y60.812 E8.03667
G1 X80.336 Y62.188 E8.07421
G1 X80.701 Y62.188 E8.08125
G1 X82.077 Y60.812 E8.11879
G1 X82.441 Y60.812 E8.12583
G1 X81.066 Y62.188 E8.16337
G1 X81.430 Y62.188 E8.17041
G1 X82.806 Y60.812 E8.20796
G1 X83.171 Y60.812 E8.21499
G1 X81.795 Y62.188 E8.25254
G1 X82.160 Y62.188 E8.25958
G1 X83.535 Y60.812 E8.29712
G1 X83.900 Y60.812 E8.30416
G1 X82.524 Y62.188 E8.34170
G1 X82.812 Y62.188 E8.34726
G1 X82.812 Y62.265 E8.34874
G1 X84.188 Y60.889 E8.38629
G1 X84.188 Y61.254 E8.39332
G1 X82.812 Y62.629 E8.43087
G1 X82.812 Y62.994 E8.43791
G1 X84.188 Y61.618 E8.47545
G1 X84.188 Y61.983 E8.48249
G1 X82.812 Y63.359 E8.52003
G1 X82.812 Y63.723 E8.52707
G1 X84.188 Y62.348 E8.56461
G1 X84.188 Y62.712 E8.57165
G1 X82.812 Y64.088 E8.60920
G1 X82.812 Y64.453 E8.61623
G1 X84.188 Y63.077 E8.65378
G1 X84.188 Y63.442 E8.66082
G1 X82.812 Y64.817 E8.69836
G1 X82.812 Y65.182 E8.70540
G1 X84.188 Y63.806 E8.74294
G1 X84.188 Y64.171 E8.74998
G1 X82.812 Y65.547 E8.78753
G1 X82.812 Y65.912 E8.79456
G1 X84.188 Y64.536 E8.83211
G1 X84.188 Y64.900 E8.83915
G1 X82.812 Y66.276 E8.87669
G1 X82.812 Y66.641 E8.88373
G1 X84.188 Y65.265 E8.92127
G1 X84.188 Y65.630 E8.92831
G1 X82.812 Y67.006 E8.96585
G1 X82.812 Y67.370 E8.97289
G1 X84.188 Y65.995 E9.01044
G1 X84.188 Y66.359 E9.01747
G1 X82.812 Y67.735 E9.05502
G1 X82.812 Y68.100 E9.06206
G1 X84.188 Y66.724 E9.09960
G1 X84.188 Y67.089 E9.10664
G1 X82.812 Y68.464 E9.14418
G1 X82.812 Y68.829 E9.15122
G1 X84.188 Y67.453 E9.18877
G1 X84.188 Y67.818 E9.19580
G1 X82.812 Y69.194 E9.23335
G1 X82.812 Y69.558 E9.24039
G1 X84.188 Y68.183 E9.27793
G1 X84.188 Y68.547 E9.28497
G1 X82.812 Y69.923 E9.32251
G1 X82.812 Y70.288 E9.32955
G1 X84.188 Y68.912 E9.36709
G1 X84.188 Y69.277 E9.37413
G1 X82.812 Y70.652 E9.41168
G1 X82.812 Y71.017 E9.41871
G1 X84.188 Y69.641 E9.45626
G1 X84.188 Y70.006 E9.46330
G1 X82.812 Y71.382 E9.50084
G1 X82.812 Y71.746 E9.50788
G1 X84.188 Y70.371 E9.54542
G1 X84.188 Y70.735 E9.55246
G1 X82.812 Y72.111 E9.59001
G1 X82.812 Y72.476 E9.59704
G1 X84.188 Y71.100 E9.63459
G1 X84.188 Y71.465 E9.64163
G1 X82.812 Y72.840 E9.67917
G1 X82.812 Y73.205 E9.68621
G1 X84.188 Y71.829 E9.72375
G1 X84.188 Y72.194 E9.73079
G1 X82.812 Y73.570 E9.76833
G1 X82.812 Y73.935 E9.77537
G1 X84.188 Y72.559 E9.81292
G1 X84.188 Y72.924 E9.81995
G1 X82.812 Y74.299 E9.85750
G1 X82.812 Y74.664 E9.86454
G1 X84.188 Y73.288 E9.90208
G1 X84.188 Y73.653 E9.90912
G1 X82.812 Y75.029 E9.94666
G1 X82.812 Y75.393 E9.95370
G1 X84.188 Y74.018 E9.99125
G1 X84.188 Y74.382 E9.99828
G1 X82.812 Y75.758 E10.03583
G1 X82.812 Y76.123 E10.04287
G1 X84.188 Y74.747 E10.08041
G1 X84.188 Y75.112 E10.08745
G1 X82.812 Y76.487 E10.12499
G1 X82.812 Y76.852 E10.13203
G1 X84.188 Y75.476 E10.16957
G1 X84.188 Y75.841 E10.17661
G1 X82.812 Y77.217 E10.21416
G1 X82.812 Y77.581 E10.22119
G1 X84.188 Y76.206 E10.25874
G1 X84.188 Y76.570 E10.26578
G1 X82.812 Y77.946 E10.30332
G1 X82.812 Y78.311 E10.31036
G1 X84.188 Y76.935 E10.34790
G1 X84.188 Y77.300 E10.35494
G1 X82.812 Y78.675 E10.39249
G1 X82.812 Y79.040 E10.39952
G1 X84.188 Y77.664 E10.43707
G1 X84.188 Y78.029 E10.44411
G1 X82.812 Y79.405 E10.48165
G1 X82.812 Y79.769 E10.48869
G1 X84.188 Y78.394 E10.52623
G1 X84.188 Y78.758 E10.53327
G1 X82.812 Y80.134 E10.57081
G1 X82.812 Y80.499 E10.57785
G1 X84.188 Y79.123 E10.61540
G1 X84.188 Y79.488 E10.62243
G1 X82.812 Y80.864 E10.65998
G1 X82.812 Y81.228 E10.66702
G1 X84.188 Y79.852 E10.70456
G1 X84.188 Y80.217 E10.71160
G1 X82.812 Y81.593 E10.74914
G1 X82.812 Y81.958 E10.75618
G1 X84.188 Y80.582 E10.79373
G1 X84.188 Y80.947 E10.80076
G1 X82.812 Y82.322 E10.83831
G1 X82.812 Y82.687 E10.84535
G1 X84.188 Y81.311 E10.88289
G1 X84.188 Y81.676 E10.88993
G1 X82.812 Y83.052 E10.92747
G1 X82.812 Y83.416 E10.93451
G1 X84.188 Y82.041 E10.97205
G1 X84.188 Y82.405 E10.97909
G1 X82.812 Y83.781 E11.01664
G1 X82.812 Y84.146 E11.02367
G1 X84.188 Y82.770 E11.06122
G1 X84.188 Y83.135 E11.06826
G1 X82.812 Y84.510 E11.10580
G1 X82.812 Y84.875 E11.11284
G1 X84.188 Y83.499 E11.15038
G1 X84.188 Y83.864 E11.15742
G1 X82.812 Y85.240 E11.19497
G1 X82.812 Y85.604 E11.20200
G1 X84.188 Y84.229 E11.23955
G1 X84.188 Y84.593 E11.24659
G1 X82.812 Y85.969 E11.28413
G1 X82.812 Y86.334 E11.29117
G1 X84.188 Y84.958 E11.32871
G1 X84.188 Y85.323 E11.33575
G1 X82.812 Y86.698 E11.37329
G1 X82.812 Y87.063 E11.38033
G1 X84.188 Y85.687 E11.41788
G1 X84.188 Y86.052 E11.42491
G1 X82.812 Y87.428 E11.46246
G1 X82.812 Y87.792 E11.46950
G1 X84.188 Y86.417 E11.50704
G1 X84.188 Y86.781 E11.51408
G1 X81.781 Y89.188 E11.57975
G1 X82.146 Y89.188 E11.58679
G1 X84.188 Y87.146 E11.64251
G1 X84.188 Y87.511 E11.64955
G1 X82.511 Y89.188 E11.69532
G1 X82.876 Y89.188 E11.70235
G1 X84.188 Y87.876 E11.73817
