; generated by Slic3r 1.3.1-dev (Build (Unknown revision)) on 2020-07-25 at 23:02:01

; external perimeters extrusion width = 0.44mm (2.86mm^3/s)
; perimeters extrusion width = 0.56mm (4.14mm^3/s)
; infill extrusion width = 0.50mm (5.48mm^3/s)
; solid infill extrusion width = 0.56mm (3.10mm^3/s)
; top infill extrusion width = 0.45mm (2.44mm^3/s)

M107
G92 E0
;D3D:START:START
T0
M104 S215 T0

G21
G90
M107
T0
G28
G29
M109 T0 S215 T0
G0 F3000
M107
T0
G92 E0
G0 X0 Y149 Z0.1 F3600
G1 Y49 E6.5 F1200
G0 Z1
G92 E0
; Filament gcode

G21 ; set units to millimeters
G90 ; use absolute coordinates
M82 ; use absolute distances for extrusion
G92 E0
G1 Z0.300 F6000.000
G1 E-2.00000 F1200.00000
G92 E0
G1 X47.074 Y46.505 F6000.000
G1 E2.00000 F1200.00000
G1 F1800.000
G1 X48.501 Y45.186 E2.08693
G1 X49.966 Y44.609 E2.15734
G1 X53.410 Y43.887 E2.31477
G1 X54.455 Y43.741 E2.36196
G1 X55.505 Y43.661 E2.40906
G1 X103.473 Y42.663 E4.55512
G1 X105.384 Y43.019 E4.64205
G1 X106.994 Y44.108 E4.72898
G1 X108.036 Y45.748 E4.81591
G1 X108.343 Y47.433 E4.89253
G1 X108.343 Y72.433 E6.01077
G1 X108.245 Y73.395 E6.05403
G1 X103.716 Y95.395 E7.05873
G1 X102.944 Y97.179 E7.14566
G1 X101.526 Y98.507 E7.23259
G1 X99.941 Y99.119 E7.30857
G1 X61.999 Y106.394 E9.03665
G1 X55.574 Y107.293 E9.32680
G1 X54.918 Y107.338 E9.35623
G1 X53.814 Y107.338 E9.40560
G1 X52.822 Y107.234 E9.45022
G1 X51.743 Y107.004 E9.49959
G1 X50.794 Y106.696 E9.54419
G1 X49.786 Y106.247 E9.59357
G1 X48.922 Y105.748 E9.63821
G1 X48.028 Y105.099 E9.68758
G1 X47.287 Y104.432 E9.73219
G1 X46.378 Y103.412 E9.79332
G1 X43.170 Y99.427 E10.02216
G1 X42.285 Y97.697 E10.10909
G1 X42.115 Y96.519 E10.16230
G1 X41.657 Y70.674 E11.31852
G1 X41.761 Y69.598 E11.36689
G1 X46.291 Y48.284 E12.34154
G1 X47.050 Y46.560 E12.42579
G1 X47.434 Y46.666 F6000.000
G1 F1800.000
G1 X48.834 Y45.439 E12.50909
G1 X50.046 Y44.987 E12.56695
G1 X53.479 Y44.267 E12.72384
G1 X54.500 Y44.124 E12.76994
G1 X55.664 Y44.041 E12.82216
G1 X103.481 Y43.048 E14.96147
G1 X105.309 Y43.406 E15.04477
G1 X106.823 Y44.490 E15.12808
G1 X107.752 Y46.104 E15.21138
G1 X107.958 Y47.433 E15.27152
G1 X107.958 Y72.433 E16.38977
G1 X107.868 Y73.317 E16.42953
G1 X103.338 Y95.318 E17.43423
G1 X102.584 Y97.020 E17.51754
G1 X101.191 Y98.257 E17.60084
G1 X99.868 Y98.740 E17.66383
G1 X61.926 Y106.016 E19.39190
G1 X55.521 Y106.911 E19.68117
G1 X54.918 Y106.953 E19.70821
G1 X53.814 Y106.953 E19.75759
G1 X52.902 Y106.857 E19.79860
G1 X51.823 Y106.627 E19.84797
G1 X50.951 Y106.344 E19.88897
G1 X49.943 Y105.895 E19.93834
G1 X49.148 Y105.436 E19.97938
G1 X48.255 Y104.788 E20.02875
G1 X47.574 Y104.174 E20.06975
G1 X46.679 Y103.170 E20.12993
G1 X43.470 Y99.185 E20.35877
G1 X42.637 Y97.520 E20.44208
G1 X42.501 Y96.512 E20.48754
G1 X42.043 Y70.667 E21.64376
G1 X42.138 Y69.678 E21.68822
G1 X46.668 Y48.364 E22.66287
G1 X47.409 Y46.721 E22.74349
G1 E20.74349 F1200.00000
G92 E0
G1 X56.961 Y97.043 F6000.000
G1 E2.00000 F1200.00000
G1 F1800.000
G1 X56.918 Y97.858 E2.03651
G1 X56.625 Y98.620 E2.07301
G1 X56.112 Y99.255 E2.10952
G1 X55.427 Y99.699 E2.14603
G1 X54.639 Y99.910 E2.18253
G1 X53.824 Y99.868 E2.21904
G1 X53.062 Y99.575 E2.25555
G1 X52.428 Y99.061 E2.29206
G1 X51.983 Y98.377 E2.32857
G1 X51.772 Y97.589 E2.36507
G1 X51.815 Y96.774 E2.40158
G1 X52.107 Y96.012 E2.43809
G1 X52.621 Y95.377 E2.47460
G1 X53.305 Y94.933 E2.51110
G1 X54.094 Y94.722 E2.54761
G1 X54.909 Y94.764 E2.58411
G1 X55.671 Y95.057 E2.62062
G1 X56.305 Y95.570 E2.65713
G1 X56.749 Y96.255 E2.69364
G1 X56.945 Y96.985 E2.72746
G1 X56.572 Y97.084 F6000.000
G1 F1800.000
G1 X56.536 Y97.777 E2.75850
G1 X56.287 Y98.425 E2.78954
G1 X55.851 Y98.964 E2.82059
G1 X55.268 Y99.342 E2.85163
G1 X54.598 Y99.522 E2.88267
G1 X53.905 Y99.486 E2.91372
G1 X53.257 Y99.237 E2.94476
G1 X52.718 Y98.800 E2.97580
G1 X52.340 Y98.218 E3.00685
G1 X52.160 Y97.548 E3.03789
G1 X52.196 Y96.855 E3.06893
G1 X52.445 Y96.207 E3.09998
G1 X52.882 Y95.667 E3.13102
G1 X53.464 Y95.289 E3.16206
G1 X54.134 Y95.110 E3.19311
G1 X54.827 Y95.146 E3.22415
G1 X55.475 Y95.395 E3.25519
G1 X56.015 Y95.832 E3.28624
G1 X56.393 Y96.414 E3.31728
G1 X56.557 Y97.026 E3.34564
G1 X56.184 Y97.125 F6000.000
G1 F1800.000
G1 X56.154 Y97.696 E3.37122
G1 X55.949 Y98.230 E3.39680
G1 X55.589 Y98.674 E3.42238
G1 X55.110 Y98.986 E3.44796
G1 X54.557 Y99.134 E3.47354
G1 X53.986 Y99.104 E3.49912
G1 X53.452 Y98.899 E3.52469
G1 X53.008 Y98.539 E3.55027
G1 X52.696 Y98.059 E3.57586
G1 X52.548 Y97.507 E3.60143
G1 X52.578 Y96.936 E3.62701
G1 X52.783 Y96.402 E3.65259
G1 X53.143 Y95.958 E3.67817
G1 X53.623 Y95.646 E3.70375
G1 X54.175 Y95.498 E3.72933
G1 X54.746 Y95.528 E3.75491
G1 X55.280 Y95.733 E3.78049
G1 X55.725 Y96.093 E3.80607
G1 X56.036 Y96.572 E3.83165
G1 X56.168 Y97.067 E3.85454
G1 X56.549 Y97.288 F6000.000
G1 E1.85454 F1200.00000
G92 E0
G1 X56.531 Y91.009 F6000.000
G1 E2.00000 F1200.00000
G1 F1800.000
G1 X55.716 Y90.966 E2.03650
G1 X54.954 Y90.674 E2.07301
G1 X54.320 Y90.160 E2.10952
G1 X53.875 Y89.476 E2.14602
G1 X53.664 Y88.687 E2.18253
G1 X53.707 Y87.872 E2.21904
G1 X53.999 Y87.110 E2.25555
G1 X54.513 Y86.476 E2.29205
G1 X55.197 Y86.032 E2.32856
G1 X55.986 Y85.820 E2.36507
G1 X56.801 Y85.863 E2.40157
G1 X57.563 Y86.156 E2.43808
G1 X58.197 Y86.669 E2.47458
G1 X58.641 Y87.354 E2.51109
G1 X58.853 Y88.142 E2.54760
G1 X58.810 Y88.957 E2.58411
G1 X58.517 Y89.719 E2.62062
G1 X58.004 Y90.353 E2.65712
G1 X57.319 Y90.798 E2.69363
G1 X56.589 Y90.994 E2.72745
G1 X56.490 Y90.621 F6000.000
G1 F1800.000
G1 X55.797 Y90.584 E2.75850
G1 X55.149 Y90.336 E2.78954
G1 X54.610 Y89.899 E2.82058
G1 X54.232 Y89.317 E2.85162
G1 X54.052 Y88.647 E2.88267
G1 X54.088 Y87.954 E2.91371
G1 X54.337 Y87.306 E2.94475
G1 X54.774 Y86.766 E2.97579
G1 X55.356 Y86.388 E3.00684
G1 X56.026 Y86.209 E3.03788
G1 X56.719 Y86.245 E3.06893
G1 X57.367 Y86.494 E3.09997
G1 X57.907 Y86.930 E3.13101
G1 X58.285 Y87.512 E3.16205
G1 X58.464 Y88.183 E3.19310
G1 X58.428 Y88.876 E3.22414
G1 X58.179 Y89.524 E3.25518
G1 X57.743 Y90.063 E3.28622
G1 X57.160 Y90.441 E3.31727
G1 X56.548 Y90.605 E3.34563
G1 X56.449 Y90.233 F6000.000
G1 F1800.000
G1 X55.878 Y90.203 E3.37121
G1 X55.344 Y89.998 E3.39679
G1 X54.900 Y89.638 E3.42237
G1 X54.588 Y89.158 E3.44795
G1 X54.440 Y88.606 E3.47353
G1 X54.470 Y88.035 E3.49911
G1 X54.675 Y87.501 E3.52468
G1 X55.035 Y87.056 E3.55026
G1 X55.515 Y86.745 E3.57584
G1 X56.067 Y86.597 E3.60142
G1 X56.638 Y86.627 E3.62700
G1 X57.172 Y86.832 E3.65258
G1 X57.617 Y87.192 E3.67816
G1 X57.928 Y87.671 E3.70374
G1 X58.076 Y88.224 E3.72932
G1 X58.046 Y88.795 E3.75490
G1 X57.841 Y89.329 E3.78048
G1 X57.481 Y89.773 E3.80605
G1 X57.002 Y90.085 E3.83164
G1 X56.507 Y90.217 E3.85453
G1 X56.287 Y90.598 F6000.000
G1 E1.85453 F1200.00000
G92 E0
G1 X57.608 Y82.065 F6000.000
G1 E2.00000 F1200.00000
G1 F1800.000
G1 X56.846 Y81.773 E2.03651
G1 X56.212 Y81.259 E2.07301
G1 X55.767 Y80.575 E2.10952
G1 X55.556 Y79.786 E2.14603
G1 X55.599 Y78.971 E2.18254
G1 X55.891 Y78.209 E2.21904
G1 X56.405 Y77.575 E2.25555
G1 X57.089 Y77.131 E2.29206
G1 X57.877 Y76.919 E2.32856
G1 X58.693 Y76.962 E2.36507
G1 X59.455 Y77.254 E2.40158
G1 X60.089 Y77.768 E2.43808
G1 X60.533 Y78.453 E2.47459
G1 X60.745 Y79.241 E2.51110
G1 X60.702 Y80.056 E2.54760
G1 X60.409 Y80.818 E2.58411
G1 X59.896 Y81.452 E2.62062
G1 X59.211 Y81.897 E2.65713
G1 X58.423 Y82.108 E2.69363
G1 X57.668 Y82.068 E2.72746
G1 X57.689 Y81.683 F6000.000
G1 F1800.000
G1 X57.041 Y81.435 E2.75850
G1 X56.502 Y80.998 E2.78954
G1 X56.124 Y80.416 E2.82059
G1 X55.944 Y79.745 E2.85163
G1 X55.980 Y79.052 E2.88267
G1 X56.229 Y78.405 E2.91371
G1 X56.666 Y77.865 E2.94476
G1 X57.248 Y77.487 E2.97580
G1 X57.918 Y77.308 E3.00685
G1 X58.611 Y77.344 E3.03789
G1 X59.259 Y77.593 E3.06893
G1 X59.799 Y78.029 E3.09998
G1 X60.177 Y78.611 E3.13102
G1 X60.356 Y79.282 E3.16206
G1 X60.320 Y79.975 E3.19311
G1 X60.071 Y80.623 E3.22415
G1 X59.634 Y81.162 E3.25520
G1 X59.052 Y81.540 E3.28624
G1 X58.382 Y81.720 E3.31728
G1 X57.749 Y81.687 E3.34564
G1 X57.770 Y81.301 F6000.000
G1 F1800.000
G1 X57.236 Y81.097 E3.37122
G1 X56.792 Y80.737 E3.39680
G1 X56.480 Y80.257 E3.42238
G1 X56.332 Y79.705 E3.44796
G1 X56.362 Y79.134 E3.47354
G1 X56.567 Y78.600 E3.49911
G1 X56.927 Y78.155 E3.52470
G1 X57.407 Y77.844 E3.55027
G1 X57.959 Y77.696 E3.57585
G1 X58.530 Y77.726 E3.60143
G1 X59.064 Y77.931 E3.62701
G1 X59.509 Y78.291 E3.65259
G1 X59.820 Y78.770 E3.67817
G1 X59.968 Y79.323 E3.70375
G1 X59.938 Y79.894 E3.72933
G1 X59.733 Y80.428 E3.75491
G1 X59.373 Y80.872 E3.78049
G1 X58.894 Y81.183 E3.80607
G1 X58.341 Y81.331 E3.83165
G1 X57.830 Y81.305 E3.85454
G1 X57.503 Y81.599 F6000.000
G1 E1.85454 F1200.00000
G92 E0
G1 X64.521 Y80.821 F6000.000
G1 E2.00000 F1200.00000
G1 F1800.000
G1 X60.333 Y100.527 E2.90116
G1 X57.703 Y99.968 E3.02139
G1 X57.229 Y100.495 E3.05310
G1 X56.505 Y101.021 E3.09311
G1 X55.688 Y101.385 E3.13312
G1 X54.813 Y101.571 E3.17313
G1 X53.919 Y101.571 E3.21313
G1 X53.044 Y101.385 E3.25314
G1 X52.227 Y101.021 E3.29314
G1 X51.504 Y100.495 E3.33315
G1 X50.905 Y99.831 E3.37316
G1 X50.458 Y99.056 E3.41316
G1 X50.181 Y98.205 E3.45317
G1 X50.112 Y97.548 E3.48275
G1 X47.995 Y96.009 E3.59983
G1 X52.184 Y76.303 E4.50098
G1 X54.813 Y76.861 E4.62122
G1 X55.287 Y76.334 E4.65293
G1 X56.011 Y75.808 E4.69294
G1 X56.828 Y75.445 E4.73295
G1 X57.703 Y75.259 E4.77295
G1 X58.597 Y75.259 E4.81296
G1 X59.472 Y75.445 E4.85297
G1 X60.289 Y75.808 E4.89297
G1 X61.013 Y76.334 E4.93298
G1 X61.611 Y76.999 E4.97299
G1 X62.059 Y77.773 E5.01299
G1 X62.335 Y78.624 E5.05300
G1 X62.404 Y79.282 E5.08258
G1 X64.473 Y80.785 E5.19697
G1 X64.951 Y80.656 F6000.000
G1 F1800.000
G1 X60.630 Y100.984 E6.12658
G1 X57.841 Y100.392 E6.25410
G1 X57.488 Y100.783 E6.27767
G1 X56.699 Y101.357 E6.32130
G1 X55.808 Y101.754 E6.36493
G1 X54.854 Y101.956 E6.40857
G1 X53.878 Y101.956 E6.45220
G1 X52.924 Y101.754 E6.49583
G1 X52.033 Y101.357 E6.53946
G1 X51.244 Y100.783 E6.58310
G1 X50.591 Y100.058 E6.62673
G1 X50.104 Y99.214 E6.67036
G1 X49.802 Y98.286 E6.71399
G1 X49.747 Y97.759 E6.73771
G1 X47.566 Y96.174 E6.85831
G1 X51.887 Y75.845 E7.78791
G1 X54.675 Y76.438 E7.91543
G1 X55.028 Y76.046 E7.93900
G1 X55.817 Y75.473 E7.98264
G1 X56.708 Y75.076 E8.02627
G1 X57.662 Y74.873 E8.06990
G1 X58.638 Y74.873 E8.11353
G1 X59.592 Y75.076 E8.15717
G1 X60.483 Y75.473 E8.20080
G1 X61.272 Y76.046 E8.24443
G1 X61.925 Y76.771 E8.28807
G1 X62.413 Y77.616 E8.33170
G1 X62.714 Y78.544 E8.37533
G1 X62.770 Y79.071 E8.39904
G1 X64.902 Y80.621 E8.51696
G1 X65.380 Y80.491 F6000.000
G1 F1800.000
G1 X60.927 Y101.442 E9.47501
G1 X57.979 Y100.815 E9.60982
G1 X57.748 Y101.072 E9.62525
G1 X56.893 Y101.693 E9.67251
G1 X55.928 Y102.122 E9.71977
G1 X54.894 Y102.342 E9.76702
G1 X53.838 Y102.342 E9.81428
G1 X52.805 Y102.122 E9.86154
G1 X51.839 Y101.693 E9.90880
G1 X50.985 Y101.072 E9.95606
G1 X50.278 Y100.286 E10.00332
G1 X49.749 Y99.371 E10.05057
G1 X49.423 Y98.367 E10.09783
G1 X49.381 Y97.970 E10.11568
G1 X47.136 Y96.338 E10.23980
G1 X51.590 Y75.388 E11.19785
G1 X54.538 Y76.014 E11.33267
G1 X54.769 Y75.758 E11.34809
G1 X55.623 Y75.137 E11.39535
G1 X56.589 Y74.707 E11.44261
G1 X57.622 Y74.488 E11.48987
G1 X58.678 Y74.488 E11.53712
G1 X59.712 Y74.707 E11.58438
G1 X60.677 Y75.137 E11.63164
G1 X61.532 Y75.758 E11.67890
G1 X62.239 Y76.543 E11.72616
G1 X62.767 Y77.458 E11.77341
G1 X63.094 Y78.463 E11.82067
G1 X63.135 Y78.860 E11.83852
G1 X65.331 Y80.456 E11.95996
G1 X65.065 Y80.738 F6000.000
G1 E9.95996 F1200.00000
G92 E0
G1 X60.666 Y80.700 F6000.000
G1 E2.00000 F1200.00000
G1 F1800.000
G1 X62.350 Y79.016 E2.10766
G1 X62.298 Y78.517 E2.13033
G1 X60.779 Y80.036 E2.22742
G1 X60.806 Y79.527 E2.25044
G1 X60.791 Y79.473 E2.25300
G1 X62.186 Y78.078 E2.34216
G1 X62.050 Y77.662 E2.36193
G1 X60.675 Y79.038 E2.44990
G1 X60.554 Y78.607 E2.47011
G1 X61.858 Y77.303 E2.55348
G1 X61.656 Y76.954 E2.57172
G1 X60.337 Y78.273 E2.65607
G1 X60.120 Y77.939 E2.67408
G1 X61.404 Y76.655 E2.75619
G1 X61.143 Y76.365 E2.77384
G1 X59.843 Y77.665 E2.85696
G1 X59.538 Y77.418 E2.87468
G1 X60.838 Y76.119 E2.95776
G1 X60.519 Y75.887 E2.97560
G1 X59.207 Y77.199 E3.05948
G1 X58.808 Y77.046 E3.07877
G1 X60.156 Y75.698 E3.16493
G1 X59.775 Y75.529 E3.18381
G1 X58.399 Y76.905 E3.27178
G1 X57.875 Y76.877 E3.29549
G1 X59.338 Y75.414 E3.38906
G1 X58.884 Y75.317 E3.41006
G1 X57.282 Y76.919 E3.51248
G1 X56.603 Y77.101 E3.54424
G1 X56.448 Y77.202 E3.55260
G1 X58.333 Y75.317 E3.67307
G1 X58.071 Y75.317 E3.68492
G1 X57.704 Y75.395 E3.70189
G1 X51.112 Y81.987 E4.12329
G1 X51.261 Y81.287 E4.15564
G1 X56.890 Y75.658 E4.51550
G1 X56.532 Y75.817 E4.53320
G1 X55.874 Y76.295 E4.56997
G1 X55.278 Y76.957 E4.61025
G1 X55.081 Y76.916 E4.61935
G1 X51.410 Y80.587 E4.85406
G1 X51.558 Y79.887 E4.88641
G1 X54.626 Y76.819 E5.08255
G1 X54.172 Y76.722 E5.10356
G1 X51.707 Y79.187 E5.26112
G1 X51.856 Y78.487 E5.29347
G1 X53.717 Y76.626 E5.41247
G1 X53.263 Y76.529 E5.43347
G1 X52.005 Y77.787 E5.51390
G1 X52.153 Y77.087 E5.54624
G1 X52.808 Y76.433 E5.58809
G1 E3.58809 F1200.00000
G92 E0
G1 X55.829 Y77.821 F6000.000
G1 E2.00000 F1200.00000
G1 F1800.000
G1 X50.963 Y82.687 E2.31104
G1 X50.814 Y83.387 E2.34339
G1 X55.539 Y78.662 E2.64541
G1 X55.508 Y79.244 E2.67174
G1 X50.666 Y84.087 E2.98133
G1 X50.517 Y84.786 E3.01368
G1 X55.560 Y79.743 E3.33609
G1 X55.676 Y80.178 E3.35643
G1 X50.368 Y85.486 E3.69580
G1 X50.219 Y86.186 E3.72814
G1 X55.841 Y80.565 E4.08752
G1 X56.058 Y80.899 E4.10553
G1 X50.071 Y86.886 E4.48830
G1 X49.922 Y87.586 E4.52064
G1 X56.285 Y81.223 E4.92746
G1 X56.590 Y81.469 E4.94518
G1 X49.773 Y88.286 E5.38097
G1 X49.624 Y88.986 E5.41332
G1 X56.894 Y81.716 E5.87810
G1 X56.978 Y81.784 E5.88296
G1 X57.267 Y81.895 E5.89695
G1 X49.475 Y89.686 E6.39506
G1 X49.327 Y90.386 E6.42741
G1 X57.665 Y82.047 E6.96049
G1 X57.854 Y82.120 E6.96963
G1 X58.129 Y82.134 E6.98210
G1 X49.178 Y91.086 E7.55437
G1 X49.029 Y91.786 E7.58672
G1 X53.185 Y87.630 E7.85241
G1 X53.334 Y87.242 E7.87117
G1 X53.924 Y86.513 E7.91358
G1 X54.711 Y86.002 E7.95601
G1 X54.850 Y85.965 E7.96250
G1 X58.653 Y82.162 E8.20564
G1 X58.791 Y82.169 E8.21188
G1 X59.346 Y82.020 E8.23784
G1 X55.603 Y85.763 E8.47714
G1 X56.131 Y85.786 E8.50104
G1 X62.589 Y79.328 E8.91392
G1 X62.908 Y79.560 E8.93176
G1 X56.631 Y85.838 E9.33310
G1 X57.029 Y85.991 E9.35238
G1 X63.228 Y79.792 E9.74867
G1 X63.547 Y80.024 E9.76650
G1 X57.427 Y86.143 E10.15773
G1 X57.733 Y86.389 E10.17545
G1 X63.866 Y80.256 E10.56757
G1 X64.185 Y80.488 E10.58541
G1 X58.037 Y86.636 E10.97846
G1 X58.160 Y86.735 E10.98559
G1 X58.289 Y86.935 E10.99635
G1 X64.380 Y80.844 E11.38572
G1 X64.231 Y81.544 E11.41807
G1 X58.506 Y87.269 E11.78406
G1 X58.671 Y87.522 E11.79771
G1 X58.699 Y87.627 E11.80263
G1 X64.082 Y82.244 E12.14680
G1 X63.934 Y82.944 E12.17914
G1 X58.815 Y88.062 E12.50635
G1 X58.914 Y88.429 E12.52350
G1 X58.909 Y88.520 E12.52763
G1 X63.785 Y83.644 E12.83936
G1 X63.636 Y84.344 E12.87170
G1 X58.878 Y89.102 E13.17586
G1 X58.865 Y89.366 E13.18782
G1 X58.677 Y89.854 E13.21147
G1 X63.487 Y85.044 E13.51899
G1 X63.338 Y85.744 E13.55134
G1 X54.387 Y94.695 E14.12361
G1 X54.663 Y94.710 E14.13608
G1 X54.851 Y94.782 E14.14522
G1 X63.190 Y86.444 E14.67830
G1 X63.041 Y87.144 E14.71065
G1 X55.250 Y94.935 E15.20875
G1 X55.538 Y95.046 E15.22274
G1 X55.622 Y95.114 E15.22761
G1 X62.892 Y87.844 E15.69239
G1 X62.743 Y88.543 E15.72474
G1 X55.927 Y95.360 E16.16053
G1 X56.231 Y95.607 E16.17825
G1 X62.595 Y89.243 E16.58506
G1 X62.446 Y89.943 E16.61741
G1 X56.459 Y95.930 E17.00017
G1 X56.676 Y96.265 E17.01818
G1 X62.297 Y90.643 E17.37756
G1 X62.148 Y91.343 E17.40991
G1 X56.840 Y96.651 E17.74928
G1 X56.956 Y97.086 E17.76962
G1 X61.999 Y92.043 E18.09203
G1 X61.851 Y92.743 E18.12438
G1 X57.008 Y97.585 E18.43396
G1 X56.978 Y98.167 E18.46029
G1 X61.702 Y93.443 E18.76231
G1 X61.553 Y94.143 E18.79466
G1 X56.688 Y99.008 E19.10570
G1 E17.10570 F1200.00000
G92 E0
G1 X59.708 Y100.397 F6000.000
G1 E2.00000 F1200.00000
G1 F1800.000
G1 X60.363 Y99.742 E2.04185
G1 X60.512 Y99.042 E2.07419
G1 X59.254 Y100.300 E2.15462
G1 X58.799 Y100.204 E2.17562
G1 X60.661 Y98.342 E2.29462
G1 X60.809 Y97.642 E2.32696
G1 X58.345 Y100.107 E2.48453
G1 X57.890 Y100.011 E2.50554
G1 X60.958 Y96.943 E2.70168
