; generated by Slic3r 1.3.0 on 2020-12-01 at 17:49:21

; external perimeters extrusion width = 0.44mm (2.86mm^3/s)
; perimeters extrusion width = 0.56mm (4.14mm^3/s)
; infill extrusion width = 0.50mm (4.57mm^3/s)
; solid infill extrusion width = 0.56mm (3.10mm^3/s)
; top infill extrusion width = 0.45mm (2.44mm^3/s)

M107
;D3D:START:START
T0
M104 S215 T0

G21
G90
M107
T0
G28
G29
M109 T0 S215 T0
G0 F3000
M107
T0
G92 E0
G0 X0 Y149 Z0.1 F3600
G1 Y49 E6.5 F1200
G0 Z1
G92 E0
; Filament gcode

G21 ; set units to millimeters
G90 ; use absolute coordinates
M82 ; use absolute distances for extrusion
G92 E0
G1 Z0.200 F6000.000
G1 E-2.00000 F1200.00000
G92 E0
G1 Z0.700 F6000.000
G1 X81.407 Y70.093 F6000.000
G1 Z0.200 F6000.000
G1 E2.00000 F1200.00000
G1 F1800
G1 X47.752 Y70.093 E2.64747
G1 X47.173 Y69.857 E2.65950
G1 X46.513 Y69.688 E2.67261
G1 X45.840 Y69.603 E2.68567
G1 X45.160 Y69.603 E2.69874
G1 X44.487 Y69.688 E2.71180
G1 X43.829 Y69.857 E2.72487
G1 X43.197 Y70.107 E2.73793
G1 X42.602 Y70.434 E2.75100
G1 X42.053 Y70.833 E2.76406
G1 X41.558 Y71.298 E2.77713
G1 X41.125 Y71.821 E2.79020
G1 X40.761 Y72.395 E2.80326
G1 X40.472 Y73.009 E2.81633
G1 X40.262 Y73.655 E2.82939
G1 X40.135 Y74.322 E2.84246
G1 X40.092 Y75.000 E2.85552
G1 X40.135 Y75.678 E2.86859
G1 X40.262 Y76.345 E2.88165
G1 X40.472 Y76.991 E2.89472
G1 X40.761 Y77.605 E2.90779
G1 X41.125 Y78.179 E2.92085
G1 X41.558 Y78.702 E2.93392
G1 X42.053 Y79.167 E2.94698
G1 X42.602 Y79.566 E2.96005
G1 X43.197 Y79.893 E2.97311
G1 X43.829 Y80.143 E2.98618
G1 X44.487 Y80.312 E2.99924
G1 X45.160 Y80.397 E3.01231
G1 X45.593 Y80.397 E3.02063
G1 X45.593 Y80.561 E3.02377
G1 X44.007 Y80.527 E3.05429
G1 X37.960 Y80.330 E3.17069
G1 X32.405 Y80.077 E3.27767
G1 X27.173 Y79.759 E3.37852
G1 X22.486 Y79.392 E3.46897
G1 X18.192 Y78.963 E3.55199
G1 X14.492 Y78.495 E3.62373
G1 X11.245 Y77.973 E3.68701
G1 X8.564 Y77.411 E3.73970
G1 X6.475 Y76.818 E3.78149
G1 X5.006 Y76.209 E3.81207
G1 X4.201 Y75.634 E3.83111
G1 X3.912 Y75.000 E3.84451
G1 X4.186 Y74.380 E3.85756
G1 X4.979 Y73.806 E3.87638
G1 X6.475 Y73.182 E3.90757
G1 X8.564 Y72.589 E3.94935
G1 X11.245 Y72.027 E4.00204
G1 X14.492 Y71.505 E4.06532
G1 X18.192 Y71.037 E4.13706
G1 X22.486 Y70.608 E4.22008
G1 X27.173 Y70.241 E4.31053
G1 X32.405 Y69.923 E4.41137
G1 X37.960 Y69.670 E4.51836
G1 X44.007 Y69.473 E4.63476
G1 X50.294 Y69.340 E4.75574
G1 X57.018 Y69.266 E4.88510
G1 X63.884 Y69.252 E5.01720
G1 X70.978 Y69.294 E5.15368
G1 X78.416 Y69.389 E5.29678
G1 X86.031 Y69.535 E5.44331
G1 X93.777 Y69.727 E5.59239
G1 X101.605 Y69.959 E5.74305
G1 X109.718 Y70.237 E5.89923
G1 X117.291 Y70.524 E6.04502
G1 X125.041 Y70.845 E6.19425
G1 X133.291 Y71.213 E6.35312
G1 X144.041 Y71.733 E6.56018
G1 X145.379 Y73.213 E6.59856
G1 X145.597 Y73.476 E6.60514
G1 X145.771 Y73.751 E6.61141
G1 X145.910 Y74.046 E6.61767
G1 X146.011 Y74.355 E6.62393
G1 X146.071 Y74.675 E6.63019
G1 X146.092 Y75.000 E6.63646
G1 X146.071 Y75.325 E6.64272
G1 X146.011 Y75.645 E6.64898
G1 X145.910 Y75.954 E6.65524
G1 X145.771 Y76.249 E6.66151
G1 X145.597 Y76.524 E6.66777
G1 X145.379 Y76.787 E6.67435
G1 X144.041 Y78.267 E6.71273
G1 X133.291 Y78.787 E6.91979
G1 X125.289 Y79.145 E7.07389
G1 X117.291 Y79.476 E7.22790
G1 X109.461 Y79.773 E7.37863
G1 X101.605 Y80.041 E7.52986
G1 X93.777 Y80.273 E7.68053
G1 X86.030 Y80.465 E7.82961
G1 X81.407 Y80.554 E7.91857
G1 X81.407 Y70.153 E8.11867
G1 X81.150 Y70.350 F6000.000
G1 F1800
G1 X47.702 Y70.350 E8.76216
G1 X47.092 Y70.102 E8.77482
G1 X46.465 Y69.941 E8.78728
G1 X45.823 Y69.860 E8.79972
G1 X45.177 Y69.860 E8.81217
G1 X44.535 Y69.941 E8.82461
G1 X43.908 Y70.102 E8.83705
G1 X43.307 Y70.340 E8.84950
G1 X42.740 Y70.651 E8.86194
G1 X42.217 Y71.032 E8.87438
G1 X41.746 Y71.474 E8.88683
G1 X41.333 Y71.973 E8.89927
G1 X40.987 Y72.519 E8.91171
G1 X40.711 Y73.104 E8.92416
G1 X40.512 Y73.719 E8.93660
G1 X40.390 Y74.354 E8.94904
G1 X40.350 Y75.000 E8.96149
G1 X40.390 Y75.646 E8.97393
G1 X40.512 Y76.281 E8.98637
G1 X40.711 Y76.896 E8.99881
G1 X40.987 Y77.481 E9.01126
G1 X41.333 Y78.027 E9.02370
G1 X41.746 Y78.526 E9.03615
G1 X42.217 Y78.968 E9.04859
G1 X42.740 Y79.349 E9.06103
G1 X43.307 Y79.660 E9.07347
G1 X43.908 Y79.898 E9.08592
G1 X44.535 Y80.059 E9.09836
G1 X45.177 Y80.140 E9.11080
G1 X45.850 Y80.140 E9.12376
G1 X45.850 Y80.823 E9.13690
G1 X44.000 Y80.784 E9.17250
G1 X37.950 Y80.587 E9.28895
G1 X32.391 Y80.334 E9.39601
G1 X27.155 Y80.015 E9.49694
G1 X22.463 Y79.648 E9.58748
G1 X18.163 Y79.218 E9.67062
G1 X14.455 Y78.750 E9.74251
G1 X11.198 Y78.226 E9.80599
G1 X8.503 Y77.661 E9.85897
G1 X6.390 Y77.061 E9.90122
G1 X4.881 Y76.435 E9.93266
G1 X3.997 Y75.804 E9.95356
G1 X3.650 Y75.029 E9.96989
G1 X3.650 Y74.971 E9.97099
G1 X3.689 Y74.859 E9.97328
G1 X3.980 Y74.211 E9.98693
G1 X4.853 Y73.581 E10.00766
G1 X6.390 Y72.939 E10.03971
G1 X8.503 Y72.339 E10.08195
G1 X11.198 Y71.774 E10.13493
G1 X14.455 Y71.250 E10.19841
G1 X18.163 Y70.782 E10.27030
G1 X22.463 Y70.352 E10.35344
G1 X27.155 Y69.985 E10.44398
G1 X32.391 Y69.666 E10.54491
G1 X37.950 Y69.413 E10.65197
G1 X44.000 Y69.216 E10.76843
G1 X50.290 Y69.083 E10.88946
G1 X57.016 Y69.009 E11.01887
G1 X63.885 Y68.995 E11.15101
G1 X70.981 Y69.037 E11.28753
G1 X78.420 Y69.132 E11.43066
G1 X86.036 Y69.278 E11.57722
G1 X93.784 Y69.470 E11.72632
G1 X101.613 Y69.702 E11.87701
G1 X109.727 Y69.980 E12.03321
G1 X117.301 Y70.267 E12.17901
G1 X125.052 Y70.588 E12.32827
G1 X133.303 Y70.956 E12.48715
G1 X144.160 Y71.482 E12.69628
G1 X145.574 Y73.045 E12.73682
G1 X145.805 Y73.325 E12.74382
G1 X145.997 Y73.627 E12.75071
G1 X146.149 Y73.951 E12.75759
G1 X146.260 Y74.291 E12.76448
G1 X146.327 Y74.643 E12.77136
G1 X146.350 Y75.000 E12.77825
G1 X146.327 Y75.357 E12.78513
G1 X146.260 Y75.709 E12.79202
G1 X146.149 Y76.049 E12.79890
G1 X145.997 Y76.373 E12.80579
G1 X145.805 Y76.675 E12.81267
G1 X145.574 Y76.955 E12.81967
G1 X144.160 Y78.518 E12.86022
G1 X133.303 Y79.044 E13.06934
G1 X125.300 Y79.402 E13.22345
G1 X117.301 Y79.733 E13.37748
G1 X109.470 Y80.030 E13.52823
G1 X101.613 Y80.298 E13.67948
G1 X93.784 Y80.530 E13.83017
G1 X86.036 Y80.722 E13.97928
G1 X81.150 Y80.816 E14.07330
G1 X81.150 Y70.410 E14.27349
G1 X81.092 Y69.954 F6000.000
G1 X81.536 Y69.771 F6000.000
G1 F1800
G1 X80.464 Y69.761 E14.30242
G1 X80.097 Y69.945 F6000.000
G1 F1800
G1 X80.315 Y69.727 E14.30840
G1 X80.316 Y69.572 E14.31140
G1 X80.108 Y69.568 E14.31544
G1 X79.730 Y69.945 E14.32578
G1 X79.364 Y69.945 E14.33288
G1 X79.749 Y69.561 E14.34340
G1 X79.389 Y69.554 E14.35037
G1 X78.998 Y69.945 E14.36108
G1 X78.632 Y69.945 E14.36818
G1 X79.030 Y69.547 E14.37908
G1 X78.671 Y69.540 E14.38604
G1 X78.266 Y69.945 E14.39714
G1 X77.900 Y69.945 E14.40423
G1 X78.310 Y69.534 E14.41548
G1 X77.949 Y69.530 E14.42248
G1 X77.534 Y69.945 E14.43386
G1 X77.168 Y69.945 E14.44095
G1 X77.587 Y69.525 E14.45245
G1 X77.226 Y69.521 E14.45946
G1 X76.802 Y69.945 E14.47109
G1 X76.435 Y69.945 E14.47818
G1 X76.864 Y69.516 E14.48994
G1 X76.503 Y69.511 E14.49694
G1 X76.069 Y69.945 E14.50882
G1 X75.703 Y69.945 E14.51592
G1 X76.141 Y69.507 E14.52793
G1 X75.780 Y69.502 E14.53493
G1 X75.337 Y69.945 E14.54707
G1 X74.971 Y69.945 E14.55416
G1 X75.419 Y69.497 E14.56642
G1 X75.057 Y69.493 E14.57343
G1 X74.605 Y69.945 E14.58582
G1 X74.239 Y69.945 E14.59291
G1 X74.696 Y69.488 E14.60543
G1 X74.334 Y69.483 E14.61243
G1 X73.873 Y69.945 E14.62508
G1 X73.506 Y69.945 E14.63217
G1 X73.973 Y69.479 E14.64494
G1 X73.611 Y69.474 E14.65195
G1 X73.140 Y69.945 E14.66485
G1 X72.774 Y69.945 E14.67194
G1 X73.250 Y69.470 E14.68496
G1 X72.888 Y69.465 E14.69197
G1 X72.408 Y69.945 E14.70512
G1 X72.042 Y69.945 E14.71221
G1 X72.527 Y69.460 E14.72549
G1 X72.165 Y69.456 E14.73250
G1 X71.676 Y69.945 E14.74590
G1 X71.310 Y69.945 E14.75300
G1 X71.804 Y69.451 E14.76653
G1 X71.442 Y69.446 E14.77353
G1 X70.944 Y69.945 E14.78719
G1 X70.577 Y69.945 E14.79429
G1 X71.081 Y69.442 E14.80807
G1 X70.717 Y69.440 E14.81513
G1 X70.211 Y69.945 E14.82897
G1 X69.845 Y69.945 E14.83607
G1 X70.353 Y69.437 E14.84997
G1 X69.989 Y69.435 E14.85702
G1 X69.479 Y69.945 E14.87098
G1 X69.113 Y69.945 E14.87808
G1 X69.625 Y69.433 E14.89210
G1 X69.261 Y69.431 E14.89915
G1 X68.747 Y69.945 E14.91323
G1 X68.381 Y69.945 E14.92032
G1 X68.897 Y69.429 E14.93446
G1 X68.533 Y69.427 E14.94151
G1 X68.015 Y69.945 E14.95571
G1 X67.649 Y69.945 E14.96280
G1 X68.169 Y69.425 E14.97706
G1 X67.805 Y69.423 E14.98411
G1 X67.282 Y69.945 E14.99842
G1 X66.916 Y69.945 E15.00551
G1 X67.441 Y69.420 E15.01989
G1 X67.077 Y69.418 E15.02694
G1 X66.550 Y69.945 E15.04137
G1 X66.184 Y69.945 E15.04846
G1 X66.713 Y69.416 E15.06295
G1 X66.349 Y69.414 E15.07000
G1 X65.818 Y69.945 E15.08455
G1 X65.452 Y69.945 E15.09164
G1 X65.985 Y69.412 E15.10625
G1 X65.621 Y69.410 E15.11330
G1 X65.086 Y69.945 E15.12797
G1 X64.720 Y69.945 E15.13506
G1 X65.257 Y69.408 E15.14978
G1 X64.893 Y69.405 E15.15684
G1 X64.353 Y69.945 E15.17162
G1 X63.987 Y69.945 E15.17871
G1 X64.529 Y69.403 E15.19355
G1 X64.165 Y69.401 E15.20060
G1 X63.621 Y69.945 E15.21550
G1 X63.255 Y69.945 E15.22260
G1 X63.799 Y69.401 E15.23751
G1 X63.433 Y69.401 E15.24462
G1 X62.889 Y69.945 E15.25951
G1 X62.523 Y69.945 E15.26661
G1 X63.066 Y69.402 E15.28148
G1 X62.699 Y69.403 E15.28859
G1 X62.157 Y69.945 E15.30344
G1 X61.791 Y69.945 E15.31054
G1 X62.332 Y69.404 E15.32537
G1 X61.965 Y69.404 E15.33248
G1 X61.424 Y69.945 E15.34729
G1 X61.058 Y69.945 E15.35438
G1 X61.598 Y69.405 E15.36917
G1 X61.231 Y69.406 E15.37628
G1 X60.692 Y69.945 E15.39105
G1 X60.326 Y69.945 E15.39814
G1 X60.864 Y69.407 E15.41289
G1 X60.498 Y69.407 E15.42000
G1 X59.960 Y69.945 E15.43473
G1 X59.594 Y69.945 E15.44182
G1 X60.131 Y69.408 E15.45653
G1 X59.764 Y69.409 E15.46364
G1 X59.228 Y69.945 E15.47832
G1 X58.862 Y69.945 E15.48542
G1 X59.397 Y69.410 E15.50008
G1 X59.030 Y69.410 E15.50719
G1 X58.496 Y69.945 E15.52184
G1 X58.129 Y69.945 E15.52893
G1 X58.663 Y69.411 E15.54356
G1 X58.296 Y69.412 E15.55066
G1 X57.763 Y69.945 E15.56527
G1 X57.397 Y69.945 E15.57236
G1 X57.929 Y69.413 E15.58694
G1 X57.563 Y69.413 E15.59405
G1 X57.031 Y69.945 E15.60861
G1 X56.665 Y69.945 E15.61571
G1 X57.196 Y69.414 E15.63025
G1 X56.826 Y69.418 E15.63741
G1 X56.299 Y69.945 E15.65185
G1 X55.933 Y69.945 E15.65895
G1 X56.456 Y69.422 E15.67328
G1 X56.086 Y69.426 E15.68046
G1 X55.567 Y69.945 E15.69468
G1 X55.200 Y69.945 E15.70177
G1 X55.716 Y69.430 E15.71589
G1 X55.345 Y69.434 E15.72306
G1 X54.834 Y69.945 E15.73706
G1 X54.468 Y69.945 E15.74415
G1 X54.975 Y69.438 E15.75804
G1 X54.605 Y69.442 E15.76522
G1 X54.102 Y69.945 E15.77900
G1 X53.736 Y69.945 E15.78609
G1 X54.235 Y69.446 E15.79976
G1 X53.865 Y69.450 E15.80693
G1 X53.370 Y69.945 E15.82049
G1 X53.004 Y69.945 E15.82758
G1 X53.494 Y69.454 E15.84103
G1 X53.124 Y69.458 E15.84820
G1 X52.638 Y69.945 E15.86153
G1 X52.271 Y69.945 E15.86863
G1 X52.754 Y69.462 E15.88185
G1 X52.384 Y69.466 E15.88902
G1 X51.905 Y69.945 E15.90213
G1 X51.539 Y69.945 E15.90923
G1 X52.014 Y69.470 E15.92223
G1 X51.644 Y69.474 E15.92940
G1 X51.173 Y69.945 E15.94229
G1 X50.807 Y69.945 E15.94938
G1 X51.273 Y69.479 E15.96216
G1 X50.903 Y69.483 E15.96934
G1 X50.441 Y69.945 E15.98200
G1 X50.075 Y69.945 E15.98910
G1 X50.533 Y69.487 E16.00165
G1 X50.160 Y69.493 E16.00887
G1 X49.709 Y69.945 E16.02125
G1 X49.343 Y69.945 E16.02834
G1 X49.786 Y69.501 E16.04050
G1 X49.412 Y69.509 E16.04775
G1 X48.976 Y69.945 E16.05969
G1 X48.610 Y69.945 E16.06679
G1 X49.038 Y69.517 E16.07851
G1 X48.664 Y69.525 E16.08576
G1 X48.244 Y69.945 E16.09727
G1 X47.878 Y69.945 E16.10437
G1 X48.290 Y69.533 E16.11566
G1 X47.916 Y69.541 E16.12291
G1 X47.698 Y69.759 E16.12888
G1 X47.542 Y69.681 F6000.000
G1 F1800
G1 X46.921 Y69.599 E16.13671
G1 F1800
G1 X46.603 Y69.562 E16.13857
G1 E14.13857 F1200.00000
G92 E0
G1 Z0.700 F6000.000
G1 X44.196 Y69.613 F6000.000
G1 Z0.200 F6000.000
G1 E2.00000 F1200.00000
G1 F1800
G1 X43.892 Y69.656 E2.00073
G1 F1800
G1 X43.621 Y69.704 E2.00247
G1 F1800
G1 X43.333 Y69.764 E2.00606
G1 F1800
G1 X43.189 Y69.794 E2.00870
G1 X42.520 Y69.673 F6000.000
G1 F1800
G1 X42.897 Y69.661 E2.01601
G1 X41.906 Y70.652 E2.04311
G1 E0.04311 F1200.00000
G92 E0
G1 Z0.700 F6000.000
G1 X42.811 Y80.344 F6000.000
G1 Z0.200 F6000.000
G1 E2.00000 F1200.00000
G1 F1800
G1 X43.030 Y80.125 E2.00597
G1 X43.067 Y79.946 E2.00952
G1 X42.923 Y79.867 E2.01269
G1 X42.457 Y80.332 E2.02543
G1 X42.103 Y80.321 E2.03227
G1 X42.687 Y79.737 E2.04823
G1 X42.464 Y79.595 E2.05335
G1 X41.750 Y80.309 E2.07288
G1 X41.396 Y80.298 E2.07973
G1 X42.252 Y79.441 E2.10315
G1 X42.041 Y79.287 E2.10821
G1 X41.042 Y80.286 E2.13552
G1 X40.688 Y80.275 E2.14237
G1 X41.847 Y79.115 E2.17408
G1 X41.659 Y78.938 E2.17908
G1 X40.334 Y80.263 E2.21531
G1 X39.980 Y80.252 E2.22215
G1 X41.472 Y78.760 E2.26294
G1 X41.306 Y78.560 E2.26796
G1 X39.626 Y80.240 E2.31390
G1 X39.272 Y80.228 E2.32074
G1 X41.141 Y78.360 E2.37183
G1 X40.982 Y78.153 E2.37687
G1 X38.918 Y80.217 E2.43331
G1 X38.565 Y80.205 E2.44016
G1 X40.841 Y77.929 E2.50240
G1 X40.699 Y77.706 E2.50752
G1 X38.211 Y80.194 E2.57556
G1 X37.857 Y80.182 E2.58240
G1 X40.572 Y77.467 E2.65666
G1 X40.455 Y77.218 E2.66197
G1 X37.507 Y80.166 E2.74258
G1 X37.158 Y80.150 E2.74934
G1 X40.339 Y76.969 E2.83633
G1 X40.249 Y76.693 E2.84194
G1 X36.808 Y80.135 E2.93604
G1 X36.459 Y80.119 E2.94280
G1 X40.160 Y76.418 E3.04401
G1 X40.088 Y76.124 E3.04985
G1 X36.110 Y80.103 E3.15865
G1 X35.760 Y80.087 E3.16541
G1 X40.030 Y75.817 E3.28216
G1 X39.982 Y75.499 E3.28838
G1 X35.411 Y80.071 E3.41338
G1 X35.061 Y80.055 E3.42015
G1 X39.960 Y75.156 E3.55412
G1 X39.949 Y74.801 E3.56097
G1 X34.712 Y80.039 E3.70420
G1 X34.362 Y80.023 E3.71096
G1 X39.974 Y74.411 E3.86442
G1 X39.988 Y74.181 E3.86888
G1 X40.023 Y73.996 E3.87252
G1 X34.013 Y80.007 E4.03689
G1 X33.663 Y79.991 E4.04365
G1 X40.110 Y73.545 E4.21993
G1 X40.273 Y73.016 E4.23063
G1 X33.314 Y79.975 E4.42094
G1 X32.964 Y79.959 E4.42771
G1 X40.540 Y72.383 E4.63487
G1 X40.644 Y72.162 E4.63961
G1 X41.026 Y71.561 E4.65337
G1 X41.162 Y71.396 E4.65750
G1 X32.615 Y79.943 E4.89122
G1 X32.266 Y79.927 E4.89797
G1 X42.520 Y69.673 E5.17837
G1 X42.142 Y69.685 E5.18567
G1 X31.921 Y79.906 E5.46516
G1 X31.577 Y79.885 E5.47183
G1 X41.764 Y69.697 E5.75041
G1 X41.387 Y69.710 E5.75772
G1 X31.233 Y79.864 E6.03539
G1 X30.888 Y79.843 E6.04206
G1 X41.009 Y69.722 E6.31882
G1 X40.631 Y69.734 E6.32613
G1 X30.544 Y79.822 E6.60198
G1 X30.199 Y79.801 E6.60866
G1 X40.254 Y69.747 E6.88360
G1 X39.876 Y69.759 E6.89091
G1 X29.855 Y79.780 E7.16494
G1 X29.510 Y79.759 E7.17162
G1 X39.498 Y69.771 E7.44474
G1 X39.120 Y69.784 E7.45205
G1 X29.166 Y79.738 E7.72427
G1 X28.821 Y79.717 E7.73094
G1 X38.743 Y69.796 E8.00225
G1 X38.365 Y69.808 E8.00955
G1 X28.477 Y79.696 E8.27995
G1 X28.132 Y79.675 E8.28663
G1 X37.986 Y69.822 E8.55608
G1 X37.603 Y69.839 E8.56349
G1 X27.788 Y79.655 E8.83190
G1 X27.443 Y79.634 E8.83857
G1 X37.220 Y69.857 E9.10593
G1 X36.837 Y69.874 E9.11334
G1 X27.099 Y79.613 E9.37965
G1 X26.760 Y79.586 E9.38622
G1 X36.455 Y69.892 E9.65133
G1 X36.072 Y69.909 E9.65875
G1 X26.421 Y79.560 E9.92265
G1 X26.082 Y79.533 E9.92922
G1 X35.689 Y69.926 E10.19193
G1 X35.306 Y69.944 E10.19934
G1 X25.743 Y79.507 E10.46084
G1 X25.404 Y79.480 E10.46741
G1 X34.923 Y69.961 E10.72770
G1 X34.540 Y69.979 E10.73511
G1 X25.065 Y79.454 E10.99420
G1 X24.727 Y79.427 E11.00078
G1 X34.157 Y69.996 E11.25866
G1 X33.774 Y70.014 E11.26607
G1 X24.388 Y79.400 E11.52276
G1 X24.049 Y79.374 E11.52933
G1 X33.392 Y70.031 E11.78481
G1 X33.009 Y70.049 E11.79222
G1 X23.710 Y79.347 E12.04649
G1 X23.371 Y79.321 E12.05306
G1 X32.626 Y70.066 E12.30614
G1 X32.238 Y70.088 E12.31364
G1 X23.032 Y79.294 E12.56538
G1 X22.694 Y79.268 E12.57195
G1 X31.849 Y70.112 E12.82232
G1 X31.460 Y70.136 E12.82986
G1 X22.356 Y79.240 E13.07883
G1 X22.023 Y79.207 E13.08528
G1 X31.071 Y70.159 E13.33270
G1 X30.682 Y70.183 E13.34024
G1 X21.691 Y79.174 E13.58610
G1 X21.359 Y79.141 E13.59256
G1 X30.293 Y70.206 E13.83687
G1 X29.904 Y70.230 E13.84440
G1 X21.027 Y79.107 E14.08716
G1 X20.694 Y79.074 E14.09362
G1 X29.515 Y70.254 E14.33482
G1 X29.126 Y70.277 E14.34236
G1 X20.362 Y79.041 E14.58200
G1 X20.030 Y79.008 E14.58846
G1 X28.737 Y70.301 E14.82655
G1 X28.348 Y70.325 E14.83409
G1 X19.698 Y78.975 E15.07063
G1 X19.365 Y78.942 E15.07709
