; generated by Slic3r 1.3.0 on 2020-04-16 at 20:41:13

; external perimeters extrusion width = 0.44mm (2.86mm^3/s)
; perimeters extrusion width = 0.56mm (4.14mm^3/s)
; infill extrusion width = 0.50mm (5.48mm^3/s)
; solid infill extrusion width = 0.56mm (3.10mm^3/s)
; top infill extrusion width = 0.45mm (2.44mm^3/s)

M107
;D3D:START:START
T0
M104 S215 T0

G21
G90
M107
T0
G28
G29
M109 T0 S215 T0
G0 F3000
M107
T0
G92 E0
G0 X0 Y149 Z0.1 F3600
G1 Y49 E6.5 F1200
G0 Z1
G92 E0
; Filament gcode

G21 ; set units to millimeters
G90 ; use absolute coordinates
M82 ; use absolute distances for extrusion
G92 E0
G1 Z0.200 F6000.000
G1 E-2.00000 F1200.00000
G92 E0
G1 X49.267 Y23.229 F6000.000
G1 E2.00000 F1200.00000
G1 F1800
G1 X49.627 Y22.579 E2.01430
G1 X50.711 Y20.956 E2.05183
G1 X51.956 Y19.711 E2.08572
G1 X53.579 Y18.627 E2.12325
G1 X55.206 Y17.953 E2.15714
G1 X57.119 Y17.573 E2.19467
G1 X58.084 Y17.487 E2.21329
G1 X112.084 Y18.487 E3.25236
G1 X113.924 Y18.916 E3.28871
G1 X115.427 Y20.062 E3.32507
G1 X116.330 Y21.722 E3.36143
G1 X116.514 Y23.000 E3.38627
G1 X116.514 Y33.000 E3.57865
G1 X116.479 Y33.560 E3.58945
G1 X106.479 Y113.560 E5.14052
G1 X106.114 Y114.858 E5.16646
G1 X100.733 Y126.771 E5.41795
G1 X100.373 Y127.421 E5.43225
G1 X99.289 Y129.044 E5.46978
G1 X98.044 Y130.289 E5.50367
G1 X96.421 Y131.373 E5.54120
G1 X94.794 Y132.047 E5.57509
G1 X92.881 Y132.427 E5.61262
G1 X91.916 Y132.513 E5.63124
G1 X37.916 Y131.513 E6.67031
G1 X36.076 Y131.084 E6.70666
G1 X34.573 Y129.938 E6.74302
G1 X33.670 Y128.278 E6.77938
G1 X33.486 Y127.000 E6.80422
G1 X33.486 Y117.000 E6.99660
G1 X33.521 Y116.440 E7.00740
G1 X43.521 Y36.440 E8.55847
G1 X43.886 Y35.142 E8.58441
G1 X49.242 Y23.283 E8.83475
G1 X49.501 Y23.334 F6000.000
G1 F1800
G1 X49.841 Y22.721 E8.84823
G1 X50.925 Y21.099 E8.88576
G1 X52.099 Y19.925 E8.91772
G1 X53.721 Y18.841 E8.95525
G1 X55.256 Y18.205 E8.98721
G1 X57.170 Y17.825 E9.02474
G1 X58.079 Y17.744 E9.04230
G1 X112.079 Y18.744 E10.08137
G1 X113.863 Y19.172 E10.11666
G1 X115.301 Y20.311 E10.15196
G1 X116.126 Y21.950 E10.18725
G1 X116.257 Y23.000 E10.20761
G1 X116.257 Y33.000 E10.40000
G1 X116.224 Y33.528 E10.41018
G1 X106.224 Y113.528 E11.96124
G1 X105.880 Y114.752 E11.98571
G1 X100.499 Y126.666 E12.23720
G1 X100.159 Y127.278 E12.25068
G1 X99.075 Y128.901 E12.28822
G1 X97.901 Y130.075 E12.32017
G1 X96.279 Y131.159 E12.35770
G1 X94.744 Y131.795 E12.38966
G1 X92.831 Y132.175 E12.42719
G1 X91.921 Y132.256 E12.44476
G1 X37.921 Y131.256 E13.48382
G1 X36.137 Y130.828 E13.51912
G1 X34.699 Y129.689 E13.55441
G1 X33.874 Y128.050 E13.58971
G1 X33.743 Y127.000 E13.61006
G1 X33.743 Y117.000 E13.80245
G1 X33.776 Y116.472 E13.81263
G1 X43.776 Y36.472 E15.36370
G1 X44.120 Y35.248 E15.38816
G1 X49.476 Y23.389 E15.63850
G1 E13.63850 F1200.00000
G92 E0
G1 X91.878 Y120.736 F6000.000
G1 E2.00000 F1200.00000
G1 F1800
G1 X92.396 Y120.768 E2.00998
G1 X92.699 Y120.845 E2.01599
G1 X92.965 Y120.950 E2.02149
G1 X93.214 Y121.087 E2.02696
G1 X93.444 Y121.254 E2.03243
G1 X93.651 Y121.449 E2.03791
G1 X93.833 Y121.668 E2.04338
G1 X93.985 Y121.909 E2.04886
G1 X94.106 Y122.166 E2.05433
G1 X94.194 Y122.437 E2.05980
G1 X94.248 Y122.716 E2.06527
G1 X94.265 Y123.000 E2.07075
G1 X94.248 Y123.284 E2.07622
G1 X94.194 Y123.563 E2.08170
G1 X94.106 Y123.834 E2.08717
G1 X93.985 Y124.091 E2.09264
G1 X93.833 Y124.332 E2.09812
G1 X93.651 Y124.551 E2.10359
G1 X93.444 Y124.746 E2.10906
G1 X93.214 Y124.913 E2.11454
G1 X92.965 Y125.050 E2.12001
G1 X92.700 Y125.155 E2.12548
G1 X92.424 Y125.225 E2.13096
G1 X92.142 Y125.261 E2.13643
G1 X91.858 Y125.261 E2.14190
G1 X91.576 Y125.225 E2.14737
G1 X91.300 Y125.155 E2.15285
G1 X91.035 Y125.050 E2.15832
G1 X90.786 Y124.913 E2.16379
G1 X90.556 Y124.746 E2.16927
G1 X90.349 Y124.551 E2.17474
G1 X90.167 Y124.332 E2.18021
G1 X90.015 Y124.091 E2.18569
G1 X89.894 Y123.834 E2.19116
G1 X89.806 Y123.563 E2.19663
G1 X89.752 Y123.284 E2.20211
G1 X89.735 Y123.000 E2.20758
G1 X89.752 Y122.716 E2.21306
G1 X89.810 Y122.416 E2.21893
G1 X90.000 Y121.934 E2.22890
G1 X90.166 Y121.669 E2.23492
G1 X90.349 Y121.449 E2.24042
G1 X90.571 Y121.240 E2.24628
G1 X91.009 Y120.962 E2.25626
G1 X91.299 Y120.846 E2.26227
G1 X91.576 Y120.775 E2.26777
G1 X91.819 Y120.744 E2.27249
G1 X91.886 Y120.995 F6000.000
G1 F1800
G1 X92.356 Y121.023 E2.28154
G1 X92.620 Y121.090 E2.28677
G1 X92.855 Y121.183 E2.29164
G1 X93.076 Y121.305 E2.29649
G1 X93.280 Y121.453 E2.30134
G1 X93.464 Y121.625 E2.30619
G1 X93.624 Y121.820 E2.31104
G1 X93.760 Y122.033 E2.31590
G1 X93.867 Y122.261 E2.32075
G1 X93.945 Y122.501 E2.32560
G1 X93.992 Y122.748 E2.33045
G1 X94.008 Y123.000 E2.33530
G1 X93.992 Y123.252 E2.34015
G1 X93.945 Y123.499 E2.34500
G1 X93.867 Y123.739 E2.34985
G1 X93.760 Y123.967 E2.35470
G1 X93.624 Y124.180 E2.35956
G1 X93.464 Y124.375 E2.36441
G1 X93.280 Y124.547 E2.36926
G1 X93.076 Y124.695 E2.37411
G1 X92.855 Y124.817 E2.37896
G1 X92.621 Y124.910 E2.38381
G1 X92.376 Y124.972 E2.38866
G1 X92.126 Y125.004 E2.39351
G1 X91.874 Y125.004 E2.39836
G1 X91.624 Y124.972 E2.40321
G1 X91.379 Y124.910 E2.40806
G1 X91.145 Y124.817 E2.41291
G1 X90.924 Y124.695 E2.41777
G1 X90.720 Y124.547 E2.42262
G1 X90.536 Y124.375 E2.42747
G1 X90.376 Y124.180 E2.43232
G1 X90.240 Y123.967 E2.43717
G1 X90.133 Y123.739 E2.44202
G1 X90.055 Y123.499 E2.44687
G1 X90.008 Y123.252 E2.45172
G1 X89.992 Y123.000 E2.45657
G1 X90.008 Y122.748 E2.46143
G1 X90.058 Y122.488 E2.46652
G1 X90.230 Y122.051 E2.47557
G1 X90.375 Y121.820 E2.48080
G1 X90.536 Y121.625 E2.48567
G1 X90.729 Y121.444 E2.49076
G1 X91.126 Y121.192 E2.49982
G1 X91.379 Y121.091 E2.50505
G1 X91.624 Y121.028 E2.50991
G1 X91.827 Y121.002 E2.51385
G1 X91.895 Y121.253 F6000.000
G1 F1800
G1 X92.316 Y121.279 E2.52198
G1 X92.541 Y121.335 E2.52643
G1 X92.745 Y121.416 E2.53066
G1 X92.938 Y121.522 E2.53489
G1 X93.116 Y121.651 E2.53912
G1 X93.276 Y121.802 E2.54335
G1 X93.416 Y121.971 E2.54758
G1 X93.534 Y122.157 E2.55181
G1 X93.627 Y122.356 E2.55604
G1 X93.695 Y122.565 E2.56026
G1 X93.737 Y122.781 E2.56449
G1 X93.750 Y123.000 E2.56872
G1 X93.737 Y123.219 E2.57295
G1 X93.695 Y123.435 E2.57718
G1 X93.627 Y123.644 E2.58141
G1 X93.534 Y123.843 E2.58564
G1 X93.416 Y124.029 E2.58987
G1 X93.276 Y124.198 E2.59410
G1 X93.116 Y124.349 E2.59832
G1 X92.938 Y124.478 E2.60255
G1 X92.745 Y124.584 E2.60678
G1 X92.541 Y124.665 E2.61101
G1 X92.328 Y124.719 E2.61524
G1 X92.110 Y124.747 E2.61947
G1 X91.890 Y124.747 E2.62370
G1 X91.672 Y124.719 E2.62792
G1 X91.459 Y124.665 E2.63215
G1 X91.255 Y124.584 E2.63638
G1 X91.062 Y124.478 E2.64061
G1 X90.884 Y124.349 E2.64484
G1 X90.724 Y124.198 E2.64907
G1 X90.584 Y124.029 E2.65330
G1 X90.466 Y123.843 E2.65753
G1 X90.373 Y123.644 E2.66175
G1 X90.305 Y123.435 E2.66598
G1 X90.263 Y123.219 E2.67021
G1 X90.250 Y123.000 E2.67444
G1 X90.263 Y122.781 E2.67867
G1 X90.306 Y122.560 E2.68299
G1 X90.461 Y122.167 E2.69111
G1 X90.584 Y121.971 E2.69557
G1 X90.724 Y121.802 E2.69980
G1 X90.888 Y121.648 E2.70412
G1 X91.244 Y121.421 E2.71224
G1 X91.459 Y121.335 E2.71669
G1 X91.835 Y121.260 E2.72408
G1 X92.087 Y120.902 F6000.000
G1 E0.72408 F1200.00000
G92 E0
G1 X87.701 Y110.157 F6000.000
G1 E2.00000 F1200.00000
G1 F1800
G1 X87.237 Y110.255 E2.00912
G1 X86.763 Y110.255 E2.01824
G1 X86.299 Y110.157 E2.02736
G1 X85.866 Y109.964 E2.03648
G1 X85.483 Y109.685 E2.04560
G1 X85.165 Y109.333 E2.05472
G1 X84.928 Y108.922 E2.06385
G1 X84.782 Y108.472 E2.07297
G1 X84.732 Y108.000 E2.08209
G1 X84.782 Y107.528 E2.09121
G1 X84.928 Y107.078 E2.10033
G1 X85.165 Y106.667 E2.10945
G1 X85.483 Y106.315 E2.11857
G1 X85.866 Y106.036 E2.12769
G1 X86.299 Y105.843 E2.13682
G1 X86.763 Y105.745 E2.14594
G1 X87.237 Y105.745 E2.15505
G1 X87.701 Y105.843 E2.16418
G1 X88.134 Y106.036 E2.17330
G1 X88.517 Y106.315 E2.18242
G1 X88.835 Y106.667 E2.19154
G1 X89.072 Y107.078 E2.20066
G1 X89.218 Y107.528 E2.20978
G1 X89.268 Y108.000 E2.21890
G1 X89.218 Y108.472 E2.22803
G1 X89.072 Y108.922 E2.23715
G1 X88.835 Y109.333 E2.24627
G1 X88.517 Y109.685 E2.25539
G1 X88.134 Y109.964 E2.26451
G1 X87.756 Y110.132 E2.27248
G1 X87.621 Y109.911 F6000.000
G1 F1800
G1 X87.210 Y109.998 E2.28056
G1 X86.790 Y109.998 E2.28864
G1 X86.379 Y109.911 E2.29672
G1 X85.995 Y109.740 E2.30480
G1 X85.656 Y109.493 E2.31288
G1 X85.374 Y109.181 E2.32096
G1 X85.164 Y108.817 E2.32905
G1 X85.035 Y108.418 E2.33713
G1 X84.991 Y108.000 E2.34521
G1 X85.035 Y107.582 E2.35329
G1 X85.164 Y107.183 E2.36137
G1 X85.374 Y106.819 E2.36945
G1 X85.656 Y106.507 E2.37753
G1 X85.995 Y106.260 E2.38561
G1 X86.379 Y106.089 E2.39370
G1 X86.790 Y106.002 E2.40178
G1 X87.210 Y106.002 E2.40986
G1 X87.621 Y106.089 E2.41794
G1 X88.005 Y106.260 E2.42602
G1 X88.344 Y106.507 E2.43410
G1 X88.626 Y106.819 E2.44218
G1 X88.836 Y107.183 E2.45027
G1 X88.965 Y107.582 E2.45835
G1 X89.009 Y108.000 E2.46643
G1 X88.965 Y108.418 E2.47451
G1 X88.836 Y108.817 E2.48259
G1 X88.626 Y109.181 E2.49068
G1 X88.344 Y109.493 E2.49875
G1 X88.005 Y109.740 E2.50684
G1 X87.676 Y109.887 E2.51376
G1 X87.541 Y109.665 F6000.000
G1 F1800
G1 X87.183 Y109.741 E2.52081
G1 X86.817 Y109.741 E2.52785
G1 X86.459 Y109.665 E2.53489
G1 X86.125 Y109.516 E2.54193
G1 X85.828 Y109.301 E2.54897
G1 X85.584 Y109.029 E2.55601
G1 X85.401 Y108.712 E2.56305
G1 X85.287 Y108.364 E2.57010
G1 X85.249 Y108.000 E2.57714
G1 X85.287 Y107.636 E2.58418
G1 X85.401 Y107.288 E2.59122
G1 X85.584 Y106.971 E2.59827
G1 X85.828 Y106.699 E2.60531
G1 X86.125 Y106.484 E2.61235
G1 X86.459 Y106.335 E2.61939
G1 X86.817 Y106.259 E2.62643
G1 X87.183 Y106.259 E2.63347
G1 X87.541 Y106.335 E2.64051
G1 X87.875 Y106.484 E2.64756
G1 X88.172 Y106.699 E2.65460
G1 X88.416 Y106.971 E2.66164
G1 X88.599 Y107.288 E2.66868
G1 X88.713 Y107.636 E2.67572
G1 X88.751 Y108.000 E2.68276
G1 X88.713 Y108.364 E2.68981
G1 X88.599 Y108.712 E2.69685
G1 X88.416 Y109.029 E2.70389
G1 X88.172 Y109.301 E2.71093
G1 X87.875 Y109.516 E2.71797
G1 X87.596 Y109.641 E2.72386
G1 X87.465 Y110.023 F6000.000
G1 E0.72386 F1200.00000
G92 E0
G1 X94.782 Y108.472 F6000.000
G1 E2.00000 F1200.00000
G1 F1800
G1 X94.732 Y108.000 E2.00912
G1 X94.782 Y107.528 E2.01824
G1 X94.928 Y107.078 E2.02736
G1 X95.165 Y106.667 E2.03649
G1 X95.483 Y106.315 E2.04561
G1 X95.866 Y106.036 E2.05473
G1 X96.299 Y105.843 E2.06385
G1 X96.763 Y105.745 E2.07297
G1 X97.237 Y105.745 E2.08209
G1 X97.701 Y105.843 E2.09121
G1 X98.134 Y106.036 E2.10033
G1 X98.517 Y106.315 E2.10945
G1 X98.835 Y106.667 E2.11857
G1 X99.072 Y107.078 E2.12770
G1 X99.218 Y107.528 E2.13682
G1 X99.268 Y108.000 E2.14594
G1 X99.218 Y108.472 E2.15506
G1 X99.072 Y108.922 E2.16418
G1 X98.835 Y109.333 E2.17330
G1 X98.517 Y109.685 E2.18242
G1 X98.134 Y109.964 E2.19154
G1 X97.701 Y110.157 E2.20066
G1 X97.237 Y110.255 E2.20979
G1 X96.763 Y110.255 E2.21890
G1 X96.299 Y110.157 E2.22803
G1 X95.866 Y109.964 E2.23715
G1 X95.483 Y109.685 E2.24627
G1 X95.165 Y109.333 E2.25539
G1 X94.928 Y108.922 E2.26451
G1 X94.800 Y108.529 E2.27248
G1 X95.035 Y108.418 F6000.000
G1 F1800
G1 X94.991 Y108.000 E2.28056
G1 X95.035 Y107.582 E2.28864
G1 X95.164 Y107.183 E2.29672
G1 X95.374 Y106.819 E2.30481
G1 X95.656 Y106.507 E2.31288
G1 X95.995 Y106.260 E2.32097
G1 X96.379 Y106.089 E2.32905
G1 X96.790 Y106.002 E2.33713
G1 X97.210 Y106.002 E2.34521
G1 X97.621 Y106.089 E2.35329
G1 X98.005 Y106.260 E2.36137
G1 X98.344 Y106.507 E2.36945
G1 X98.626 Y106.819 E2.37753
G1 X98.836 Y107.183 E2.38562
G1 X98.965 Y107.582 E2.39370
G1 X99.009 Y108.000 E2.40178
G1 X98.965 Y108.418 E2.40986
G1 X98.836 Y108.817 E2.41794
G1 X98.626 Y109.181 E2.42603
G1 X98.344 Y109.493 E2.43411
G1 X98.005 Y109.740 E2.44219
G1 X97.621 Y109.911 E2.45027
G1 X97.210 Y109.998 E2.45835
G1 X96.790 Y109.998 E2.46643
G1 X96.379 Y109.911 E2.47451
G1 X95.995 Y109.740 E2.48259
G1 X95.656 Y109.493 E2.49067
G1 X95.374 Y109.181 E2.49875
G1 X95.164 Y108.817 E2.50684
G1 X95.053 Y108.475 E2.51376
G1 X95.287 Y108.364 F6000.000
G1 F1800
G1 X95.249 Y108.000 E2.52081
G1 X95.287 Y107.636 E2.52785
G1 X95.401 Y107.288 E2.53489
G1 X95.584 Y106.971 E2.54193
G1 X95.828 Y106.699 E2.54897
G1 X96.125 Y106.484 E2.55601
G1 X96.459 Y106.335 E2.56306
G1 X96.817 Y106.259 E2.57010
G1 X97.183 Y106.259 E2.57714
G1 X97.541 Y106.335 E2.58418
G1 X97.875 Y106.484 E2.59122
G1 X98.172 Y106.699 E2.59827
G1 X98.416 Y106.971 E2.60531
G1 X98.599 Y107.288 E2.61235
G1 X98.713 Y107.636 E2.61939
G1 X98.751 Y108.000 E2.62643
G1 X98.713 Y108.364 E2.63347
G1 X98.599 Y108.712 E2.64052
G1 X98.416 Y109.029 E2.64756
G1 X98.172 Y109.301 E2.65460
G1 X97.875 Y109.516 E2.66164
G1 X97.541 Y109.665 E2.66868
G1 X97.183 Y109.741 E2.67573
G1 X96.817 Y109.741 E2.68276
G1 X96.459 Y109.665 E2.68981
G1 X96.125 Y109.516 E2.69685
G1 X95.828 Y109.301 E2.70389
G1 X95.584 Y109.029 E2.71093
G1 X95.401 Y108.712 E2.71797
G1 X95.306 Y108.421 E2.72386
G1 X94.939 Y108.251 F6000.000
G1 E0.72386 F1200.00000
G92 E0
G1 X97.618 Y103.714 F6000.000
G1 E2.00000 F1200.00000
G1 F1800
G1 X86.382 Y103.714 E2.21618
G1 X84.883 Y82.736 E2.62080
G1 X99.117 Y82.736 E2.89464
G1 X97.623 Y103.654 E3.29811
G1 X97.379 Y103.457 F6000.000
G1 F1800
G1 X86.621 Y103.457 E3.50508
G1 X85.159 Y82.993 E3.89979
G1 X98.841 Y82.993 E4.16300
G1 X97.383 Y103.397 E4.55655
G1 X97.140 Y103.200 F6000.000
G1 F1800
G1 X86.860 Y103.200 E4.75431
G1 X85.435 Y83.250 E5.13910
G1 X98.565 Y83.250 E5.39169
G1 X97.144 Y103.140 E5.77533
G1 X97.210 Y103.594 F6000.000
G1 E3.77533 F1200.00000
G92 E0
G1 X99.593 Y76.064 F6000.000
G1 E2.00000 F1200.00000
G1 F1800
G1 X92.875 Y76.064 E2.12924
G1 X92.849 Y76.185 E2.13162
G1 X93.057 Y76.282 E2.13604
G1 X93.301 Y76.458 E2.14183
G1 X93.619 Y76.798 E2.15079
G1 X93.766 Y77.029 E2.15606
G1 X93.883 Y77.277 E2.16133
G1 X94.004 Y77.747 E2.17066
G1 X94.004 Y78.232 E2.18000
G1 X93.948 Y78.522 E2.18568
G1 X93.777 Y78.954 E2.19463
G1 X93.615 Y79.208 E2.20042
G1 X93.287 Y79.556 E2.20962
G1 X92.878 Y79.816 E2.21894
G1 X92.603 Y79.925 E2.22462
G1 X92.146 Y80.012 E2.23357
G1 X91.845 Y80.011 E2.23936
G1 X91.376 Y79.920 E2.24856
G1 X90.937 Y79.714 E2.25789
G1 X90.698 Y79.541 E2.26356
G1 X90.381 Y79.202 E2.27249
G1 X90.233 Y78.970 E2.27779
G1 X90.115 Y78.716 E2.28318
G1 X89.996 Y78.253 E2.29238
G1 X89.996 Y77.768 E2.30170
G1 X90.048 Y77.499 E2.30698
G1 X90.133 Y77.238 E2.31225
G1 X90.356 Y76.831 E2.32117
G1 X90.544 Y76.604 E2.32685
G1 X90.918 Y76.295 E2.33618
G1 X91.152 Y76.185 E2.34116
G1 X91.125 Y76.064 E2.34354
G1 X84.407 Y76.064 E2.47279
G1 X82.612 Y50.936 E2.95746
G1 X91.104 Y50.936 E3.12084
G1 X91.136 Y50.825 E3.12306
G1 X90.713 Y50.556 E3.13271
G1 X90.381 Y50.202 E3.14204
G1 X90.233 Y49.970 E3.14734
G1 X90.115 Y49.716 E3.15273
G1 X89.996 Y49.253 E3.16193
G1 X89.996 Y48.768 E3.17125
G1 X90.048 Y48.499 E3.17653
G1 X90.133 Y48.238 E3.18180
G1 X90.366 Y47.813 E3.19113
G1 X90.713 Y47.444 E3.20087
G1 X91.140 Y47.173 E3.21061
G1 X91.602 Y47.023 E3.21994
G1 X91.894 Y46.986 E3.22562
G1 X92.357 Y47.015 E3.23455
G1 X92.623 Y47.083 E3.23982
G1 X92.878 Y47.184 E3.24509
G1 X93.287 Y47.444 E3.25442
G1 X93.619 Y47.798 E3.26376
G1 X93.766 Y48.029 E3.26903
G1 X93.883 Y48.277 E3.27430
G1 X94.004 Y48.747 E3.28363
G1 X94.004 Y49.232 E3.29297
G1 X93.952 Y49.501 E3.29824
G1 X93.867 Y49.762 E3.30351
G1 X93.634 Y50.187 E3.31285
G1 X93.287 Y50.556 E3.32259
G1 X92.864 Y50.825 E3.33223
G1 X92.896 Y50.936 E3.33446
G1 X101.388 Y50.936 E3.49783
G1 X99.598 Y76.004 E3.98135
G1 E1.98135 F1200.00000
G92 E0
G1 X93.746 Y77.779 F6000.000
G1 E2.00000 F1200.00000
G1 F1800
G1 X93.746 Y78.208 E2.00824
G1 X93.700 Y78.450 E2.01298
G1 X93.547 Y78.837 E2.02099
G1 X93.411 Y79.049 E2.02584
G1 X93.122 Y79.356 E2.03396
G1 X92.760 Y79.586 E2.04220
G1 X92.531 Y79.677 E2.04694
G1 X92.122 Y79.755 E2.05494
G1 X91.870 Y79.754 E2.05980
G1 X91.456 Y79.674 E2.06792
G1 X91.068 Y79.492 E2.07615
G1 X90.869 Y79.347 E2.08089
G1 X90.585 Y79.044 E2.08888
G1 X90.459 Y78.846 E2.09339
G1 X90.358 Y78.629 E2.09800
G1 X90.254 Y78.220 E2.10612
G1 X90.254 Y77.792 E2.11435
G1 X90.297 Y77.563 E2.11885
G1 X90.370 Y77.341 E2.12334
G1 X90.570 Y76.977 E2.13133
G1 X90.727 Y76.787 E2.13608
G1 X91.057 Y76.514 E2.14431
G1 X91.456 Y76.326 E2.15280
G1 X91.877 Y76.246 E2.16104
G1 X92.123 Y76.246 E2.16579
G1 X92.544 Y76.326 E2.17402
G1 X92.926 Y76.505 E2.18214
G1 X93.130 Y76.652 E2.18699
