; generated by Slic3r 1.3.1-dev (Build (Unknown revision)) on 2020-06-19 at 09:06:53

; external perimeters extrusion width = 0.44mm (2.86mm^3/s)
; perimeters extrusion width = 0.56mm (4.14mm^3/s)
; infill extrusion width = 0.50mm (5.48mm^3/s)
; solid infill extrusion width = 0.56mm (3.10mm^3/s)
; top infill extrusion width = 0.45mm (2.44mm^3/s)

M107
G92 E0
;D3D:START:START
T0
M104 S215 T0

G21
G90
M107
T0
G28
G29
M109 T0 S215 T0
G0 F3000
M107
T0
G92 E0
G0 X0 Y149 Z0.1 F3600
G1 Y49 E6.5 F1200
G0 Z1
G92 E0
; Filament gcode

G21 ; set units to millimeters
G90 ; use absolute coordinates
M82 ; use absolute distances for extrusion
G92 E0
G1 Z0.200 F6000.000
G1 E-2.00000 F1200.00000
G92 E0
G1 X41.495 Y71.113 F6000.000
G1 E2.00000 F1200.00000
G1 F1800.000
G1 X76.990 Y41.329 E2.89145
G1 X78.660 Y40.444 E2.92780
G1 X80.546 Y40.320 E2.96416
G1 X82.317 Y40.979 E3.00052
G1 X83.350 Y41.885 E3.02695
G1 X109.062 Y72.527 E3.79649
G1 X109.946 Y74.197 E3.83285
G1 X110.070 Y76.083 E3.86921
G1 X109.411 Y77.854 E3.90557
G1 X108.505 Y78.887 E3.93200
G1 X73.010 Y108.671 E4.82344
G1 X71.340 Y109.556 E4.85980
G1 X69.454 Y109.680 E4.89616
G1 X67.683 Y109.021 E4.93251
G1 X66.650 Y108.115 E4.95895
G1 X40.938 Y77.473 E5.72849
G1 X40.054 Y75.803 E5.76485
G1 X39.930 Y73.917 E5.80120
G1 X40.589 Y72.146 E5.83756
G1 X41.455 Y71.158 E5.86284
G1 X41.660 Y71.310 F6000.000
G1 F1800.000
G1 X77.156 Y41.526 E6.75429
G1 X78.782 Y40.677 E6.78958
G1 X80.615 Y40.592 E6.82487
G1 X82.313 Y41.285 E6.86017
G1 X83.153 Y42.051 E6.88203
G1 X108.865 Y72.692 E7.65158
G1 X109.713 Y74.319 E7.68687
G1 X109.799 Y76.151 E7.72217
G1 X109.105 Y77.850 E7.75746
G1 X108.340 Y78.690 E7.77932
G1 X72.844 Y108.474 E8.67077
G1 X71.218 Y109.323 E8.70607
G1 X69.385 Y109.408 E8.74136
G1 X67.687 Y108.715 E8.77665
G1 X66.847 Y107.950 E8.79852
G1 X41.135 Y77.308 E9.56806
G1 X40.287 Y75.681 E9.60336
G1 X40.201 Y73.849 E9.63865
G1 X40.895 Y72.150 E9.67395
G1 X41.620 Y71.355 E9.69465
G1 E7.69465 F1200.00000
G92 E0
G1 X71.154 Y98.675 F6000.000
G1 E2.00000 F1200.00000
G1 F1800.000
G1 X62.266 Y88.082 E2.26604
G1 X65.553 Y85.323 E2.34860
G1 X66.963 Y85.734 E2.37685
G1 X68.639 Y85.551 E2.40930
G1 X70.118 Y84.739 E2.44175
G1 X71.174 Y83.424 E2.47420
G1 X71.646 Y81.805 E2.50665
G1 X71.486 Y80.345 E2.53490
G1 X80.874 Y72.468 E2.77067
G1 X82.284 Y72.879 E2.79892
G1 X83.960 Y72.695 E2.83137
G1 X85.439 Y71.884 E2.86382
G1 X86.495 Y70.568 E2.89627
G1 X86.967 Y68.949 E2.92872
G1 X86.807 Y67.489 E2.95696
G1 X90.095 Y64.731 E3.03953
G1 X98.983 Y75.324 E3.30557
G1 X71.200 Y98.637 E4.00332
G1 X71.186 Y98.313 F6000.000
G1 F1800.000
G1 X62.628 Y88.114 E4.25947
G1 X65.613 Y85.609 E4.33444
G1 X66.940 Y85.995 E4.36103
G1 X68.718 Y85.801 E4.39545
G1 X70.287 Y84.940 E4.42987
G1 X71.406 Y83.545 E4.46428
G1 X71.907 Y81.827 E4.49870
G1 X71.757 Y80.454 E4.52529
G1 X80.934 Y72.753 E4.75577
G1 X82.261 Y73.140 E4.78236
G1 X84.039 Y72.945 E4.81678
G1 X85.608 Y72.084 E4.85120
G1 X86.727 Y70.689 E4.88561
G1 X87.228 Y68.972 E4.92003
G1 X87.077 Y67.598 E4.94662
G1 X90.063 Y65.093 E5.02160
G1 X98.621 Y75.292 E5.27774
G1 X71.232 Y98.274 E5.96560
G1 X71.218 Y97.951 F6000.000
G1 F1800.000
G1 X62.990 Y88.145 E6.21186
G1 X65.673 Y85.894 E6.27925
G1 X66.917 Y86.256 E6.30417
G1 X68.797 Y86.051 E6.34056
G1 X70.455 Y85.141 E6.37694
G1 X71.639 Y83.666 E6.41333
G1 X72.168 Y81.850 E6.44971
G1 X72.027 Y80.562 E6.47464
G1 X80.994 Y73.038 E6.69984
G1 X82.238 Y73.401 E6.72477
G1 X84.118 Y73.195 E6.76115
G1 X85.776 Y72.285 E6.79754
G1 X86.960 Y70.810 E6.83392
G1 X87.489 Y68.995 E6.87031
G1 X87.348 Y67.707 E6.89524
G1 X90.031 Y65.455 E6.96262
G1 X98.259 Y75.260 E7.20888
G1 X71.264 Y97.912 E7.88685
G1 X70.943 Y98.242 F6000.000
G1 E5.88685 F1200.00000
G92 E0
G1 X81.885 Y70.703 F6000.000
G1 E2.00000 F1200.00000
G1 F1800.000
G1 X81.459 Y70.495 E2.00912
G1 X81.085 Y70.203 E2.01824
G1 X80.780 Y69.840 E2.02736
G1 X80.558 Y69.422 E2.03648
G1 X80.427 Y68.966 E2.04561
G1 X80.394 Y68.493 E2.05473
G1 X80.460 Y68.023 E2.06385
G1 X80.622 Y67.578 E2.07297
G1 X80.873 Y67.176 E2.08209
G1 X81.203 Y66.835 E2.09121
G1 X81.596 Y66.570 E2.10033
G1 X82.035 Y66.392 E2.10945
G1 X82.502 Y66.310 E2.11857
G1 X82.976 Y66.326 E2.12770
G1 X83.436 Y66.441 E2.13682
G1 X83.862 Y66.649 E2.14594
G1 X84.236 Y66.941 E2.15506
G1 X84.541 Y67.304 E2.16418
G1 X84.763 Y67.723 E2.17330
G1 X84.894 Y68.178 E2.18242
G1 X84.927 Y68.651 E2.19154
G1 X84.861 Y69.121 E2.20066
G1 X84.699 Y69.566 E2.20979
G1 X84.448 Y69.968 E2.21891
G1 X84.118 Y70.309 E2.22803
G1 X83.725 Y70.574 E2.23715
G1 X83.286 Y70.752 E2.24627
G1 X82.819 Y70.834 E2.25539
G1 X82.345 Y70.818 E2.26451
G1 X81.943 Y70.718 E2.27248
G1 X81.973 Y70.460 F6000.000
G1 F1800.000
G1 X81.596 Y70.276 E2.28056
G1 X81.265 Y70.018 E2.28864
G1 X80.995 Y69.696 E2.29672
G1 X80.797 Y69.325 E2.30480
G1 X80.682 Y68.921 E2.31289
G1 X80.652 Y68.502 E2.32097
G1 X80.711 Y68.086 E2.32905
G1 X80.854 Y67.691 E2.33713
G1 X81.077 Y67.335 E2.34521
G1 X81.369 Y67.033 E2.35329
G1 X81.717 Y66.798 E2.36137
G1 X82.107 Y66.641 E2.36946
G1 X82.520 Y66.568 E2.37754
G1 X82.940 Y66.582 E2.38562
G1 X83.348 Y66.684 E2.39370
G1 X83.725 Y66.868 E2.40178
G1 X84.056 Y67.127 E2.40986
G1 X84.326 Y67.449 E2.41794
G1 X84.523 Y67.819 E2.42603
G1 X84.639 Y68.223 E2.43411
G1 X84.669 Y68.642 E2.44219
G1 X84.610 Y69.058 E2.45027
G1 X84.466 Y69.453 E2.45835
G1 X84.244 Y69.809 E2.46643
G1 X83.952 Y70.111 E2.47451
G1 X83.604 Y70.346 E2.48260
G1 X83.214 Y70.504 E2.49068
G1 X82.801 Y70.577 E2.49876
G1 X82.381 Y70.562 E2.50684
G1 X82.031 Y70.475 E2.51377
G1 X82.062 Y70.217 F6000.000
G1 F1800.000
G1 X81.733 Y70.057 E2.52081
G1 X81.444 Y69.832 E2.52785
G1 X81.209 Y69.551 E2.53489
G1 X81.037 Y69.228 E2.54193
G1 X80.936 Y68.876 E2.54898
G1 X80.911 Y68.511 E2.55602
G1 X80.962 Y68.149 E2.56306
G1 X81.087 Y67.805 E2.57010
G1 X81.281 Y67.494 E2.57714
G1 X81.535 Y67.231 E2.58418
G1 X81.838 Y67.026 E2.59123
G1 X82.178 Y66.889 E2.59827
G1 X82.538 Y66.826 E2.60531
G1 X82.904 Y66.838 E2.61235
G1 X83.259 Y66.927 E2.61939
G1 X83.588 Y67.087 E2.62644
G1 X83.877 Y67.313 E2.63348
G1 X84.112 Y67.593 E2.64052
G1 X84.284 Y67.916 E2.64756
G1 X84.385 Y68.268 E2.65460
G1 X84.410 Y68.633 E2.66164
G1 X84.359 Y68.996 E2.66869
G1 X84.234 Y69.340 E2.67573
G1 X84.040 Y69.650 E2.68277
G1 X83.786 Y69.913 E2.68981
G1 X83.482 Y70.118 E2.69685
G1 X83.143 Y70.255 E2.70389
G1 X82.783 Y70.319 E2.71094
G1 X82.417 Y70.306 E2.71798
G1 X82.120 Y70.232 E2.72387
G1 X81.781 Y70.453 F6000.000
G1 E0.72387 F1200.00000
G92 E0
G1 X69.220 Y80.160 F6000.000
G1 E2.00000 F1200.00000
G1 F1800.000
G1 X69.442 Y80.578 E2.00912
G1 X69.573 Y81.034 E2.01824
G1 X69.606 Y81.507 E2.02736
G1 X69.540 Y81.977 E2.03648
G1 X69.378 Y82.422 E2.04561
G1 X69.127 Y82.824 E2.05473
G1 X68.797 Y83.165 E2.06385
G1 X68.404 Y83.430 E2.07297
G1 X67.965 Y83.608 E2.08209
G1 X67.498 Y83.690 E2.09121
G1 X67.024 Y83.674 E2.10033
G1 X66.564 Y83.559 E2.10945
G1 X66.138 Y83.351 E2.11857
G1 X65.764 Y83.059 E2.12770
G1 X65.459 Y82.696 E2.13682
G1 X65.237 Y82.277 E2.14594
G1 X65.106 Y81.822 E2.15506
G1 X65.073 Y81.349 E2.16418
G1 X65.139 Y80.879 E2.17330
G1 X65.301 Y80.434 E2.18242
G1 X65.552 Y80.032 E2.19154
G1 X65.882 Y79.691 E2.20066
G1 X66.275 Y79.426 E2.20978
G1 X66.714 Y79.248 E2.21891
G1 X67.181 Y79.166 E2.22803
G1 X67.655 Y79.182 E2.23715
G1 X68.115 Y79.297 E2.24627
G1 X68.541 Y79.505 E2.25539
G1 X68.915 Y79.797 E2.26451
G1 X69.181 Y80.114 E2.27248
G1 X69.005 Y80.304 F6000.000
G1 F1800.000
G1 X69.203 Y80.675 E2.28056
G1 X69.318 Y81.079 E2.28864
G1 X69.348 Y81.498 E2.29672
G1 X69.289 Y81.914 E2.30480
G1 X69.146 Y82.309 E2.31289
G1 X68.923 Y82.665 E2.32097
G1 X68.631 Y82.967 E2.32905
G1 X68.283 Y83.202 E2.33713
G1 X67.893 Y83.359 E2.34521
G1 X67.480 Y83.432 E2.35329
G1 X67.060 Y83.418 E2.36137
G1 X66.652 Y83.316 E2.36946
G1 X66.275 Y83.132 E2.37754
G1 X65.944 Y82.873 E2.38562
G1 X65.674 Y82.551 E2.39370
G1 X65.477 Y82.181 E2.40178
G1 X65.361 Y81.777 E2.40986
G1 X65.331 Y81.358 E2.41794
G1 X65.390 Y80.942 E2.42603
G1 X65.534 Y80.547 E2.43411
G1 X65.756 Y80.191 E2.44219
G1 X66.048 Y79.889 E2.45027
G1 X66.396 Y79.654 E2.45835
G1 X66.786 Y79.496 E2.46643
G1 X67.199 Y79.423 E2.47451
G1 X67.619 Y79.438 E2.48260
G1 X68.027 Y79.540 E2.49068
G1 X68.404 Y79.724 E2.49876
G1 X68.735 Y79.982 E2.50684
G1 X68.967 Y80.258 E2.51377
G1 X68.791 Y80.449 F6000.000
G1 F1800.000
G1 X68.963 Y80.772 E2.52081
G1 X69.064 Y81.124 E2.52785
G1 X69.089 Y81.489 E2.53489
G1 X69.038 Y81.851 E2.54193
G1 X68.913 Y82.195 E2.54898
G1 X68.719 Y82.506 E2.55602
G1 X68.465 Y82.769 E2.56306
G1 X68.162 Y82.974 E2.57010
G1 X67.822 Y83.111 E2.57714
G1 X67.462 Y83.174 E2.58418
G1 X67.096 Y83.162 E2.59123
G1 X66.741 Y83.073 E2.59827
G1 X66.412 Y82.913 E2.60531
G1 X66.123 Y82.687 E2.61235
G1 X65.888 Y82.407 E2.61939
G1 X65.716 Y82.084 E2.62643
G1 X65.615 Y81.732 E2.63348
G1 X65.590 Y81.367 E2.64052
G1 X65.641 Y81.004 E2.64756
G1 X65.766 Y80.660 E2.65460
G1 X65.960 Y80.350 E2.66164
G1 X66.214 Y80.087 E2.66869
G1 X66.518 Y79.882 E2.67573
G1 X66.857 Y79.745 E2.68277
G1 X67.217 Y79.681 E2.68981
G1 X67.583 Y79.694 E2.69685
G1 X67.938 Y79.783 E2.70389
G1 X68.267 Y79.943 E2.71094
G1 X68.556 Y80.168 E2.71798
G1 X68.752 Y80.403 E2.72387
G1 X69.156 Y80.423 F6000.000
G1 E0.72387 F1200.00000
G92 E0
G1 X59.905 Y85.269 F6000.000
G1 E2.00000 F1200.00000
G1 F1800.000
G1 X51.017 Y74.676 E2.26604
G1 X78.846 Y51.325 E2.96495
G1 X87.734 Y61.918 E3.23098
G1 X84.447 Y64.677 E3.31355
G1 X83.037 Y64.266 E3.34180
G1 X81.361 Y64.449 E3.37425
G1 X79.882 Y65.261 E3.40670
G1 X78.826 Y66.576 E3.43915
G1 X78.354 Y68.195 E3.47160
G1 X78.514 Y69.655 E3.49984
G1 X69.126 Y77.532 E3.73562
G1 X67.716 Y77.121 E3.76386
G1 X66.040 Y77.305 E3.79631
G1 X64.561 Y78.116 E3.82876
G1 X63.505 Y79.432 E3.86121
G1 X63.033 Y81.051 E3.89366
G1 X63.193 Y82.511 E3.92191
G1 X59.951 Y85.231 E4.00332
G1 X59.937 Y84.907 F6000.000
G1 F1800.000
G1 X51.379 Y74.708 E4.25947
G1 X78.814 Y51.687 E4.94848
G1 X87.372 Y61.886 E5.20463
G1 X84.387 Y64.391 E5.27961
G1 X83.060 Y64.005 E5.30620
G1 X81.282 Y64.199 E5.34061
G1 X79.713 Y65.060 E5.37503
G1 X78.594 Y66.455 E5.40945
G1 X78.093 Y68.173 E5.44386
G1 X78.243 Y69.546 E5.47045
G1 X69.066 Y77.247 E5.70094
G1 X67.739 Y76.860 E5.72752
G1 X65.961 Y77.055 E5.76194
G1 X64.392 Y77.916 E5.79636
G1 X63.273 Y79.311 E5.83078
G1 X62.772 Y81.028 E5.86519
G1 X62.923 Y82.402 E5.89178
G1 X59.983 Y84.869 E5.96560
G1 X59.969 Y84.545 F6000.000
G1 F1800.000
G1 X51.741 Y74.740 E6.21186
G1 X78.782 Y52.049 E6.89098
G1 X87.010 Y61.855 E7.13724
G1 X84.327 Y64.106 E7.20462
G1 X83.083 Y63.744 E7.22955
G1 X81.203 Y63.949 E7.26594
G1 X79.545 Y64.859 E7.30232
G1 X78.361 Y66.334 E7.33871
G1 X77.832 Y68.150 E7.37509
G1 X77.973 Y69.438 E7.40002
G1 X69.006 Y76.962 E7.62522
G1 X67.762 Y76.599 E7.65015
G1 X65.882 Y76.805 E7.68653
G1 X64.224 Y77.715 E7.72292
G1 X63.040 Y79.190 E7.75930
G1 X62.511 Y81.005 E7.79569
G1 X62.652 Y82.293 E7.82061
G1 X60.015 Y84.506 E7.88685
G1 X59.685 Y84.827 F6000.000
G1 E5.88685 F1200.00000
G92 E0
G1 X45.332 Y74.653 F6000.000
G1 E2.00000 F1200.00000
G1 F1800.000
G1 X79.810 Y45.723 E2.86589
G1 X104.668 Y75.347 E3.60988
G1 X70.190 Y104.277 E4.47577
G1 X45.371 Y74.699 E5.21861
G1 X44.970 Y74.621 F6000.000
G1 F1800.000
G1 X79.842 Y45.360 E6.09439
G1 X105.030 Y75.379 E6.84828
G1 X70.158 Y104.640 E7.72406
G1 X45.009 Y74.667 E8.47679
G1 X44.608 Y74.590 F6000.000
G1 F1800.000
G1 X79.874 Y44.998 E9.36246
G1 X105.392 Y75.410 E10.12624
G1 X70.126 Y105.002 E11.01191
G1 X44.646 Y74.636 E11.77453
G1 X44.966 Y74.412 F6000.000
G1 X45.805 Y74.575 F6000.000
G1 F1800.000
G1 X45.585 Y74.794 E11.78054
G1 X45.752 Y74.993 E11.78556
G1 X48.078 Y72.667 E11.84920
G1 X50.350 Y70.760 E11.90661
G1 X45.919 Y75.192 E12.02788
G1 X46.086 Y75.391 E12.03290
G1 X52.623 Y68.853 E12.21180
G1 X54.896 Y66.946 E12.26921
G1 X46.253 Y75.589 E12.50575
G1 X46.420 Y75.788 E12.51077
G1 X57.169 Y65.039 E12.80493
G1 X59.441 Y63.132 E12.86235
G1 X46.586 Y75.987 E13.21414
G1 X46.753 Y76.186 E13.21916
G1 X61.714 Y61.225 E13.62859
G1 X63.987 Y59.318 E13.68600
G1 X46.920 Y76.385 E14.15306
G1 X47.087 Y76.584 E14.15808
G1 X66.260 Y57.411 E14.68277
G1 X68.533 Y55.504 E14.74018
G1 X47.254 Y76.782 E15.32250
G1 X47.421 Y76.981 E15.32753
G1 X70.805 Y53.597 E15.96748
G1 X73.078 Y51.690 E16.02489
G1 X47.587 Y77.180 E16.72248
G1 X47.754 Y77.379 E16.72750
G1 X75.351 Y49.782 E17.48271
G1 X77.624 Y47.875 E17.54013
G1 X51.788 Y73.711 E18.24716
G1 X54.060 Y71.804 E18.30457
G1 X79.888 Y45.976 E19.01139
G1 X80.055 Y46.175 E19.01641
G1 X56.333 Y69.897 E19.66560
G1 X58.606 Y67.990 E19.72301
G1 X80.222 Y46.374 E20.31456
G1 X80.389 Y46.573 E20.31958
G1 X60.879 Y66.083 E20.85351
G1 X63.151 Y64.176 E20.91092
G1 X80.556 Y46.772 E21.38721
G1 X80.722 Y46.971 E21.39224
G1 X65.424 Y62.269 E21.81090
G1 X67.697 Y60.362 E21.86831
G1 X80.889 Y47.169 E22.22934
G1 X81.056 Y47.368 E22.23437
G1 X69.969 Y58.455 E22.53777
G1 X72.242 Y56.548 E22.59518
G1 X81.223 Y47.567 E22.84095
G1 X81.390 Y47.766 E22.84598
G1 X74.515 Y54.641 E23.03412
G1 X76.788 Y52.734 E23.09153
G1 X81.557 Y47.965 E23.22204
G1 X81.724 Y48.164 E23.22706
G1 X78.790 Y51.097 E23.30735
G1 X78.957 Y51.296 E23.31237
G1 X81.890 Y48.363 E23.39266
G1 X82.057 Y48.561 E23.39768
G1 X79.124 Y51.495 E23.47796
G1 X79.290 Y51.694 E23.48299
G1 X82.224 Y48.760 E23.56327
G1 X82.391 Y48.959 E23.56829
G1 X79.457 Y51.893 E23.64858
G1 X79.624 Y52.092 E23.65360
G1 X82.558 Y49.158 E23.73388
G1 X82.725 Y49.357 E23.73891
G1 X79.791 Y52.290 E23.81919
G1 X79.958 Y52.489 E23.82421
G1 X82.891 Y49.556 E23.90450
G1 X83.058 Y49.754 E23.90952
G1 X80.125 Y52.688 E23.98981
G1 X80.291 Y52.887 E23.99483
G1 X83.225 Y49.953 E24.07511
G1 X83.392 Y50.152 E24.08014
G1 X80.458 Y53.086 E24.16042
G1 X80.625 Y53.285 E24.16544
G1 X83.559 Y50.351 E24.24573
G1 X83.726 Y50.550 E24.25075
G1 X80.792 Y53.483 E24.33104
G1 X80.959 Y53.682 E24.33606
G1 X83.893 Y50.749 E24.41634
G1 X84.059 Y50.947 E24.42137
G1 X81.126 Y53.881 E24.50165
G1 X81.293 Y54.080 E24.50667
G1 X84.226 Y51.146 E24.58696
G1 X84.393 Y51.345 E24.59198
G1 X81.459 Y54.279 E24.67226
G1 X81.626 Y54.478 E24.67729
G1 X84.560 Y51.544 E24.75757
G1 X84.727 Y51.743 E24.76259
G1 X81.793 Y54.676 E24.84288
G1 X81.960 Y54.875 E24.84790
G1 X84.894 Y51.942 E24.92819
G1 X85.060 Y52.140 E24.93321
G1 X82.127 Y55.074 E25.01349
G1 X82.294 Y55.273 E25.01852
G1 X85.227 Y52.339 E25.09880
G1 X85.394 Y52.538 E25.10382
G1 X82.461 Y55.472 E25.18411
G1 X82.627 Y55.671 E25.18913
G1 X85.561 Y52.737 E25.26941
G1 X85.728 Y52.936 E25.27444
G1 X82.794 Y55.870 E25.35472
G1 X82.961 Y56.068 E25.35974
G1 X85.895 Y53.135 E25.44003
G1 X86.062 Y53.334 E25.44505
G1 X83.128 Y56.267 E25.52533
G1 X83.295 Y56.466 E25.53036
G1 X86.228 Y53.532 E25.61064
G1 X86.395 Y53.731 E25.61566
G1 X83.462 Y56.665 E25.69595
G1 X83.628 Y56.864 E25.70097
G1 X86.562 Y53.930 E25.78126
G1 X86.729 Y54.129 E25.78628
G1 X83.795 Y57.063 E25.86656
G1 X83.962 Y57.261 E25.87159
G1 X86.896 Y54.328 E25.95187
G1 X87.063 Y54.527 E25.95689
G1 X84.129 Y57.460 E26.03718
G1 X84.296 Y57.659 E26.04220
G1 X87.230 Y54.725 E26.12248
G1 X87.396 Y54.924 E26.12751
G1 X84.463 Y57.858 E26.20779
G1 X84.630 Y58.057 E26.21281
G1 X87.563 Y55.123 E26.29310
G1 X87.730 Y55.322 E26.29812
G1 X84.796 Y58.256 E26.37840
G1 X84.963 Y58.454 E26.38343
G1 X87.897 Y55.521 E26.46371
G1 X88.064 Y55.720 E26.46873
G1 X85.130 Y58.653 E26.54902
G1 X85.297 Y58.852 E26.55404
G1 X88.231 Y55.918 E26.63432
G1 X88.397 Y56.117 E26.63935
G1 X85.464 Y59.051 E26.71963
G1 X85.631 Y59.250 E26.72465
G1 X88.564 Y56.316 E26.80494
G1 X88.731 Y56.515 E26.80996
G1 X85.797 Y59.449 E26.89024
G1 X85.964 Y59.647 E26.89527
G1 X88.898 Y56.714 E26.97555
G1 X89.065 Y56.913 E26.98057
G1 X86.131 Y59.846 E27.06086
G1 X86.298 Y60.045 E27.06588
G1 X89.232 Y57.111 E27.14616
G1 X89.399 Y57.310 E27.15119
G1 X86.465 Y60.244 E27.23147
G1 X86.632 Y60.443 E27.23649
G1 X89.565 Y57.509 E27.31678
G1 X89.732 Y57.708 E27.32180
G1 X86.799 Y60.642 E27.40208
G1 X86.965 Y60.841 E27.40711
G1 X89.899 Y57.907 E27.48739
G1 X90.066 Y58.106 E27.49241
G1 X87.132 Y61.039 E27.57270
G1 X87.299 Y61.238 E27.57772
G1 X90.233 Y58.305 E27.65800
G1 X90.400 Y58.503 E27.66303
G1 X87.466 Y61.437 E27.74331
