; generated by Slic3r 1.3.1-dev (Build (Unknown revision)) on 2020-06-18 at 22:19:45

; external perimeters extrusion width = 0.44mm (2.86mm^3/s)
; perimeters extrusion width = 0.56mm (4.14mm^3/s)
; infill extrusion width = 0.50mm (5.48mm^3/s)
; solid infill extrusion width = 0.56mm (3.10mm^3/s)
; top infill extrusion width = 0.45mm (2.44mm^3/s)

M107
G92 E0
;D3D:START:START
T0
M104 S215 T0

G21
G90
M107
T0
G28
G29
M109 T0 S215 T0
G0 F3000
M107
T0
G92 E0
G0 X0 Y149 Z0.1 F3600
G1 Y49 E6.5 F1200
G0 Z1
G92 E0
; Filament gcode

G21 ; set units to millimeters
G90 ; use absolute coordinates
M82 ; use absolute distances for extrusion
G92 E0
G1 Z0.200 F6000.000
G1 E-2.00000 F1200.00000
G92 E0
G1 X60.624 Y66.928 F6000.000
G1 E2.00000 F1200.00000
G1 F1800.000
G1 X62.267 Y65.995 E2.03636
G1 X63.625 Y65.786 E2.06279
G1 X86.375 Y65.786 E2.50047
G1 X88.223 Y66.181 E2.53682
G1 X89.747 Y67.299 E2.57318
G1 X90.680 Y68.942 E2.60954
G1 X90.889 Y70.300 E2.63597
G1 X90.889 Y75.500 E2.73601
G1 X90.494 Y77.348 E2.77237
G1 X89.376 Y78.872 E2.80872
G1 X87.999 Y79.712 E2.83975
G1 X77.482 Y83.766 E3.05660
G1 X76.906 Y83.953 E3.06826
G1 X76.472 Y84.059 E3.07685
G1 X75.746 Y84.174 E3.09099
G1 X75.142 Y84.212 E3.10264
G1 X74.409 Y84.189 E3.11674
G1 X73.964 Y84.137 E3.12537
G1 X73.364 Y84.023 E3.13711
G1 X72.666 Y83.819 E3.15110
G1 X62.001 Y79.712 E3.37098
G1 X60.419 Y78.678 E3.40733
G1 X59.399 Y77.087 E3.44369
G1 X59.111 Y75.500 E3.47472
G1 X59.111 Y70.300 E3.57476
G1 X59.506 Y68.452 E3.61112
G1 X60.588 Y66.976 E3.64632
G1 X60.876 Y67.050 F6000.000
G1 F1800.000
G1 X62.499 Y66.195 E3.68162
G1 X63.625 Y66.043 E3.70348
G1 X86.375 Y66.043 E4.14116
G1 X88.166 Y66.438 E4.17645
G1 X89.625 Y67.551 E4.21175
G1 X90.480 Y69.174 E4.24704
G1 X90.632 Y70.300 E4.26890
G1 X90.632 Y75.500 E4.36894
G1 X90.237 Y77.291 E4.40424
G1 X89.124 Y78.750 E4.43953
G1 X87.907 Y79.472 E4.46676
G1 X77.395 Y83.524 E4.68350
G1 X76.834 Y83.706 E4.69484
G1 X76.416 Y83.808 E4.70313
G1 X75.722 Y83.918 E4.71664
G1 X75.134 Y83.955 E4.72798
G1 X74.434 Y83.933 E4.74146
G1 X74.004 Y83.884 E4.74978
G1 X73.421 Y83.772 E4.76121
G1 X72.753 Y83.578 E4.77458
G1 X62.093 Y79.472 E4.99435
G1 X60.564 Y78.459 E5.02964
G1 X59.603 Y76.896 E5.06494
G1 X59.368 Y75.500 E5.09217
G1 X59.368 Y70.300 E5.19221
G1 X59.763 Y68.509 E5.22750
G1 X60.839 Y67.097 E5.26164
G1 E3.26164 F1200.00000
G92 E0
G1 X76.281 Y78.648 F6000.000
G1 E2.00000 F1200.00000
G1 F1800.000
G1 X75.968 Y78.860 E2.00727
G1 X75.627 Y79.008 E2.01442
G1 X75.376 Y79.072 E2.01940
G1 X75.120 Y79.105 E2.02437
G1 X74.748 Y79.093 E2.03152
G1 X74.379 Y79.011 E2.03880
G1 X74.032 Y78.860 E2.04607
G1 X73.719 Y78.648 E2.05335
G1 X73.452 Y78.381 E2.06062
G1 X73.240 Y78.068 E2.06790
G1 X73.092 Y77.727 E2.07505
G1 X73.028 Y77.476 E2.08002
G1 X72.995 Y77.220 E2.08500
G1 X73.007 Y76.848 E2.09215
G1 X73.089 Y76.479 E2.09942
G1 X73.237 Y76.138 E2.10657
G1 X73.376 Y75.920 E2.11154
G1 X73.540 Y75.721 E2.11652
G1 X73.819 Y75.475 E2.12367
G1 X74.145 Y75.282 E2.13094
G1 X74.500 Y75.154 E2.13822
G1 X74.874 Y75.095 E2.14549
G1 X75.252 Y75.107 E2.15277
G1 X75.621 Y75.189 E2.16004
G1 X75.968 Y75.340 E2.16732
G1 X76.281 Y75.552 E2.17459
G1 X76.548 Y75.819 E2.18186
G1 X76.760 Y76.132 E2.18914
G1 X76.908 Y76.473 E2.19629
G1 X76.972 Y76.724 E2.20126
G1 X77.005 Y76.980 E2.20624
G1 X76.993 Y77.352 E2.21339
G1 X76.911 Y77.721 E2.22066
G1 X76.760 Y78.068 E2.22794
G1 X76.548 Y78.381 E2.23521
G1 X76.323 Y78.605 E2.24133
G1 X76.116 Y78.449 F6000.000
G1 F1800.000
G1 X75.843 Y78.634 E2.24767
G1 X75.543 Y78.764 E2.25396
G1 X75.328 Y78.819 E2.25824
G1 X75.108 Y78.847 E2.26251
G1 X74.781 Y78.837 E2.26881
G1 X74.459 Y78.765 E2.27515
G1 X74.157 Y78.634 E2.28148
G1 X73.884 Y78.449 E2.28782
G1 X73.651 Y78.216 E2.29416
G1 X73.466 Y77.943 E2.30050
G1 X73.336 Y77.643 E2.30680
G1 X73.281 Y77.428 E2.31107
G1 X73.253 Y77.208 E2.31534
G1 X73.263 Y76.881 E2.32164
G1 X73.335 Y76.559 E2.32798
G1 X73.465 Y76.259 E2.33427
G1 X73.584 Y76.071 E2.33854
G1 X73.726 Y75.900 E2.34282
G1 X73.971 Y75.684 E2.34911
G1 X74.255 Y75.516 E2.35545
G1 X74.565 Y75.404 E2.36179
G1 X74.890 Y75.353 E2.36813
G1 X75.219 Y75.363 E2.37447
G1 X75.541 Y75.435 E2.38081
G1 X75.843 Y75.566 E2.38715
G1 X76.116 Y75.751 E2.39349
G1 X76.349 Y75.984 E2.39983
G1 X76.534 Y76.257 E2.40617
G1 X76.664 Y76.557 E2.41246
G1 X76.719 Y76.772 E2.41673
G1 X76.747 Y76.992 E2.42101
G1 X76.737 Y77.319 E2.42730
G1 X76.665 Y77.641 E2.43364
G1 X76.534 Y77.943 E2.43998
G1 X76.349 Y78.216 E2.44632
G1 X76.158 Y78.406 E2.45150
G1 X76.171 Y78.774 F6000.000
G1 X76.968 Y78.412 F6000.000
G1 F1800.000
G1 X76.898 Y78.323 E2.45369
G1 X76.987 Y78.192 E2.45674
G1 X77.156 Y77.801 E2.46495
G1 X77.249 Y77.384 E2.47316
G1 X77.262 Y76.968 E2.48116
G1 X77.225 Y76.675 E2.48684
G1 X77.152 Y76.390 E2.49251
G1 X76.987 Y76.008 E2.50052
G1 X76.747 Y75.655 E2.50873
G1 X76.445 Y75.353 E2.51694
G1 X76.092 Y75.113 E2.52515
G1 X75.701 Y74.944 E2.53336
G1 X75.284 Y74.851 E2.54157
G1 X74.858 Y74.837 E2.54978
G1 X74.436 Y74.904 E2.55799
G1 X74.035 Y75.049 E2.56620
G1 X73.667 Y75.266 E2.57440
G1 X73.355 Y75.541 E2.58241
G1 X73.167 Y75.768 E2.58809
G1 X73.009 Y76.017 E2.59376
G1 X72.844 Y76.399 E2.60177
G1 X72.751 Y76.816 E2.60998
G1 X72.738 Y77.232 E2.61799
G1 X72.775 Y77.525 E2.62366
G1 X72.848 Y77.810 E2.62934
G1 X73.013 Y78.192 E2.63734
G1 X73.106 Y78.328 E2.64051
G1 X73.035 Y78.417 E2.64269
G1 X64.289 Y75.044 E2.82303
G1 X64.289 Y70.964 E2.90152
G1 X85.711 Y70.964 E3.31365
G1 X85.711 Y75.044 E3.39214
G1 X77.024 Y78.391 E3.57124
G1 E1.57124 F1200.00000
G92 E0
G1 X85.968 Y75.221 F6000.000
G1 E2.00000 F1200.00000
G1 F1800.000
G1 X75.678 Y79.185 E2.21215
G1 X75.417 Y79.252 E2.21733
G1 X74.994 Y79.292 E2.22551
G1 X74.724 Y79.275 E2.23071
G1 X74.453 Y79.223 E2.23601
G1 X74.179 Y79.134 E2.24156
G1 X64.032 Y75.221 E2.45079
G1 X64.032 Y70.707 E2.53762
G1 X85.968 Y70.707 E2.95964
G1 X85.968 Y75.161 E3.04532
G1 X86.225 Y75.397 F6000.000
G1 F1800.000
G1 X75.756 Y79.430 E3.26115
G1 X75.461 Y79.506 E3.26701
G1 X74.998 Y79.550 E3.27597
G1 X74.691 Y79.530 E3.28187
G1 X74.389 Y79.472 E3.28779
G1 X74.093 Y79.376 E3.29378
G1 X63.775 Y75.397 E3.50653
G1 X63.775 Y70.450 E3.60171
G1 X86.225 Y70.450 E4.03362
G1 X86.225 Y75.337 E4.12764
G1 X85.831 Y75.466 F6000.000
G1 X85.344 Y74.977 F6000.000
G1 F1800.000
G1 X85.563 Y74.758 E4.13363
G1 X85.563 Y74.392 E4.14073
G1 X84.748 Y75.206 E4.16307
G1 X84.152 Y75.436 E4.17546
G1 X85.563 Y74.026 E4.21415
G1 X85.563 Y73.659 E4.22125
G1 X83.556 Y75.666 E4.27629
G1 X82.960 Y75.895 E4.28868
G1 X85.563 Y73.293 E4.36006
G1 X85.563 Y72.926 E4.36717
G1 X82.364 Y76.125 E4.45490
G1 X81.768 Y76.355 E4.46729
G1 X85.563 Y72.560 E4.57137
G1 X85.563 Y72.193 E4.57848
G1 X81.172 Y76.584 E4.69891
G1 X80.575 Y76.814 E4.71130
G1 X85.563 Y71.827 E4.84808
G1 X85.563 Y71.460 E4.85518
G1 X79.979 Y77.044 E5.00831
G1 X79.383 Y77.273 E5.02070
G1 X85.544 Y71.112 E5.18967
G1 X85.178 Y71.112 E5.19678
G1 X78.787 Y77.503 E5.37205
G1 X78.191 Y77.733 E5.38444
G1 X84.811 Y71.112 E5.56601
G1 X84.445 Y71.112 E5.57311
G1 X77.595 Y77.962 E5.76098
G1 X77.451 Y78.018 E5.76396
G1 X77.470 Y77.959 E5.76516
G1 X77.311 Y77.907 E5.76841
G1 X77.319 Y77.872 E5.76911
G1 X84.079 Y71.112 E5.95450
G1 X83.712 Y71.112 E5.96160
G1 X77.400 Y77.425 E6.13473
G1 X77.409 Y77.049 E6.14201
G1 X83.346 Y71.112 E6.30483
G1 X82.979 Y71.112 E6.31194
G1 X77.366 Y76.725 E6.46587
G1 X77.291 Y76.433 E6.47171
G1 X82.613 Y71.112 E6.61764
G1 X82.246 Y71.112 E6.62475
G1 X77.183 Y76.175 E6.76361
G1 X77.062 Y75.930 E6.76891
G1 X81.880 Y71.112 E6.90105
G1 X81.513 Y71.112 E6.90816
G1 X76.913 Y75.712 E7.03431
G1 X76.748 Y75.511 E7.03936
G1 X81.147 Y71.112 E7.15999
G1 X80.780 Y71.112 E7.16710
G1 X76.565 Y75.328 E7.28271
G1 X76.359 Y75.167 E7.28777
G1 X80.414 Y71.112 E7.39897
G1 X80.047 Y71.112 E7.40608
G1 X76.141 Y75.019 E7.51322
G1 X75.891 Y74.902 E7.51857
G1 X79.681 Y71.112 E7.62251
G1 X79.314 Y71.112 E7.62962
G1 X75.629 Y74.798 E7.73070
G1 X75.329 Y74.731 E7.73665
G1 X78.948 Y71.112 E7.83590
G1 X78.581 Y71.112 E7.84300
G1 X74.997 Y74.697 E7.94132
G1 X74.732 Y74.689 E7.94645
G1 X74.621 Y74.706 E7.94864
G1 X78.215 Y71.112 E8.04721
G1 X77.848 Y71.112 E8.05432
G1 X74.161 Y74.800 E8.15545
G1 X73.816 Y74.924 E8.16257
G1 X73.459 Y75.135 E8.17060
G1 X77.482 Y71.112 E8.28092
G1 X77.116 Y71.112 E8.28803
G1 X70.798 Y77.430 E8.46129
G1 X70.533 Y77.328 E8.46679
G1 X76.749 Y71.112 E8.63725
G1 X76.383 Y71.112 E8.64436
G1 X70.269 Y77.226 E8.81203
G1 X70.004 Y77.124 E8.81753
G1 X76.016 Y71.112 E8.98240
G1 X75.650 Y71.112 E8.98951
G1 X69.740 Y77.022 E9.15158
G1 X69.475 Y76.920 E9.15708
G1 X75.283 Y71.112 E9.31636
G1 X74.917 Y71.112 E9.32346
G1 X69.211 Y76.818 E9.47994
G1 X68.946 Y76.716 E9.48544
G1 X74.550 Y71.112 E9.63912
G1 X74.184 Y71.112 E9.64623
G1 X68.682 Y76.614 E9.79712
G1 X68.418 Y76.512 E9.80261
G1 X73.817 Y71.112 E9.95070
G1 X73.451 Y71.112 E9.95781
G1 X68.153 Y76.410 E10.10310
G1 X67.889 Y76.308 E10.10860
G1 X73.084 Y71.112 E10.25110
G1 X72.718 Y71.112 E10.25820
G1 X67.624 Y76.206 E10.39790
G1 X67.360 Y76.104 E10.40340
G1 X72.351 Y71.112 E10.54030
G1 X71.985 Y71.112 E10.54741
G1 X67.095 Y76.002 E10.68151
G1 X66.831 Y75.900 E10.68701
G1 X71.618 Y71.112 E10.81831
G1 X71.252 Y71.112 E10.82542
G1 X66.566 Y75.798 E10.95393
G1 X66.302 Y75.696 E10.95943
G1 X70.885 Y71.112 E11.08514
G1 X70.519 Y71.112 E11.09225
G1 X66.037 Y75.594 E11.21516
G1 X65.773 Y75.492 E11.22066
G1 X70.153 Y71.112 E11.34078
G1 X69.786 Y71.112 E11.34788
G1 X65.508 Y75.390 E11.46520
G1 X65.244 Y75.288 E11.47070
G1 X69.420 Y71.112 E11.58522
G1 X69.053 Y71.112 E11.59233
G1 X64.979 Y75.186 E11.70406
G1 X64.715 Y75.084 E11.70956
G1 X68.687 Y71.112 E11.81848
G1 X68.320 Y71.112 E11.82559
G1 X64.450 Y74.982 E11.93172
G1 X64.437 Y74.977 E11.93200
G1 X64.437 Y74.629 E11.93875
G1 X67.954 Y71.112 E12.03519
G1 X67.587 Y71.112 E12.04230
G1 X64.437 Y74.262 E12.12869
G1 X64.437 Y73.896 E12.13580
G1 X67.221 Y71.112 E12.21214
G1 X66.854 Y71.112 E12.21925
G1 X64.437 Y73.529 E12.28554
G1 X64.437 Y73.163 E12.29264
G1 X66.488 Y71.112 E12.34888
G1 X66.121 Y71.112 E12.35599
G1 X64.437 Y72.796 E12.40218
G1 X64.437 Y72.430 E12.40928
G1 X65.755 Y71.112 E12.44542
G1 X65.388 Y71.112 E12.45253
G1 X64.437 Y72.063 E12.47862
G1 X64.437 Y71.697 E12.48572
G1 X65.022 Y71.112 E12.50176
G1 X64.655 Y71.112 E12.50887
G1 X64.437 Y71.330 E12.51485
G1 E10.51485 F1200.00000
G92 E0
G1 X70.798 Y77.430 F6000.000
G1 E2.00000 F1200.00000
G1 F1800.000
G1 X71.062 Y77.532 E2.00550
G1 X73.036 Y75.558 E2.05963
G1 X72.890 Y75.788 E2.06490
G1 X72.695 Y76.266 E2.07491
G1 X71.327 Y77.634 E2.11243
G1 X71.591 Y77.736 E2.11793
G1 X72.602 Y76.725 E2.14565
G1 X72.590 Y77.103 E2.15299
G1 X71.856 Y77.838 E2.17313
G1 X72.120 Y77.940 E2.17863
G1 X72.627 Y77.433 E2.19252
G1 X72.699 Y77.728 E2.19841
G1 X72.460 Y77.967 E2.20495
G1 X72.795 Y78.052 F6000.000
G1 F1800.000
G1 X72.848 Y78.207 E2.20508
G1 X73.171 Y78.453 F6000.000
G1 F1800.000
G1 X73.613 Y78.778 E2.21233
G1 E0.21233 F1200.00000
G92 E0
G1 X76.392 Y78.772 F6000.000
G1 E2.00000 F1200.00000
G1 F1800.000
G1 X76.832 Y78.448 E2.00734
G1 X77.162 Y78.200 F6000.000
G1 F1800.000
G1 X77.225 Y78.005 E2.00765
G1 Z0.400 F6000.000
G1 X76.788 Y76.759 F6000.000
G1 F1800.000
G1 X76.817 Y76.989 E2.01455
G1 X76.807 Y77.328 E2.02463
G1 X76.732 Y77.663 E2.03482
G1 X76.596 Y77.977 E2.04500
G1 X76.403 Y78.261 E2.05518
G1 X76.161 Y78.503 E2.06537
G1 X75.877 Y78.696 E2.07555
G1 X75.566 Y78.830 E2.08564
G1 X75.341 Y78.888 E2.09253
G1 X75.111 Y78.917 E2.09943
G1 X74.772 Y78.907 E2.10951
G1 X74.437 Y78.832 E2.11969
G1 X74.123 Y78.696 E2.12988
G1 X73.839 Y78.503 E2.14006
G1 X73.597 Y78.261 E2.15025
G1 X73.404 Y77.977 E2.16043
G1 X73.270 Y77.666 E2.17051
G1 X73.212 Y77.441 E2.17741
G1 X73.183 Y77.211 E2.18431
G1 X73.193 Y76.872 E2.19439
G1 X73.268 Y76.537 E2.20457
G1 X73.403 Y76.226 E2.21465
G1 X73.527 Y76.030 E2.22155
G1 X73.675 Y75.851 E2.22845
G1 X73.930 Y75.627 E2.23853
G1 X74.225 Y75.452 E2.24871
G1 X74.547 Y75.336 E2.25890
G1 X74.886 Y75.283 E2.26908
G1 X75.228 Y75.293 E2.27927
G1 X75.563 Y75.368 E2.28945
G1 X75.877 Y75.504 E2.29964
G1 X76.161 Y75.697 E2.30982
G1 X76.403 Y75.939 E2.32001
G1 X76.596 Y76.223 E2.33019
G1 X76.730 Y76.534 E2.34027
G1 X76.773 Y76.701 E2.34539
G1 X77.008 Y76.833 F6000.000
G1 X77.775 Y77.534 F6000.000
G1 F2400.000
G1 X77.793 Y76.943 E2.36824
G1 X77.747 Y76.576 E2.38256
G1 X77.655 Y76.218 E2.39688
G1 X77.453 Y75.751 E2.41654
G1 X77.157 Y75.316 E2.43693
G1 X76.784 Y74.943 E2.45732
G1 X76.349 Y74.647 E2.47771
G1 X75.865 Y74.438 E2.49810
G1 X75.351 Y74.323 E2.51849
G1 X74.824 Y74.306 E2.53888
G1 X74.304 Y74.388 E2.55927
G1 X73.808 Y74.567 E2.57965
G1 X73.355 Y74.835 E2.60004
G1 X72.973 Y75.171 E2.61970
G1 X72.738 Y75.456 E2.63402
G1 X72.539 Y75.769 E2.64834
G1 X72.338 Y76.235 E2.66800
G1 X72.223 Y76.749 E2.68839
G1 X72.207 Y77.257 E2.70804
G1 X72.243 Y77.543 E2.71922
G1 X64.819 Y74.681 E3.02710
G1 X64.819 Y71.494 E3.15041
G1 X85.181 Y71.494 E3.93832
G1 X85.181 Y74.680 E4.06161
G1 X77.831 Y77.512 E4.36640
G1 X76.900 Y78.425 F6000.000
G1 F2400.000
G1 X77.168 Y77.805 E4.39255
G1 X77.262 Y77.386 E4.40915
G1 X77.275 Y76.968 E4.42535
G1 X77.238 Y76.673 E4.43683
G1 X77.164 Y76.386 E4.44832
G1 X76.998 Y76.002 E4.46451
G1 X76.757 Y75.647 E4.48111
G1 X76.453 Y75.343 E4.49772
G1 X76.098 Y75.102 E4.51433
G1 X75.705 Y74.931 E4.53093
G1 X75.286 Y74.838 E4.54754
G1 X74.857 Y74.824 E4.56415
G1 X74.433 Y74.892 E4.58075
G1 X74.029 Y75.037 E4.59736
G1 X73.660 Y75.255 E4.61397
G1 X73.346 Y75.532 E4.63016
G1 X73.157 Y75.761 E4.64164
G1 X72.998 Y76.011 E4.65313
G1 X72.831 Y76.395 E4.66932
G1 X72.738 Y76.814 E4.68593
G1 X72.725 Y77.232 E4.70212
G1 X72.762 Y77.527 E4.71360
G1 X72.836 Y77.814 E4.72509
G1 X73.102 Y78.429 E4.75099
G1 X64.302 Y75.035 E5.11594
G1 X64.302 Y70.977 E5.27298
G1 X85.698 Y70.977 E6.10091
G1 X85.698 Y75.035 E6.25794
G1 X76.956 Y78.403 E6.62045
G1 X86.155 Y75.349 F6000.000
G1 F2160.000
G1 X75.736 Y79.363 E6.95222
G1 X75.449 Y79.437 E6.96103
G1 X74.997 Y79.479 E6.97454
G1 X74.702 Y79.461 E6.98332
G1 X74.408 Y79.405 E6.99220
G1 X74.116 Y79.310 E7.00132
G1 X63.845 Y75.349 E7.32845
G1 X63.845 Y70.520 E7.47195
G1 X86.155 Y70.520 E8.13490
G1 X86.155 Y75.289 E8.27661
G1 X85.761 Y75.418 F6000.000
G1 X84.883 Y72.231 F6000.000
G1 F1800.000
G1 X84.444 Y71.792 E8.30113
G1 X83.698 Y71.792 E8.33060
G1 X84.883 Y72.977 E8.39678
G1 X84.883 Y73.723 E8.42626
G1 X82.952 Y71.792 E8.53412
G1 X82.205 Y71.792 E8.56359
G1 X84.883 Y74.470 E8.71314
G1 X84.883 Y74.545 E8.71611
G1 X84.399 Y74.731 E8.73661
G1 X81.459 Y71.792 E8.90078
G1 X80.713 Y71.792 E8.93025
G1 X83.860 Y74.939 E9.10601
G1 X83.321 Y75.147 E9.12880
G1 X79.967 Y71.792 E9.31616
G1 X79.220 Y71.792 E9.34563
G1 X82.783 Y75.354 E9.54457
G1 X82.244 Y75.562 E9.56737
G1 X78.474 Y71.792 E9.77790
G1 X77.728 Y71.792 E9.80737
G1 X81.705 Y75.769 E10.02949
G1 X81.166 Y75.977 E10.05229
G1 X76.982 Y71.792 E10.28601
G1 X76.235 Y71.792 E10.31548
G1 X80.628 Y76.184 E10.56078
G1 X80.089 Y76.392 E10.58358
G1 X75.489 Y71.792 E10.84048
G1 X74.743 Y71.792 E10.86995
G1 X79.550 Y76.599 E11.13844
G1 X79.012 Y76.807 E11.16123
G1 X77.843 Y75.639 E11.22647
G1 X77.689 Y75.282 E11.24183
G1 X77.338 Y74.765 E11.26650
G1 X76.896 Y74.323 E11.29117
G1 X76.379 Y73.972 E11.31584
G1 X76.022 Y73.818 E11.33120
G1 X73.996 Y71.792 E11.44434
G1 X73.250 Y71.792 E11.47381
G1 X75.480 Y74.022 E11.59835
G1 X75.011 Y74.007 E11.61689
G1 X74.759 Y74.047 E11.62696
G1 X72.504 Y71.792 E11.75291
G1 X71.758 Y71.792 E11.78238
G1 X74.156 Y74.190 E11.91633
G1 X73.806 Y74.316 E11.93102
G1 X73.636 Y74.417 E11.93881
G1 X71.011 Y71.792 E12.08542
G1 X70.265 Y71.792 E12.11489
G1 X73.183 Y74.710 E12.27785
G1 X72.791 Y75.064 E12.29871
G1 X69.519 Y71.792 E12.48148
G1 X68.773 Y71.792 E12.51095
G1 X72.466 Y75.485 E12.71720
G1 X72.300 Y75.745 E12.72938
G1 X72.203 Y75.969 E12.73900
G1 X68.026 Y71.792 E12.97229
G1 X67.280 Y71.792 E13.00176
G1 X72.012 Y76.523 E13.26601
G1 X71.927 Y76.903 E13.28139
G1 X71.924 Y77.001 E13.28524
G1 X71.629 Y76.887 E13.29770
G1 X66.534 Y71.792 E13.58227
G1 X65.787 Y71.792 E13.61174
G1 X70.415 Y76.419 E13.87016
G1 X69.200 Y75.951 E13.92157
G1 X65.117 Y71.867 E14.14960
