; generated by Slic3r 1.3.1-dev (Build (Unknown revision)) on 2020-10-02 at 21:45:43

; external perimeters extrusion width = 0.44mm (2.86mm^3/s)
; perimeters extrusion width = 0.56mm (4.14mm^3/s)
; infill extrusion width = 0.50mm (3.66mm^3/s)
; solid infill extrusion width = 0.56mm (3.10mm^3/s)
; top infill extrusion width = 0.45mm (2.44mm^3/s)

M107
G92 E0
;D3D:START:START
T0
M104 S215 T0

G21
G90
M107
T0
G28
G29
M109 T0 S215 T0
G0 F3000
M107
T0
G92 E0
G0 X0 Y149 Z0.1 F3600
G1 Y49 E6.5 F1200
G0 Z1
G92 E0
; Filament gcode

G21 ; set units to millimeters
G90 ; use absolute coordinates
M82 ; use absolute distances for extrusion
G92 E0
G1 Z0.300 F6000.000
G1 E-2.00000 F1200.00000
G92 E0
G1 Z0.800 F6000.000
G1 X51.270 Y55.699 F6000.000
G1 Z0.300 F6000.000
G1 E2.00000 F1200.00000
G1 F1800.000
G1 X53.028 Y54.187 E2.10372
G1 X55.193 Y53.356 E2.20744
G1 X56.500 Y53.229 E2.26617
G1 X76.572 Y53.229 E3.16401
G1 X95.857 Y54.238 E4.02779
G1 X98.118 Y54.755 E4.13151
G1 X100.071 Y56.005 E4.23523
G1 X101.489 Y57.840 E4.33895
G1 X102.271 Y61.000 E4.48458
G1 X102.271 Y89.000 E5.73702
G1 X101.874 Y91.285 E5.84074
G1 X100.730 Y93.301 E5.94446
G1 X98.972 Y94.813 E6.04818
G1 X95.857 Y95.762 E6.19380
G1 X76.930 Y96.762 E7.04161
G1 X56.500 Y96.771 E7.95543
G1 X54.215 Y96.374 E8.05915
G1 X52.199 Y95.230 E8.16287
G1 X50.687 Y93.472 E8.26659
G1 X49.856 Y91.307 E8.37031
G1 X49.729 Y90.000 E8.42904
G1 X49.729 Y60.000 E9.77093
G1 X50.126 Y57.715 E9.87465
G1 X51.241 Y55.751 E9.97569
G1 X51.653 Y55.843 F6000.000
G1 F1800.000
G1 X53.396 Y54.419 E10.07639
G1 X56.500 Y53.614 E10.21981
G1 X76.572 Y53.614 E11.11765
G1 X95.837 Y54.623 E11.98052
G1 X98.029 Y55.137 E12.08123
G1 X99.907 Y56.379 E12.18193
G1 X101.237 Y58.195 E12.28263
G1 X101.886 Y61.000 E12.41141
G1 X101.886 Y89.000 E13.66384
G1 X101.489 Y91.216 E13.76454
G1 X100.347 Y93.157 E13.86525
G1 X98.604 Y94.581 E13.96595
G1 X95.837 Y95.377 E14.09473
G1 X76.909 Y96.377 E14.94253
G1 X56.500 Y96.386 E15.85544
G1 X54.284 Y95.989 E15.95614
G1 X52.343 Y94.847 E16.05684
G1 X50.919 Y93.104 E16.15754
G1 X50.114 Y90.000 E16.30096
G1 X50.114 Y60.000 E17.64286
G1 X50.511 Y57.784 E17.74356
G1 X51.622 Y55.895 E17.84158
G1 E15.84158 F1200.00000
G92 E0
G1 Z0.800 F6000.000
G1 X75.962 Y89.389 F6000.000
G1 Z0.300 F6000.000
G1 E2.00000 F1200.00000
G1 F1800.000
G1 X57.111 Y89.389 E2.84321
G1 X57.111 Y88.611 E2.87805
G1 X75.962 Y88.611 E3.72126
G1 X75.962 Y89.329 E3.75341
G1 X76.347 Y89.775 F6000.000
G1 F1800.000
G1 X56.725 Y89.775 E4.63112
G1 X56.725 Y88.225 E4.70045
G1 X76.347 Y88.225 E5.57816
G1 X76.347 Y89.715 E5.64481
G1 X75.948 Y89.764 F6000.000
G1 X76.500 Y88.225 F6000.000
G1 F1800.000
G1 X76.500 Y61.775 E5.89202
G1 X75.962 Y61.389 F6000.000
G1 F1800.000
G1 X57.111 Y61.389 E6.73523
G1 X57.111 Y60.611 E6.77006
G1 X75.962 Y60.611 E7.61328
G1 X75.962 Y61.329 E7.64543
G1 X76.347 Y61.775 F6000.000
G1 F1800.000
G1 X56.725 Y61.775 E8.52314
G1 X56.725 Y60.225 E8.59247
G1 X76.347 Y60.225 E9.47018
G1 X76.347 Y61.715 E9.53683
G1 X75.948 Y61.764 F6000.000
G1 X75.769 Y61.000 F6000.000
G1 F1800.000
G1 X57.303 Y61.000 E10.24101
G1 E8.24101 F1200.00000
G92 E0
G1 Z0.800 F6000.000
G1 X57.303 Y89.000 F6000.000
G1 Z0.300 F6000.000
G1 E2.00000 F1200.00000
G1 F1800.000
G1 X75.769 Y89.000 E2.70418
G1 E0.70418 F1200.00000
G92 E0
G1 Z0.800 F6000.000
G1 X80.725 Y61.775 F6000.000
G1 Z0.300 F6000.000
G1 E2.00000 F1200.00000
G1 F1800.000
G1 X80.725 Y61.225 E2.02460
G1 X95.275 Y61.225 E2.67542
G1 X95.275 Y61.775 E2.70002
G1 X80.785 Y61.775 E3.34816
G1 X80.921 Y61.426 F6000.000
G1 X80.918 Y61.500 F6000.000
G1 F1800.000
G1 X95.082 Y61.500 E3.51246
G1 E1.51246 F1200.00000
G92 E0
G1 Z0.800 F6000.000
G1 X80.725 Y88.225 F6000.000
G1 Z0.300 F6000.000
G1 E2.00000 F1200.00000
G1 F1800.000
G1 X95.275 Y88.225 E2.65082
G1 X95.275 Y88.775 E2.67542
G1 X80.725 Y88.775 E3.32624
G1 X80.725 Y88.285 E3.34816
G1 X81.125 Y88.230 F6000.000
G1 X80.918 Y88.500 F6000.000
G1 F1800.000
G1 X95.082 Y88.500 E3.51246
G1 Z0.500 F6000.000
G1 E1.51246 F1200.00000
G92 E0
G1 Z1.000 F6000.000
G1 X76.015 Y88.677 F6000.000
G1 Z0.500 F6000.000
G1 E2.00000 F1200.00000
G1 F1800.000
G1 X76.015 Y89.323 E2.02582
G1 X57.177 Y89.323 E2.77907
G1 X57.177 Y88.677 E2.80490
G1 X75.955 Y88.677 E3.55575
G1 X76.472 Y88.220 F6000.000
G1 F2160.000
G1 X76.472 Y89.780 E3.60365
G1 X56.720 Y89.780 E4.21016
G1 X56.720 Y88.220 E4.25806
G1 X76.412 Y88.220 E4.86273
G1 X76.281 Y88.572 F6000.000
G1 X76.500 Y88.220 F6000.000
G1 F2160.000
G1 X76.500 Y61.780 E5.56055
G1 X76.015 Y61.323 F6000.000
G1 F1800.000
G1 X57.177 Y61.323 E6.31380
G1 X57.177 Y60.677 E6.33962
G1 X76.015 Y60.677 E7.09287
G1 X76.015 Y61.263 E7.11630
G1 X76.472 Y61.780 F6000.000
G1 F2160.000
G1 X56.720 Y61.780 E7.72281
G1 X56.720 Y60.220 E7.77071
G1 X76.472 Y60.220 E8.37722
G1 X76.472 Y61.720 E8.42328
G1 X76.072 Y61.769 F6000.000
G1 E6.42328 F1200.00000
G92 E0
G1 Z1.000 F6000.000
G1 X56.596 Y61.780 F6000.000
G1 Z0.500 F6000.000
G1 E2.00000 F1200.00000
G1 F2160.000
G1 X56.596 Y88.220 E2.30506
G1 X57.436 Y89.000 F6000.000
G1 F1200.000
G1 X75.756 Y89.000 E2.42668
G1 E0.42668 F1200.00000
G92 E0
G1 Z1.000 F6000.000
G1 X75.756 Y61.000 F6000.000
G1 Z0.500 F6000.000
G1 E2.00000 F1200.00000
G1 F1200.000
G1 X57.436 Y61.000 E2.12162
G1 E0.12162 F1200.00000
G92 E0
G1 Z1.000 F6000.000
G1 X80.720 Y61.780 F6000.000
G1 Z0.500 F6000.000
G1 E2.00000 F1200.00000
G1 F1800.000
G1 X80.720 Y61.220 E2.01720
G1 X95.280 Y61.220 E2.46428
G1 X95.280 Y61.780 E2.48147
G1 X80.780 Y61.780 E2.92671
G1 X80.916 Y61.431 F6000.000
G1 X80.949 Y61.500 F6000.000
G1 F1200.000
G1 X95.051 Y61.500 E2.99215
G1 E0.99215 F1200.00000
G92 E0
G1 Z1.000 F6000.000
G1 X80.720 Y88.220 F6000.000
G1 Z0.500 F6000.000
G1 E2.00000 F1200.00000
G1 F1800.000
G1 X95.280 Y88.220 E2.44708
G1 X95.280 Y88.780 E2.46428
G1 X80.720 Y88.780 E2.91136
G1 X80.720 Y88.280 E2.92671
G1 X81.120 Y88.225 F6000.000
G1 X80.949 Y88.500 F6000.000
G1 F1200.000
G1 X95.051 Y88.500 E2.99215
G1 Z0.700 F6000.000
G1 E0.99215 F1200.00000
G92 E0
G1 Z1.200 F6000.000
G1 X76.111 Y88.677 F6000.000
G1 Z0.700 F6000.000
G1 E2.00000 F1200.00000
G1 F1800.000
G1 X76.111 Y89.323 E2.02582
G1 X57.177 Y89.323 E2.78290
G1 X57.177 Y88.677 E2.80872
G1 X76.051 Y88.677 E3.56340
G1 X76.568 Y88.220 F6000.000
G1 F2160.000
G1 X76.568 Y89.780 E3.61130
G1 X56.720 Y89.780 E4.22074
G1 X56.720 Y88.220 E4.26865
G1 X76.508 Y88.220 E4.87625
G1 X76.377 Y88.572 F6000.000
G1 X76.500 Y88.220 F6000.000
G1 F2160.000
G1 X76.500 Y61.780 E5.96531
G1 X76.111 Y61.323 F6000.000
G1 F1800.000
G1 X57.177 Y61.323 E6.72239
G1 X57.177 Y60.677 E6.74821
G1 X76.111 Y60.677 E7.50528
G1 X76.111 Y61.263 E7.52871
G1 X76.568 Y61.780 F6000.000
G1 F2160.000
G1 X56.720 Y61.780 E8.13816
G1 X56.720 Y60.220 E8.18606
G1 X76.568 Y60.220 E8.79551
G1 X76.568 Y61.720 E8.84157
G1 X76.168 Y61.770 F6000.000
G1 E6.84157 F1200.00000
G92 E0
G1 Z1.200 F6000.000
G1 X56.644 Y61.780 F6000.000
G1 Z0.700 F6000.000
G1 E2.00000 F1200.00000
G1 F2160.000
G1 X56.644 Y88.220 E2.50070
G1 X57.436 Y89.000 F6000.000
G1 F1200.000
G1 X75.852 Y89.000 E2.62296
G1 E0.62296 F1200.00000
G92 E0
G1 Z1.200 F6000.000
G1 X75.852 Y61.000 F6000.000
G1 Z0.700 F6000.000
G1 E2.00000 F1200.00000
G1 F1200.000
G1 X57.436 Y61.000 E2.12226
G1 E0.12226 F1200.00000
G92 E0
G1 Z1.200 F6000.000
G1 X80.720 Y61.780 F6000.000
G1 Z0.700 F6000.000
G1 E2.00000 F1200.00000
G1 F1800.000
G1 X80.720 Y61.220 E2.01720
G1 X95.280 Y61.220 E2.46428
G1 X95.280 Y61.780 E2.48147
G1 X80.780 Y61.780 E2.92671
G1 X80.916 Y61.431 F6000.000
G1 X80.949 Y61.500 F6000.000
G1 F1200.000
G1 X95.051 Y61.500 E2.99215
G1 E0.99215 F1200.00000
G92 E0
G1 Z1.200 F6000.000
G1 X80.720 Y88.220 F6000.000
G1 Z0.700 F6000.000
G1 E2.00000 F1200.00000
G1 F1800.000
G1 X95.280 Y88.220 E2.44708
G1 X95.280 Y88.780 E2.46428
G1 X80.720 Y88.780 E2.91136
G1 X80.720 Y88.280 E2.92671
G1 X81.120 Y88.225 F6000.000
G1 X80.949 Y88.500 F6000.000
G1 F1200.000
G1 X95.051 Y88.500 E2.99215
G1 Z0.900 F6000.000
G1 E0.99215 F1200.00000
G92 E0
G1 Z1.400 F6000.000
G1 X76.205 Y88.677 F6000.000
G1 Z0.900 F6000.000
G1 E2.00000 F1200.00000
G1 F1800.000
G1 X76.205 Y89.323 E2.02582
G1 X57.177 Y89.323 E2.78666
G1 X57.177 Y88.677 E2.81248
G1 X76.145 Y88.677 E3.57092
G1 E1.57092 F1200.00000
G92 E0
G1 Z1.400 F6000.000
G1 X76.205 Y61.323 F6000.000
G1 Z0.900 F6000.000
G1 E2.00000 F1200.00000
G1 F1800.000
G1 X57.177 Y61.323 E2.76083
G1 X57.177 Y60.677 E2.78666
G1 X76.205 Y60.677 E3.54749
G1 X76.205 Y61.263 E3.57092
G1 X76.338 Y61.780 F6000.000
G1 F2160.000
G1 X56.720 Y61.780 E4.17331
G1 X56.720 Y60.220 E4.22122
G1 X76.662 Y60.220 E4.83355
G1 X76.662 Y89.780 E5.74122
G1 X56.720 Y89.780 E6.35356
G1 X56.720 Y88.220 E6.40146
G1 X76.338 Y88.220 E7.00386
G1 X76.338 Y61.840 E7.81388
G1 X76.423 Y61.389 F6000.000
G1 E5.81388 F1200.00000
G92 E0
G1 Z1.400 F6000.000
G1 X56.691 Y88.220 F6000.000
G1 Z0.900 F6000.000
G1 E2.00000 F1200.00000
G1 F2160.000
G1 X56.691 Y61.780 E2.69299
G1 X57.436 Y61.000 F6000.000
G1 F1200.000
G1 X75.946 Y61.000 E2.81587
G1 E0.81587 F1200.00000
G92 E0
G1 Z1.400 F6000.000
G1 X75.946 Y89.000 F6000.000
G1 Z0.900 F6000.000
G1 E2.00000 F1200.00000
G1 F1200.000
G1 X57.436 Y89.000 E2.12288
G1 E0.12288 F1200.00000
G92 E0
G1 Z1.400 F6000.000
G1 X80.720 Y61.780 F6000.000
G1 Z0.900 F6000.000
G1 E2.00000 F1200.00000
G1 F1800.000
G1 X80.720 Y61.220 E2.01720
G1 X95.280 Y61.220 E2.46428
G1 X95.280 Y61.780 E2.48147
G1 X80.780 Y61.780 E2.92671
G1 X80.916 Y61.431 F6000.000
G1 X80.949 Y61.500 F6000.000
G1 F1200.000
G1 X95.051 Y61.500 E2.99215
G1 E0.99215 F1200.00000
G92 E0
G1 Z1.400 F6000.000
G1 X80.720 Y88.220 F6000.000
G1 Z0.900 F6000.000
G1 E2.00000 F1200.00000
G1 F1800.000
G1 X95.280 Y88.220 E2.44708
G1 X95.280 Y88.780 E2.46428
G1 X80.720 Y88.780 E2.91136
G1 X80.720 Y88.280 E2.92671
G1 X81.120 Y88.225 F6000.000
G1 X80.949 Y88.500 F6000.000
G1 F1200.000
G1 X95.051 Y88.500 E2.99215
M106 S255
G1 Z1.100 F6000.000
G1 E0.99215 F1200.00000
G92 E0
G1 Z1.600 F6000.000
G1 X76.299 Y88.677 F6000.000
G1 Z1.100 F6000.000
G1 E2.00000 F1200.00000
G1 F1800.000
G1 X76.299 Y89.323 E2.02582
G1 X57.177 Y89.323 E2.79041
G1 X57.177 Y88.677 E2.81623
G1 X76.239 Y88.677 E3.57842
G1 E1.57842 F1200.00000
G92 E0
G1 Z1.600 F6000.000
G1 X76.299 Y61.323 F6000.000
G1 Z1.100 F6000.000
G1 E2.00000 F1200.00000
G1 F1800.000
G1 X57.177 Y61.323 E2.76458
G1 X57.177 Y60.677 E2.79041
G1 X76.299 Y60.677 E3.55499
G1 X76.299 Y61.263 E3.57842
G1 X76.244 Y61.780 F6000.000
G1 F2160.000
G1 X56.720 Y61.780 E4.17794
G1 X56.720 Y60.220 E4.22584
G1 X76.756 Y60.220 E4.84105
G1 X76.756 Y89.780 E5.74872
G1 X56.720 Y89.780 E6.36394
G1 X56.720 Y88.220 E6.41184
G1 X76.244 Y88.220 E7.01136
G1 X76.244 Y61.840 E7.82138
G1 X76.329 Y61.389 F6000.000
G1 E5.82138 F1200.00000
G92 E0
G1 Z1.600 F6000.000
G1 X56.738 Y88.220 F6000.000
G1 Z1.100 F6000.000
G1 E2.00000 F1200.00000
G1 F2160.000
G1 X56.738 Y61.780 E2.88473
G1 X57.436 Y61.000 F6000.000
G1 F1200.000
G1 X76.040 Y61.000 E3.00823
G1 E1.00823 F1200.00000
G92 E0
G1 Z1.600 F6000.000
G1 X76.040 Y89.000 F6000.000
G1 Z1.100 F6000.000
G1 E2.00000 F1200.00000
G1 F1200.000
G1 X57.436 Y89.000 E2.12350
G1 E0.12350 F1200.00000
G92 E0
G1 Z1.600 F6000.000
G1 X80.720 Y61.780 F6000.000
G1 Z1.100 F6000.000
G1 E2.00000 F1200.00000
G1 F1800.000
G1 X80.720 Y61.220 E2.01720
G1 X95.280 Y61.220 E2.46428
G1 X95.280 Y61.780 E2.48147
G1 X80.780 Y61.780 E2.92671
G1 X80.916 Y61.431 F6000.000
G1 X80.949 Y61.500 F6000.000
G1 F1200.000
G1 X95.051 Y61.500 E2.99215
G1 E0.99215 F1200.00000
G92 E0
G1 Z1.600 F6000.000
G1 X80.720 Y88.220 F6000.000
G1 Z1.100 F6000.000
G1 E2.00000 F1200.00000
G1 F1800.000
G1 X95.280 Y88.220 E2.44708
G1 X95.280 Y88.780 E2.46428
G1 X80.720 Y88.780 E2.91136
G1 X80.720 Y88.280 E2.92671
G1 X81.120 Y88.225 F6000.000
G1 X80.949 Y88.500 F6000.000
G1 F1200.000
G1 X95.051 Y88.500 E2.99215
G1 Z1.300 F6000.000
G1 E0.99215 F1200.00000
G92 E0
G1 Z1.800 F6000.000
G1 X76.392 Y88.677 F6000.000
G1 Z1.300 F6000.000
G1 E2.00000 F1200.00000
G1 F1800.000
G1 X76.392 Y89.323 E2.02582
G1 X57.177 Y89.323 E2.79416
G1 X57.177 Y88.677 E2.81998
G1 X76.332 Y88.677 E3.58592
G1 E1.58592 F1200.00000
G92 E0
G1 Z1.800 F6000.000
G1 X76.392 Y61.323 F6000.000
G1 Z1.300 F6000.000
G1 E2.00000 F1200.00000
G1 F1800.000
G1 X57.177 Y61.323 E2.76833
G1 X57.177 Y60.677 E2.79416
G1 X76.392 Y60.677 E3.56249
G1 X76.392 Y61.263 E3.58592
G1 X76.151 Y61.780 F6000.000
G1 F2160.000
G1 X56.720 Y61.780 E4.18256
G1 X56.720 Y60.220 E4.23046
G1 X76.849 Y60.220 E4.84855
G1 X76.849 Y89.780 E5.75623
G1 X56.720 Y89.780 E6.37432
G1 X56.720 Y88.220 E6.42222
G1 X76.151 Y88.220 E7.01886
G1 X76.151 Y61.840 E7.82889
G1 X76.234 Y61.389 F6000.000
G1 E5.82889 F1200.00000
G92 E0
G1 Z1.800 F6000.000
G1 X56.785 Y88.220 F6000.000
G1 Z1.300 F6000.000
G1 E2.00000 F1200.00000
G1 F2160.000
G1 X56.785 Y61.780 E3.07647
G1 X57.436 Y61.000 F6000.000
G1 F1200.000
G1 X76.134 Y61.000 E3.20059
G1 X76.500 Y61.551 F6000.000
G1 F1200.000
G1 X76.500 Y88.449 E3.61412
G1 X76.134 Y89.000 F6000.000
G1 F1200.000
G1 X57.436 Y89.000 E3.73825
G1 E1.73825 F1200.00000
G92 E0
G1 Z1.800 F6000.000
G1 X80.720 Y61.780 F6000.000
G1 Z1.300 F6000.000
G1 E2.00000 F1200.00000
G1 F1800.000
G1 X80.720 Y61.220 E2.01720
G1 X95.280 Y61.220 E2.46428
G1 X95.280 Y61.780 E2.48147
G1 X80.780 Y61.780 E2.92671
G1 X80.916 Y61.431 F6000.000
G1 X80.949 Y61.500 F6000.000
G1 F1200.000
G1 X95.051 Y61.500 E2.99215
G1 E0.99215 F1200.00000
G92 E0
G1 Z1.800 F6000.000
G1 X80.720 Y88.220 F6000.000
G1 Z1.300 F6000.000
G1 E2.00000 F1200.00000
G1 F1800.000
G1 X95.280 Y88.220 E2.44708
G1 X95.280 Y88.780 E2.46428
G1 X80.720 Y88.780 E2.91136
G1 X80.720 Y88.280 E2.92671
G1 X81.120 Y88.225 F6000.000
G1 X80.949 Y88.500 F6000.000
G1 F1200.000
G1 X95.051 Y88.500 E2.99215
G1 Z1.500 F6000.000
G1 E0.99215 F1200.00000
G92 E0
G1 Z2.000 F6000.000
G1 X76.486 Y88.677 F6000.000
G1 Z1.500 F6000.000
G1 E2.00000 F1200.00000
G1 F1800.000
G1 X76.486 Y89.323 E2.02582
G1 X57.177 Y89.323 E2.79791
G1 X57.177 Y88.677 E2.82373
G1 X76.426 Y88.677 E3.59342
G1 E1.59342 F1200.00000
G92 E0
G1 Z2.000 F6000.000
G1 X76.486 Y61.323 F6000.000
G1 Z1.500 F6000.000
G1 E2.00000 F1200.00000
G1 F1800.000
G1 X57.177 Y61.323 E2.77208
G1 X57.177 Y60.677 E2.79791
G1 X76.486 Y60.677 E3.56999
G1 X76.486 Y61.263 E3.59342
G1 X76.057 Y61.780 F6000.000
G1 F2160.000
G1 X56.720 Y61.780 E4.18718
G1 X56.720 Y60.220 E4.23508
G1 X76.943 Y60.220 E4.85605
G1 X76.943 Y89.780 E5.76373
G1 X56.720 Y89.780 E6.38470
G1 X56.720 Y88.220 E6.43260
G1 X76.057 Y88.220 E7.02636
G1 X76.057 Y61.840 E7.83639
G1 X76.140 Y61.389 F6000.000
G1 E5.83639 F1200.00000
G92 E0
G1 Z2.000 F6000.000
G1 X56.832 Y88.220 F6000.000
G1 Z1.500 F6000.000
G1 E2.00000 F1200.00000
G1 F2160.000
G1 X56.832 Y61.780 E3.26820
G1 X57.436 Y61.000 F6000.000
G1 F1200.000
G1 X76.228 Y61.000 E3.39295
G1 X76.500 Y61.551 F6000.000
G1 F1200.000
G1 X76.500 Y88.449 E4.19661
G1 X76.228 Y89.000 F6000.000
G1 F1200.000
G1 X57.436 Y89.000 E4.32136
G1 E2.32136 F1200.00000
G92 E0
G1 Z2.000 F6000.000
G1 X80.720 Y61.780 F6000.000
G1 Z1.500 F6000.000
G1 E2.00000 F1200.00000
G1 F1800.000
G1 X80.720 Y61.220 E2.01720
G1 X95.280 Y61.220 E2.46428
G1 X95.280 Y61.780 E2.48147
G1 X80.780 Y61.780 E2.92671
G1 X80.916 Y61.431 F6000.000
G1 X80.949 Y61.500 F6000.000
G1 F1200.000
G1 X95.051 Y61.500 E2.99215
G1 E0.99215 F1200.00000
G92 E0
G1 Z2.000 F6000.000
G1 X80.720 Y88.220 F6000.000
G1 Z1.500 F6000.000
G1 E2.00000 F1200.00000
G1 F1800.000
G1 X95.280 Y88.220 E2.44708
G1 X95.280 Y88.780 E2.46428
G1 X80.720 Y88.780 E2.91136
G1 X80.720 Y88.280 E2.92671
G1 X81.120 Y88.225 F6000.000
G1 X80.949 Y88.500 F6000.000
G1 F1200.000
G1 X95.051 Y88.500 E2.99215
G1 Z1.700 F6000.000
G1 E0.99215 F1200.00000
G92 E0
G1 Z2.200 F6000.000
G1 X75.966 Y88.220 F6000.000
G1 Z1.700 F6000.000
G1 E2.00000 F1200.00000
G1 F2160.000
G1 X57.034 Y88.220 E2.58131
G1 X57.034 Y61.780 E3.39318
G1 X75.966 Y61.780 E3.97448
G1 X75.966 Y88.160 E4.78451
G1 X76.048 Y88.611 F6000.000
G1 E2.78451 F1200.00000
G92 E0
G1 Z2.200 F6000.000
G1 X76.577 Y61.323 F6000.000
G1 Z1.700 F6000.000
G1 E2.00000 F1200.00000
G1 F1800.000
G1 X57.177 Y61.323 E2.77573
G1 X57.177 Y60.677 E2.80155
G1 X76.577 Y60.677 E3.57728
G1 X76.577 Y61.263 E3.60071
