; generated by Slic3r 1.3.1-dev (Build (Unknown revision)) on 2020-07-25 at 23:03:48

; external perimeters extrusion width = 0.44mm (2.86mm^3/s)
; perimeters extrusion width = 0.56mm (4.14mm^3/s)
; infill extrusion width = 0.50mm (5.48mm^3/s)
; solid infill extrusion width = 0.56mm (3.10mm^3/s)
; top infill extrusion width = 0.45mm (2.44mm^3/s)

M107
G92 E0
;D3D:START:START
T0
M104 S215 T0

G21
G90
M107
T0
G28
G29
M109 T0 S215 T0
G0 F3000
M107
T0
G92 E0
G0 X0 Y149 Z0.1 F3600
G1 Y49 E6.5 F1200
G0 Z1
G92 E0
; Filament gcode

G21 ; set units to millimeters
G90 ; use absolute coordinates
M82 ; use absolute distances for extrusion
G92 E0
G1 Z0.300 F6000.000
G1 E-2.00000 F1200.00000
G92 E0
G1 X55.589 Y50.992 F6000.000
G1 E2.00000 F1200.00000
G1 F1800.000
G1 X57.251 Y49.984 E2.08693
G1 X58.405 Y49.731 E2.13976
G1 X90.719 Y46.749 E3.59130
G1 X92.650 Y46.968 E3.67823
G1 X94.333 Y47.939 E3.76516
G1 X95.489 Y49.501 E3.85209
G1 X95.928 Y51.500 E3.94362
G1 X95.928 Y76.500 E5.06186
G1 X95.830 Y77.462 E5.10512
G1 X91.301 Y99.462 E6.10982
G1 X90.529 Y101.246 E6.19675
G1 X89.111 Y102.574 E6.28368
G1 X87.280 Y103.226 E6.37061
G1 X86.282 Y103.259 E6.41528
G1 X58.497 Y101.240 E7.66135
G1 X56.628 Y100.708 E7.74828
G1 X55.127 Y99.474 E7.83521
G1 X54.242 Y97.744 E7.92214
G1 X54.072 Y96.482 E7.97910
G1 X54.072 Y54.482 E9.85775
G1 X54.468 Y52.579 E9.94468
G1 X55.555 Y51.041 E10.02892
G1 X55.968 Y51.170 F6000.000
G1 F1800.000
G1 X58.440 Y50.115 E10.14916
G1 X90.754 Y47.133 E11.60070
G1 X92.603 Y47.359 E11.68400
G1 X94.190 Y48.333 E11.76731
G1 X95.231 Y49.877 E11.85061
G1 X95.543 Y51.500 E11.92452
G1 X95.543 Y76.500 E13.04277
G1 X95.452 Y77.384 E13.08253
G1 X90.923 Y99.384 E14.08723
G1 X90.169 Y101.087 E14.17054
G1 X88.776 Y102.323 E14.25384
G1 X86.310 Y102.874 E14.36687
G1 X58.525 Y100.856 E15.61293
G1 X56.739 Y100.329 E15.69624
G1 X55.332 Y99.109 E15.77954
G1 X54.558 Y97.415 E15.86284
G1 X54.457 Y96.482 E15.90485
G1 X54.457 Y54.482 E17.78350
G1 X54.853 Y52.662 E17.86681
G1 X55.932 Y51.218 E17.94743
G1 E15.94743 F1200.00000
G92 E0
G1 X81.089 Y88.788 F6000.000
G1 E2.00000 F1200.00000
G1 F1800.000
G1 X80.718 Y89.515 E2.03651
G1 X80.141 Y90.092 E2.07301
G1 X79.414 Y90.463 E2.10952
G1 X78.608 Y90.590 E2.14603
G1 X77.802 Y90.463 E2.18254
G1 X77.075 Y90.092 E2.21905
G1 X76.498 Y89.515 E2.25555
G1 X76.127 Y88.788 E2.29206
G1 X75.999 Y87.982 E2.32856
G1 X76.127 Y87.176 E2.36507
G1 X76.498 Y86.448 E2.40158
G1 X77.075 Y85.871 E2.43808
G1 X77.802 Y85.501 E2.47459
G1 X78.608 Y85.373 E2.51110
G1 X79.414 Y85.501 E2.54761
G1 X80.141 Y85.871 E2.58412
G1 X80.718 Y86.448 E2.62062
G1 X81.089 Y87.176 E2.65713
G1 X81.217 Y87.982 E2.69364
G1 X81.098 Y88.728 E2.72746
G1 X80.718 Y88.667 F6000.000
G1 F1800.000
G1 X80.403 Y89.286 E2.75850
G1 X79.912 Y89.776 E2.78954
G1 X79.293 Y90.091 E2.82059
G1 X78.608 Y90.200 E2.85163
G1 X77.923 Y90.091 E2.88267
G1 X77.304 Y89.776 E2.91372
G1 X76.813 Y89.286 E2.94476
G1 X76.498 Y88.667 E2.97581
G1 X76.390 Y87.982 E3.00685
G1 X76.498 Y87.296 E3.03789
G1 X76.813 Y86.678 E3.06894
G1 X77.304 Y86.187 E3.09997
G1 X77.923 Y85.872 E3.13102
G1 X78.608 Y85.763 E3.16206
G1 X79.293 Y85.872 E3.19311
G1 X79.912 Y86.187 E3.22415
G1 X80.403 Y86.678 E3.25519
G1 X80.718 Y87.296 E3.28624
G1 X80.826 Y87.982 E3.31728
G1 X80.727 Y88.608 E3.34564
G1 X80.346 Y88.546 F6000.000
G1 F1800.000
G1 X80.087 Y89.056 E3.37122
G1 X79.682 Y89.460 E3.39680
G1 X79.173 Y89.720 E3.42238
G1 X78.608 Y89.809 E3.44796
G1 X78.043 Y89.720 E3.47353
G1 X77.534 Y89.460 E3.49912
G1 X77.129 Y89.056 E3.52469
G1 X76.870 Y88.546 E3.55028
G1 X76.780 Y87.982 E3.57585
G1 X76.870 Y87.417 E3.60143
G1 X77.129 Y86.907 E3.62701
G1 X77.534 Y86.503 E3.65259
G1 X78.043 Y86.243 E3.67817
G1 X78.608 Y86.154 E3.70375
G1 X79.173 Y86.243 E3.72933
G1 X79.682 Y86.503 E3.75491
G1 X80.087 Y86.907 E3.78049
G1 X80.346 Y87.417 E3.80607
G1 X80.436 Y87.982 E3.83165
G1 X80.356 Y88.487 E3.85454
G1 X80.614 Y88.844 F6000.000
G1 E1.85454 F1200.00000
G92 E0
G1 X67.052 Y87.982 F6000.000
G1 E2.00000 F1200.00000
G1 F1800.000
G1 X66.924 Y88.788 E2.03650
G1 X66.554 Y89.515 E2.07302
G1 X65.976 Y90.092 E2.10952
G1 X65.249 Y90.463 E2.14603
G1 X64.443 Y90.590 E2.18254
G1 X63.637 Y90.463 E2.21904
G1 X62.910 Y90.092 E2.25555
G1 X62.333 Y89.515 E2.29205
G1 X61.962 Y88.788 E2.32857
G1 X61.834 Y87.982 E2.36507
G1 X61.962 Y87.176 E2.40157
G1 X62.333 Y86.448 E2.43809
G1 X62.910 Y85.871 E2.47459
G1 X63.637 Y85.501 E2.51110
G1 X64.443 Y85.373 E2.54761
G1 X65.249 Y85.501 E2.58411
G1 X65.976 Y85.871 E2.62062
G1 X66.554 Y86.448 E2.65712
G1 X66.924 Y87.176 E2.69364
G1 X67.042 Y87.922 E2.72746
G1 X66.661 Y87.982 F6000.000
G1 F1800.000
G1 X66.553 Y88.667 E2.75850
G1 X66.238 Y89.286 E2.78955
G1 X65.747 Y89.776 E2.82059
G1 X65.129 Y90.091 E2.85163
G1 X64.443 Y90.200 E2.88267
G1 X63.758 Y90.091 E2.91372
G1 X63.139 Y89.776 E2.94476
G1 X62.648 Y89.286 E2.97580
G1 X62.333 Y88.667 E3.00685
G1 X62.225 Y87.982 E3.03789
G1 X62.333 Y87.296 E3.06893
G1 X62.648 Y86.678 E3.09998
G1 X63.139 Y86.187 E3.13102
G1 X63.758 Y85.872 E3.16206
G1 X64.443 Y85.763 E3.19311
G1 X65.129 Y85.872 E3.22415
G1 X65.747 Y86.187 E3.25519
G1 X66.238 Y86.678 E3.28623
G1 X66.553 Y87.296 E3.31728
G1 X66.652 Y87.922 E3.34564
G1 X66.271 Y87.982 F6000.000
G1 F1800.000
G1 X66.181 Y88.546 E3.37122
G1 X65.922 Y89.056 E3.39680
G1 X65.517 Y89.460 E3.42237
G1 X65.008 Y89.720 E3.44795
G1 X64.443 Y89.809 E3.47353
G1 X63.878 Y89.720 E3.49911
G1 X63.369 Y89.460 E3.52469
G1 X62.964 Y89.056 E3.55027
G1 X62.705 Y88.546 E3.57585
G1 X62.615 Y87.982 E3.60143
G1 X62.705 Y87.417 E3.62701
G1 X62.964 Y86.907 E3.65259
G1 X63.369 Y86.503 E3.67817
G1 X63.878 Y86.243 E3.70375
G1 X64.443 Y86.154 E3.72933
G1 X65.008 Y86.243 E3.75491
G1 X65.517 Y86.503 E3.78049
G1 X65.922 Y86.907 E3.80606
G1 X66.181 Y87.417 E3.83165
G1 X66.261 Y87.922 E3.85454
G1 X66.617 Y88.182 F6000.000
G1 E1.85454 F1200.00000
G92 E0
G1 X59.839 Y95.485 F6000.000
G1 E2.00000 F1200.00000
G1 F1800.000
G1 X59.839 Y80.478 E2.67128
G1 X77.242 Y80.478 E3.44969
G1 X89.874 Y77.791 E4.02737
G1 X85.854 Y97.317 E4.91906
G1 X77.242 Y95.485 E5.31291
G1 X59.899 Y95.485 E6.08862
G1 X59.454 Y95.871 F6000.000
G1 F1800.000
G1 X59.454 Y80.092 E6.79441
G1 X77.201 Y80.092 E7.58824
G1 X90.371 Y77.291 E8.19049
G1 X86.153 Y97.775 E9.12593
G1 X77.201 Y95.871 E9.53531
G1 X59.514 Y95.871 E10.32647
G1 X59.068 Y96.257 F6000.000
G1 F1800.000
G1 X59.068 Y79.707 E11.06675
G1 X77.161 Y79.707 E11.87602
G1 X90.867 Y76.792 E12.50283
G1 X86.453 Y98.233 E13.48201
G1 X77.161 Y96.257 E13.90694
G1 X59.128 Y96.257 E14.71353
G1 X59.276 Y95.915 F6000.000
G1 E12.71353 F1200.00000
G92 E0
G1 X61.089 Y95.427 F6000.000
G1 E2.00000 F1200.00000
G1 F1800.000
G1 X66.335 Y90.182 E2.33524
G1 X65.697 Y90.507 E2.36759
G1 X65.414 Y90.552 E2.38054
G1 X60.538 Y95.427 E2.69215
G1 X59.987 Y95.427 E2.71705
G1 X64.762 Y90.652 E3.02222
G1 X64.287 Y90.577 E3.04398
G1 X59.898 Y94.966 E3.32449
G1 X59.898 Y94.415 E3.34939
G1 X63.818 Y90.494 E3.59999
G1 X63.454 Y90.308 E3.61850
G1 X59.898 Y93.864 E3.84576
G1 X59.898 Y93.313 E3.87066
G1 X63.089 Y90.122 E4.07460
G1 X63.007 Y90.081 E4.07871
G1 X62.793 Y89.866 E4.09241
G1 X59.898 Y92.762 E4.27746
G1 X59.898 Y92.211 E4.30237
G1 X62.518 Y89.591 E4.46981
G1 X62.344 Y89.417 E4.48091
G1 X62.275 Y89.282 E4.48776
G1 X59.898 Y91.660 E4.63971
G1 X59.898 Y91.109 E4.66461
G1 X62.089 Y88.917 E4.80468
G1 X61.912 Y88.543 E4.82337
G1 X59.898 Y90.558 E4.95212
G1 X59.898 Y90.007 E4.97702
G1 X61.837 Y88.068 E5.10094
G1 X61.771 Y87.654 E5.11986
G1 X61.785 Y87.569 E5.12378
G1 X59.898 Y89.456 E5.24439
G1 X59.898 Y88.905 E5.26929
G1 X61.888 Y86.914 E5.39653
G1 X61.918 Y86.728 E5.40505
G1 X62.327 Y85.924 E5.44581
G1 X59.898 Y88.354 E5.60110
G1 X59.898 Y87.803 E5.62600
G1 E3.62600 F1200.00000
G92 E0
G1 X59.898 Y81.191 F6000.000
G1 E2.00000 F1200.00000
G1 F1800.000
G1 X60.552 Y80.536 E2.04183
G1 X61.103 Y80.536 E2.06673
G1 X59.898 Y81.742 E2.14378
G1 X59.898 Y82.293 E2.16868
G1 X61.654 Y80.536 E2.28095
G1 X62.205 Y80.536 E2.30585
G1 X59.898 Y82.844 E2.45333
G1 X59.898 Y83.395 E2.47823
G1 X62.756 Y80.536 E2.66093
G1 X63.307 Y80.536 E2.68584
G1 X59.898 Y83.946 E2.90375
G1 X59.898 Y84.497 E2.92865
G1 X63.858 Y80.536 E3.18178
G1 X64.409 Y80.536 E3.20669
G1 X59.898 Y85.048 E3.49503
G1 X59.898 Y85.599 E3.51993
G1 X64.960 Y80.536 E3.84350
G1 X65.511 Y80.536 E3.86840
G1 X59.898 Y86.150 E4.22718
G1 X59.898 Y86.701 E4.25208
G1 X66.062 Y80.536 E4.64608
G1 X66.613 Y80.536 E4.67098
G1 X59.898 Y87.252 E5.10019
G1 X59.898 Y87.803 E5.12509
G1 X67.164 Y80.536 E5.58952
G1 X67.715 Y80.536 E5.61442
G1 X62.385 Y85.866 E5.95506
G1 X63.189 Y85.457 E5.99583
G1 X63.375 Y85.427 E6.00436
G1 X68.266 Y80.536 E6.31694
G1 X68.817 Y80.536 E6.34184
G1 X64.030 Y85.323 E6.64780
G1 X64.116 Y85.310 E6.65172
G1 X64.529 Y85.375 E6.67064
G1 X69.368 Y80.536 E6.97991
G1 X69.919 Y80.536 E7.00481
G1 X65.005 Y85.451 E7.31890
G1 X65.379 Y85.628 E7.33760
G1 X70.470 Y80.536 E7.66301
G1 X71.021 Y80.536 E7.68792
G1 X65.744 Y85.814 E8.02522
G1 X65.879 Y85.883 E8.03206
G1 X66.052 Y86.056 E8.04316
G1 X71.572 Y80.536 E8.39596
G1 X72.123 Y80.536 E8.42086
G1 X66.328 Y86.332 E8.79126
G1 X66.542 Y86.546 E8.80496
G1 X66.583 Y86.627 E8.80907
G1 X72.674 Y80.536 E9.19835
G1 X73.225 Y80.536 E9.22325
G1 X66.769 Y86.992 E9.63586
G1 X66.955 Y87.357 E9.65438
G1 X73.776 Y80.536 E10.09032
G1 X74.327 Y80.536 E10.11522
G1 X67.038 Y87.825 E10.58108
G1 X67.114 Y88.301 E10.60284
G1 X74.878 Y80.536 E11.09910
G1 X75.429 Y80.536 E11.12400
G1 X67.013 Y88.953 E11.66191
G1 X66.968 Y89.236 E11.67486
G1 X66.643 Y89.873 E11.70720
G1 X75.980 Y80.536 E12.30396
G1 X76.531 Y80.536 E12.32886
G1 X61.640 Y95.427 E13.28057
G1 X62.191 Y95.427 E13.30547
G1 X77.082 Y80.536 E14.25718
G1 X77.640 Y80.530 E14.28238
G1 X62.742 Y95.427 E15.23450
G1 X63.293 Y95.427 E15.25940
G1 X78.339 Y80.381 E16.22104
G1 X79.039 Y80.232 E16.25338
G1 X63.844 Y95.427 E17.22452
G1 X64.395 Y95.427 E17.24943
G1 X79.739 Y80.083 E18.23009
G1 X80.439 Y79.934 E18.26242
G1 X64.946 Y95.427 E19.25260
G1 X65.497 Y95.427 E19.27750
G1 X81.139 Y79.786 E20.27718
G1 X81.839 Y79.637 E20.30952
G1 X66.048 Y95.427 E21.31872
G1 X66.599 Y95.427 E21.34362
G1 X82.539 Y79.488 E22.36233
G1 X83.238 Y79.339 E22.39467
G1 X76.879 Y85.699 E22.80113
G1 X77.354 Y85.457 E22.82525
G1 X77.732 Y85.397 E22.84253
G1 X83.938 Y79.190 E23.23920
G1 X84.638 Y79.041 E23.27153
G1 X78.358 Y85.322 E23.67294
G1 X78.833 Y85.397 E23.69470
G1 X85.338 Y78.893 E24.11043
G1 X86.038 Y78.744 E24.14277
G1 X79.285 Y85.496 E24.57433
G1 X79.650 Y85.682 E24.59285
G1 X86.738 Y78.595 E25.04581
G1 X87.437 Y78.446 E25.07815
G1 X80.015 Y85.868 E25.55251
G1 X80.298 Y86.137 E25.57012
G1 X88.137 Y78.297 E26.07116
G1 X88.837 Y78.148 E26.10350
G1 X80.573 Y86.412 E26.63166
G1 X80.707 Y86.546 E26.64021
G1 X80.803 Y86.734 E26.64973
G1 X89.537 Y78.000 E27.20795
G1 X89.705 Y77.964 E27.21570
G1 X89.596 Y78.492 E27.24005
G1 X80.989 Y87.099 E27.79016
G1 X81.133 Y87.382 E27.80453
G1 X81.150 Y87.488 E27.80940
G1 X89.453 Y79.185 E28.34007
G1 X89.310 Y79.879 E28.37209
G1 X81.225 Y87.964 E28.88882
G1 X81.280 Y88.309 E28.90459
G1 X81.251 Y88.489 E28.91284
G1 X89.167 Y80.573 E29.41878
G1 X89.025 Y81.267 E29.45079
G1 X81.148 Y89.144 E29.95422
G1 E27.95422 F1200.00000
G92 E0
G1 X76.325 Y86.252 F6000.000
G1 E2.00000 F1200.00000
G1 F1800.000
G1 X67.150 Y95.427 E2.58639
G1 X67.701 Y95.427 E2.61129
G1 X76.023 Y87.105 E3.14315
G1 X75.936 Y87.654 E3.16828
G1 X75.948 Y87.731 E3.17179
G1 X68.252 Y95.427 E3.66365
G1 X68.803 Y95.427 E3.68856
G1 X76.024 Y88.207 E4.15002
G1 X76.083 Y88.581 E4.16715
G1 X76.123 Y88.659 E4.17109
G1 X69.354 Y95.427 E4.60366
G1 X69.905 Y95.427 E4.62857
G1 X76.309 Y89.024 E5.03781
G1 X76.495 Y89.389 E5.05632
G1 X70.456 Y95.427 E5.44223
G1 X71.007 Y95.427 E5.46714
G1 X76.763 Y89.671 E5.83500
G1 X77.039 Y89.947 E5.85260
G1 X71.558 Y95.427 E6.20286
G1 X72.109 Y95.427 E6.22776
G1 X77.360 Y90.176 E6.56334
G1 X77.725 Y90.362 E6.58186
G1 X72.660 Y95.427 E6.90556
G1 X73.211 Y95.427 E6.93046
G1 X78.115 Y90.524 E7.24385
G1 X78.591 Y90.599 E7.26562
G1 X73.762 Y95.427 E7.57420
G1 X74.313 Y95.427 E7.59910
G1 X79.116 Y90.625 E7.90601
G1 X79.770 Y90.521 E7.93597
G1 X74.864 Y95.427 E8.24951
G1 X75.415 Y95.427 E8.27441
G1 X88.882 Y81.961 E9.13508
G1 X88.739 Y82.655 E9.16709
G1 X75.966 Y95.427 E9.98341
G1 X76.517 Y95.427 E10.00831
G1 X88.596 Y83.349 E10.78029
G1 X88.453 Y84.042 E10.81230
G1 X77.049 Y95.447 E11.54120
G1 X77.503 Y95.544 E11.56219
G1 X88.310 Y84.736 E12.25292
G1 X88.167 Y85.430 E12.28494
G1 X77.957 Y95.640 E12.93750
G1 X78.412 Y95.737 E12.95849
G1 X88.025 Y86.124 E13.57288
G1 X87.882 Y86.818 E13.60489
G1 X78.866 Y95.833 E14.18111
G1 X79.320 Y95.930 E14.20211
G1 X87.739 Y87.512 E14.74015
G1 X87.596 Y88.205 E14.77217
G1 X79.775 Y96.027 E15.27205
G1 X80.229 Y96.123 E15.29304
G1 X87.453 Y88.899 E15.75475
G1 X87.310 Y89.593 E15.78676
G1 X80.683 Y96.220 E16.21030
G1 X81.138 Y96.317 E16.23129
G1 X87.167 Y90.287 E16.61666
G1 X87.025 Y90.981 E16.64868
G1 X81.592 Y96.413 E16.99587
G1 X82.047 Y96.510 E17.01687
G1 X86.882 Y91.675 E17.32589
G1 X86.739 Y92.369 E17.35791
G1 X82.501 Y96.607 E17.62877
G1 X82.955 Y96.703 E17.64976
G1 X86.596 Y93.062 E17.88245
G1 X86.453 Y93.756 E17.91446
G1 X83.410 Y96.800 E18.10898
G1 X83.864 Y96.896 E18.12997
G1 X86.310 Y94.450 E18.28632
G1 X86.167 Y95.144 E18.31833
G1 X84.318 Y96.993 E18.43651
G1 X84.773 Y97.090 E18.45750
G1 X86.025 Y95.838 E18.53751
G1 X85.882 Y96.532 E18.56952
G1 X85.227 Y97.186 E18.61136
G1 E16.61136 F1200.00000
G92 E0
G1 X77.075 Y65.092 F6000.000
G1 E2.00000 F1200.00000
G1 F1800.000
G1 X76.498 Y64.515 E2.03650
G1 X76.127 Y63.788 E2.07301
G1 X75.999 Y62.982 E2.10952
G1 X76.127 Y62.176 E2.14603
G1 X76.498 Y61.448 E2.18253
G1 X77.075 Y60.871 E2.21904
G1 X77.802 Y60.501 E2.25555
G1 X78.608 Y60.373 E2.29205
G1 X79.414 Y60.501 E2.32856
G1 X80.141 Y60.871 E2.36507
G1 X80.718 Y61.448 E2.40158
G1 X81.089 Y62.176 E2.43808
G1 X81.217 Y62.982 E2.47459
G1 X81.089 Y63.788 E2.51110
G1 X80.718 Y64.515 E2.54760
G1 X80.141 Y65.092 E2.58411
G1 X79.414 Y65.463 E2.62062
G1 X78.608 Y65.590 E2.65712
G1 X77.802 Y65.463 E2.69363
G1 X77.128 Y65.119 E2.72746
G1 X77.304 Y64.776 F6000.000
G1 F1800.000
G1 X76.813 Y64.285 E2.75850
G1 X76.498 Y63.667 E2.78954
G1 X76.390 Y62.982 E2.82058
G1 X76.498 Y62.296 E2.85163
G1 X76.813 Y61.678 E2.88267
G1 X77.304 Y61.187 E2.91371
G1 X77.923 Y60.872 E2.94476
G1 X78.608 Y60.763 E2.97580
G1 X79.293 Y60.872 E3.00684
G1 X79.912 Y61.187 E3.03789
G1 X80.403 Y61.678 E3.06893
G1 X80.718 Y62.296 E3.09997
G1 X80.826 Y62.982 E3.13102
G1 X80.718 Y63.667 E3.16206
G1 X80.403 Y64.285 E3.19310
G1 X79.912 Y64.776 E3.22414
G1 X79.293 Y65.091 E3.25519
G1 X78.608 Y65.200 E3.28623
G1 X77.923 Y65.091 E3.31727
G1 X77.358 Y64.803 E3.34564
G1 X77.534 Y64.460 F6000.000
G1 F1800.000
G1 X77.129 Y64.056 E3.37121
G1 X76.870 Y63.546 E3.39679
G1 X76.780 Y62.982 E3.42237
G1 X76.870 Y62.417 E3.44795
G1 X77.129 Y61.907 E3.47353
G1 X77.534 Y61.503 E3.49911
G1 X78.043 Y61.243 E3.52469
G1 X78.608 Y61.154 E3.55027
G1 X79.173 Y61.243 E3.57585
G1 X79.682 Y61.503 E3.60143
G1 X80.087 Y61.907 E3.62701
G1 X80.346 Y62.417 E3.65259
G1 X80.436 Y62.982 E3.67817
G1 X80.346 Y63.546 E3.70375
G1 X80.087 Y64.056 E3.72933
G1 X79.682 Y64.460 E3.75490
G1 X79.173 Y64.720 E3.78049
G1 X78.608 Y64.809 E3.80606
G1 X78.043 Y64.720 E3.83164
G1 X77.587 Y64.488 E3.85454
G1 X77.168 Y64.623 F6000.000
G1 E1.85454 F1200.00000
G92 E0
G1 X67.052 Y62.982 F6000.000
G1 E2.00000 F1200.00000
G1 F1800.000
G1 X66.924 Y63.788 E2.03651
G1 X66.553 Y64.515 E2.07301
G1 X65.976 Y65.092 E2.10952
G1 X65.249 Y65.463 E2.14603
G1 X64.443 Y65.590 E2.18254
G1 X63.637 Y65.463 E2.21904
G1 X62.910 Y65.092 E2.25555
G1 X62.333 Y64.515 E2.29206
G1 X61.962 Y63.788 E2.32856
G1 X61.834 Y62.982 E2.36507
G1 X61.962 Y62.176 E2.40158
G1 X62.333 Y61.448 E2.43808
G1 X62.910 Y60.871 E2.47459
G1 X63.637 Y60.501 E2.51110
G1 X64.443 Y60.373 E2.54761
G1 X65.249 Y60.501 E2.58411
G1 X65.976 Y60.871 E2.62062
G1 X66.553 Y61.448 E2.65713
G1 X66.924 Y62.176 E2.69363
G1 X67.042 Y62.922 E2.72746
G1 X66.661 Y62.982 F6000.000
G1 F1800.000
G1 X66.553 Y63.667 E2.75850
G1 X66.238 Y64.285 E2.78954
G1 X65.747 Y64.776 E2.82059
