; generated by Slic3r 1.3.0 on 2020-04-09 at 23:32:14

; external perimeters extrusion width = 0.44mm (2.86mm^3/s)
; perimeters extrusion width = 0.56mm (4.14mm^3/s)
; infill extrusion width = 0.50mm (3.66mm^3/s)
; solid infill extrusion width = 0.56mm (3.10mm^3/s)
; top infill extrusion width = 0.45mm (2.44mm^3/s)

M107
;D3D:START:START
T0
M104 S215 T0

G21
G90
M107
T0
G28
G29
M109 T0 S215 T0
G0 F3000
M107
T0
G92 E0
G0 X0 Y149 Z0.1 F3600
G1 Y49 E6.5 F1200
G0 Z1
G92 E0
; Filament gcode

G21 ; set units to millimeters
G90 ; use absolute coordinates
M82 ; use absolute distances for extrusion
G92 E0
G1 Z0.200 F6000.000
G1 E-2.00000 F1200.00000
G92 E0
G1 Z0.700 F6000.000
G1 X93.167 Y83.136 F6000.000
G1 Z0.200 F6000.000
G1 E2.00000 F1200.00000
G1 F1800
G1 X92.751 Y84.568 E2.02869
G1 X92.354 Y85.671 E2.05124
G1 X91.888 Y86.747 E2.07380
G1 X91.356 Y87.792 E2.09636
G1 X90.759 Y88.801 E2.11892
G1 X90.100 Y89.771 E2.14147
G1 X89.381 Y90.697 E2.16403
G1 X88.606 Y91.577 E2.18659
G1 X87.777 Y92.406 E2.20915
G1 X86.897 Y93.181 E2.23171
G1 X85.971 Y93.900 E2.25426
G1 X85.001 Y94.559 E2.27682
G1 X83.992 Y95.156 E2.29938
G1 X82.947 Y95.688 E2.32194
G1 X81.871 Y96.154 E2.34450
G1 X80.768 Y96.551 E2.36705
G1 X79.336 Y96.967 E2.39574
G1 X79.336 Y85.348 E2.61927
G1 X79.995 Y84.837 E2.63530
G1 X80.364 Y84.512 E2.64478
G1 X80.712 Y84.164 E2.65424
G1 X81.037 Y83.795 E2.66371
G1 X81.548 Y83.136 E2.67975
G1 X93.107 Y83.136 E2.90213
G1 X92.825 Y83.393 F6000.000
G1 F1800
G1 X92.506 Y84.488 E2.92407
G1 X92.115 Y85.576 E2.94632
G1 X91.655 Y86.637 E2.96856
G1 X91.130 Y87.668 E2.99081
G1 X90.542 Y88.663 E3.01306
G1 X89.892 Y89.620 E3.03530
G1 X89.183 Y90.533 E3.05755
G1 X88.418 Y91.401 E3.07980
G1 X87.601 Y92.218 E3.10205
G1 X86.733 Y92.983 E3.12429
G1 X85.819 Y93.692 E3.14654
G1 X84.863 Y94.342 E3.16879
G1 X83.868 Y94.930 E3.19103
G1 X82.837 Y95.455 E3.21328
G1 X81.776 Y95.915 E3.23553
G1 X80.688 Y96.306 E3.25777
G1 X79.593 Y96.625 E3.27972
G1 X79.593 Y85.474 E3.49423
G1 X80.158 Y85.036 E3.50800
G1 X80.540 Y84.699 E3.51779
G1 X80.899 Y84.340 E3.52757
G1 X81.236 Y83.958 E3.53735
G1 X81.674 Y83.393 E3.55112
G1 X92.765 Y83.393 E3.76448
G1 X92.482 Y83.650 F6000.000
G1 F1800
G1 X92.262 Y84.409 E3.77968
G1 X91.876 Y85.481 E3.80162
G1 X91.423 Y86.528 E3.82355
G1 X90.905 Y87.544 E3.84549
G1 X90.325 Y88.525 E3.86743
G1 X89.684 Y89.468 E3.88936
G1 X88.985 Y90.369 E3.91130
G1 X88.231 Y91.225 E3.93323
G1 X87.425 Y92.031 E3.95517
G1 X86.569 Y92.785 E3.97711
G1 X85.668 Y93.484 E3.99904
G1 X84.725 Y94.125 E4.02098
G1 X83.744 Y94.705 E4.04291
G1 X82.728 Y95.223 E4.06485
G1 X81.681 Y95.676 E4.08679
G1 X80.609 Y96.062 E4.10872
G1 X79.850 Y96.282 E4.12392
G1 X79.850 Y85.600 E4.32943
G1 X80.322 Y85.234 E4.34093
G1 X80.716 Y84.887 E4.35103
G1 X81.087 Y84.516 E4.36112
G1 X81.434 Y84.122 E4.37121
G1 X81.800 Y83.650 E4.38271
G1 X92.422 Y83.650 E4.58706
G1 X92.876 Y83.719 F6000.000
G1 E2.58706 F1200.00000
G92 E0
G1 Z0.700 F6000.000
G1 X89.233 Y80.261 F6000.000
G1 Z0.200 F6000.000
G1 E2.00000 F1200.00000
G1 F1800
G1 X88.854 Y80.617 E2.01001
G1 X88.592 Y80.785 E2.01600
G1 X88.334 Y80.906 E2.02149
G1 X88.063 Y80.994 E2.02696
G1 X87.784 Y81.048 E2.03243
G1 X87.500 Y81.065 E2.03791
G1 X87.216 Y81.048 E2.04338
G1 X86.916 Y80.990 E2.04925
G1 X86.432 Y80.799 E2.05927
G1 X86.169 Y80.633 E2.06525
G1 X85.949 Y80.451 E2.07074
G1 X85.754 Y80.244 E2.07621
G1 X85.587 Y80.014 E2.08169
G1 X85.450 Y79.765 E2.08716
G1 X85.345 Y79.500 E2.09263
G1 X85.275 Y79.224 E2.09811
G1 X85.239 Y78.942 E2.10358
G1 X85.239 Y78.658 E2.10905
G1 X85.275 Y78.376 E2.11452
G1 X85.345 Y78.100 E2.12000
G1 X85.450 Y77.835 E2.12547
G1 X85.587 Y77.586 E2.13095
G1 X85.754 Y77.356 E2.13642
G1 X85.949 Y77.148 E2.14189
G1 X86.168 Y76.967 E2.14737
G1 X86.409 Y76.815 E2.15284
G1 X86.666 Y76.694 E2.15831
G1 X86.937 Y76.605 E2.16380
G1 X87.243 Y76.548 E2.16978
G1 X87.764 Y76.548 E2.17980
G1 X88.063 Y76.606 E2.18567
G1 X88.335 Y76.694 E2.19116
G1 X88.616 Y76.827 E2.19714
G1 X89.037 Y77.133 E2.20716
G1 X89.246 Y77.356 E2.21303
G1 X89.413 Y77.586 E2.21851
G1 X89.550 Y77.835 E2.22398
G1 X89.655 Y78.100 E2.22945
G1 X89.725 Y78.376 E2.23493
G1 X89.761 Y78.658 E2.24040
G1 X89.761 Y78.942 E2.24587
G1 X89.725 Y79.224 E2.25134
G1 X89.655 Y79.500 E2.25682
G1 X89.550 Y79.765 E2.26229
G1 X89.413 Y80.014 E2.26776
G1 X89.269 Y80.212 E2.27248
G1 X89.040 Y80.090 F6000.000
G1 F1800
G1 X88.696 Y80.414 E2.28157
G1 X88.468 Y80.559 E2.28677
G1 X88.239 Y80.667 E2.29163
G1 X87.999 Y80.745 E2.29648
G1 X87.752 Y80.792 E2.30133
G1 X87.500 Y80.808 E2.30618
G1 X87.248 Y80.792 E2.31104
G1 X86.988 Y80.742 E2.31613
G1 X86.549 Y80.569 E2.32522
G1 X86.320 Y80.425 E2.33042
G1 X86.125 Y80.264 E2.33528
G1 X85.953 Y80.080 E2.34013
G1 X85.805 Y79.876 E2.34498
G1 X85.683 Y79.655 E2.34983
G1 X85.590 Y79.421 E2.35468
G1 X85.528 Y79.176 E2.35954
G1 X85.496 Y78.926 E2.36439
G1 X85.496 Y78.674 E2.36924
G1 X85.528 Y78.424 E2.37409
G1 X85.590 Y78.179 E2.37894
G1 X85.683 Y77.945 E2.38379
G1 X85.805 Y77.724 E2.38864
G1 X85.953 Y77.520 E2.39349
G1 X86.125 Y77.336 E2.39834
G1 X86.320 Y77.176 E2.40319
G1 X86.533 Y77.040 E2.40805
G1 X86.761 Y76.933 E2.41290
G1 X87.001 Y76.855 E2.41776
G1 X87.267 Y76.805 E2.42296
G1 X87.739 Y76.806 E2.43205
G1 X87.999 Y76.855 E2.43714
G1 X88.240 Y76.933 E2.44200
G1 X88.484 Y77.049 E2.44720
G1 X88.866 Y77.327 E2.45629
G1 X89.047 Y77.520 E2.46139
G1 X89.195 Y77.724 E2.46624
G1 X89.317 Y77.945 E2.47109
G1 X89.410 Y78.179 E2.47594
G1 X89.472 Y78.424 E2.48079
G1 X89.504 Y78.674 E2.48564
G1 X89.504 Y78.926 E2.49049
G1 X89.472 Y79.176 E2.49534
G1 X89.410 Y79.421 E2.50019
G1 X89.317 Y79.655 E2.50504
G1 X89.195 Y79.876 E2.50989
G1 X89.075 Y80.042 E2.51384
G1 X88.846 Y79.919 F6000.000
G1 F1800
G1 X88.537 Y80.210 E2.52200
G1 X88.343 Y80.334 E2.52641
G1 X88.144 Y80.427 E2.53065
G1 X87.935 Y80.495 E2.53487
G1 X87.719 Y80.537 E2.53910
G1 X87.500 Y80.550 E2.54333
G1 X87.281 Y80.537 E2.54756
G1 X87.060 Y80.494 E2.55188
G1 X86.666 Y80.339 E2.56004
G1 X86.471 Y80.216 E2.56446
G1 X86.302 Y80.076 E2.56869
G1 X86.151 Y79.916 E2.57292
G1 X86.022 Y79.738 E2.57715
G1 X85.916 Y79.545 E2.58138
G1 X85.835 Y79.341 E2.58561
G1 X85.781 Y79.128 E2.58984
G1 X85.753 Y78.910 E2.59406
G1 X85.753 Y78.690 E2.59829
G1 X85.781 Y78.472 E2.60252
G1 X85.835 Y78.259 E2.60675
G1 X85.916 Y78.055 E2.61098
G1 X86.022 Y77.862 E2.61521
G1 X86.151 Y77.684 E2.61944
G1 X86.302 Y77.524 E2.62366
G1 X86.471 Y77.384 E2.62789
G1 X86.657 Y77.266 E2.63212
G1 X86.856 Y77.173 E2.63635
G1 X87.065 Y77.105 E2.64058
G1 X87.291 Y77.062 E2.64500
G1 X87.715 Y77.063 E2.65316
G1 X87.935 Y77.105 E2.65748
G1 X88.145 Y77.173 E2.66171
G1 X88.352 Y77.271 E2.66613
G1 X88.695 Y77.521 E2.67429
G1 X88.849 Y77.684 E2.67861
G1 X88.978 Y77.862 E2.68284
G1 X89.084 Y78.055 E2.68707
G1 X89.165 Y78.259 E2.69130
G1 X89.219 Y78.472 E2.69552
G1 X89.247 Y78.690 E2.69975
G1 X89.247 Y78.910 E2.70398
G1 X89.219 Y79.128 E2.70821
G1 X89.165 Y79.341 E2.71244
G1 X89.084 Y79.545 E2.71667
G1 X88.881 Y79.871 E2.72405
G1 X88.970 Y80.300 F6000.000
G1 E0.72405 F1200.00000
G92 E0
G1 Z0.700 F6000.000
G1 X93.167 Y74.464 F6000.000
G1 Z0.200 F6000.000
G1 E2.00000 F1200.00000
G1 F1800
G1 X81.548 Y74.464 E2.22353
G1 X81.037 Y73.805 E2.23957
G1 X80.712 Y73.436 E2.24904
G1 X80.364 Y73.088 E2.25851
G1 X79.995 Y72.763 E2.26798
G1 X79.336 Y72.252 E2.28401
G1 X79.336 Y60.633 E2.50754
G1 X80.768 Y61.049 E2.53623
G1 X81.870 Y61.446 E2.55876
G1 X82.899 Y61.887 E2.58030
G1 X83.992 Y62.444 E2.60390
G1 X85.001 Y63.041 E2.62646
G1 X85.971 Y63.700 E2.64902
G1 X86.898 Y64.419 E2.67159
G1 X87.797 Y65.215 E2.69469
G1 X88.606 Y66.023 E2.71669
G1 X89.381 Y66.903 E2.73925
G1 X90.100 Y67.829 E2.76181
G1 X90.759 Y68.799 E2.78436
G1 X91.356 Y69.808 E2.80692
G1 X91.888 Y70.853 E2.82948
G1 X92.354 Y71.929 E2.85204
G1 X92.751 Y73.032 E2.87459
G1 X93.150 Y74.407 E2.90213
G1 X92.825 Y74.207 F6000.000
G1 F1800
G1 X81.674 Y74.207 E3.11664
G1 X81.236 Y73.641 E3.13041
G1 X80.899 Y73.260 E3.14020
G1 X80.540 Y72.901 E3.14998
G1 X80.158 Y72.564 E3.15976
G1 X79.593 Y72.126 E3.17353
G1 X79.593 Y60.975 E3.38804
G1 X80.688 Y61.294 E3.40999
G1 X81.776 Y61.685 E3.43222
G1 X82.790 Y62.120 E3.45345
G1 X83.868 Y62.670 E3.47673
G1 X84.863 Y63.258 E3.49898
G1 X85.819 Y63.908 E3.52122
G1 X86.733 Y64.617 E3.54348
G1 X87.621 Y65.402 E3.56627
G1 X88.418 Y66.199 E3.58796
G1 X89.183 Y67.067 E3.61021
G1 X89.892 Y67.980 E3.63246
G1 X90.542 Y68.937 E3.65470
G1 X91.130 Y69.932 E3.67695
G1 X91.655 Y70.963 E3.69920
G1 X92.115 Y72.024 E3.72145
G1 X92.506 Y73.112 E3.74369
G1 X92.808 Y74.149 E3.76448
G1 X92.482 Y73.950 F6000.000
G1 F1800
G1 X81.800 Y73.950 E3.96999
G1 X81.434 Y73.478 E3.98149
G1 X81.087 Y73.084 E3.99158
G1 X80.716 Y72.713 E4.00167
G1 X80.322 Y72.366 E4.01177
G1 X79.850 Y72.000 E4.02327
G1 X79.850 Y61.318 E4.22878
G1 X80.609 Y61.538 E4.24397
G1 X81.681 Y61.924 E4.26591
G1 X82.680 Y62.353 E4.28682
G1 X83.744 Y62.895 E4.30979
G1 X84.725 Y63.475 E4.33172
G1 X85.668 Y64.116 E4.35366
G1 X86.569 Y64.815 E4.37560
G1 X87.445 Y65.589 E4.39808
G1 X88.231 Y66.375 E4.41947
G1 X88.985 Y67.231 E4.44140
G1 X89.684 Y68.132 E4.46334
G1 X90.325 Y69.075 E4.48527
G1 X90.905 Y70.056 E4.50721
G1 X91.423 Y71.072 E4.52915
G1 X91.876 Y72.119 E4.55108
G1 X92.262 Y73.191 E4.57302
G1 X92.465 Y73.892 E4.58706
G1 X92.525 Y74.348 F6000.000
G1 E2.58706 F1200.00000
G92 E0
G1 Z0.700 F6000.000
G1 X80.489 Y77.401 F6000.000
G1 Z0.200 F6000.000
G1 E2.00000 F1200.00000
G1 F1800
G1 X80.619 Y78.080 E2.01329
G1 X80.654 Y78.455 E2.02053
G1 X80.655 Y79.137 E2.03366
G1 X80.620 Y79.509 E2.04086
G1 X80.563 Y79.872 E2.04791
G1 X80.388 Y80.551 E2.06140
G1 X80.133 Y81.195 E2.07472
G1 X79.959 Y81.538 E2.08213
G1 X79.589 Y82.121 E2.09542
G1 X79.365 Y82.411 E2.10247
G1 X79.122 Y82.685 E2.10951
G1 X78.619 Y83.158 E2.12280
G1 X78.321 Y83.389 E2.13005
G1 X77.729 Y83.765 E2.14353
G1 X77.095 Y84.063 E2.15702
G1 X76.741 Y84.191 E2.16427
G1 X76.062 Y84.365 E2.17776
G1 X75.366 Y84.453 E2.19124
G1 X74.990 Y84.465 E2.19849
G1 X74.290 Y84.421 E2.21198
G1 X73.601 Y84.289 E2.22546
G1 X73.250 Y84.187 E2.23251
G1 X72.905 Y84.063 E2.23956
G1 X72.271 Y83.765 E2.25304
G1 X71.679 Y83.389 E2.26653
G1 X71.381 Y83.158 E2.27378
G1 X70.878 Y82.685 E2.28706
G1 X70.635 Y82.411 E2.29411
G1 X70.411 Y82.121 E2.30116
G1 X70.041 Y81.538 E2.31444
G1 X69.870 Y81.203 E2.32169
G1 X69.612 Y80.551 E2.33518
G1 X69.435 Y79.862 E2.34887
G1 X69.347 Y79.166 E2.36236
G1 X69.335 Y78.781 E2.36976
G1 X69.379 Y78.090 E2.38309
G1 X69.511 Y77.401 E2.39658
G1 X69.619 Y77.032 E2.40398
G1 X69.874 Y76.388 E2.41731
G1 X70.216 Y75.764 E2.43099
G1 X70.629 Y75.197 E2.44448
G1 X70.878 Y74.915 E2.45173
G1 X71.381 Y74.442 E2.46501
G1 X71.679 Y74.211 E2.47226
G1 X72.262 Y73.841 E2.48555
G1 X72.924 Y73.529 E2.49963
G1 X73.591 Y73.313 E2.51312
G1 X74.280 Y73.181 E2.52662
G1 X74.663 Y73.145 E2.53402
G1 X75.356 Y73.146 E2.54734
G1 X76.062 Y73.235 E2.56103
G1 X76.741 Y73.409 E2.57452
G1 X77.095 Y73.537 E2.58176
G1 X77.720 Y73.831 E2.59505
G1 X78.044 Y74.023 E2.60230
G1 X78.603 Y74.429 E2.61558
G1 X78.885 Y74.678 E2.62283
G1 X79.358 Y75.181 E2.63612
G1 X79.589 Y75.479 E2.64336
G1 X79.959 Y76.062 E2.65665
G1 X80.130 Y76.397 E2.66390
G1 X80.384 Y77.040 E2.67718
G1 X80.473 Y77.344 E2.68328
G1 X80.239 Y77.461 F6000.000
G1 F1800
G1 X80.364 Y78.116 E2.69609
G1 X80.397 Y78.467 E2.70287
G1 X80.397 Y79.125 E2.71554
G1 X80.365 Y79.477 E2.72235
G1 X80.310 Y79.820 E2.72901
G1 X80.143 Y80.471 E2.74195
G1 X79.899 Y81.089 E2.75474
G1 X79.736 Y81.410 E2.76167
G1 X79.378 Y81.973 E2.77450
G1 X79.166 Y82.247 E2.78116
G1 X78.938 Y82.506 E2.78781
G1 X78.452 Y82.962 E2.80063
G1 X78.173 Y83.179 E2.80741
G1 X77.605 Y83.539 E2.82036
G1 X76.997 Y83.825 E2.83330
G1 X76.665 Y83.945 E2.84008
G1 X76.013 Y84.112 E2.85302
G1 X75.346 Y84.196 E2.86596
G1 X74.994 Y84.207 E2.87275
G1 X74.322 Y84.165 E2.88569
G1 X73.661 Y84.039 E2.89863
G1 X73.329 Y83.943 E2.90529
G1 X73.003 Y83.825 E2.91195
G1 X72.395 Y83.539 E2.92489
G1 X71.827 Y83.179 E2.93783
G1 X71.548 Y82.962 E2.94461
G1 X71.062 Y82.506 E2.95743
G1 X70.834 Y82.247 E2.96409
G1 X70.621 Y81.973 E2.97075
G1 X70.264 Y81.411 E2.98357
G1 X70.104 Y81.097 E2.99035
G1 X69.857 Y80.471 E3.00329
G1 X69.688 Y79.813 E3.01636
G1 X69.604 Y79.146 E3.02930
G1 X69.593 Y78.785 E3.03624
G1 X69.635 Y78.122 E3.04902
G1 X69.761 Y77.461 E3.06197
G1 X69.862 Y77.115 E3.06890
G1 X70.107 Y76.497 E3.08169
G1 X70.434 Y75.902 E3.09475
G1 X70.829 Y75.358 E3.10769
G1 X71.062 Y75.094 E3.11448
G1 X71.548 Y74.638 E3.12730
G1 X71.827 Y74.421 E3.13408
G1 X72.389 Y74.064 E3.14690
G1 X73.015 Y73.770 E3.16021
G1 X73.655 Y73.562 E3.17315
G1 X74.316 Y73.436 E3.18610
G1 X74.675 Y73.403 E3.19303
G1 X75.340 Y73.403 E3.20582
G1 X76.013 Y73.488 E3.21888
G1 X76.665 Y73.655 E3.23182
G1 X76.997 Y73.775 E3.23860
G1 X77.599 Y74.058 E3.25142
G1 X77.903 Y74.238 E3.25820
G1 X78.442 Y74.629 E3.27102
G1 X78.706 Y74.863 E3.27780
G1 X79.162 Y75.348 E3.29062
G1 X79.379 Y75.627 E3.29740
G1 X79.736 Y76.189 E3.31022
G1 X79.896 Y76.503 E3.31700
G1 X80.141 Y77.123 E3.32982
G1 X80.222 Y77.404 E3.33545
G1 X79.989 Y77.521 F6000.000
G1 F1800
G1 X80.109 Y78.152 E3.34780
G1 X80.140 Y78.479 E3.35412
G1 X80.140 Y79.113 E3.36632
G1 X80.109 Y79.445 E3.37274
G1 X80.058 Y79.767 E3.37901
G1 X79.898 Y80.392 E3.39141
G1 X79.664 Y80.983 E3.40365
G1 X79.512 Y81.283 E3.41012
G1 X79.168 Y81.825 E3.42247
G1 X78.968 Y82.083 E3.42874
G1 X78.753 Y82.327 E3.43501
G1 X78.285 Y82.767 E3.44736
G1 X78.025 Y82.968 E3.45368
G1 X77.481 Y83.313 E3.46608
G1 X76.898 Y83.588 E3.47847
G1 X76.589 Y83.699 E3.48479
G1 X75.965 Y83.859 E3.49719
G1 X75.326 Y83.940 E3.50958
G1 X74.998 Y83.950 E3.51590
G1 X74.354 Y83.910 E3.52830
G1 X73.721 Y83.789 E3.54070
G1 X73.409 Y83.698 E3.54696
G1 X73.102 Y83.588 E3.55323
G1 X72.519 Y83.313 E3.56563
G1 X71.975 Y82.968 E3.57803
G1 X71.715 Y82.767 E3.58434
G1 X71.247 Y82.327 E3.59670
G1 X71.032 Y82.083 E3.60297
G1 X70.832 Y81.825 E3.60924
G1 X70.488 Y81.283 E3.62159
G1 X70.339 Y80.991 E3.62790
G1 X70.102 Y80.392 E3.64030
G1 X69.941 Y79.765 E3.65275
G1 X69.860 Y79.126 E3.66514
G1 X69.850 Y78.790 E3.67161
G1 X69.890 Y78.154 E3.68386
G1 X70.011 Y77.521 E3.69626
G1 X70.105 Y77.199 E3.70272
G1 X70.340 Y76.607 E3.71497
G1 X70.651 Y76.040 E3.72741
G1 X71.030 Y75.519 E3.73981
G1 X71.247 Y75.273 E3.74612
G1 X71.715 Y74.833 E3.75847
G1 X71.975 Y74.632 E3.76479
G1 X72.517 Y74.288 E3.77714
G1 X73.106 Y74.011 E3.78967
G1 X73.719 Y73.812 E3.80207
G1 X74.352 Y73.691 E3.81447
G1 X74.687 Y73.660 E3.82094
G1 X75.323 Y73.660 E3.83318
G1 X75.965 Y73.741 E3.84563
G1 X76.589 Y73.901 E3.85802
G1 X76.898 Y74.012 E3.86434
G1 X77.479 Y74.286 E3.87669
G1 X77.762 Y74.453 E3.88301
G1 X78.281 Y74.830 E3.89536
G1 X78.527 Y75.047 E3.90167
G1 X78.967 Y75.515 E3.91403
G1 X79.168 Y75.775 E3.92034
G1 X79.512 Y76.317 E3.93269
G1 X79.661 Y76.609 E3.93901
G1 X79.897 Y77.206 E3.95136
G1 X79.972 Y77.464 E3.95652
G1 X80.373 Y77.633 F6000.000
G1 E1.95652 F1200.00000
G92 E0
G1 Z0.700 F6000.000
G1 X75.965 Y68.350 F6000.000
G1 Z0.200 F6000.000
G1 E2.00000 F1200.00000
G1 F1800
G1 X75.700 Y68.455 E2.00547
G1 X75.424 Y68.525 E2.01095
G1 X75.142 Y68.561 E2.01642
G1 X74.858 Y68.561 E2.02189
G1 X74.576 Y68.525 E2.02737
G1 X74.300 Y68.455 E2.03284
G1 X74.035 Y68.350 E2.03832
G1 X73.768 Y68.203 E2.04419
G1 X73.367 Y67.871 E2.05420
G1 X73.168 Y67.632 E2.06018
G1 X73.015 Y67.391 E2.06567
G1 X72.894 Y67.134 E2.07115
G1 X72.806 Y66.863 E2.07662
G1 X72.752 Y66.584 E2.08209
G1 X72.735 Y66.300 E2.08757
G1 X72.752 Y66.016 E2.09304
G1 X72.806 Y65.737 E2.09851
G1 X72.894 Y65.466 E2.10399
G1 X73.015 Y65.209 E2.10946
G1 X73.167 Y64.968 E2.11493
G1 X73.349 Y64.749 E2.12041
G1 X73.556 Y64.554 E2.12588
G1 X73.786 Y64.387 E2.13135
G1 X74.035 Y64.250 E2.13683
G1 X74.300 Y64.145 E2.14230
G1 X74.576 Y64.075 E2.14778
G1 X74.858 Y64.039 E2.15325
G1 X75.142 Y64.039 E2.15872
G1 X75.425 Y64.075 E2.16421
G1 X75.726 Y64.153 E2.17019
G1 X76.197 Y64.375 E2.18021
G1 X76.444 Y64.554 E2.18608
G1 X76.651 Y64.749 E2.19155
G1 X76.833 Y64.968 E2.19703
G1 X76.985 Y65.209 E2.20250
G1 X77.106 Y65.466 E2.20797
G1 X77.194 Y65.737 E2.21345
G1 X77.248 Y66.016 E2.21892
G1 X77.265 Y66.300 E2.22439
G1 X77.248 Y66.584 E2.22987
