; generated by Slic3r 1.3.0 on 2020-04-24 at 13:36:59

; external perimeters extrusion width = 0.44mm (3.57mm^3/s)
; perimeters extrusion width = 0.56mm (5.17mm^3/s)
; infill extrusion width = 0.50mm (5.48mm^3/s)
; solid infill extrusion width = 0.56mm (3.62mm^3/s)
; top infill extrusion width = 0.56mm (2.07mm^3/s)

; external perimeters extrusion width = 0.44mm (2.86mm^3/s)
; perimeters extrusion width = 0.56mm (4.14mm^3/s)
; infill extrusion width = 0.50mm (3.66mm^3/s)
; solid infill extrusion width = 0.56mm (3.10mm^3/s)
; top infill extrusion width = 0.45mm (2.44mm^3/s)

; external perimeters extrusion width = 0.44mm (2.86mm^3/s)
; perimeters extrusion width = 0.56mm (4.14mm^3/s)
; infill extrusion width = 0.50mm (4.57mm^3/s)
; solid infill extrusion width = 0.56mm (3.10mm^3/s)
; top infill extrusion width = 0.45mm (2.44mm^3/s)

M107
;D3D:START:START
T0
M104 S215 T0

G21
G90
M107
T0
G28
G29
M109 T0 S215 T0
G0 F3000
M107
T0
G92 E0
G0 X0 Y149 Z0.1 F3600
G1 Y49 E6.5 F1200
G0 Z1
G92 E0
; Filament gcode

G21 ; set units to millimeters
G90 ; use absolute coordinates
M82 ; use absolute distances for extrusion
G92 E0
G1 E-1.00000 F1200.00000
G92 E0
G1 Z0.200 F6000.000
G1 X40.833 Y56.784 F6000.000
G1 E1.00000 F1200.00000
G1 F1800
G1 X42.771 Y55.594 E1.04472
G1 X45.415 Y55.147 E1.09746
G1 X61.545 Y55.832 E1.41496
G1 X74.275 Y56.429 E1.66558
G1 X90.260 Y57.249 E1.98037
G1 X106.385 Y58.161 E2.29799
G1 X108.597 Y58.690 E2.34271
G1 X110.492 Y59.947 E2.38743
G1 X111.840 Y61.778 E2.43215
G1 X112.514 Y64.664 E2.49044
G1 X112.514 Y65.025 E2.49752
G1 X112.117 Y67.264 E2.54225
G1 X110.975 Y69.230 E2.58697
G1 X108.492 Y71.043 E2.64744
G1 X52.574 Y94.192 E3.83763
G1 X51.603 Y94.507 E3.85771
G1 X51.069 Y94.636 E3.86851
G1 X50.059 Y94.795 E3.88862
G1 X49.510 Y94.839 E3.89944
G1 X48.490 Y94.839 E3.91950
G1 X47.941 Y94.795 E3.93033
G1 X46.931 Y94.636 E3.95044
G1 X46.397 Y94.507 E3.96124
G1 X45.423 Y94.191 E3.98138
G1 X44.916 Y93.980 E3.99218
G1 X44.007 Y93.517 E4.01226
G1 X43.538 Y93.230 E4.02305
G1 X42.714 Y92.631 E4.04308
G1 X42.296 Y92.275 E4.05389
G1 X41.573 Y91.552 E4.07400
G1 X41.216 Y91.134 E4.08481
G1 X40.614 Y90.306 E4.10494
G1 X40.327 Y89.838 E4.11574
G1 X39.862 Y88.924 E4.13590
G1 X39.652 Y88.417 E4.14670
G1 X39.336 Y87.444 E4.16681
G1 X39.208 Y86.910 E4.17761
G1 X39.049 Y85.902 E4.19768
G1 X37.531 Y65.858 E4.59299
G1 X37.495 Y65.180 E4.60634
G1 X37.495 Y64.508 E4.61956
G1 X37.522 Y63.986 E4.62985
G1 X37.593 Y63.301 E4.64339
G1 X37.676 Y62.779 E4.65378
G1 X37.819 Y62.113 E4.66719
G1 X37.955 Y61.607 E4.67748
G1 X38.161 Y60.971 E4.69064
G1 X38.348 Y60.482 E4.70093
G1 X38.630 Y59.850 E4.71455
G1 X38.875 Y59.369 E4.72516
G1 X39.207 Y58.797 E4.73816
G1 X39.492 Y58.358 E4.74845
G1 X40.090 Y57.562 E4.76804
G1 X40.791 Y56.827 E4.78802
G1 X41.004 Y56.976 F6000.000
G1 F1800
G1 X42.907 Y55.817 E4.83184
G1 X45.405 Y55.403 E4.88163
G1 X61.534 Y56.089 E5.19912
G1 X74.262 Y56.686 E5.44971
G1 X90.246 Y57.505 E5.76447
G1 X106.370 Y58.418 E6.08207
G1 X108.535 Y58.944 E6.12589
G1 X110.379 Y60.195 E6.16971
G1 X111.668 Y62.013 E6.21354
G1 X112.257 Y64.664 E6.26694
G1 X112.257 Y65.025 E6.27403
G1 X111.860 Y67.217 E6.31786
G1 X110.720 Y69.132 E6.36168
G1 X108.393 Y70.806 E6.41805
G1 X52.475 Y93.954 E7.60825
G1 X51.543 Y94.257 E7.62753
G1 X51.009 Y94.386 E7.63833
G1 X50.039 Y94.539 E7.65765
G1 X49.490 Y94.582 E7.66847
G1 X48.510 Y94.582 E7.68774
G1 X47.961 Y94.539 E7.69857
G1 X46.991 Y94.386 E7.71788
G1 X46.457 Y94.257 E7.72868
G1 X45.522 Y93.953 E7.74803
G1 X45.015 Y93.743 E7.75882
G1 X44.141 Y93.298 E7.77811
G1 X43.673 Y93.011 E7.78891
G1 X42.881 Y92.436 E7.80815
G1 X42.463 Y92.079 E7.81895
G1 X41.769 Y91.385 E7.83827
G1 X41.411 Y90.967 E7.84908
G1 X40.833 Y90.172 E7.86841
G1 X40.546 Y89.704 E7.87921
G1 X40.099 Y88.826 E7.89858
G1 X39.889 Y88.319 E7.90938
G1 X39.586 Y87.384 E7.92869
G1 X39.458 Y86.850 E7.93950
G1 X39.305 Y85.882 E7.95877
G1 X39.261 Y85.316 E7.96993
G1 X37.788 Y65.839 E8.35407
G1 X37.751 Y65.167 E8.36730
G1 X37.751 Y64.522 E8.38000
G1 X37.778 Y63.999 E8.39029
G1 X37.847 Y63.341 E8.40329
G1 X37.930 Y62.820 E8.41368
G1 X38.067 Y62.179 E8.42656
G1 X38.203 Y61.674 E8.43685
G1 X38.401 Y61.063 E8.44949
G1 X38.588 Y60.574 E8.45978
G1 X38.859 Y59.966 E8.47286
G1 X39.104 Y59.487 E8.48346
G1 X39.422 Y58.937 E8.49595
G1 X39.707 Y58.498 E8.50624
G1 X40.290 Y57.723 E8.52531
G1 X40.962 Y57.019 E8.54445
G1 E7.54445 F1200.00000
G92 E0
G1 X49.572 Y66.605 F6000.000
G1 E1.00000 F1200.00000
G1 F1800
G1 X49.194 Y66.685 E1.00760
G1 X48.806 Y66.685 E1.01522
G1 X48.428 Y66.605 E1.02282
G1 X48.075 Y66.447 E1.03043
G1 X47.761 Y66.220 E1.03805
G1 X47.503 Y65.932 E1.04565
G1 X47.311 Y65.601 E1.05318
G1 X47.239 Y65.413 E1.05714
G1 X47.159 Y65.038 E1.06468
G1 X47.159 Y64.651 E1.07229
G1 X47.240 Y64.272 E1.07990
G1 X47.397 Y63.919 E1.08751
G1 X47.622 Y63.609 E1.09504
G1 X47.764 Y63.467 E1.09899
G1 X48.075 Y63.241 E1.10655
G1 X48.428 Y63.084 E1.11415
G1 X48.807 Y63.004 E1.12176
G1 X49.194 Y63.004 E1.12937
G1 X49.572 Y63.084 E1.13697
G1 X49.925 Y63.242 E1.14458
G1 X50.239 Y63.469 E1.15220
G1 X50.497 Y63.757 E1.15980
G1 X50.689 Y64.088 E1.16733
G1 X50.761 Y64.276 E1.17129
G1 X50.841 Y64.651 E1.17883
G1 X50.841 Y65.038 E1.18644
G1 X50.761 Y65.413 E1.19397
G1 X50.689 Y65.601 E1.19794
G1 X50.497 Y65.932 E1.20547
G1 X50.239 Y66.220 E1.21307
G1 X49.925 Y66.447 E1.22069
G1 X49.626 Y66.580 E1.22712
G1 E0.22712 F1200.00000
G92 E0
G1 X64.150 Y63.694 F6000.000
G1 E1.00000 F1200.00000
G1 F1800
G1 X53.900 Y63.694 E1.20158
G1 X52.271 Y67.590 E1.28461
G1 X45.226 Y67.880 E1.42327
G1 X45.077 Y67.695 E1.42795
G1 X44.800 Y67.269 E1.43794
G1 X44.569 Y66.817 E1.44792
G1 X44.388 Y66.343 E1.45790
G1 X44.256 Y65.853 E1.46789
G1 X44.176 Y65.351 E1.47787
G1 X44.150 Y64.844 E1.48786
G1 X44.176 Y64.337 E1.49784
G1 X44.256 Y63.836 E1.50782
G1 X44.388 Y63.346 E1.51781
G1 X44.569 Y62.872 E1.52779
G1 X44.800 Y62.420 E1.53777
G1 X45.077 Y61.994 E1.54776
G1 X45.226 Y61.809 E1.55244
G1 X54.403 Y62.188 E1.73306
G1 X67.780 Y62.790 E1.99640
G1 X79.709 Y63.371 E2.23128
G1 X94.258 Y64.141 E2.51782
G1 X105.253 Y64.772 E2.73439
G1 X105.253 Y64.917 E2.73725
G1 X94.258 Y65.548 E2.95383
G1 X85.038 Y66.044 E3.13543
G1 X73.944 Y66.604 E3.35387
G1 X63.450 Y67.098 E3.56048
G1 X64.150 Y65.885 E3.58803
G1 X64.150 Y63.754 E3.62992
G1 E2.62992 F1200.00000
G92 E0
G1 X49.608 Y86.714 F6000.000
G1 E1.00000 F1200.00000
G1 F1800
G1 X49.307 Y86.786 E1.00609
G1 X49.000 Y86.811 E1.01214
G1 X48.693 Y86.786 E1.01820
G1 X48.392 Y86.714 E1.02428
G1 X48.107 Y86.596 E1.03035
G1 X47.844 Y86.435 E1.03641
G1 X47.610 Y86.235 E1.04247
G1 X47.409 Y86.000 E1.04855
G1 X47.248 Y85.736 E1.05463
G1 X47.131 Y85.452 E1.06067
G1 X47.058 Y85.153 E1.06674
G1 X47.034 Y84.844 E1.07282
G1 X47.058 Y84.536 E1.07890
G1 X47.131 Y84.236 E1.08496
G1 X47.248 Y83.953 E1.09100
G1 X47.409 Y83.689 E1.09708
G1 X47.610 Y83.454 E1.10317
G1 X47.844 Y83.254 E1.10922
G1 X48.107 Y83.093 E1.11529
G1 X48.392 Y82.974 E1.12135
G1 X48.693 Y82.902 E1.12744
G1 X48.987 Y82.879 E1.13324
G1 X49.305 Y82.902 E1.13950
G1 X49.608 Y82.974 E1.14563
G1 X49.893 Y83.093 E1.15169
G1 X50.156 Y83.254 E1.15776
G1 X50.390 Y83.454 E1.16381
G1 X50.591 Y83.689 E1.16990
G1 X50.752 Y83.953 E1.17598
G1 X50.869 Y84.236 E1.18202
G1 X50.942 Y84.536 E1.18808
G1 X50.966 Y84.844 E1.19416
G1 X50.942 Y85.153 E1.20024
G1 X50.869 Y85.452 E1.20631
G1 X50.752 Y85.736 E1.21235
G1 X50.591 Y86.000 E1.21843
G1 X50.390 Y86.235 E1.22451
G1 X50.156 Y86.435 E1.23057
G1 X49.893 Y86.596 E1.23663
G1 X49.663 Y86.691 E1.24152
G1 X49.528 Y86.469 F6000.000
G1 F1800
G1 X49.267 Y86.532 E1.24680
G1 X49.000 Y86.553 E1.25207
G1 X48.733 Y86.532 E1.25733
G1 X48.472 Y86.469 E1.26262
G1 X48.224 Y86.366 E1.26788
G1 X47.996 Y86.226 E1.27315
G1 X47.792 Y86.053 E1.27842
G1 X47.618 Y85.849 E1.28370
G1 X47.478 Y85.620 E1.28898
G1 X47.376 Y85.373 E1.29423
G1 X47.313 Y85.112 E1.29950
G1 X47.292 Y84.844 E1.30478
G1 X47.313 Y84.577 E1.31006
G1 X47.376 Y84.316 E1.31533
G1 X47.478 Y84.069 E1.32059
G1 X47.618 Y83.840 E1.32586
G1 X47.792 Y83.636 E1.33115
G1 X47.996 Y83.462 E1.33641
G1 X48.224 Y83.322 E1.34168
G1 X48.472 Y83.220 E1.34695
G1 X48.733 Y83.157 E1.35224
G1 X48.988 Y83.137 E1.35727
G1 X49.265 Y83.157 E1.36273
G1 X49.528 Y83.220 E1.36805
G1 X49.776 Y83.322 E1.37331
G1 X50.004 Y83.462 E1.37858
G1 X50.207 Y83.636 E1.38385
G1 X50.382 Y83.840 E1.38913
G1 X50.522 Y84.069 E1.39441
G1 X50.624 Y84.316 E1.39966
G1 X50.687 Y84.577 E1.40493
G1 X50.708 Y84.844 E1.41021
G1 X50.687 Y85.112 E1.41549
G1 X50.624 Y85.373 E1.42076
G1 X50.522 Y85.620 E1.42602
G1 X50.382 Y85.849 E1.43129
G1 X50.207 Y86.053 E1.43658
G1 X50.004 Y86.226 E1.44184
G1 X49.776 Y86.366 E1.44711
G1 X49.584 Y86.446 E1.45120
G1 X49.449 Y86.224 F6000.000
G1 F1800
G1 X49.226 Y86.277 E1.45569
G1 X49.000 Y86.295 E1.46016
G1 X48.774 Y86.277 E1.46463
G1 X48.551 Y86.224 E1.46912
G1 X48.342 Y86.137 E1.47358
G1 X48.148 Y86.018 E1.47806
G1 X47.975 Y85.870 E1.48253
G1 X47.826 Y85.697 E1.48702
G1 X47.708 Y85.503 E1.49149
G1 X47.621 Y85.293 E1.49596
G1 X47.567 Y85.072 E1.50044
G1 X47.550 Y84.844 E1.50492
G1 X47.567 Y84.617 E1.50940
G1 X47.621 Y84.396 E1.51387
G1 X47.708 Y84.186 E1.51834
G1 X47.826 Y83.992 E1.52282
G1 X47.975 Y83.819 E1.52730
G1 X48.148 Y83.671 E1.53177
G1 X48.342 Y83.552 E1.53625
G1 X48.551 Y83.465 E1.54072
G1 X48.774 Y83.412 E1.54521
G1 X48.989 Y83.395 E1.54946
G1 X49.226 Y83.412 E1.55413
G1 X49.449 Y83.465 E1.55863
G1 X49.658 Y83.552 E1.56310
G1 X49.852 Y83.671 E1.56758
G1 X50.025 Y83.819 E1.57205
G1 X50.174 Y83.992 E1.57653
G1 X50.292 Y84.186 E1.58101
G1 X50.379 Y84.396 E1.58548
G1 X50.433 Y84.617 E1.58995
G1 X50.450 Y84.844 E1.59443
G1 X50.433 Y85.072 E1.59891
G1 X50.379 Y85.293 E1.60339
G1 X50.292 Y85.503 E1.60786
G1 X50.174 Y85.697 E1.61233
G1 X50.025 Y85.870 E1.61682
G1 X49.852 Y86.018 E1.62129
G1 X49.658 Y86.137 E1.62577
G1 X49.504 Y86.201 E1.62905
G1 X49.449 Y86.224 F6000.000
G1 E0.62905 F1200.00000
G92 E0
G1 X63.336 Y64.509 F6000.000
G1 E1.00000 F1200.00000
G1 F1800
G1 X63.336 Y65.667 E1.02277
G1 X51.548 Y86.094 E1.48659
G1 X51.293 Y86.510 E1.49618
G1 X51.004 Y86.848 E1.50493
G1 X50.665 Y87.137 E1.51369
G1 X50.286 Y87.369 E1.52243
G1 X49.876 Y87.540 E1.53117
G1 X49.444 Y87.643 E1.53991
G1 X49.000 Y87.678 E1.54866
G1 X48.556 Y87.643 E1.55742
G1 X48.124 Y87.540 E1.56616
G1 X47.714 Y87.369 E1.57490
G1 X47.335 Y87.137 E1.58364
G1 X46.996 Y86.848 E1.59240
G1 X46.707 Y86.510 E1.60114
G1 X46.475 Y86.131 E1.60988
G1 X46.305 Y85.720 E1.61862
G1 X46.201 Y85.288 E1.62737
G1 X46.166 Y84.844 E1.63612
G1 X46.201 Y84.401 E1.64487
G1 X46.304 Y83.970 E1.65359
G1 X54.442 Y64.509 E2.06843
G1 X63.276 Y64.509 E2.24215
G1 X63.593 Y64.252 F6000.000
G1 F1800
G1 X63.593 Y65.735 E2.27133
G1 X51.769 Y86.225 E2.73657
G1 X51.502 Y86.662 E2.74663
G1 X51.186 Y87.031 E2.75618
G1 X50.817 Y87.346 E2.76573
G1 X50.404 Y87.599 E2.77526
G1 X49.956 Y87.785 E2.78480
G1 X49.484 Y87.898 E2.79434
G1 X49.000 Y87.936 E2.80389
G1 X48.516 Y87.898 E2.81344
G1 X48.044 Y87.785 E2.82298
G1 X47.596 Y87.599 E2.83251
G1 X47.183 Y87.346 E2.84205
G1 X46.814 Y87.031 E2.85160
G1 X46.498 Y86.662 E2.86114
G1 X46.245 Y86.248 E2.87068
G1 X46.059 Y85.800 E2.88021
G1 X45.946 Y85.328 E2.88976
G1 X45.908 Y84.844 E2.89930
G1 X45.946 Y84.361 E2.90884
G1 X46.059 Y83.890 E2.91837
G1 X54.271 Y64.252 E3.33698
G1 X63.533 Y64.252 E3.51913
G1 X63.850 Y63.994 F6000.000
G1 F1800
G1 X63.850 Y65.804 E3.55472
G1 X51.990 Y86.357 E4.02137
G1 X51.710 Y86.813 E4.03190
G1 X51.369 Y87.213 E4.04224
G1 X50.969 Y87.554 E4.05259
G1 X50.521 Y87.829 E4.06292
G1 X50.035 Y88.030 E4.07325
G1 X49.524 Y88.153 E4.08358
G1 X49.000 Y88.194 E4.09393
G1 X48.476 Y88.153 E4.10428
G1 X47.965 Y88.030 E4.11461
G1 X47.479 Y87.829 E4.12494
G1 X47.031 Y87.554 E4.13527
G1 X46.631 Y87.213 E4.14562
G1 X46.290 Y86.813 E4.15596
G1 X46.015 Y86.365 E4.16629
G1 X45.814 Y85.880 E4.17663
G1 X45.692 Y85.368 E4.18696
G1 X45.650 Y84.844 E4.19730
G1 X45.692 Y84.320 E4.20764
G1 X45.814 Y83.810 E4.21797
G1 X54.100 Y63.994 E4.64035
G1 X63.790 Y63.994 E4.83092
G1 X63.753 Y64.382 F6000.000
G1 E3.83092 F1200.00000
G92 E0
G1 X49.443 Y66.275 F6000.000
G1 E1.00000 F1200.00000
G1 F1800
G1 X49.152 Y66.336 E1.00795
G1 X48.848 Y66.336 E1.01605
G1 X48.537 Y66.271 E1.02454
G1 X48.250 Y66.143 E1.03291
G1 X47.996 Y65.959 E1.04128
G1 X47.787 Y65.726 E1.04963
G1 X47.630 Y65.454 E1.05800
G1 X47.539 Y65.176 E1.06581
G1 X47.504 Y64.844 E1.07471
G1 X47.514 Y64.678 E1.07915
G1 X47.533 Y64.533 E1.08307
G1 X47.640 Y64.216 E1.09198
G1 X47.787 Y63.963 E1.09980
G1 X47.996 Y63.730 E1.10815
G1 X48.250 Y63.546 E1.11652
G1 X48.537 Y63.418 E1.12489
G1 X48.848 Y63.352 E1.13338
G1 X49.152 Y63.352 E1.14148
G1 X49.463 Y63.418 E1.14997
G1 X49.731 Y63.537 E1.15779
G1 X50.018 Y63.745 E1.16725
G1 X50.213 Y63.963 E1.17505
G1 X50.377 Y64.254 E1.18397
G1 X50.467 Y64.533 E1.19177
G1 X50.496 Y64.844 E1.20013
G1 X50.467 Y65.156 E1.20848
G1 X50.370 Y65.454 E1.21685
G1 X50.213 Y65.726 E1.22522
G1 X50.004 Y65.959 E1.23357
G1 X49.750 Y66.143 E1.24194
G1 X49.500 Y66.255 E1.24925
G1 X49.443 Y66.275 F6000.000
G1 E0.24925 F1200.00000
G92 E0
G1 X51.096 Y64.771 F6000.000
G1 E1.00000 F1200.00000
G1 F1800
G1 X51.096 Y62.155 E1.05149
G1 X50.839 Y62.144 E1.05656
G1 X50.839 Y63.989 E1.09287
G1 X50.706 Y63.759 E1.09810
G1 X50.582 Y63.621 E1.10176
G1 X50.582 Y62.133 E1.13103
G1 X50.325 Y62.123 E1.13610
G1 X50.325 Y63.368 E1.16061
G1 X50.067 Y63.181 E1.16686
G1 X50.067 Y62.112 E1.18791
G1 X49.810 Y62.101 E1.19297
G1 X49.810 Y63.063 E1.21190
G1 X49.651 Y62.993 E1.21532
G1 X49.553 Y62.972 E1.21731
G1 X49.553 Y62.091 E1.23464
G1 X49.296 Y62.080 E1.23971
G1 X49.296 Y62.917 E1.25618
G1 X49.038 Y62.901 E1.26125
G1 X49.038 Y62.069 E1.27762
G1 X48.781 Y62.059 E1.28269
G1 X48.781 Y62.901 E1.29926
G1 X48.524 Y62.955 E1.30444
G1 X48.524 Y62.048 E1.32229
G1 X48.267 Y62.037 E1.32736
G1 X48.267 Y63.029 E1.34687
G1 X48.009 Y63.143 E1.35241
G1 X48.009 Y62.027 E1.37439
G1 X47.752 Y62.016 E1.37946
G1 X47.752 Y63.312 E1.40497
G1 X47.596 Y63.425 E1.40875
G1 X47.495 Y63.527 E1.41159
G1 X47.495 Y62.005 E1.44154
G1 X47.238 Y61.995 E1.44660
G1 X47.238 Y63.856 E1.48323
G1 X47.174 Y63.944 E1.48537
G1 X46.980 Y64.410 E1.49530
G1 X46.980 Y61.984 E1.54304
G1 X46.723 Y61.974 E1.54811
G1 X46.723 Y67.716 E1.66111
G1 X46.466 Y67.726 E1.66617
G1 X46.466 Y61.963 E1.77960
G1 X46.209 Y61.952 E1.78466
G1 X46.209 Y67.737 E1.89850
G1 X45.951 Y67.747 E1.90357
G1 X45.951 Y61.942 E2.01783
G1 X45.694 Y61.931 E2.02289
G1 X45.694 Y67.758 E2.13757
G1 X45.437 Y67.769 E2.14264
G1 X45.437 Y61.920 E2.25773
G1 X45.345 Y61.916 E2.25954
G1 X45.180 Y62.153 E2.26522
G1 X45.180 Y67.536 E2.37116
G1 X45.023 Y67.295 E2.37681
G1 X44.922 Y67.098 E2.38117
G1 X44.922 Y62.591 E2.46985
G1 X44.804 Y62.822 E2.47495
G1 X44.665 Y63.187 E2.48263
G1 X44.665 Y66.502 E2.54789
G1 X44.508 Y65.953 E2.55913
G1 X44.432 Y65.479 E2.56858
G1 X44.408 Y64.688 E2.58416
G1 E1.58416 F1200.00000
G92 E0
G1 X46.980 Y65.279 F6000.000
G1 E1.00000 F1200.00000
G1 F1800
G1 X46.980 Y67.705 E1.04774
G1 X47.238 Y67.694 E1.05281
G1 X47.238 Y65.833 E1.08945
G1 X47.294 Y65.930 E1.09166
G1 X47.495 Y66.154 E1.09758
G1 X47.495 Y67.684 E1.12769
G1 X47.752 Y67.673 E1.13275
G1 X47.752 Y66.377 E1.15827
G1 X48.009 Y66.545 E1.16432
G1 X48.009 Y67.662 E1.18630
G1 X48.267 Y67.652 E1.19137
G1 X48.267 Y66.660 E1.21089
G1 X48.524 Y66.734 E1.21616
G1 X48.524 Y67.641 E1.23402
G1 X48.781 Y67.631 E1.23909
G1 X48.781 Y66.788 E1.25568
G1 X49.038 Y66.788 E1.26074
G1 X49.038 Y67.620 E1.27711
G1 X49.296 Y67.609 E1.28218
G1 X49.296 Y66.772 E1.29866
G1 X49.553 Y66.717 E1.30384
G1 X49.553 Y67.599 E1.32119
G1 X49.810 Y67.588 E1.32625
G1 X49.810 Y66.626 E1.34520
G1 X50.067 Y66.508 E1.35077
G1 X50.067 Y67.578 E1.37183
G1 X50.325 Y67.567 E1.37689
G1 X50.325 Y66.321 E1.40141
G1 X50.412 Y66.258 E1.40354
G1 X50.582 Y66.068 E1.40855
G1 X50.582 Y67.556 E1.43783
G1 X50.839 Y67.546 E1.44290
G1 X50.839 Y65.700 E1.47923
G1 X50.921 Y65.558 E1.48246
G1 X51.008 Y65.332 E1.48722
G1 X51.096 Y64.918 E1.49555
G1 X51.096 Y67.535 E1.54705
G1 X51.354 Y67.525 E1.55212
G1 X51.354 Y62.165 E1.65759
G1 X51.611 Y62.176 E1.66266
G1 X51.611 Y67.514 E1.76771
G1 X51.868 Y67.503 E1.77278
