; generated by Slic3r 1.3.1-dev (Build (Unknown revision)) on 2020-07-07 at 10:55:57

; external perimeters extrusion width = 0.44mm (2.86mm^3/s)
; perimeters extrusion width = 0.56mm (4.14mm^3/s)
; infill extrusion width = 0.50mm (5.48mm^3/s)
; solid infill extrusion width = 0.56mm (3.10mm^3/s)
; top infill extrusion width = 0.45mm (2.44mm^3/s)

M107
G92 E0
;D3D:START:START
T0
M104 S215 T0

G21
G90
M107
T0
G28
G29
M109 T0 S215 T0
G0 F3000
M107
T0
G92 E0
G0 X0 Y149 Z0.1 F3600
G1 Y49 E6.5 F1200
G0 Z1
G92 E0
; Filament gcode

G21 ; set units to millimeters
G90 ; use absolute coordinates
M82 ; use absolute distances for extrusion
G92 E0
G1 Z0.200 F6000.000
G1 E-2.00000 F1200.00000
G92 E0
G1 X37.310 Y5.095 F6000.000
G1 E2.00000 F1200.00000
G1 F1800.000
G1 X38.177 Y3.416 E2.03636
G1 X39.654 Y2.238 E2.07271
G1 X41.666 Y1.765 E2.11248
G1 X80.882 Y1.765 E2.86693
G1 X81.820 Y1.863 E2.88509
G1 X82.894 Y2.091 E2.90620
G1 X83.791 Y2.383 E2.92436
G1 X84.858 Y2.859 E2.94683
G1 X93.233 Y6.745 E3.12446
G1 X93.987 Y7.188 E3.14126
G1 X95.678 Y8.417 E3.18148
G1 X96.133 Y8.795 E3.19288
G1 X114.787 Y26.511 E3.68781
G1 X115.034 Y26.764 E3.69460
G1 X115.918 Y27.760 E3.72022
G1 X133.873 Y50.449 E4.27688
G1 X134.710 Y52.143 E4.31323
G1 X134.848 Y53.250 E4.33469
G1 X134.848 Y62.750 E4.51746
G1 X134.123 Y65.202 E4.56665
G1 X112.123 Y99.202 E5.34576
G1 X111.873 Y99.551 E5.35402
G1 X93.918 Y122.240 E5.91067
G1 X93.034 Y123.236 E5.93629
G1 X92.787 Y123.489 E5.94308
G1 X74.133 Y141.205 E6.43802
G1 X73.678 Y141.583 E6.44941
G1 X71.987 Y142.812 E6.48963
G1 X71.233 Y143.255 E6.50644
G1 X62.858 Y147.141 E6.68406
G1 X61.791 Y147.617 E6.70653
G1 X60.894 Y147.909 E6.72469
G1 X59.820 Y148.137 E6.74580
G1 X58.882 Y148.235 E6.76396
G1 X19.666 Y148.235 E7.51841
G1 X17.819 Y147.840 E7.55477
G1 X16.294 Y146.722 E7.59113
G1 X15.361 Y145.079 E7.62748
G1 X15.152 Y143.721 E7.65391
G1 X15.152 Y87.250 E8.74034
G1 X15.310 Y86.066 E8.76331
G1 X37.295 Y5.153 E10.37641
G1 X37.558 Y5.163 F6000.000
G1 F1800.000
G1 X38.410 Y3.537 E10.41171
G1 X39.866 Y2.421 E10.44700
G1 X41.666 Y2.022 E10.48249
G1 X80.882 Y2.022 E11.23694
G1 X81.767 Y2.115 E11.25406
G1 X82.841 Y2.343 E11.27518
G1 X83.687 Y2.618 E11.29230
G1 X84.750 Y3.092 E11.31469
G1 X93.125 Y6.978 E11.49232
G1 X93.835 Y7.396 E11.50817
G1 X95.527 Y8.625 E11.54839
G1 X95.956 Y8.982 E11.55913
G1 X114.610 Y26.697 E12.05407
G1 X114.842 Y26.936 E12.06047
G1 X115.716 Y27.919 E12.08578
G1 X133.672 Y50.608 E12.64243
G1 X134.473 Y52.258 E12.67773
G1 X134.591 Y53.250 E12.69694
G1 X134.591 Y62.750 E12.87971
G1 X133.908 Y65.063 E12.92610
G1 X111.907 Y99.063 E13.70521
G1 X111.671 Y99.392 E13.71300
G1 X93.716 Y122.081 E14.26964
G1 X92.842 Y123.064 E14.29496
G1 X92.610 Y123.303 E14.30136
G1 X73.956 Y141.018 E14.79629
G1 X73.527 Y141.375 E14.80704
G1 X71.835 Y142.604 E14.84725
G1 X71.125 Y143.022 E14.86311
G1 X62.750 Y146.908 E15.04073
G1 X61.687 Y147.382 E15.06313
G1 X60.841 Y147.657 E15.08025
G1 X59.767 Y147.885 E15.10136
G1 X58.882 Y147.978 E15.11849
G1 X19.666 Y147.978 E15.87294
G1 X17.875 Y147.583 E15.90823
G1 X16.416 Y146.470 E15.94353
G1 X15.561 Y144.847 E15.97882
G1 X15.409 Y143.721 E16.00068
G1 X15.409 Y87.250 E17.08711
G1 X15.558 Y86.134 E17.10878
G1 X37.543 Y5.221 E18.72187
G1 E16.72187 F1200.00000
G92 E0
G1 X56.475 Y136.239 F6000.000
G1 E2.00000 F1200.00000
G1 F1800.000
G1 X56.758 Y136.275 E2.00548
G1 X57.033 Y136.345 E2.01095
G1 X57.298 Y136.450 E2.01642
G1 X57.547 Y136.587 E2.02190
G1 X57.777 Y136.754 E2.02737
G1 X57.985 Y136.949 E2.03284
G1 X58.166 Y137.168 E2.03832
G1 X58.318 Y137.409 E2.04379
G1 X58.440 Y137.666 E2.04927
G1 X58.527 Y137.937 E2.05474
G1 X58.581 Y138.216 E2.06021
G1 X58.599 Y138.512 E2.06591
G1 X58.553 Y138.985 E2.07506
G1 X58.440 Y139.334 E2.08212
G1 X58.318 Y139.591 E2.08759
G1 X58.166 Y139.832 E2.09307
G1 X57.985 Y140.051 E2.09854
G1 X57.777 Y140.246 E2.10401
G1 X57.547 Y140.413 E2.10948
G1 X57.298 Y140.550 E2.11496
G1 X57.033 Y140.655 E2.12043
G1 X56.758 Y140.725 E2.12591
G1 X56.475 Y140.761 E2.13138
G1 X56.191 Y140.761 E2.13685
G1 X55.909 Y140.725 E2.14232
G1 X55.633 Y140.655 E2.14780
G1 X55.369 Y140.550 E2.15327
G1 X55.119 Y140.413 E2.15875
G1 X54.889 Y140.246 E2.16422
G1 X54.682 Y140.051 E2.16969
G1 X54.500 Y139.832 E2.17517
G1 X54.348 Y139.591 E2.18064
G1 X54.227 Y139.334 E2.18611
G1 X54.139 Y139.063 E2.19159
G1 X54.086 Y138.784 E2.19706
G1 X54.068 Y138.500 E2.20253
G1 X54.086 Y138.216 E2.20800
G1 X54.139 Y137.937 E2.21348
G1 X54.227 Y137.666 E2.21895
G1 X54.348 Y137.409 E2.22443
G1 X54.500 Y137.168 E2.22990
G1 X54.682 Y136.949 E2.23538
G1 X54.889 Y136.754 E2.24085
G1 X55.119 Y136.587 E2.24632
G1 X55.369 Y136.450 E2.25179
G1 X55.633 Y136.345 E2.25726
G1 X55.909 Y136.275 E2.26274
G1 X56.191 Y136.239 E2.26822
G1 X56.415 Y136.239 E2.27253
G1 X56.459 Y136.496 F6000.000
G1 F1800.000
G1 X56.709 Y136.528 E2.27738
G1 X56.954 Y136.590 E2.28224
G1 X57.188 Y136.683 E2.28709
G1 X57.409 Y136.805 E2.29194
G1 X57.613 Y136.953 E2.29679
G1 X57.797 Y137.125 E2.30164
G1 X57.958 Y137.320 E2.30649
G1 X58.093 Y137.533 E2.31134
G1 X58.200 Y137.761 E2.31619
G1 X58.278 Y138.001 E2.32104
G1 X58.325 Y138.248 E2.32589
G1 X58.342 Y138.507 E2.33088
G1 X58.300 Y138.932 E2.33910
G1 X58.200 Y139.239 E2.34531
G1 X58.093 Y139.467 E2.35016
G1 X57.958 Y139.680 E2.35501
G1 X57.797 Y139.875 E2.35986
G1 X57.613 Y140.047 E2.36471
G1 X57.409 Y140.195 E2.36956
G1 X57.188 Y140.317 E2.37441
G1 X56.954 Y140.410 E2.37926
G1 X56.709 Y140.472 E2.38412
G1 X56.459 Y140.504 E2.38897
G1 X56.207 Y140.504 E2.39382
G1 X55.957 Y140.472 E2.39867
G1 X55.713 Y140.410 E2.40352
G1 X55.478 Y140.317 E2.40837
G1 X55.257 Y140.195 E2.41322
G1 X55.053 Y140.047 E2.41807
G1 X54.870 Y139.875 E2.42292
G1 X54.709 Y139.680 E2.42778
G1 X54.574 Y139.467 E2.43263
G1 X54.466 Y139.239 E2.43748
G1 X54.388 Y138.999 E2.44233
G1 X54.341 Y138.752 E2.44718
G1 X54.325 Y138.500 E2.45203
G1 X54.341 Y138.248 E2.45688
G1 X54.388 Y138.001 E2.46173
G1 X54.466 Y137.761 E2.46659
G1 X54.574 Y137.533 E2.47144
G1 X54.709 Y137.320 E2.47629
G1 X54.870 Y137.125 E2.48114
G1 X55.053 Y136.953 E2.48599
G1 X55.257 Y136.805 E2.49084
G1 X55.478 Y136.683 E2.49569
G1 X55.713 Y136.590 E2.50054
G1 X55.957 Y136.528 E2.50540
G1 X56.207 Y136.496 E2.51025
G1 X56.399 Y136.496 E2.51394
G1 X56.443 Y136.753 F6000.000
G1 F1800.000
G1 X56.661 Y136.781 E2.51817
G1 X56.874 Y136.835 E2.52240
G1 X57.078 Y136.916 E2.52663
G1 X57.271 Y137.022 E2.53086
G1 X57.449 Y137.151 E2.53508
G1 X57.609 Y137.302 E2.53931
G1 X57.749 Y137.471 E2.54354
G1 X57.867 Y137.657 E2.54777
G1 X57.961 Y137.856 E2.55200
G1 X58.028 Y138.065 E2.55623
G1 X58.070 Y138.281 E2.56046
G1 X58.084 Y138.503 E2.56474
G1 X58.047 Y138.879 E2.57202
G1 X57.961 Y139.144 E2.57738
G1 X57.867 Y139.343 E2.58161
G1 X57.749 Y139.529 E2.58584
G1 X57.609 Y139.698 E2.59007
G1 X57.449 Y139.849 E2.59429
G1 X57.271 Y139.978 E2.59852
G1 X57.078 Y140.084 E2.60275
G1 X56.874 Y140.165 E2.60698
G1 X56.661 Y140.219 E2.61121
G1 X56.443 Y140.247 E2.61544
G1 X56.223 Y140.247 E2.61966
G1 X56.005 Y140.219 E2.62389
G1 X55.792 Y140.165 E2.62812
G1 X55.588 Y140.084 E2.63235
G1 X55.395 Y139.978 E2.63658
G1 X55.218 Y139.849 E2.64081
G1 X55.057 Y139.698 E2.64504
G1 X54.917 Y139.529 E2.64927
G1 X54.799 Y139.343 E2.65350
G1 X54.706 Y139.144 E2.65772
G1 X54.638 Y138.935 E2.66195
G1 X54.597 Y138.719 E2.66618
G1 X54.583 Y138.500 E2.67041
G1 X54.597 Y138.281 E2.67464
G1 X54.638 Y138.065 E2.67887
G1 X54.706 Y137.856 E2.68310
G1 X54.799 Y137.657 E2.68733
G1 X54.917 Y137.471 E2.69155
G1 X55.057 Y137.302 E2.69578
G1 X55.218 Y137.151 E2.70001
G1 X55.395 Y137.022 E2.70424
G1 X55.588 Y136.916 E2.70847
G1 X55.792 Y136.835 E2.71270
G1 X56.005 Y136.781 E2.71693
G1 X56.383 Y136.753 E2.72421
G1 X56.565 Y136.570 F6000.000
G1 E0.72421 F1200.00000
G92 E0
G1 X48.581 Y138.216 F6000.000
G1 E2.00000 F1200.00000
G1 F1800.000
G1 X48.599 Y138.512 E2.00570
G1 X48.553 Y138.985 E2.01485
G1 X48.440 Y139.334 E2.02191
G1 X48.318 Y139.591 E2.02738
G1 X48.166 Y139.832 E2.03286
G1 X47.985 Y140.051 E2.03833
G1 X47.777 Y140.246 E2.04380
G1 X47.547 Y140.413 E2.04927
G1 X47.298 Y140.550 E2.05475
G1 X47.033 Y140.655 E2.06022
G1 X46.758 Y140.725 E2.06570
G1 X46.475 Y140.761 E2.07117
G1 X46.191 Y140.761 E2.07664
G1 X45.909 Y140.725 E2.08211
G1 X45.633 Y140.655 E2.08759
G1 X45.369 Y140.550 E2.09306
G1 X45.119 Y140.413 E2.09854
G1 X44.889 Y140.246 E2.10401
G1 X44.682 Y140.051 E2.10948
G1 X44.500 Y139.832 E2.11496
G1 X44.348 Y139.591 E2.12043
G1 X44.227 Y139.334 E2.12590
G1 X44.139 Y139.063 E2.13138
G1 X44.086 Y138.784 E2.13685
G1 X44.068 Y138.500 E2.14232
G1 X44.086 Y138.216 E2.14779
G1 X44.139 Y137.937 E2.15327
G1 X44.227 Y137.666 E2.15874
G1 X44.348 Y137.409 E2.16422
G1 X44.500 Y137.168 E2.16969
G1 X44.682 Y136.949 E2.17517
G1 X44.889 Y136.754 E2.18064
G1 X45.119 Y136.587 E2.18611
G1 X45.369 Y136.450 E2.19158
G1 X45.633 Y136.345 E2.19705
G1 X45.909 Y136.275 E2.20253
G1 X46.191 Y136.239 E2.20801
G1 X46.475 Y136.239 E2.21347
G1 X46.758 Y136.275 E2.21895
G1 X47.033 Y136.345 E2.22443
G1 X47.298 Y136.450 E2.22990
G1 X47.547 Y136.587 E2.23537
G1 X47.777 Y136.754 E2.24084
G1 X47.985 Y136.949 E2.24631
G1 X48.166 Y137.168 E2.25179
G1 X48.318 Y137.409 E2.25727
G1 X48.440 Y137.666 E2.26274
G1 X48.527 Y137.937 E2.26821
G1 X48.569 Y138.157 E2.27253
G1 X48.325 Y138.248 F6000.000
G1 F1800.000
G1 X48.342 Y138.507 E2.27752
G1 X48.300 Y138.932 E2.28574
G1 X48.200 Y139.239 E2.29194
G1 X48.093 Y139.467 E2.29679
G1 X47.958 Y139.680 E2.30165
G1 X47.797 Y139.875 E2.30650
G1 X47.613 Y140.047 E2.31135
G1 X47.409 Y140.195 E2.31620
G1 X47.188 Y140.317 E2.32105
G1 X46.954 Y140.410 E2.32590
G1 X46.709 Y140.472 E2.33075
G1 X46.459 Y140.504 E2.33561
G1 X46.207 Y140.504 E2.34045
G1 X45.957 Y140.472 E2.34530
G1 X45.713 Y140.410 E2.35016
G1 X45.478 Y140.317 E2.35501
G1 X45.257 Y140.195 E2.35986
G1 X45.053 Y140.047 E2.36471
G1 X44.870 Y139.875 E2.36956
G1 X44.709 Y139.680 E2.37441
G1 X44.574 Y139.467 E2.37926
G1 X44.466 Y139.239 E2.38411
G1 X44.388 Y138.999 E2.38897
G1 X44.341 Y138.752 E2.39382
G1 X44.325 Y138.500 E2.39867
G1 X44.341 Y138.248 E2.40352
G1 X44.388 Y138.001 E2.40837
G1 X44.466 Y137.761 E2.41322
G1 X44.574 Y137.533 E2.41807
G1 X44.709 Y137.320 E2.42292
G1 X44.870 Y137.125 E2.42778
G1 X45.053 Y136.953 E2.43263
G1 X45.257 Y136.805 E2.43748
G1 X45.478 Y136.683 E2.44233
G1 X45.713 Y136.590 E2.44718
G1 X45.957 Y136.528 E2.45203
G1 X46.207 Y136.496 E2.45688
G1 X46.459 Y136.496 E2.46173
G1 X46.709 Y136.528 E2.46658
G1 X46.954 Y136.590 E2.47144
G1 X47.188 Y136.683 E2.47629
G1 X47.409 Y136.805 E2.48114
G1 X47.613 Y136.953 E2.48599
G1 X47.797 Y137.125 E2.49084
G1 X47.958 Y137.320 E2.49569
G1 X48.093 Y137.533 E2.50054
G1 X48.200 Y137.761 E2.50539
G1 X48.278 Y138.001 E2.51024
G1 X48.314 Y138.189 E2.51394
G1 X48.070 Y138.281 F6000.000
G1 F1800.000
G1 X48.084 Y138.503 E2.51822
G1 X48.047 Y138.879 E2.52550
G1 X47.961 Y139.144 E2.53086
G1 X47.867 Y139.343 E2.53509
G1 X47.749 Y139.529 E2.53932
G1 X47.609 Y139.698 E2.54355
G1 X47.449 Y139.849 E2.54778
G1 X47.271 Y139.978 E2.55200
G1 X47.078 Y140.084 E2.55623
G1 X46.874 Y140.165 E2.56046
G1 X46.661 Y140.219 E2.56469
G1 X46.443 Y140.247 E2.56892
G1 X46.223 Y140.247 E2.57315
G1 X46.005 Y140.219 E2.57738
G1 X45.792 Y140.165 E2.58161
G1 X45.588 Y140.084 E2.58583
G1 X45.395 Y139.978 E2.59006
G1 X45.218 Y139.849 E2.59429
G1 X45.057 Y139.698 E2.59852
G1 X44.917 Y139.529 E2.60275
G1 X44.799 Y139.343 E2.60698
G1 X44.706 Y139.144 E2.61121
G1 X44.638 Y138.935 E2.61544
G1 X44.597 Y138.719 E2.61967
G1 X44.583 Y138.500 E2.62389
G1 X44.597 Y138.281 E2.62812
G1 X44.638 Y138.065 E2.63235
G1 X44.706 Y137.856 E2.63658
G1 X44.799 Y137.657 E2.64081
G1 X44.917 Y137.471 E2.64504
G1 X45.057 Y137.302 E2.64927
G1 X45.218 Y137.151 E2.65349
G1 X45.395 Y137.022 E2.65772
G1 X45.588 Y136.916 E2.66195
G1 X45.792 Y136.835 E2.66618
G1 X46.005 Y136.781 E2.67041
G1 X46.223 Y136.753 E2.67464
G1 X46.443 Y136.753 E2.67887
G1 X46.661 Y136.781 E2.68310
G1 X46.874 Y136.835 E2.68732
G1 X47.078 Y136.916 E2.69155
G1 X47.271 Y137.022 E2.69578
G1 X47.449 Y137.151 E2.70001
G1 X47.609 Y137.302 E2.70424
G1 X47.749 Y137.471 E2.70847
G1 X47.867 Y137.657 E2.71270
G1 X47.961 Y137.856 E2.71693
G1 X48.058 Y138.222 E2.72421
G1 X48.275 Y138.367 F6000.000
G1 E0.72421 F1200.00000
G92 E0
G1 X38.599 Y138.512 F6000.000
G1 E2.00000 F1200.00000
G1 F1800.000
G1 X38.553 Y138.985 E2.00916
G1 X38.440 Y139.334 E2.01621
G1 X38.318 Y139.591 E2.02168
G1 X38.166 Y139.832 E2.02716
G1 X37.985 Y140.051 E2.03264
G1 X37.777 Y140.246 E2.03811
G1 X37.547 Y140.413 E2.04358
G1 X37.298 Y140.550 E2.04905
G1 X37.033 Y140.655 E2.05452
G1 X36.758 Y140.725 E2.06000
G1 X36.475 Y140.761 E2.06548
G1 X36.191 Y140.761 E2.07094
G1 X35.909 Y140.725 E2.07642
G1 X35.633 Y140.655 E2.08189
G1 X35.369 Y140.550 E2.08737
G1 X35.119 Y140.413 E2.09284
G1 X34.889 Y140.246 E2.09831
G1 X34.682 Y140.051 E2.10378
G1 X34.500 Y139.832 E2.10926
G1 X34.348 Y139.591 E2.11473
G1 X34.227 Y139.334 E2.12020
G1 X34.139 Y139.063 E2.12568
G1 X34.086 Y138.784 E2.13116
G1 X34.068 Y138.500 E2.13663
G1 X34.086 Y138.216 E2.14210
G1 X34.139 Y137.937 E2.14757
G1 X34.227 Y137.666 E2.15305
G1 X34.348 Y137.409 E2.15852
G1 X34.500 Y137.168 E2.16399
G1 X34.682 Y136.949 E2.16947
G1 X34.889 Y136.754 E2.17494
G1 X35.119 Y136.587 E2.18041
G1 X35.369 Y136.450 E2.18589
G1 X35.633 Y136.345 E2.19136
G1 X35.909 Y136.275 E2.19684
G1 X36.191 Y136.239 E2.20231
G1 X36.475 Y136.239 E2.20778
G1 X36.758 Y136.275 E2.21325
G1 X37.033 Y136.345 E2.21873
G1 X37.298 Y136.450 E2.22420
G1 X37.547 Y136.587 E2.22967
G1 X37.777 Y136.754 E2.23515
G1 X37.985 Y136.949 E2.24062
G1 X38.166 Y137.168 E2.24609
G1 X38.318 Y137.409 E2.25157
G1 X38.440 Y137.666 E2.25704
G1 X38.527 Y137.937 E2.26252
G1 X38.581 Y138.216 E2.26799
G1 X38.596 Y138.452 E2.27253
G1 X38.342 Y138.507 F6000.000
G1 F1800.000
G1 X38.300 Y138.932 E2.28075
G1 X38.200 Y139.239 E2.28696
G1 X38.093 Y139.467 E2.29181
G1 X37.958 Y139.680 E2.29666
G1 X37.797 Y139.875 E2.30151
G1 X37.613 Y140.047 E2.30636
G1 X37.409 Y140.195 E2.31121
G1 X37.188 Y140.317 E2.31606
G1 X36.954 Y140.410 E2.32091
G1 X36.709 Y140.472 E2.32577
G1 X36.459 Y140.504 E2.33062
G1 X36.207 Y140.504 E2.33547
G1 X35.957 Y140.472 E2.34032
G1 X35.713 Y140.410 E2.34517
G1 X35.478 Y140.317 E2.35002
G1 X35.257 Y140.195 E2.35487
G1 X35.053 Y140.047 E2.35972
G1 X34.870 Y139.875 E2.36457
G1 X34.709 Y139.680 E2.36943
G1 X34.574 Y139.467 E2.37428
G1 X34.466 Y139.239 E2.37913
G1 X34.388 Y138.999 E2.38398
G1 X34.341 Y138.752 E2.38883
G1 X34.325 Y138.500 E2.39368
G1 X34.341 Y138.248 E2.39853
G1 X34.388 Y138.001 E2.40338
G1 X34.466 Y137.761 E2.40823
G1 X34.574 Y137.533 E2.41308
G1 X34.709 Y137.320 E2.41793
G1 X34.870 Y137.125 E2.42279
G1 X35.053 Y136.953 E2.42764
G1 X35.257 Y136.805 E2.43249
G1 X35.478 Y136.683 E2.43734
G1 X35.713 Y136.590 E2.44219
G1 X35.957 Y136.528 E2.44704
G1 X36.207 Y136.496 E2.45189
G1 X36.459 Y136.496 E2.45674
G1 X36.709 Y136.528 E2.46159
G1 X36.954 Y136.590 E2.46645
G1 X37.188 Y136.683 E2.47130
G1 X37.409 Y136.805 E2.47615
G1 X37.613 Y136.953 E2.48100
G1 X37.797 Y137.125 E2.48585
G1 X37.958 Y137.320 E2.49070
G1 X38.093 Y137.533 E2.49555
G1 X38.200 Y137.761 E2.50040
G1 X38.278 Y138.001 E2.50526
G1 X38.325 Y138.248 E2.51011
G1 X38.338 Y138.447 E2.51394
G1 X38.084 Y138.503 F6000.000
G1 F1800.000
G1 X38.047 Y138.879 E2.52122
G1 X37.961 Y139.144 E2.52658
G1 X37.867 Y139.343 E2.53081
G1 X37.749 Y139.529 E2.53504
G1 X37.609 Y139.698 E2.53927
G1 X37.449 Y139.849 E2.54350
G1 X37.271 Y139.978 E2.54773
G1 X37.078 Y140.084 E2.55195
G1 X36.874 Y140.165 E2.55618
G1 X36.661 Y140.219 E2.56041
G1 X36.443 Y140.247 E2.56464
G1 X36.223 Y140.247 E2.56887
G1 X36.005 Y140.219 E2.57310
G1 X35.792 Y140.165 E2.57733
G1 X35.588 Y140.084 E2.58156
G1 X35.395 Y139.978 E2.58579
G1 X35.218 Y139.849 E2.59001
G1 X35.057 Y139.698 E2.59424
G1 X34.917 Y139.529 E2.59847
G1 X34.799 Y139.343 E2.60270
G1 X34.706 Y139.144 E2.60693
G1 X34.638 Y138.935 E2.61116
G1 X34.597 Y138.719 E2.61539
G1 X34.583 Y138.500 E2.61961
G1 X34.597 Y138.281 E2.62384
G1 X34.638 Y138.065 E2.62807
G1 X34.706 Y137.856 E2.63230
G1 X34.799 Y137.657 E2.63653
G1 X34.917 Y137.471 E2.64076
