; generated by Slic3r 1.3.1-dev (Build (Unknown revision)) on 2020-07-24 at 21:14:47

; external perimeters extrusion width = 0.44mm (2.86mm^3/s)
; perimeters extrusion width = 0.56mm (4.14mm^3/s)
; infill extrusion width = 0.50mm (5.48mm^3/s)
; solid infill extrusion width = 0.56mm (3.10mm^3/s)
; top infill extrusion width = 0.45mm (2.44mm^3/s)

M107
G92 E0
;D3D:START:START
T0
M104 S215 T0

G21
G90
M107
T0
G28
G29
M109 T0 S215 T0
G0 F3000
M107
T0
G92 E0
G0 X0 Y149 Z0.1 F3600
G1 Y49 E6.5 F1200
G0 Z1
G92 E0
; Filament gcode

G21 ; set units to millimeters
G90 ; use absolute coordinates
M82 ; use absolute distances for extrusion
G92 E0
G1 Z0.300 F6000.000
G1 E-2.00000 F1200.00000
G92 E0
G1 X65.991 Y60.267 F6000.000
G1 E2.00000 F1200.00000
G1 F1800.000
G1 X68.072 Y58.621 E2.11871
G1 X68.940 Y58.276 E2.16049
G1 X69.715 Y58.015 E2.19707
G1 X71.084 Y57.649 E2.26046
G1 X71.886 Y57.487 E2.29704
G1 X72.991 Y57.326 E2.34700
G1 X74.405 Y57.222 E2.41041
G1 X75.522 Y57.220 E2.46037
G1 X76.638 Y57.288 E2.51037
G1 X77.450 Y57.382 E2.54695
G1 X78.551 Y57.571 E2.59692
G1 X79.928 Y57.909 E2.66030
G1 X80.708 Y58.153 E2.69688
G1 X81.755 Y58.545 E2.74688
G1 X83.043 Y59.135 E2.81027
G1 X83.764 Y59.521 E2.84685
G1 X84.718 Y60.102 E2.89681
G1 X85.873 Y60.923 E2.96020
G1 X86.736 Y61.633 E3.01018
G1 X87.552 Y62.397 E3.06016
G1 X87.991 Y62.854 E3.08853
G1 X89.022 Y64.502 E3.17546
G1 X89.214 Y67.149 E3.29418
G1 X84.792 Y87.954 E4.24559
G1 X84.009 Y89.733 E4.33252
G1 X81.928 Y91.379 E4.45122
G1 X81.060 Y91.724 E4.49300
G1 X80.285 Y91.985 E4.52958
G1 X78.916 Y92.351 E4.59297
G1 X78.114 Y92.513 E4.62955
G1 X77.009 Y92.674 E4.67952
G1 X75.894 Y92.765 E4.72952
G1 X74.478 Y92.780 E4.79289
G1 X73.362 Y92.712 E4.84289
G1 X72.550 Y92.618 E4.87947
G1 X71.449 Y92.429 E4.92944
G1 X70.072 Y92.091 E4.99282
G1 X69.009 Y91.748 E5.04282
G1 X68.245 Y91.455 E5.07940
G1 X67.226 Y90.999 E5.12935
G1 X65.977 Y90.329 E5.19274
G1 X65.032 Y89.732 E5.24274
G1 X64.365 Y89.258 E5.27932
G1 X63.264 Y88.367 E5.34270
G1 X62.662 Y87.813 E5.37928
G1 X62.009 Y87.146 E5.42105
G1 X60.978 Y85.498 E5.50798
G1 X60.786 Y82.851 E5.62670
G1 X65.208 Y62.046 E6.57810
G1 X65.967 Y60.322 E6.66235
G1 X66.350 Y60.428 F6000.000
G1 F1800.000
G1 X68.218 Y58.978 E6.76812
G1 X69.063 Y58.642 E6.80882
G1 X69.838 Y58.381 E6.84540
G1 X71.161 Y58.027 E6.90662
G1 X71.962 Y57.865 E6.94320
G1 X73.044 Y57.708 E6.99208
G1 X74.409 Y57.608 E7.05332
G1 X75.502 Y57.605 E7.10220
G1 X76.594 Y57.671 E7.15112
G1 X77.406 Y57.765 E7.18770
G1 X78.483 Y57.950 E7.23658
G1 X79.812 Y58.277 E7.29780
G1 X80.593 Y58.521 E7.33438
G1 X81.617 Y58.905 E7.38329
G1 X82.861 Y59.475 E7.44452
G1 X83.582 Y59.861 E7.48110
G1 X84.515 Y60.430 E7.52997
G1 X85.631 Y61.222 E7.59120
G1 X86.475 Y61.917 E7.64010
G1 X87.274 Y62.663 E7.68900
G1 X87.713 Y63.121 E7.71737
G1 X88.687 Y64.708 E7.80067
G1 X88.837 Y67.069 E7.90645
G1 X84.415 Y87.874 E8.85785
G1 X83.650 Y89.572 E8.94116
G1 X81.782 Y91.022 E9.04693
G1 X80.937 Y91.358 E9.08762
G1 X80.162 Y91.619 E9.12421
G1 X78.839 Y91.973 E9.18543
G1 X78.038 Y92.135 E9.22201
G1 X76.956 Y92.292 E9.27089
G1 X75.866 Y92.381 E9.31981
G1 X74.498 Y92.395 E9.38101
G1 X73.406 Y92.329 E9.42993
G1 X72.594 Y92.235 E9.46651
G1 X71.517 Y92.050 E9.51539
G1 X70.188 Y91.723 E9.57661
G1 X69.147 Y91.388 E9.62552
G1 X68.383 Y91.095 E9.66210
G1 X67.386 Y90.648 E9.71098
G1 X66.180 Y90.001 E9.77220
G1 X65.485 Y89.570 E9.80878
G1 X64.589 Y88.944 E9.85769
G1 X63.525 Y88.083 E9.91891
G1 X62.923 Y87.529 E9.95549
G1 X62.287 Y86.879 E9.99618
G1 X61.313 Y85.292 E10.07948
G1 X61.163 Y82.931 E10.18526
G1 X65.585 Y62.126 E11.13666
G1 X66.326 Y60.483 E11.21728
G1 E9.21728 F1200.00000
G92 E0
G1 X75.367 Y85.205 F6000.000
G1 E2.00000 F1200.00000
G1 F1800.000
G1 X74.854 Y85.840 E2.03651
G1 X74.169 Y86.284 E2.07301
G1 X73.381 Y86.496 E2.10952
G1 X72.566 Y86.453 E2.14603
G1 X71.804 Y86.160 E2.18254
G1 X71.169 Y85.647 E2.21904
G1 X70.725 Y84.962 E2.25555
G1 X70.514 Y84.174 E2.29206
G1 X70.556 Y83.359 E2.32857
G1 X70.849 Y82.597 E2.36507
G1 X71.362 Y81.963 E2.40158
G1 X72.047 Y81.518 E2.43809
G1 X72.835 Y81.307 E2.47459
G1 X73.650 Y81.349 E2.51110
G1 X74.412 Y81.642 E2.54761
G1 X75.047 Y82.156 E2.58411
G1 X75.491 Y82.840 E2.62062
G1 X75.714 Y83.670 E2.65906
G1 X75.656 Y84.454 E2.69420
G1 X75.389 Y85.149 E2.72754
G1 X75.029 Y85.010 F6000.000
G1 F1800.000
G1 X74.592 Y85.550 E2.75858
G1 X74.010 Y85.928 E2.78962
G1 X73.340 Y86.107 E2.82067
G1 X72.647 Y86.071 E2.85171
G1 X71.999 Y85.822 E2.88275
G1 X71.460 Y85.385 E2.91380
G1 X71.082 Y84.803 E2.94484
G1 X70.902 Y84.133 E2.97588
G1 X70.938 Y83.440 E3.00693
G1 X71.187 Y82.792 E3.03797
G1 X71.624 Y82.253 E3.06901
G1 X72.206 Y81.875 E3.10006
G1 X72.876 Y81.695 E3.13110
G1 X73.569 Y81.731 E3.16214
G1 X74.217 Y81.980 E3.19319
G1 X74.756 Y82.417 E3.22423
G1 X75.134 Y82.999 E3.25527
G1 X75.324 Y83.707 E3.28806
G1 X75.275 Y84.369 E3.31773
G1 X75.051 Y84.954 E3.34579
G1 X74.691 Y84.815 F6000.000
G1 F1800.000
G1 X74.331 Y85.259 E3.37138
G1 X73.851 Y85.571 E3.39695
G1 X73.299 Y85.719 E3.42253
G1 X72.728 Y85.689 E3.44811
G1 X72.194 Y85.484 E3.47369
G1 X71.750 Y85.124 E3.49927
G1 X71.438 Y84.645 E3.52485
G1 X71.290 Y84.092 E3.55043
G1 X71.320 Y83.521 E3.57601
G1 X71.525 Y82.987 E3.60159
G1 X71.885 Y82.543 E3.62717
G1 X72.365 Y82.231 E3.65275
G1 X72.917 Y82.083 E3.67833
G1 X73.488 Y82.113 E3.70391
G1 X74.022 Y82.318 E3.72949
G1 X74.466 Y82.678 E3.75507
G1 X74.778 Y83.158 E3.78064
G1 X74.935 Y83.744 E3.80778
G1 X74.895 Y84.283 E3.83199
G1 X74.712 Y84.759 E3.85478
G1 X74.889 Y85.162 F6000.000
G1 E1.85478 F1200.00000
G92 E0
G1 X75.278 Y77.644 F6000.000
G1 E2.00000 F1200.00000
G1 F1800.000
G1 X74.447 Y77.601 E2.03721
G1 X73.671 Y77.302 E2.07441
G1 X73.024 Y76.779 E2.11162
G1 X72.571 Y76.081 E2.14883
G1 X72.356 Y75.278 E2.18603
G1 X72.399 Y74.447 E2.22324
G1 X72.698 Y73.671 E2.26045
G1 X73.221 Y73.024 E2.29765
G1 X73.919 Y72.571 E2.33486
G1 X74.722 Y72.356 E2.37207
G1 X75.553 Y72.399 E2.40927
G1 X76.329 Y72.698 E2.44648
G1 X76.976 Y73.221 E2.48369
G1 X77.429 Y73.919 E2.52089
G1 X77.644 Y74.722 E2.55810
G1 X77.601 Y75.553 E2.59531
G1 X77.302 Y76.329 E2.63251
G1 X76.779 Y76.976 E2.66972
G1 X76.081 Y77.429 E2.70693
G1 X75.336 Y77.629 E2.74145
G1 X75.237 Y77.256 F6000.000
G1 F1800.000
G1 X74.528 Y77.219 E2.77319
G1 X73.866 Y76.964 E2.80494
G1 X73.314 Y76.518 E2.83668
G1 X72.928 Y75.923 E2.86842
G1 X72.744 Y75.237 E2.90017
G1 X72.781 Y74.528 E2.93191
G1 X73.036 Y73.866 E2.96365
G1 X73.482 Y73.314 E2.99539
G1 X74.077 Y72.928 E3.02714
G1 X74.763 Y72.744 E3.05888
G1 X75.472 Y72.781 E3.09062
G1 X76.134 Y73.036 E3.12237
G1 X76.686 Y73.482 E3.15411
G1 X77.072 Y74.077 E3.18585
G1 X77.256 Y74.763 E3.21759
G1 X77.219 Y75.472 E3.24934
G1 X76.964 Y76.134 E3.28108
G1 X76.518 Y76.686 E3.31282
G1 X75.923 Y77.072 E3.34457
G1 X75.295 Y77.240 E3.37363
G1 X75.196 Y76.868 F6000.000
G1 F1800.000
G1 X74.610 Y76.837 E3.39990
G1 X74.061 Y76.626 E3.42618
G1 X73.605 Y76.257 E3.45246
G1 X73.285 Y75.764 E3.47874
G1 X73.132 Y75.196 E3.50502
G1 X73.163 Y74.610 E3.53130
G1 X73.374 Y74.061 E3.55758
G1 X73.743 Y73.605 E3.58386
G1 X74.236 Y73.285 E3.61014
G1 X74.804 Y73.132 E3.63642
G1 X75.390 Y73.163 E3.66270
G1 X75.939 Y73.374 E3.68897
G1 X76.395 Y73.743 E3.71525
G1 X76.715 Y74.236 E3.74153
G1 X76.868 Y74.804 E3.76781
G1 X76.837 Y75.390 E3.79409
G1 X76.626 Y75.939 E3.82037
G1 X76.257 Y76.395 E3.84665
G1 X75.764 Y76.715 E3.87293
G1 X75.254 Y76.852 E3.89652
G1 X75.034 Y77.233 F6000.000
G1 E1.89652 F1200.00000
G92 E0
G1 X76.350 Y68.651 F6000.000
G1 E2.00000 F1200.00000
G1 F1800.000
G1 X75.588 Y68.358 E2.03651
G1 X74.953 Y67.844 E2.07301
G1 X74.509 Y67.160 E2.10952
G1 X74.298 Y66.372 E2.14603
G1 X74.340 Y65.556 E2.18254
G1 X74.633 Y64.795 E2.21904
G1 X75.146 Y64.160 E2.25555
G1 X75.831 Y63.716 E2.29206
G1 X76.619 Y63.504 E2.32856
G1 X77.434 Y63.547 E2.36507
G1 X78.196 Y63.840 E2.40158
G1 X78.831 Y64.353 E2.43809
G1 X79.275 Y65.038 E2.47459
G1 X79.486 Y65.826 E2.51110
G1 X79.444 Y66.641 E2.54761
G1 X79.151 Y67.403 E2.58411
G1 X78.638 Y68.037 E2.62062
G1 X77.953 Y68.482 E2.65713
G1 X77.165 Y68.693 E2.69363
G1 X76.410 Y68.654 E2.72746
G1 X76.431 Y68.269 F6000.000
G1 F1800.000
G1 X75.783 Y68.020 E2.75850
G1 X75.244 Y67.583 E2.78954
G1 X74.866 Y67.001 E2.82059
G1 X74.686 Y66.331 E2.85163
G1 X74.722 Y65.638 E2.88267
G1 X74.971 Y64.990 E2.91372
G1 X75.408 Y64.450 E2.94476
G1 X75.990 Y64.072 E2.97580
G1 X76.660 Y63.893 E3.00685
G1 X77.353 Y63.929 E3.03789
G1 X78.001 Y64.178 E3.06893
G1 X78.540 Y64.615 E3.09998
G1 X78.918 Y65.197 E3.13102
G1 X79.098 Y65.867 E3.16206
G1 X79.062 Y66.560 E3.19311
G1 X78.813 Y67.208 E3.22415
G1 X78.376 Y67.747 E3.25519
G1 X77.794 Y68.125 E3.28624
G1 X77.124 Y68.305 E3.31728
G1 X76.491 Y68.272 E3.34564
G1 X76.512 Y67.887 F6000.000
G1 F1800.000
G1 X75.978 Y67.682 E3.37122
G1 X75.534 Y67.322 E3.39680
G1 X75.222 Y66.842 E3.42238
G1 X75.074 Y66.290 E3.44796
G1 X75.104 Y65.719 E3.47354
G1 X75.309 Y65.185 E3.49911
G1 X75.669 Y64.741 E3.52470
G1 X76.149 Y64.429 E3.55027
G1 X76.701 Y64.281 E3.57585
G1 X77.272 Y64.311 E3.60143
G1 X77.806 Y64.516 E3.62701
G1 X78.250 Y64.876 E3.65259
G1 X78.562 Y65.355 E3.67817
G1 X78.710 Y65.908 E3.70375
G1 X78.680 Y66.479 E3.72933
G1 X78.475 Y67.013 E3.75491
G1 X78.115 Y67.457 E3.78049
G1 X77.635 Y67.769 E3.80607
G1 X77.083 Y67.917 E3.83165
G1 X76.572 Y67.890 E3.85454
G1 X76.244 Y68.184 F6000.000
G1 E1.85454 F1200.00000
G92 E0
G1 X83.463 Y66.466 F6000.000
G1 E2.00000 F1200.00000
G1 F1800.000
G1 X79.260 Y86.239 E2.90422
G1 X78.475 Y86.508 E2.94137
G1 X77.745 Y86.704 E2.97514
G1 X77.005 Y86.853 E3.00893
G1 X76.257 Y86.956 E3.04271
G1 X75.503 Y87.011 E3.07648
G1 X74.748 Y87.019 E3.11027
G1 X73.994 Y86.979 E3.14405
G1 X73.244 Y86.892 E3.17783
G1 X72.501 Y86.759 E3.21161
G1 X71.767 Y86.578 E3.24539
G1 X71.047 Y86.353 E3.27917
G1 X70.342 Y86.082 E3.31295
G1 X69.655 Y85.768 E3.34672
G1 X68.989 Y85.411 E3.38051
G1 X68.347 Y85.013 E3.41429
G1 X67.732 Y84.575 E3.44806
G1 X67.145 Y84.100 E3.48184
G1 X66.589 Y83.589 E3.51562
G1 X66.537 Y83.534 E3.51900
G1 X70.740 Y63.761 E4.42322
G1 X71.525 Y63.492 E4.46037
G1 X72.255 Y63.296 E4.49414
G1 X72.995 Y63.147 E4.52793
G1 X73.743 Y63.044 E4.56171
G1 X74.497 Y62.989 E4.59548
G1 X75.252 Y62.981 E4.62927
G1 X76.006 Y63.021 E4.66305
G1 X76.756 Y63.108 E4.69683
G1 X77.499 Y63.241 E4.73061
G1 X78.233 Y63.422 E4.76439
G1 X78.953 Y63.647 E4.79817
G1 X79.658 Y63.918 E4.83195
G1 X80.345 Y64.232 E4.86572
G1 X81.011 Y64.589 E4.89951
G1 X81.653 Y64.987 E4.93329
G1 X82.268 Y65.425 E4.96706
G1 X82.855 Y65.900 E5.00084
G1 X83.422 Y66.422 E5.03531
G1 X83.883 Y66.346 F6000.000
G1 F1800.000
G1 X79.595 Y86.519 E5.95780
G1 X79.325 Y86.629 E5.97085
G1 X78.586 Y86.878 E6.00571
G1 X77.833 Y87.079 E6.04057
G1 X77.069 Y87.233 E6.07544
G1 X76.297 Y87.339 E6.11030
G1 X75.520 Y87.396 E6.14517
G1 X74.740 Y87.404 E6.18003
G1 X73.962 Y87.364 E6.21490
G1 X73.188 Y87.274 E6.24976
G1 X72.420 Y87.136 E6.28462
G1 X71.663 Y86.950 E6.31949
G1 X70.920 Y86.717 E6.35435
G1 X70.192 Y86.438 E6.38922
G1 X69.483 Y86.113 E6.42408
G1 X68.796 Y85.745 E6.45894
G1 X68.134 Y85.334 E6.49381
G1 X67.499 Y84.883 E6.52867
G1 X66.893 Y84.392 E6.56354
G1 X66.319 Y83.865 E6.59840
G1 X66.117 Y83.654 E6.61145
G1 X70.405 Y63.481 E7.53393
G1 X70.675 Y63.371 E7.54698
G1 X71.414 Y63.122 E7.58185
G1 X72.167 Y62.921 E7.61671
G1 X72.931 Y62.767 E7.65158
G1 X73.703 Y62.661 E7.68644
G1 X74.480 Y62.604 E7.72130
G1 X75.260 Y62.596 E7.75617
G1 X76.038 Y62.636 E7.79103
G1 X76.812 Y62.726 E7.82589
G1 X77.580 Y62.864 E7.86076
G1 X78.337 Y63.050 E7.89562
G1 X79.080 Y63.283 E7.93049
G1 X79.808 Y63.562 E7.96535
G1 X80.517 Y63.887 E8.00021
G1 X81.204 Y64.255 E8.03508
G1 X81.866 Y64.666 E8.06994
G1 X82.501 Y65.117 E8.10481
G1 X83.107 Y65.608 E8.13967
G1 X83.841 Y66.303 E8.18489
G1 E6.18489 F1200.00000
G92 E0
G1 X70.070 Y63.201 F6000.000
G1 E2.00000 F1200.00000
G1 F1800.000
G1 X70.541 Y63.009 E2.02272
G1 X71.302 Y62.753 E2.05867
G1 X72.079 Y62.545 E2.09462
G1 X72.867 Y62.386 E2.13057
G1 X73.663 Y62.277 E2.16652
G1 X74.464 Y62.218 E2.20246
G1 X75.268 Y62.210 E2.23841
G1 X76.070 Y62.252 E2.27436
G1 X76.869 Y62.344 E2.31031
G1 X77.660 Y62.487 E2.34626
G1 X78.440 Y62.678 E2.38221
G1 X79.207 Y62.919 E2.41815
G1 X79.957 Y63.207 E2.45410
G1 X80.688 Y63.541 E2.49005
G1 X81.396 Y63.921 E2.52600
G1 X82.080 Y64.344 E2.56195
G1 X82.735 Y64.810 E2.59789
G1 X83.359 Y65.316 E2.63384
G1 X83.951 Y65.860 E2.66979
G1 X84.302 Y66.226 E2.69252
G1 X79.930 Y86.799 E3.63326
G1 X79.459 Y86.991 E3.65599
G1 X78.698 Y87.247 E3.69194
G1 X77.921 Y87.455 E3.72788
G1 X77.133 Y87.614 E3.76383
G1 X76.337 Y87.723 E3.79978
G1 X75.536 Y87.782 E3.83573
G1 X74.732 Y87.790 E3.87168
G1 X73.930 Y87.748 E3.90763
G1 X73.131 Y87.656 E3.94357
G1 X72.340 Y87.513 E3.97952
G1 X71.560 Y87.322 E4.01547
G1 X70.793 Y87.081 E4.05142
G1 X70.043 Y86.793 E4.08737
G1 X69.312 Y86.459 E4.12331
G1 X68.604 Y86.079 E4.15926
G1 X67.920 Y85.656 E4.19521
G1 X67.265 Y85.190 E4.23116
G1 X66.641 Y84.684 E4.26711
G1 X66.049 Y84.140 E4.30305
G1 X65.698 Y83.774 E4.32578
G1 X70.058 Y63.260 E5.26384
G1 X70.449 Y63.330 F6000.000
G1 X70.745 Y64.382 F6000.000
G1 F1800.000
G1 X71.399 Y63.728 E5.30566
G1 X72.210 Y63.468 E5.34411
G1 X70.596 Y65.082 E5.44723
G1 X70.447 Y65.782 E5.47955
G1 X72.938 Y63.291 E5.63870
G1 X73.610 Y63.170 E5.66955
G1 X70.298 Y66.481 E5.88114
G1 X70.150 Y67.181 E5.91346
G1 X74.239 Y63.092 E6.17474
G1 X74.833 Y63.048 E6.20167
G1 X70.001 Y67.880 E6.51044
G1 X69.852 Y68.580 E6.54275
G1 X75.390 Y63.042 E6.89662
G1 X75.435 Y63.041 E6.89863
G1 X75.315 Y63.271 E6.91032
G1 X75.362 Y63.293 E6.91266
G1 X75.313 Y63.394 E6.91769
G1 X75.387 Y63.429 E6.92140
G1 X75.212 Y63.543 E6.93082
G1 X74.622 Y64.272 E6.97322
G1 X74.567 Y64.416 E6.98019
G1 X69.703 Y69.279 E7.29093
G1 X69.555 Y69.979 E7.32325
G1 X74.280 Y65.254 E7.62519
G1 X74.250 Y65.835 E7.65149
G1 X69.406 Y70.678 E7.96098
G1 X69.257 Y71.378 E7.99329
G1 X74.303 Y66.333 E8.31569
G1 X74.419 Y66.767 E8.33601
G1 X69.109 Y72.078 E8.67534
G1 X68.960 Y72.777 E8.70765
G1 X74.584 Y67.153 E9.06703
G1 X74.801 Y67.487 E9.08502
G1 X68.811 Y73.477 E9.46775
G1 X68.663 Y74.176 E9.50006
G1 X75.029 Y67.810 E9.90687
G1 X75.333 Y68.056 E9.92456
G1 X68.514 Y74.876 E10.36032
G1 X68.365 Y75.575 E10.39263
G1 X75.638 Y68.303 E10.85733
G1 X75.720 Y68.369 E10.86209
G1 X76.011 Y68.481 E10.87617
G1 X68.216 Y76.275 E11.37421
G1 X68.068 Y76.974 E11.40652
G1 X76.409 Y68.633 E11.93949
G1 X76.596 Y68.705 E11.94853
G1 X76.873 Y68.720 E11.96109
G1 X67.919 Y77.674 E12.53325
G1 E10.53325 F1200.00000
G92 E0
G1 X71.840 Y74.304 F6000.000
G1 E2.00000 F1200.00000
G1 F1800.000
G1 X72.032 Y73.803 E2.02428
G1 X72.633 Y73.061 E2.06738
G1 X73.433 Y72.542 E2.11048
G1 X73.664 Y72.480 E2.12132
G1 X77.397 Y68.747 E2.35982
G1 X77.533 Y68.754 E2.36596
G1 X78.090 Y68.605 E2.39203
G1 X74.398 Y72.297 E2.62794
G1 E0.62794 F1200.00000
G92 E0
G1 X72.494 Y73.650 F6000.000
G1 E2.00000 F1200.00000
G1 F1800.000
G1 X67.770 Y78.374 E2.30183
G1 X67.622 Y79.073 E2.33414
G1 X72.328 Y74.367 E2.63483
G1 X72.297 Y74.949 E2.66113
G1 X67.473 Y79.773 E2.96938
G1 X67.324 Y80.472 E3.00169
G1 X72.403 Y75.394 E3.32618
G1 X72.519 Y75.828 E3.34650
G1 X67.176 Y81.172 E3.68793
G1 X67.027 Y81.871 E3.72025
G1 X72.716 Y76.182 E4.08379
G1 X72.933 Y76.516 E4.10178
G1 X66.878 Y82.571 E4.48868
G1 X66.730 Y83.270 E4.52099
G1 X73.186 Y76.814 E4.93354
G1 X73.490 Y77.060 E4.95124
G1 X66.731 Y83.820 E5.38315
G1 X67.016 Y84.085 E5.40076
G1 X73.795 Y77.307 E5.83388
G1 X74.190 Y77.462 E5.85308
G1 X67.317 Y84.335 E6.29226
G1 X67.622 Y84.582 E6.30996
G1 X74.588 Y77.615 E6.75513
G1 X74.693 Y77.655 E6.76020
G1 X75.079 Y77.675 E6.77765
G1 X67.943 Y84.812 E7.23364
G1 X68.266 Y85.039 E7.25151
G1 X69.939 Y83.366 E7.35837
G1 X70.184 Y82.729 E7.38923
G1 X70.774 Y82.000 E7.43163
G1 X71.561 Y81.489 E7.47402
G1 X71.910 Y81.395 E7.49036
G1 X75.602 Y77.703 E7.72627
G1 X75.646 Y77.705 E7.72825
G1 X76.336 Y77.520 E7.76051
G1 X72.603 Y81.253 E7.99901
G1 X73.127 Y81.280 E8.02269
G1 X82.081 Y72.326 E8.59484
G1 X81.932 Y73.026 E8.62716
G1 X73.591 Y81.367 E9.16012
G1 X73.989 Y81.519 E9.17938
G1 X81.783 Y73.725 E9.67741
G1 X81.635 Y74.425 E9.70972
