; generated by Slic3r 1.3.0 on 2021-03-06 at 11:10:06

; external perimeters extrusion width = 0.44mm (2.86mm^3/s)
; perimeters extrusion width = 0.56mm (4.14mm^3/s)
; infill extrusion width = 0.50mm (3.66mm^3/s)
; solid infill extrusion width = 0.56mm (3.10mm^3/s)
; top infill extrusion width = 0.45mm (2.44mm^3/s)

M107
;D3D:START:START
T0
M104 S215 T0

G21
G90
M107
T0
G28
G29
M109 T0 S215 T0
G0 F3000
M107
T0
G92 E0
G0 X0 Y149 Z0.1 F3600
G1 Y49 E6.5 F1200
G0 Z1
G92 E0
; Filament gcode

G21 ; set units to millimeters
G90 ; use absolute coordinates
M82 ; use absolute distances for extrusion
G92 E0
G1 Z0.300 F6000.000
G1 E-2.00000 F1200.00000
G92 E0
G1 Z0.800 F6000.000
G1 X42.260 Y38.899 F6000.000
G1 Z0.300 F6000.000
G1 E2.00000 F1200.00000
G1 F1800
G1 X44.047 Y37.369 E2.10520
G1 X54.547 Y31.169 E2.65063
G1 X56.716 Y30.350 E2.75435
G1 X57.990 Y30.229 E2.81158
G1 X72.490 Y30.229 E3.46016
G1 X74.774 Y30.626 E3.56388
G1 X76.297 Y31.401 E3.64030
G1 X76.960 Y31.886 E3.67706
G1 X77.563 Y32.441 E3.71371
G1 X77.816 Y32.716 E3.73041
G1 X78.151 Y33.125 E3.75407
G1 X78.614 Y33.806 E3.79093
G1 X97.650 Y67.554 E5.52405
G1 X97.881 Y68.003 E5.54661
G1 X98.078 Y68.465 E5.56910
G1 X98.839 Y70.774 E5.67782
G1 X99.006 Y71.379 E5.70592
G1 X99.142 Y72.198 E5.74305
G1 X99.366 Y74.332 E5.83903
G1 X99.397 Y75.014 E5.86954
G1 X99.366 Y75.668 E5.89884
G1 X99.142 Y77.802 E5.99482
G1 X99.006 Y78.621 E6.03194
G1 X98.878 Y79.103 E6.05426
G1 X98.201 Y81.190 E6.15239
G1 X98.078 Y81.535 E6.16878
G1 X97.881 Y81.998 E6.19128
G1 X97.650 Y82.446 E6.21383
G1 X78.739 Y115.979 E7.93582
G1 X78.501 Y116.375 E7.95653
G1 X78.151 Y116.875 E7.98381
G1 X77.681 Y117.434 E8.01645
G1 X77.126 Y117.973 E8.05107
G1 X76.577 Y118.407 E8.08236
G1 X76.297 Y118.599 E8.09758
G1 X74.185 Y119.556 E8.20130
G1 X72.490 Y119.771 E8.27772
G1 X57.990 Y119.771 E8.92631
G1 X55.705 Y119.374 E9.03003
G1 X54.547 Y118.831 E9.08726
G1 X44.047 Y112.631 E9.63269
G1 X42.281 Y111.127 E9.73641
G1 X41.127 Y109.116 E9.84013
G1 X40.718 Y106.800 E9.94533
G1 X40.718 Y43.200 E12.79015
G1 X41.116 Y40.915 E12.89387
G1 X42.230 Y38.951 E12.99490
G1 X42.642 Y39.043 F6000.000
G1 F1800
G1 X44.243 Y37.701 E13.08833
G1 X54.743 Y31.501 E13.63376
G1 X56.853 Y30.716 E13.73446
G1 X57.990 Y30.614 E13.78552
G1 X72.490 Y30.614 E14.43410
G1 X74.706 Y31.011 E14.53480
G1 X76.080 Y31.719 E14.60396
G1 X76.716 Y32.184 E14.63917
G1 X77.020 Y32.450 E14.65727
G1 X77.398 Y32.827 E14.68112
G1 X77.639 Y33.102 E14.69750
G1 X77.949 Y33.501 E14.72009
G1 X78.381 Y34.172 E14.75578
G1 X97.314 Y67.744 E16.47978
G1 X97.532 Y68.167 E16.50108
G1 X97.718 Y68.603 E16.52229
G1 X98.472 Y70.893 E16.63011
G1 X98.630 Y71.465 E16.65668
G1 X98.759 Y72.238 E16.69173
G1 X98.982 Y74.369 E16.78754
G1 X99.011 Y75.014 E16.81641
G1 X98.982 Y75.631 E16.84408
G1 X98.759 Y77.762 E16.93989
G1 X98.630 Y78.535 E16.97494
G1 X98.509 Y78.991 E16.99605
G1 X97.834 Y81.070 E17.09384
G1 X97.532 Y81.833 E17.13054
G1 X97.314 Y82.256 E17.15183
G1 X78.177 Y116.166 E18.89349
G1 X77.843 Y116.642 E18.91946
G1 X77.398 Y117.172 E18.95044
G1 X76.873 Y117.682 E18.98319
G1 X76.354 Y118.093 E19.01279
G1 X76.080 Y118.281 E19.02764
G1 X74.024 Y119.198 E19.12834
G1 X72.490 Y119.386 E19.19750
G1 X57.990 Y119.386 E19.84609
G1 X55.774 Y118.989 E19.94679
G1 X54.743 Y118.499 E19.99784
G1 X44.243 Y112.299 E20.54327
G1 X42.536 Y110.830 E20.64397
G1 X41.446 Y108.861 E20.74467
G1 X41.104 Y106.800 E20.83810
G1 X41.104 Y43.200 E23.68292
G1 X41.501 Y40.984 E23.78362
G1 X42.612 Y39.095 E23.88164
G1 E21.88164 F1200.00000
G92 E0
G1 Z0.800 F6000.000
G1 X72.575 Y111.096 F6000.000
G1 Z0.300 F6000.000
G1 E2.00000 F1200.00000
G1 F1800
G1 X72.064 Y112.004 E2.04660
G1 X58.986 Y112.004 E2.63156
G1 X58.986 Y111.096 E2.67216
G1 X72.515 Y111.096 E3.27733
G1 X73.236 Y110.711 F6000.000
G1 F1800
G1 X72.279 Y112.389 E3.36376
G1 X58.600 Y112.389 E3.97559
G1 X58.600 Y110.711 E4.05068
G1 X73.176 Y110.711 E4.70263
G1 E2.70263 F1200.00000
G92 E0
G1 Z0.800 F6000.000
G1 X73.486 Y105.804 F6000.000
G1 Z0.300 F6000.000
G1 E2.00000 F1200.00000
G1 F1800
G1 X48.486 Y105.804 E3.11825
G1 X48.486 Y103.996 E3.19910
G1 X76.058 Y103.996 E4.43237
G1 X81.524 Y94.762 E4.91236
G1 X81.722 Y94.877 E4.92260
G1 X73.659 Y109.175 E5.65687
G1 X73.486 Y109.130 E5.66485
G1 X73.486 Y105.864 E5.81095
G1 E3.81095 F1200.00000
G92 E0
G1 Z0.800 F6000.000
G1 X73.486 Y44.196 F6000.000
G1 Z0.300 F6000.000
G1 E2.00000 F1200.00000
G1 F1800
G1 X73.486 Y40.870 E2.14879
G1 X73.659 Y40.825 E2.15677
G1 X81.722 Y55.123 E2.89104
G1 X81.524 Y55.238 E2.90128
G1 X76.058 Y46.004 E3.38127
G1 X48.486 Y46.004 E4.61455
G1 X48.486 Y44.196 E4.69540
G1 X73.426 Y44.196 E5.81096
G1 X73.100 Y43.811 F6000.000
G1 F1800
G1 X73.100 Y39.401 E6.00820
G1 X73.273 Y39.356 E6.01618
G1 X91.190 Y71.127 E7.64772
G1 X91.805 Y73.019 E7.73672
G1 X92.010 Y74.958 E7.82393
G1 X91.805 Y76.982 E7.91489
G1 X91.190 Y78.873 E8.00383
G1 X73.273 Y110.644 E9.63537
G1 X73.100 Y110.599 E9.64335
G1 X73.100 Y106.189 E9.84060
G1 X48.100 Y106.189 E10.95884
G1 X48.100 Y103.611 E11.07419
G1 X75.838 Y103.611 E12.31488
G1 X90.347 Y79.100 E13.58894
G1 X91.097 Y77.122 E13.68357
G1 X91.355 Y75.000 E13.77916
G1 X91.097 Y72.878 E13.87476
G1 X90.347 Y70.900 E13.96939
G1 X75.838 Y46.389 E15.24344
G1 X48.100 Y46.389 E16.48414
G1 X48.100 Y43.811 E16.59948
G1 X73.040 Y43.811 E17.71505
G1 E15.71505 F1200.00000
G92 E0
G1 Z0.800 F6000.000
G1 X72.575 Y38.904 F6000.000
G1 Z0.300 F6000.000
G1 E2.00000 F1200.00000
G1 F1800
G1 X58.986 Y38.904 E2.60785
G1 X58.986 Y37.996 E2.64845
G1 X72.064 Y37.996 E3.23341
G1 X72.546 Y38.852 E3.27733
G1 X73.236 Y39.289 F6000.000
G1 F1800
G1 X58.600 Y39.289 E3.93196
G1 X58.600 Y37.611 E4.00705
G1 X72.282 Y37.611 E4.61905
G1 X73.206 Y39.237 E4.70271
G1 X72.715 Y39.675 F6000.000
G1 F1800
G1 X58.215 Y39.675 E5.35130
G1 X58.215 Y37.225 E5.46088
G1 X72.420 Y37.225 E6.09631
G1 X72.569 Y37.346 E6.10490
G1 X91.545 Y70.971 E7.83190
G1 X92.184 Y72.939 E7.92444
G1 X92.397 Y74.958 E8.01524
G1 X92.184 Y77.062 E8.10984
G1 X91.545 Y79.029 E8.20235
G1 X72.651 Y112.531 E9.92279
G1 X72.545 Y112.679 E9.93094
G1 X72.416 Y112.775 E9.93814
G1 X58.215 Y112.775 E10.57335
G1 X58.215 Y110.325 E10.68293
G1 X72.715 Y110.325 E11.33152
G1 X72.715 Y106.575 E11.49925
G1 X47.715 Y106.575 E12.61750
G1 X47.715 Y103.225 E12.76734
G1 X75.618 Y103.225 E14.01545
G1 X89.998 Y78.932 E15.27818
G1 X90.720 Y77.029 E15.36924
G1 X90.966 Y75.000 E15.46064
G1 X90.720 Y72.971 E15.55205
G1 X89.998 Y71.068 E15.64310
G1 X75.618 Y46.775 E16.90583
G1 X47.715 Y46.775 E18.15394
G1 X47.715 Y43.425 E18.30378
G1 X72.715 Y43.425 E19.42203
G1 X72.715 Y39.735 E19.58708
G1 X72.897 Y39.319 F6000.000
G1 X72.098 Y38.450 F6000.000
G1 F1800
G1 X59.179 Y38.450 E20.27272
G1 E18.27272 F1200.00000
G92 E0
G1 Z0.800 F6000.000
G1 X48.558 Y44.895 F6000.000
G1 Z0.300 F6000.000
G1 E2.00000 F1200.00000
G1 F1800
G1 X49.185 Y44.268 E2.03991
G1 X49.734 Y44.268 E2.06461
G1 X48.558 Y45.444 E2.13946
G1 X48.558 Y45.932 E2.16139
G1 X48.619 Y45.932 E2.16415
G1 X50.283 Y44.268 E2.27002
G1 X50.831 Y44.268 E2.29471
G1 X49.168 Y45.932 E2.40058
G1 X49.717 Y45.932 E2.42528
G1 X51.380 Y44.268 E2.53115
G1 X51.929 Y44.268 E2.55584
G1 X50.265 Y45.932 E2.66171
G1 X50.814 Y45.932 E2.68641
G1 X52.477 Y44.268 E2.79228
G1 X53.026 Y44.268 E2.81697
G1 X51.363 Y45.932 E2.92284
G1 X51.911 Y45.932 E2.94754
G1 X53.575 Y44.268 E3.05341
G1 X54.123 Y44.268 E3.07810
G1 X52.460 Y45.932 E3.18397
G1 X53.009 Y45.932 E3.20866
G1 X54.672 Y44.268 E3.31454
G1 X55.221 Y44.268 E3.33923
G1 X53.557 Y45.932 E3.44510
G1 X54.106 Y45.932 E3.46979
G1 X55.770 Y44.268 E3.57566
G1 X56.318 Y44.268 E3.60036
G1 X54.655 Y45.932 E3.70623
G1 X55.203 Y45.932 E3.73092
G1 X56.867 Y44.268 E3.83679
G1 X57.416 Y44.268 E3.86149
G1 X55.752 Y45.932 E3.96736
G1 X56.301 Y45.932 E3.99205
G1 X57.964 Y44.268 E4.09792
G1 X58.513 Y44.268 E4.12261
G1 X56.849 Y45.932 E4.22849
G1 X57.398 Y45.932 E4.25318
G1 X59.062 Y44.268 E4.35905
G1 X59.610 Y44.268 E4.38374
G1 X57.947 Y45.932 E4.48962
G1 X58.496 Y45.932 E4.51431
G1 X60.159 Y44.268 E4.62018
G1 X60.708 Y44.268 E4.64487
G1 X59.044 Y45.932 E4.75074
G1 X59.593 Y45.932 E4.77544
G1 X61.256 Y44.268 E4.88131
G1 X61.805 Y44.268 E4.90600
G1 X60.142 Y45.932 E5.01187
G1 X60.690 Y45.932 E5.03657
G1 X62.354 Y44.268 E5.14244
G1 X62.902 Y44.268 E5.16713
G1 X61.239 Y45.932 E5.27300
G1 X61.788 Y45.932 E5.29769
G1 X63.451 Y44.268 E5.40357
G1 X64.000 Y44.268 E5.42826
G1 X62.336 Y45.932 E5.53413
G1 X62.885 Y45.932 E5.55882
G1 X64.549 Y44.268 E5.66470
G1 X65.097 Y44.268 E5.68939
G1 X63.434 Y45.932 E5.79526
G1 X63.982 Y45.932 E5.81995
G1 X65.646 Y44.268 E5.92582
G1 X66.195 Y44.268 E5.95052
G1 X64.531 Y45.932 E6.05639
G1 X65.080 Y45.932 E6.08108
G1 X66.743 Y44.268 E6.18695
G1 X67.292 Y44.268 E6.21165
G1 X65.628 Y45.932 E6.31752
G1 X66.177 Y45.932 E6.34221
G1 X67.841 Y44.268 E6.44808
G1 X68.389 Y44.268 E6.47278
G1 X66.726 Y45.932 E6.57865
G1 X67.275 Y45.932 E6.60334
G1 X68.938 Y44.268 E6.70921
G1 X69.487 Y44.268 E6.73390
G1 X67.823 Y45.932 E6.83978
G1 X68.372 Y45.932 E6.86447
G1 X70.035 Y44.268 E6.97034
G1 X70.584 Y44.268 E6.99503
G1 X68.921 Y45.932 E7.10090
G1 X69.469 Y45.932 E7.12560
G1 X71.133 Y44.268 E7.23147
G1 X71.681 Y44.268 E7.25616
G1 X70.018 Y45.932 E7.36203
G1 X70.567 Y45.932 E7.38673
G1 X72.230 Y44.268 E7.49260
G1 X72.779 Y44.268 E7.51729
G1 X71.115 Y45.932 E7.62316
G1 X71.664 Y45.932 E7.64786
G1 X73.328 Y44.268 E7.75373
G1 X73.876 Y44.268 E7.77842
G1 X72.213 Y45.932 E7.88429
G1 X72.761 Y45.932 E7.90898
G1 X75.207 Y43.486 E8.06464
G1 X75.405 Y43.837 E8.08277
G1 X73.310 Y45.932 E8.21610
G1 X73.859 Y45.932 E8.24079
G1 X75.603 Y44.188 E8.35179
G1 X75.801 Y44.539 E8.36992
G1 X74.407 Y45.932 E8.45859
G1 X74.956 Y45.932 E8.48328
G1 X75.999 Y44.889 E8.54962
G1 X76.196 Y45.240 E8.56775
G1 X75.569 Y45.868 E8.60768
G1 E6.60768 F1200.00000
G92 E0
G1 Z0.800 F6000.000
G1 X73.558 Y44.586 F6000.000
G1 Z0.300 F6000.000
G1 E2.00000 F1200.00000
G1 F1800
G1 X75.009 Y43.135 E2.09237
G1 X74.811 Y42.784 E2.11050
G1 X73.558 Y44.038 E2.19027
G1 X73.558 Y43.489 E2.21497
G1 X74.614 Y42.433 E2.28215
G1 X74.416 Y42.083 E2.30028
G1 X73.558 Y42.940 E2.35487
G1 X73.558 Y42.392 E2.37957
G1 X74.218 Y41.732 E2.42157
G1 E0.42157 F1200.00000
G92 E0
G1 Z0.800 F6000.000
G1 X76.209 Y45.811 F6000.000
G1 Z0.300 F6000.000
G1 E2.00000 F1200.00000
G1 F1800
G1 X76.618 Y46.519 E2.00051
G1 E0.00051 F1200.00000
G92 E0
G1 Z0.800 F6000.000
G1 X81.719 Y55.348 F6000.000
G1 Z0.300 F6000.000
G1 E2.00000 F1200.00000
G1 F1800
G1 X83.945 Y59.200 E2.27856
G1 F1800
G1 X86.171 Y63.052 E2.50972
G1 F1800
G1 X88.397 Y66.904 E2.69347
G1 F1800
G1 X90.623 Y70.756 E2.82981
G1 F1800
G1 X90.749 Y71.022 E2.83573
G1 F1800
G1 X90.865 Y71.270 E2.84387
G1 X91.400 Y72.789 E2.89173
G1 F1800
G1 X91.438 Y72.954 E2.89530
G1 F1800
G1 X91.468 Y73.091 E2.89913
G1 X91.680 Y74.984 E2.95112
G1 X91.468 Y76.911 E3.00403
G1 X91.408 Y77.183 E3.01164
G1 F1800
G1 X91.132 Y77.971 E3.02917
G1 F1800
G1 X90.865 Y78.730 E3.05310
G1 X90.633 Y79.226 E3.06938
G1 F1800
G1 X89.510 Y81.170 E3.11460
G1 F1800
G1 X87.284 Y85.022 E3.25094
G1 F1800
G1 X85.058 Y88.874 E3.43469
G1 F1800
G1 X82.832 Y92.726 E3.66584
G1 F1800
G1 X81.719 Y94.652 E3.80512
G1 E1.80512 F1200.00000
G92 E0
G1 Z0.800 F6000.000
G1 X76.618 Y103.481 F6000.000
G1 Z0.300 F6000.000
G1 E2.00000 F1200.00000
G1 F1800
G1 X76.209 Y104.189 E2.00051
G1 E0.00051 F1200.00000
G92 E0
G1 Z0.800 F6000.000
G1 X73.558 Y108.326 F6000.000
G1 Z0.300 F6000.000
G1 E2.00000 F1200.00000
G1 F1800
G1 X74.185 Y107.699 E2.04006
G1 X74.897 Y106.436 E2.10553
G1 X73.558 Y107.776 E2.19106
G1 X73.558 Y107.225 E2.21593
G1 X75.609 Y105.174 E2.34694
G1 X76.196 Y104.133 E2.40091
G1 X76.135 Y104.097 E2.40411
G1 X73.558 Y106.674 E2.56870
G1 X73.558 Y106.124 E2.59357
G1 X75.614 Y104.068 E2.72485
G1 X75.063 Y104.068 E2.74971
G1 X73.399 Y105.732 E2.85595
G1 X72.849 Y105.732 E2.88082
G1 X74.512 Y104.068 E2.98706
G1 X73.962 Y104.068 E3.01192
G1 X72.298 Y105.732 E3.11816
G1 X71.748 Y105.732 E3.14302
G1 X73.411 Y104.068 E3.24926
G1 X72.861 Y104.068 E3.27413
G1 X71.197 Y105.732 E3.38036
G1 X70.647 Y105.732 E3.40523
G1 X72.310 Y104.068 E3.51147
G1 X71.759 Y104.068 E3.53633
G1 X70.096 Y105.732 E3.64257
G1 X69.545 Y105.732 E3.66744
G1 X71.209 Y104.068 E3.77367
G1 X70.658 Y104.068 E3.79854
G1 X68.995 Y105.732 E3.90478
G1 X68.444 Y105.732 E3.92964
G1 X70.108 Y104.068 E4.03588
G1 X69.557 Y104.068 E4.06074
G1 X67.894 Y105.732 E4.16698
G1 X67.343 Y105.732 E4.19185
G1 X69.006 Y104.068 E4.29809
G1 X68.456 Y104.068 E4.32295
G1 X66.792 Y105.732 E4.42919
G1 X66.242 Y105.732 E4.45405
G1 X67.905 Y104.068 E4.56029
G1 X67.355 Y104.068 E4.58516
G1 X65.691 Y105.732 E4.69139
G1 X65.141 Y105.732 E4.71626
G1 X66.804 Y104.068 E4.82250
G1 X66.254 Y104.068 E4.84736
G1 X64.590 Y105.732 E4.95360
G1 X64.039 Y105.732 E4.97846
G1 X65.703 Y104.068 E5.08470
G1 X65.152 Y104.068 E5.10957
G1 X63.489 Y105.732 E5.21581
G1 X62.938 Y105.732 E5.24067
G1 X64.602 Y104.068 E5.34691
G1 X64.051 Y104.068 E5.37177
G1 X62.388 Y105.732 E5.47801
G1 X61.837 Y105.732 E5.50288
G1 X63.501 Y104.068 E5.60911
G1 X62.950 Y104.068 E5.63398
G1 X61.287 Y105.732 E5.74022
G1 X60.736 Y105.732 E5.76508
G1 X62.399 Y104.068 E5.87132
G1 X61.849 Y104.068 E5.89618
G1 X60.185 Y105.732 E6.00242
G1 X59.635 Y105.732 E6.02729
G1 X61.298 Y104.068 E6.13353
G1 X60.748 Y104.068 E6.15839
G1 X59.084 Y105.732 E6.26463
G1 X58.534 Y105.732 E6.28949
G1 X60.197 Y104.068 E6.39573
G1 X59.646 Y104.068 E6.42060
G1 X57.983 Y105.732 E6.52684
G1 X57.432 Y105.732 E6.55170
G1 X59.096 Y104.068 E6.65794
G1 X58.545 Y104.068 E6.68280
G1 X56.882 Y105.732 E6.78904
G1 X56.331 Y105.732 E6.81391
G1 X57.995 Y104.068 E6.92014
G1 X57.444 Y104.068 E6.94501
G1 X55.781 Y105.732 E7.05125
G1 X55.230 Y105.732 E7.07611
G1 X56.894 Y104.068 E7.18235
G1 X56.343 Y104.068 E7.20721
G1 X54.679 Y105.732 E7.31345
G1 X54.129 Y105.732 E7.33832
G1 X55.792 Y104.068 E7.44456
G1 X55.242 Y104.068 E7.46942
G1 X53.578 Y105.732 E7.57566
G1 X53.028 Y105.732 E7.60052
G1 X54.691 Y104.068 E7.70676
G1 X54.141 Y104.068 E7.73163
G1 X52.477 Y105.732 E7.83786
G1 X51.927 Y105.732 E7.86273
G1 X53.590 Y104.068 E7.96897
G1 X53.039 Y104.068 E7.99383
G1 X51.376 Y105.732 E8.10007
G1 X50.825 Y105.732 E8.12493
G1 X52.489 Y104.068 E8.23117
G1 X51.938 Y104.068 E8.25604
G1 X50.275 Y105.732 E8.36228
G1 X49.724 Y105.732 E8.38714
G1 X51.388 Y104.068 E8.49338
G1 X50.837 Y104.068 E8.51824
G1 X49.174 Y105.732 E8.62448
G1 X48.623 Y105.732 E8.64935
G1 X50.286 Y104.068 E8.75558
G1 X49.736 Y104.068 E8.78045
G1 X48.558 Y105.246 E8.85568
G1 X48.558 Y104.696 E8.88054
G1 X49.185 Y104.068 E8.92060
G1 E6.92060 F1200.00000
G92 E0
G1 Z0.800 F6000.000
G1 X59.179 Y111.550 F6000.000
G1 Z0.300 F6000.000
G1 E2.00000 F1200.00000
G1 F1800
G1 X72.098 Y111.550 E2.68564
G1 Z0.500 F6000.000
G1 X72.506 Y111.294 F6000.000
G1 F1800
G1 X72.301 Y111.623 E2.70112
G1 X72.192 Y111.758 E2.70806
G1 X72.122 Y111.806 E2.71149
G1 X59.184 Y111.806 E3.22881
G1 X59.184 Y111.294 E3.24927
G1 X72.446 Y111.294 E3.77958
G1 X73.381 Y110.777 F6000.000
G1 F1800
G1 X72.723 Y111.923 E3.83243
G1 X72.504 Y112.171 E3.84567
G1 X72.281 Y112.323 E3.85645
G1 X58.667 Y112.323 E4.40082
G1 X58.667 Y110.777 E4.46264
G1 X73.321 Y110.777 E5.04861
G1 E3.04861 F1200.00000
G92 E0
G1 Z1.000 F6000.000
G1 X73.684 Y105.606 F6000.000
G1 Z0.500 F6000.000
G1 E2.00000 F1200.00000
G1 F2400
G1 X55.338 Y105.606 E2.73356
G1 X55.338 Y104.194 E2.79000
G1 X59.641 Y104.194 E2.96204
G1 X59.641 Y104.694 E2.98204
G1 X65.338 Y104.694 E3.20985
G1 X65.338 Y104.194 E3.22984
G1 X76.500 Y104.194 E3.67615
G1 X73.915 Y108.778 E3.88656
G1 X73.684 Y108.717 E3.89613
G1 X73.684 Y105.666 E4.01813
G1 E2.01813 F1200.00000
G92 E0
G1 Z1.000 F6000.000
G1 X49.641 Y105.606 F6000.000
G1 Z0.500 F6000.000
G1 E2.00000 F1200.00000
G1 F1800
G1 X48.684 Y105.606 E2.03827
G1 X48.684 Y104.194 E2.09472
G1 X49.641 Y104.194 E2.13299
G1 X49.641 Y105.546 E2.18704
G1 E0.18704 F1200.00000
G92 E0
G1 Z1.000 F6000.000
G1 X49.641 Y45.806 F6000.000
G1 Z0.500 F6000.000
G1 E2.00000 F1200.00000
G1 F1800
G1 X48.684 Y45.806 E2.03827
G1 X48.684 Y44.394 E2.09472
G1 X49.641 Y44.394 E2.13299
G1 X49.641 Y45.746 E2.18704
G1 E0.18704 F1200.00000
G92 E0
