; generated by Slic3r 1.3.0 on 2020-12-01 at 17:50:31

; external perimeters extrusion width = 0.44mm (3.57mm^3/s)
; perimeters extrusion width = 0.56mm (5.17mm^3/s)
; infill extrusion width = 0.50mm (5.48mm^3/s)
; solid infill extrusion width = 0.56mm (3.62mm^3/s)
; top infill extrusion width = 0.56mm (2.07mm^3/s)

; external perimeters extrusion width = 0.44mm (2.86mm^3/s)
; perimeters extrusion width = 0.56mm (4.14mm^3/s)
; infill extrusion width = 0.50mm (3.66mm^3/s)
; solid infill extrusion width = 0.56mm (3.10mm^3/s)
; top infill extrusion width = 0.45mm (2.44mm^3/s)

; external perimeters extrusion width = 0.44mm (2.86mm^3/s)
; perimeters extrusion width = 0.56mm (4.14mm^3/s)
; infill extrusion width = 0.50mm (4.57mm^3/s)
; solid infill extrusion width = 0.56mm (3.10mm^3/s)
; top infill extrusion width = 0.45mm (2.44mm^3/s)

M107
;D3D:START:START
T0
M104 S215 T0

G21
G90
M107
T0
G28
G29
M109 T0 S215 T0
G0 F3000
M107
T0
G92 E0
G0 X0 Y149 Z0.1 F3600
G1 Y49 E6.5 F1200
G0 Z1
G92 E0
; Filament gcode

G21 ; set units to millimeters
G90 ; use absolute coordinates
M82 ; use absolute distances for extrusion
G92 E0
G1 E-1.00000 F1200.00000
G92 E0
G1 Z0.200 F6000.000
G1 X43.061 Y57.397 F6000.000
G1 E1.00000 F1200.00000
G1 F1800
G1 X44.524 Y56.379 E1.03505
G1 X46.591 Y55.430 E1.07977
G1 X48.507 Y55.225 E1.11767
G1 X60.808 Y55.755 E1.35982
G1 X79.290 Y56.638 E1.72369
G1 X93.872 Y57.409 E2.01086
G1 X105.635 Y58.084 E2.24259
G1 X107.847 Y58.612 E2.28731
G1 X109.742 Y59.869 E2.33203
G1 X111.090 Y61.700 E2.37675
G1 X111.764 Y64.586 E2.43504
G1 X111.764 Y64.947 E2.44212
G1 X111.367 Y67.186 E2.48685
G1 X110.225 Y69.152 E2.53157
G1 X107.742 Y70.966 E2.59204
G1 X51.824 Y94.114 E3.78223
G1 X50.853 Y94.430 E3.80231
G1 X50.319 Y94.558 E3.81311
G1 X49.309 Y94.718 E3.83322
G1 X48.761 Y94.761 E3.84403
G1 X47.739 Y94.761 E3.86411
G1 X47.191 Y94.718 E3.87493
G1 X46.181 Y94.558 E3.89504
G1 X45.647 Y94.430 E3.90584
G1 X44.673 Y94.113 E3.92598
G1 X44.166 Y93.903 E3.93678
G1 X43.257 Y93.439 E3.95686
G1 X42.788 Y93.152 E3.96766
G1 X41.964 Y92.553 E3.98768
G1 X41.546 Y92.197 E3.99849
G1 X40.823 Y91.474 E4.01860
G1 X40.466 Y91.056 E4.02941
G1 X39.864 Y90.228 E4.04954
G1 X39.577 Y89.760 E4.06034
G1 X39.112 Y88.847 E4.08050
G1 X38.902 Y88.339 E4.09129
G1 X38.586 Y87.367 E4.11140
G1 X38.458 Y86.832 E4.12221
G1 X38.299 Y85.824 E4.14228
G1 X38.256 Y85.277 E4.15308
G1 X38.244 Y84.441 E4.16951
G1 X39.245 Y64.418 E4.56379
G1 X39.259 Y64.157 E4.56893
G1 X39.371 Y63.227 E4.58736
G1 X39.575 Y62.325 E4.60554
G1 X39.792 Y61.655 E4.61939
G1 X40.164 Y60.788 E4.63793
G1 X40.616 Y59.978 E4.65618
G1 X41.168 Y59.193 E4.67505
G1 X41.785 Y58.488 E4.69348
G1 X42.485 Y57.840 E4.71224
G1 X43.013 Y57.433 E4.72535
G1 X43.208 Y57.608 F6000.000
G1 F1800
G1 X44.670 Y56.590 E4.76039
G1 X46.699 Y55.668 E4.80421
G1 X48.496 Y55.482 E4.83974
G1 X60.796 Y56.012 E5.08187
G1 X79.277 Y56.894 E5.44573
G1 X93.858 Y57.666 E5.73287
G1 X105.620 Y58.340 E5.96457
G1 X107.785 Y58.866 E6.00840
G1 X109.629 Y60.117 E6.05222
G1 X110.918 Y61.935 E6.09604
G1 X111.507 Y64.586 E6.14945
G1 X111.507 Y64.947 E6.15654
G1 X111.110 Y67.140 E6.20036
G1 X109.970 Y69.054 E6.24419
G1 X107.643 Y70.728 E6.30056
G1 X51.725 Y93.877 E7.49075
G1 X50.793 Y94.180 E7.51004
G1 X50.259 Y94.308 E7.52084
G1 X49.289 Y94.461 E7.54015
G1 X48.741 Y94.504 E7.55097
G1 X47.760 Y94.505 E7.57026
G1 X47.211 Y94.461 E7.58107
G1 X46.241 Y94.308 E7.60039
G1 X45.707 Y94.180 E7.61119
G1 X44.772 Y93.875 E7.63054
G1 X44.265 Y93.665 E7.64133
G1 X43.391 Y93.220 E7.66062
G1 X42.923 Y92.933 E7.67142
G1 X42.131 Y92.358 E7.69065
G1 X41.713 Y92.001 E7.70146
G1 X41.018 Y91.307 E7.72078
G1 X40.661 Y90.889 E7.73158
G1 X40.083 Y90.094 E7.75092
G1 X39.796 Y89.626 E7.76172
G1 X39.349 Y88.748 E7.78108
G1 X39.139 Y88.241 E7.79188
G1 X38.836 Y87.307 E7.81120
G1 X38.708 Y86.772 E7.82200
G1 X38.555 Y85.804 E7.84128
G1 X38.512 Y85.257 E7.85208
G1 X38.501 Y84.454 E7.86787
G1 X39.502 Y64.432 E8.26212
G1 X39.516 Y64.170 E8.26727
G1 X39.625 Y63.267 E8.28517
G1 X39.824 Y62.391 E8.30283
G1 X40.032 Y61.747 E8.31614
G1 X40.393 Y60.905 E8.33415
G1 X40.832 Y60.118 E8.35188
G1 X41.368 Y59.355 E8.37022
G1 X41.967 Y58.670 E8.38812
G1 X42.647 Y58.040 E8.40634
G1 X43.160 Y57.644 E8.41909
G1 E7.41909 F1200.00000
G92 E0
G1 X48.606 Y85.862 F6000.000
G1 E1.00000 F1200.00000
G1 F1800
G1 X48.250 Y85.919 E1.00709
G1 X47.894 Y85.862 E1.01417
G1 X47.578 Y85.701 E1.02115
G1 X47.432 Y85.576 E1.02493
G1 X47.224 Y85.290 E1.03190
G1 X47.114 Y84.952 E1.03887
G1 X47.100 Y84.767 E1.04254
G1 X47.114 Y84.581 E1.04620
G1 X47.224 Y84.244 E1.05318
G1 X47.436 Y83.952 E1.06026
G1 X47.722 Y83.744 E1.06723
G1 X47.900 Y83.670 E1.07101
G1 X48.236 Y83.616 E1.07770
G1 X48.429 Y83.630 E1.08151
G1 X48.611 Y83.674 E1.08520
G1 X48.922 Y83.832 E1.09205
G1 X49.068 Y83.957 E1.09583
G1 X49.276 Y84.244 E1.10280
G1 X49.386 Y84.581 E1.10978
G1 X49.400 Y84.767 E1.11344
G1 X49.386 Y84.952 E1.11711
G1 X49.276 Y85.290 E1.12408
G1 X49.068 Y85.576 E1.13105
G1 X48.922 Y85.701 E1.13483
G1 X48.659 Y85.835 E1.14062
G1 E0.14062 F1200.00000
G92 E0
G1 X48.822 Y66.527 F6000.000
G1 E1.00000 F1200.00000
G1 F1800
G1 X48.444 Y66.607 E1.00760
G1 X48.056 Y66.607 E1.01522
G1 X47.678 Y66.527 E1.02282
G1 X47.325 Y66.370 E1.03043
G1 X47.011 Y66.142 E1.03805
G1 X46.753 Y65.854 E1.04565
G1 X46.561 Y65.523 E1.05318
G1 X46.489 Y65.335 E1.05714
G1 X46.409 Y64.960 E1.06468
G1 X46.409 Y64.573 E1.07229
G1 X46.490 Y64.195 E1.07990
G1 X46.647 Y63.841 E1.08751
G1 X46.875 Y63.528 E1.09512
G1 X47.162 Y63.269 E1.10273
G1 X47.498 Y63.076 E1.11034
G1 X47.862 Y62.957 E1.11788
G1 X48.074 Y62.925 E1.12210
G1 X48.444 Y62.926 E1.12937
G1 X48.822 Y63.006 E1.13696
G1 X49.175 Y63.164 E1.14458
G1 X49.489 Y63.391 E1.15220
G1 X49.747 Y63.679 E1.15979
G1 X49.939 Y64.010 E1.16732
G1 X50.011 Y64.198 E1.17129
G1 X50.091 Y64.573 E1.17882
G1 X50.091 Y64.960 E1.18644
G1 X50.011 Y65.335 E1.19397
G1 X49.939 Y65.523 E1.19793
G1 X49.747 Y65.854 E1.20547
G1 X49.489 Y66.142 E1.21306
G1 X49.175 Y66.370 E1.22068
G1 X48.876 Y66.503 E1.22712
G1 E0.22712 F1200.00000
G92 E0
G1 X51.852 Y67.498 F6000.000
G1 E1.00000 F1200.00000
G1 F1800
G1 X48.278 Y67.648 E1.07034
G1 X46.871 Y66.669 E1.10405
G1 X46.677 Y66.513 E1.10894
G1 X46.504 Y66.339 E1.11378
G1 X46.349 Y66.148 E1.11861
G1 X46.215 Y65.942 E1.12344
G1 X46.103 Y65.722 E1.12829
G1 X46.015 Y65.493 E1.13312
G1 X45.952 Y65.255 E1.13795
G1 X45.913 Y65.012 E1.14280
G1 X45.900 Y64.767 E1.14763
G1 X45.913 Y64.521 E1.15247
G1 X45.952 Y64.278 E1.15731
G1 X46.015 Y64.040 E1.16214
G1 X46.103 Y63.811 E1.16698
G1 X46.215 Y63.592 E1.17182
G1 X46.348 Y63.386 E1.17665
G1 X46.504 Y63.194 E1.18149
G1 X46.677 Y63.021 E1.18632
G1 X46.871 Y62.864 E1.19122
G1 X48.278 Y61.885 E1.22493
G1 X67.030 Y62.712 E1.59406
G1 X78.959 Y63.294 E1.82894
G1 X89.147 Y63.825 E2.02958
G1 X104.512 Y64.693 E2.33222
G1 X104.512 Y64.839 E2.33508
G1 X93.508 Y65.470 E2.55184
G1 X84.288 Y65.966 E2.73344
G1 X73.194 Y66.526 E2.95188
G1 X62.344 Y67.037 E3.16550
G1 X51.240 Y86.279 E3.60240
G1 X50.960 Y86.735 E3.61293
G1 X50.619 Y87.135 E3.62327
G1 X50.219 Y87.477 E3.63362
G1 X49.771 Y87.751 E3.64395
G1 X49.285 Y87.952 E3.65428
G1 X48.774 Y88.075 E3.66461
G1 X48.250 Y88.116 E3.67496
G1 X47.726 Y88.075 E3.68531
G1 X47.215 Y87.952 E3.69564
G1 X46.729 Y87.751 E3.70597
G1 X46.281 Y87.477 E3.71630
G1 X45.881 Y87.135 E3.72665
G1 X45.540 Y86.735 E3.73699
G1 X45.265 Y86.287 E3.74732
G1 X45.064 Y85.802 E3.75766
G1 X44.942 Y85.291 E3.76799
G1 X44.900 Y84.767 E3.77833
G1 X44.942 Y84.243 E3.78867
G1 X45.064 Y83.732 E3.79900
G1 X51.828 Y67.554 E4.14385
G1 E3.14385 F1200.00000
G92 E0
G1 X48.713 Y66.193 F6000.000
G1 E1.00000 F1200.00000
G1 F1800
G1 X48.402 Y66.259 E1.00849
G1 X48.098 Y66.259 E1.01659
G1 X47.787 Y66.193 E1.02508
G1 X47.500 Y66.065 E1.03345
G1 X47.246 Y65.881 E1.04182
G1 X47.037 Y65.648 E1.05017
G1 X46.880 Y65.377 E1.05854
G1 X46.789 Y65.098 E1.06635
G1 X46.754 Y64.767 E1.07525
G1 X46.764 Y64.601 E1.07969
G1 X46.783 Y64.455 E1.08361
G1 X46.890 Y64.139 E1.09252
G1 X47.037 Y63.885 E1.10034
G1 X47.246 Y63.652 E1.10869
G1 X47.500 Y63.468 E1.11706
G1 X47.787 Y63.341 E1.12543
G1 X48.097 Y63.275 E1.13390
G1 X48.386 Y63.278 E1.14160
G1 X48.693 Y63.339 E1.14994
G1 X48.980 Y63.462 E1.15828
G1 X49.129 Y63.556 E1.16299
G1 X49.361 Y63.766 E1.17134
G1 X49.546 Y64.019 E1.17969
G1 X49.673 Y64.305 E1.18804
G1 X49.742 Y64.615 E1.19652
G1 X49.746 Y64.761 E1.20043
G1 X49.717 Y65.078 E1.20893
G1 X49.620 Y65.377 E1.21729
G1 X49.463 Y65.648 E1.22566
G1 X49.254 Y65.881 E1.23401
G1 X49.000 Y66.065 E1.24238
G1 X48.768 Y66.169 E1.24916
G1 X48.713 Y66.193 F6000.000
G1 X47.475 Y66.872 F6000.000
G1 F1800
G1 X47.242 Y66.769 E1.25417
G1 X47.475 Y66.930 E1.25974
G1 X47.475 Y66.563 E1.26697
G1 X47.599 Y66.618 E1.26963
G1 X47.732 Y66.647 E1.27232
G1 X47.732 Y67.109 E1.28143
G1 X47.990 Y67.288 E1.28760
G1 X47.990 Y66.702 E1.29915
G1 X48.247 Y66.710 E1.30422
G1 X48.247 Y67.468 E1.31913
G1 X48.354 Y67.542 E1.32169
G1 X48.504 Y67.535 E1.32466
G1 X48.504 Y66.703 E1.34105
G1 X48.762 Y66.648 E1.34623
G1 X48.762 Y67.525 E1.36349
G1 X49.019 Y67.514 E1.36856
G1 X49.019 Y66.566 E1.38722
G1 X49.277 Y66.452 E1.39277
G1 X49.277 Y67.503 E1.41347
G1 X49.534 Y67.492 E1.41854
G1 X49.534 Y66.273 E1.44256
G1 X49.662 Y66.180 E1.44567
G1 X49.791 Y66.036 E1.44948
G1 X49.791 Y67.481 E1.47795
G1 X50.049 Y67.471 E1.48302
G1 X50.049 Y65.692 E1.51804
G1 X50.171 Y65.480 E1.52287
G1 X50.258 Y65.254 E1.52763
G1 X50.306 Y65.030 E1.53215
G1 X50.306 Y67.460 E1.57999
G1 X50.564 Y67.449 E1.58506
G1 X50.564 Y62.084 E1.69070
G1 X50.821 Y62.095 E1.69577
G1 X50.821 Y67.438 E1.80098
G1 X51.078 Y67.428 E1.80605
G1 X51.078 Y62.106 E1.91083
G1 X51.336 Y62.117 E1.91590
G1 X51.336 Y67.417 E2.02026
G1 X51.593 Y67.406 E2.02533
G1 X51.593 Y62.127 E2.12927
G1 X51.850 Y62.138 E2.13434
G1 X51.850 Y67.395 E2.23785
G1 X52.108 Y67.384 E2.24292
G1 X52.108 Y62.149 E2.34601
G1 X52.365 Y62.160 E2.35108
G1 X52.365 Y83.969 E2.78049
G1 X52.623 Y83.523 E2.79063
G1 X52.623 Y62.170 E3.21105
G1 X52.880 Y62.181 E3.21613
G1 X52.880 Y83.077 E3.62755
G1 X53.137 Y82.631 E3.63769
G1 X53.137 Y62.192 E4.04012
G1 X53.395 Y62.203 E4.04520
G1 X53.395 Y82.185 E4.43863
G1 X53.652 Y81.739 E4.44877
G1 X53.652 Y62.215 E4.83319
G1 X53.909 Y62.226 E4.83826
G1 X53.909 Y81.293 E5.21368
G1 X54.167 Y80.847 E5.22382
G1 X54.167 Y62.238 E5.59022
G1 X54.424 Y62.249 E5.59529
G1 X54.424 Y80.401 E5.95269
G1 X54.682 Y79.955 E5.96283
G1 X54.682 Y62.261 E6.31121
G1 X54.939 Y62.272 E6.31628
G1 X54.939 Y79.509 E6.65566
G1 X55.196 Y79.063 E6.66580
G1 X55.196 Y62.284 E6.99617
G1 X55.454 Y62.296 E7.00124
G1 X55.454 Y78.617 E7.32260
G1 X55.711 Y78.171 E7.33273
G1 X55.711 Y62.307 E7.64508
G1 X55.969 Y62.319 E7.65016
G1 X55.969 Y77.725 E7.95349
G1 X56.226 Y77.279 E7.96363
G1 X56.226 Y62.330 E8.25796
G1 X56.483 Y62.342 E8.26303
G1 X56.483 Y76.833 E8.54835
G1 X56.741 Y76.387 E8.55849
G1 X56.741 Y62.353 E8.83480
G1 X56.998 Y62.365 E8.83988
G1 X56.998 Y75.941 E9.10718
G1 X57.255 Y75.495 E9.11732
G1 X57.255 Y62.376 E9.37561
G1 X57.513 Y62.388 E9.38068
G1 X57.513 Y75.049 E9.62996
G1 X57.770 Y74.603 E9.64010
G1 X57.770 Y62.400 E9.88037
G1 X58.028 Y62.411 E9.88545
G1 X58.028 Y74.157 E10.11671
G1 X58.285 Y73.711 E10.12685
G1 X58.285 Y62.423 E10.34910
G1 X58.542 Y62.434 E10.35418
G1 X58.542 Y73.265 E10.56742
G1 X58.800 Y72.819 E10.57756
G1 X58.800 Y62.446 E10.78179
G1 X59.057 Y62.457 E10.78687
G1 X59.057 Y72.373 E10.98209
G1 X59.315 Y71.927 E10.99223
G1 X59.315 Y62.469 E11.17845
G1 X59.572 Y62.480 E11.18352
G1 X59.572 Y71.481 E11.36073
G1 X59.829 Y71.035 E11.37087
G1 X59.829 Y62.492 E11.53906
G1 X60.087 Y62.504 E11.54414
G1 X60.087 Y70.589 E11.70333
G1 X60.344 Y70.142 E11.71346
G1 X60.344 Y62.515 E11.86364
G1 X60.601 Y62.527 E11.86872
G1 X60.601 Y69.696 E12.00989
G1 X60.859 Y69.250 E12.02003
G1 X60.859 Y62.538 E12.15219
G1 X61.116 Y62.550 E12.15726
G1 X61.116 Y68.804 E12.28041
G1 X61.374 Y68.358 E12.29055
G1 X61.374 Y62.561 E12.40469
G1 X61.631 Y62.573 E12.40976
G1 X61.631 Y67.912 E12.51489
G1 X61.888 Y67.466 E12.52503
G1 X61.888 Y62.584 E12.62116
G1 X62.146 Y62.596 E12.62623
G1 X62.146 Y67.020 E12.71334
G1 X62.192 Y66.941 E12.71515
G1 X62.403 Y66.931 E12.71932
G1 X62.403 Y62.608 E12.80444
G1 X62.661 Y62.619 E12.80952
G1 X62.661 Y66.919 E12.89417
G1 X62.918 Y66.907 E12.89925
G1 X62.918 Y62.631 E12.98344
G1 X63.175 Y62.642 E12.98851
G1 X63.175 Y66.895 E13.07224
G1 X63.433 Y66.882 E13.07731
G1 X63.433 Y62.654 E13.16057
G1 X63.690 Y62.665 E13.16565
G1 X63.690 Y66.870 E13.24844
G1 X63.947 Y66.858 E13.25351
G1 X63.947 Y62.677 E13.33584
G1 X64.205 Y62.688 E13.34091
G1 X64.205 Y66.846 E13.42278
G1 X64.462 Y66.834 E13.42785
G1 X64.462 Y62.700 E13.50925
G1 X64.720 Y62.711 E13.51432
G1 X64.720 Y66.822 E13.59525
G1 X64.977 Y66.810 E13.60032
G1 X64.977 Y62.723 E13.68079
G1 X65.234 Y62.735 E13.68586
G1 X65.234 Y66.798 E13.76586
G1 X65.492 Y66.786 E13.77093
G1 X65.492 Y62.746 E13.85046
G1 X65.749 Y62.758 E13.85554
G1 X65.749 Y66.773 E13.93460
G1 X66.006 Y66.761 E13.93968
G1 X66.006 Y62.769 E14.01828
G1 X66.264 Y62.781 E14.02335
G1 X66.264 Y66.749 E14.10148
G1 X66.521 Y66.737 E14.10656
G1 X66.521 Y62.792 E14.18423
G1 X66.779 Y62.804 E14.18930
G1 X66.779 Y66.725 E14.26650
G1 X67.036 Y66.713 E14.27157
G1 X67.036 Y62.816 E14.34831
G1 X67.293 Y62.828 E14.35338
G1 X67.293 Y66.701 E14.42963
G1 X67.551 Y66.689 E14.43470
G1 X67.551 Y62.841 E14.51047
G1 X67.808 Y62.853 E14.51554
G1 X67.808 Y66.676 E14.59082
G1 X68.066 Y66.664 E14.59589
G1 X68.066 Y62.866 E14.67069
G1 X68.323 Y62.878 E14.67576
G1 X68.323 Y66.652 E14.75007
G1 X68.580 Y66.640 E14.75514
G1 X68.580 Y62.891 E14.82896
G1 X68.838 Y62.903 E14.83403
G1 X68.838 Y66.628 E14.90737
G1 X69.095 Y66.616 E14.91244
G1 X69.095 Y62.916 E14.98529
G1 X69.352 Y62.928 E14.99037
G1 X69.352 Y66.604 E15.06273
G1 X69.610 Y66.592 E15.06781
G1 X69.610 Y62.941 E15.13968
G1 X69.867 Y62.954 E15.14476
G1 X69.867 Y66.580 E15.21615
G1 X70.125 Y66.567 E15.22122
G1 X70.125 Y62.966 E15.29213
G1 X70.382 Y62.979 E15.29721
G1 X70.382 Y66.555 E15.36763
G1 X70.639 Y66.543 E15.37270
G1 X70.639 Y62.991 E15.44264
G1 X70.897 Y63.004 E15.44771
G1 X70.897 Y66.531 E15.51716
G1 X71.154 Y66.519 E15.52224
G1 X71.154 Y63.016 E15.59120
G1 X71.412 Y63.029 E15.59628
G1 X71.412 Y66.507 E15.66475
G1 X71.669 Y66.495 E15.66983
G1 X71.669 Y63.041 E15.73782
G1 X71.926 Y63.054 E15.74290
G1 X71.926 Y66.483 E15.81040
G1 X72.184 Y66.471 E15.81548
G1 X72.184 Y63.066 E15.88250
G1 X72.441 Y63.079 E15.88757
G1 X72.441 Y66.458 E15.95411
G1 X72.698 Y66.446 E15.95919
G1 X72.698 Y63.092 E16.02524
G1 X72.956 Y63.104 E16.03031
G1 X72.956 Y66.434 E16.09588
G1 X73.213 Y66.422 E16.10095
G1 X73.213 Y63.117 E16.16603
G1 X73.471 Y63.129 E16.17110
G1 X73.471 Y66.409 E16.23568
G1 X73.728 Y66.396 E16.24075
G1 X73.728 Y63.142 E16.30483
G1 X73.985 Y63.154 E16.30990
G1 X73.985 Y66.383 E16.37347
G1 X74.243 Y66.370 E16.37854
G1 X74.243 Y63.167 E16.44161
G1 X74.500 Y63.179 E16.44668
G1 X74.500 Y66.357 E16.50925
G1 X74.758 Y66.344 E16.51432
G1 X74.758 Y63.192 E16.57638
G1 X75.015 Y63.205 E16.58146
G1 X75.015 Y66.331 E16.64301
G1 X75.272 Y66.318 E16.64809
G1 X75.272 Y63.217 E16.70914
G1 X75.530 Y63.230 E16.71422
G1 X75.530 Y66.305 E16.77477
G1 X75.787 Y66.292 E16.77984
G1 X75.787 Y63.242 E16.83989
G1 X76.044 Y63.255 E16.84496
G1 X76.044 Y66.279 E16.90451
G1 X76.302 Y66.266 E16.90958
G1 X76.302 Y63.267 E16.96863
G1 X76.559 Y63.280 E16.97370
G1 X76.559 Y66.253 E17.03224
G1 X76.817 Y66.240 E17.03731
G1 X76.817 Y63.292 E17.09535
G1 X77.074 Y63.305 E17.10043
G1 X77.074 Y66.227 E17.15796
G1 X77.331 Y66.214 E17.16303
G1 X77.331 Y63.317 E17.22006
G1 X77.589 Y63.330 E17.22514
G1 X77.589 Y66.201 E17.28167
G1 X77.846 Y66.188 E17.28674
G1 X77.846 Y63.343 E17.34276
G1 X78.103 Y63.355 E17.34784
G1 X78.103 Y66.175 E17.40336
G1 X78.361 Y66.162 E17.40843
G1 X78.361 Y63.368 E17.46345
G1 X78.618 Y63.380 E17.46853
G1 X78.618 Y66.149 E17.52304
G1 X78.876 Y66.136 E17.52812
G1 X78.876 Y63.393 E17.58213
G1 X79.133 Y63.406 E17.58720
G1 X79.133 Y66.123 E17.64070
G1 X79.390 Y66.110 E17.64578
G1 X79.390 Y63.419 E17.69875
G1 X79.648 Y63.433 E17.70383
G1 X79.648 Y66.097 E17.75628
