; generated by Slic3r 1.3.1-dev (Build (Unknown revision)) on 2020-06-19 at 09:07:08

; external perimeters extrusion width = 0.44mm (2.86mm^3/s)
; perimeters extrusion width = 0.56mm (4.14mm^3/s)
; infill extrusion width = 0.50mm (3.66mm^3/s)
; solid infill extrusion width = 0.56mm (3.10mm^3/s)
; top infill extrusion width = 0.45mm (2.44mm^3/s)

M107
G92 E0
;D3D:START:START
T0
M104 S215 T0

G21
G90
M107
T0
G28
G29
M109 T0 S215 T0
G0 F3000
M107
T0
G92 E0
G0 X0 Y149 Z0.1 F3600
G1 Y49 E6.5 F1200
G0 Z1
G92 E0
; Filament gcode

G21 ; set units to millimeters
G90 ; use absolute coordinates
M82 ; use absolute distances for extrusion
G92 E0
G1 Z0.200 F6000.000
G1 E-2.00000 F1200.00000
G92 E0
G1 Z0.700 F6000.000
G1 X38.490 Y45.448 F6000.000
G1 Z0.200 F6000.000
G1 E2.00000 F1200.00000
G1 F1800.000
G1 X40.339 Y44.124 E2.04375
G1 X43.150 Y43.486 E2.09920
G1 X106.850 Y43.486 E3.32470
G1 X109.089 Y43.883 E3.36845
G1 X111.055 Y45.025 E3.41220
G1 X112.790 Y47.327 E3.46765
G1 X115.940 Y54.327 E3.61533
G1 X116.514 Y57.000 E3.66793
G1 X116.514 Y89.000 E4.28357
G1 X116.117 Y91.239 E4.32732
G1 X114.975 Y93.205 E4.37107
G1 X112.198 Y95.132 E4.43609
G1 X84.923 Y104.909 E4.99350
G1 X83.035 Y105.470 E5.03141
G1 X82.638 Y105.572 E5.03929
G1 X80.704 Y105.991 E5.07737
G1 X79.152 Y106.237 E5.10759
G1 X77.183 Y106.436 E5.14567
G1 X75.204 Y106.511 E5.18376
G1 X73.226 Y106.462 E5.22184
G1 X72.817 Y106.436 E5.22972
G1 X70.848 Y106.237 E5.26780
G1 X68.894 Y105.914 E5.30588
G1 X67.362 Y105.572 E5.33610
G1 X65.457 Y105.032 E5.37419
G1 X37.802 Y95.132 E5.93930
G1 X35.828 Y94.003 E5.98305
G1 X34.363 Y92.264 E6.02680
G1 X33.486 Y89.000 E6.09182
G1 X33.486 Y57.000 E6.70745
G1 X34.060 Y54.327 E6.76005
G1 X37.210 Y47.327 E6.90773
G1 X38.457 Y45.497 E6.95033
G1 X38.706 Y45.596 F6000.000
G1 F1800.000
G1 X40.531 Y44.317 E6.99320
G1 X43.150 Y43.743 E7.04478
G1 X106.850 Y43.743 E8.27028
G1 X109.043 Y44.140 E8.31315
G1 X110.957 Y45.280 E8.35602
G1 X112.556 Y47.432 E8.40760
G1 X115.706 Y54.432 E8.55528
G1 X116.257 Y57.000 E8.60581
G1 X116.257 Y89.000 E9.22144
G1 X115.860 Y91.193 E9.26431
G1 X114.720 Y93.107 E9.30718
G1 X112.111 Y94.890 E9.36797
G1 X84.837 Y104.667 E9.92539
G1 X82.582 Y105.321 E9.97055
G1 X80.663 Y105.737 E10.00833
G1 X78.722 Y106.032 E10.04610
G1 X77.159 Y106.180 E10.07632
G1 X75.196 Y106.254 E10.11409
G1 X72.841 Y106.180 E10.15942
G1 X70.888 Y105.983 E10.19720
G1 X69.337 Y105.737 E10.22742
G1 X67.418 Y105.321 E10.26519
G1 X65.529 Y104.785 E10.30297
G1 X37.889 Y94.890 E10.86777
G1 X35.958 Y93.777 E10.91064
G1 X34.541 Y92.057 E10.95351
G1 X33.743 Y89.000 E11.01430
G1 X33.743 Y57.000 E11.62994
G1 X34.294 Y54.432 E11.68046
G1 X37.444 Y47.432 E11.82814
G1 X38.672 Y45.645 E11.86986
G1 E9.86986 F1200.00000
G92 E0
G1 Z0.700 F6000.000
G1 X70.664 Y96.467 F6000.000
G1 Z0.200 F6000.000
G1 E2.00000 F1200.00000
G1 F1800.000
G1 X69.232 Y96.051 E2.02869
G1 X68.129 Y95.654 E2.05124
G1 X67.053 Y95.188 E2.07380
G1 X66.008 Y94.656 E2.09636
G1 X64.999 Y94.059 E2.11892
G1 X64.029 Y93.400 E2.14147
G1 X63.103 Y92.681 E2.16403
G1 X62.223 Y91.906 E2.18659
G1 X61.394 Y91.077 E2.20915
G1 X60.619 Y90.197 E2.23171
G1 X59.900 Y89.271 E2.25426
G1 X59.241 Y88.301 E2.27682
G1 X58.644 Y87.292 E2.29938
G1 X58.112 Y86.247 E2.32194
G1 X57.646 Y85.171 E2.34450
G1 X57.249 Y84.068 E2.36705
G1 X56.833 Y82.636 E2.39574
G1 X68.452 Y82.636 E2.61927
G1 X68.963 Y83.295 E2.63531
G1 X69.288 Y83.664 E2.64478
G1 X69.636 Y84.012 E2.65424
G1 X70.005 Y84.337 E2.66372
G1 X70.664 Y84.848 E2.67975
G1 X70.664 Y96.407 E2.90213
G1 X70.407 Y96.125 F6000.000
G1 F1800.000
G1 X69.312 Y95.806 E2.92407
G1 X68.224 Y95.415 E2.94632
G1 X67.163 Y94.955 E2.96856
G1 X66.132 Y94.430 E2.99081
G1 X65.137 Y93.842 E3.01306
G1 X64.180 Y93.192 E3.03530
G1 X63.267 Y92.483 E3.05755
G1 X62.399 Y91.718 E3.07980
G1 X61.582 Y90.901 E3.10205
G1 X60.817 Y90.033 E3.12429
G1 X60.108 Y89.120 E3.14654
G1 X59.458 Y88.163 E3.16879
G1 X58.870 Y87.168 E3.19103
G1 X58.345 Y86.137 E3.21328
G1 X57.885 Y85.076 E3.23553
G1 X57.494 Y83.988 E3.25777
G1 X57.175 Y82.893 E3.27972
G1 X68.326 Y82.893 E3.49423
G1 X68.764 Y83.458 E3.50801
G1 X69.101 Y83.840 E3.51779
G1 X69.460 Y84.199 E3.52757
G1 X69.842 Y84.536 E3.53735
G1 X70.407 Y84.974 E3.55112
G1 X70.407 Y96.065 E3.76448
G1 X70.150 Y95.782 F6000.000
G1 F1800.000
G1 X69.391 Y95.562 E3.77968
G1 X68.319 Y95.176 E3.80162
G1 X67.272 Y94.723 E3.82355
G1 X66.256 Y94.205 E3.84549
G1 X65.275 Y93.625 E3.86743
G1 X64.332 Y92.984 E3.88936
G1 X63.431 Y92.285 E3.91130
G1 X62.575 Y91.531 E3.93323
G1 X61.769 Y90.725 E3.95517
G1 X61.015 Y89.869 E3.97711
G1 X60.316 Y88.968 E3.99904
G1 X59.675 Y88.025 E4.02098
G1 X59.095 Y87.044 E4.04291
G1 X58.577 Y86.028 E4.06485
G1 X58.124 Y84.981 E4.08679
G1 X57.738 Y83.909 E4.10872
G1 X57.518 Y83.150 E4.12392
G1 X68.200 Y83.150 E4.32943
G1 X68.566 Y83.622 E4.34093
G1 X68.913 Y84.016 E4.35103
G1 X69.284 Y84.387 E4.36112
G1 X69.678 Y84.734 E4.37121
G1 X70.150 Y85.100 E4.38271
G1 X70.150 Y95.722 E4.58706
G1 X70.081 Y96.176 F6000.000
G1 E2.58706 F1200.00000
G92 E0
G1 Z0.700 F6000.000
G1 X63.334 Y80.406 F6000.000
G1 Z0.200 F6000.000
G1 E2.00000 F1200.00000
G1 F1800.000
G1 X63.063 Y80.494 E2.00547
G1 X62.784 Y80.548 E2.01095
G1 X62.500 Y80.565 E2.01642
G1 X62.216 Y80.548 E2.02189
G1 X61.937 Y80.494 E2.02737
G1 X61.666 Y80.406 E2.03284
G1 X61.409 Y80.285 E2.03831
G1 X61.168 Y80.133 E2.04379
G1 X60.949 Y79.951 E2.04926
G1 X60.754 Y79.744 E2.05473
G1 X60.587 Y79.514 E2.06021
G1 X60.450 Y79.265 E2.06568
G1 X60.345 Y79.000 E2.07115
G1 X60.275 Y78.724 E2.07663
G1 X60.239 Y78.442 E2.08210
G1 X60.239 Y78.158 E2.08757
G1 X60.275 Y77.876 E2.09304
G1 X60.345 Y77.600 E2.09852
G1 X60.450 Y77.335 E2.10399
G1 X60.587 Y77.086 E2.10947
G1 X60.754 Y76.856 E2.11494
G1 X60.949 Y76.648 E2.12041
G1 X61.168 Y76.467 E2.12589
G1 X61.409 Y76.315 E2.13136
G1 X61.666 Y76.194 E2.13683
G1 X61.937 Y76.106 E2.14231
G1 X62.216 Y76.052 E2.14778
G1 X62.500 Y76.035 E2.15325
G1 X62.784 Y76.052 E2.15873
G1 X63.063 Y76.106 E2.16420
G1 X63.334 Y76.194 E2.16967
G1 X63.591 Y76.315 E2.17515
G1 X63.832 Y76.467 E2.18062
G1 X64.051 Y76.648 E2.18609
G1 X64.246 Y76.856 E2.19157
G1 X64.413 Y77.086 E2.19704
G1 X64.550 Y77.335 E2.20251
G1 X64.655 Y77.600 E2.20799
G1 X64.725 Y77.876 E2.21346
G1 X64.761 Y78.158 E2.21894
G1 X64.761 Y78.442 E2.22441
G1 X64.725 Y78.724 E2.22988
G1 X64.655 Y79.000 E2.23536
G1 X64.550 Y79.265 E2.24083
G1 X64.413 Y79.514 E2.24630
G1 X64.246 Y79.744 E2.25177
G1 X64.051 Y79.951 E2.25725
G1 X63.832 Y80.133 E2.26272
G1 X63.591 Y80.285 E2.26820
G1 X63.388 Y80.381 E2.27251
G1 X63.239 Y80.167 F6000.000
G1 F1800.000
G1 X62.999 Y80.245 E2.27736
G1 X62.752 Y80.292 E2.28222
G1 X62.500 Y80.308 E2.28707
G1 X62.248 Y80.292 E2.29192
G1 X62.001 Y80.245 E2.29677
G1 X61.761 Y80.167 E2.30162
G1 X61.533 Y80.060 E2.30647
G1 X61.320 Y79.924 E2.31132
G1 X61.125 Y79.764 E2.31617
G1 X60.953 Y79.580 E2.32102
G1 X60.805 Y79.376 E2.32588
G1 X60.683 Y79.155 E2.33073
G1 X60.590 Y78.921 E2.33558
G1 X60.528 Y78.676 E2.34043
G1 X60.496 Y78.426 E2.34528
G1 X60.496 Y78.174 E2.35013
G1 X60.528 Y77.924 E2.35498
G1 X60.590 Y77.679 E2.35983
G1 X60.683 Y77.445 E2.36468
G1 X60.805 Y77.224 E2.36953
G1 X60.953 Y77.020 E2.37438
G1 X61.125 Y76.836 E2.37924
G1 X61.320 Y76.676 E2.38409
G1 X61.533 Y76.540 E2.38894
G1 X61.761 Y76.433 E2.39379
G1 X62.001 Y76.355 E2.39864
G1 X62.248 Y76.308 E2.40349
G1 X62.500 Y76.292 E2.40834
G1 X62.752 Y76.308 E2.41319
G1 X62.999 Y76.355 E2.41805
G1 X63.239 Y76.433 E2.42290
G1 X63.467 Y76.540 E2.42775
G1 X63.680 Y76.676 E2.43260
G1 X63.875 Y76.836 E2.43745
G1 X64.047 Y77.020 E2.44230
G1 X64.195 Y77.224 E2.44715
G1 X64.317 Y77.445 E2.45200
G1 X64.410 Y77.679 E2.45685
G1 X64.472 Y77.924 E2.46171
G1 X64.504 Y78.174 E2.46656
G1 X64.504 Y78.426 E2.47141
G1 X64.472 Y78.676 E2.47626
G1 X64.410 Y78.921 E2.48111
G1 X64.317 Y79.155 E2.48596
G1 X64.195 Y79.376 E2.49081
G1 X64.047 Y79.580 E2.49566
G1 X63.875 Y79.764 E2.50051
G1 X63.680 Y79.924 E2.50536
G1 X63.467 Y80.060 E2.51022
G1 X63.293 Y80.141 E2.51391
G1 X63.144 Y79.927 F6000.000
G1 F1800.000
G1 X62.935 Y79.995 E2.51814
G1 X62.719 Y80.037 E2.52237
G1 X62.500 Y80.050 E2.52660
G1 X62.281 Y80.037 E2.53083
G1 X62.065 Y79.995 E2.53506
G1 X61.856 Y79.927 E2.53928
G1 X61.657 Y79.834 E2.54351
G1 X61.471 Y79.716 E2.54774
G1 X61.302 Y79.576 E2.55197
G1 X61.151 Y79.416 E2.55620
G1 X61.022 Y79.238 E2.56043
G1 X60.916 Y79.045 E2.56466
G1 X60.835 Y78.841 E2.56889
G1 X60.781 Y78.628 E2.57311
G1 X60.753 Y78.410 E2.57734
G1 X60.753 Y78.190 E2.58157
G1 X60.781 Y77.972 E2.58580
G1 X60.835 Y77.759 E2.59003
G1 X60.916 Y77.555 E2.59426
G1 X61.022 Y77.362 E2.59849
G1 X61.151 Y77.184 E2.60271
G1 X61.302 Y77.024 E2.60694
G1 X61.471 Y76.884 E2.61117
G1 X61.657 Y76.766 E2.61540
G1 X61.856 Y76.673 E2.61963
G1 X62.065 Y76.605 E2.62386
G1 X62.281 Y76.563 E2.62809
G1 X62.500 Y76.550 E2.63232
G1 X62.719 Y76.563 E2.63654
G1 X62.935 Y76.605 E2.64077
G1 X63.144 Y76.673 E2.64500
G1 X63.343 Y76.766 E2.64923
G1 X63.529 Y76.884 E2.65346
G1 X63.698 Y77.024 E2.65769
G1 X63.849 Y77.184 E2.66192
G1 X63.978 Y77.362 E2.66615
G1 X64.084 Y77.555 E2.67037
G1 X64.165 Y77.759 E2.67460
G1 X64.219 Y77.972 E2.67883
G1 X64.247 Y78.190 E2.68306
G1 X64.247 Y78.410 E2.68729
G1 X64.219 Y78.628 E2.69152
G1 X64.165 Y78.841 E2.69575
G1 X64.084 Y79.045 E2.69997
G1 X63.978 Y79.238 E2.70420
G1 X63.849 Y79.416 E2.70843
G1 X63.698 Y79.576 E2.71266
G1 X63.529 Y79.716 E2.71689
G1 X63.199 Y79.902 E2.72418
G1 X63.112 Y80.145 F6000.000
G1 E0.72418 F1200.00000
G92 E0
G1 Z0.700 F6000.000
G1 X69.435 Y79.362 F6000.000
G1 Z0.200 F6000.000
G1 E2.00000 F1200.00000
G1 F1800.000
G1 X69.347 Y78.666 E2.01349
G1 X69.335 Y78.290 E2.02073
G1 X69.379 Y77.590 E2.03422
G1 X69.511 Y76.901 E2.04771
G1 X69.616 Y76.540 E2.05496
G1 X69.870 Y75.897 E2.06824
G1 X70.041 Y75.562 E2.07549
G1 X70.411 Y74.979 E2.08877
G1 X70.878 Y74.415 E2.10286
G1 X71.381 Y73.942 E2.11615
G1 X71.679 Y73.711 E2.12340
G1 X72.271 Y73.335 E2.13688
G1 X72.905 Y73.037 E2.15037
G1 X73.259 Y72.909 E2.15762
G1 X73.938 Y72.735 E2.17110
G1 X74.634 Y72.647 E2.18459
G1 X75.010 Y72.635 E2.19184
G1 X75.710 Y72.679 E2.20532
G1 X76.399 Y72.811 E2.21881
G1 X77.095 Y73.037 E2.23290
G1 X77.729 Y73.335 E2.24638
G1 X78.321 Y73.711 E2.25987
G1 X78.619 Y73.942 E2.26712
G1 X79.122 Y74.415 E2.28040
G1 X79.589 Y74.979 E2.29449
G1 X79.965 Y75.571 E2.30798
G1 X80.268 Y76.214 E2.32167
G1 X80.487 Y76.891 E2.33535
G1 X80.619 Y77.580 E2.34884
G1 X80.653 Y77.944 E2.35589
G1 X80.665 Y78.310 E2.36293
G1 X80.621 Y79.000 E2.37622
G1 X80.563 Y79.372 E2.38347
G1 X80.388 Y80.051 E2.39695
G1 X80.130 Y80.703 E2.41044
G1 X79.959 Y81.038 E2.41769
G1 X79.589 Y81.621 E2.43097
G1 X79.122 Y82.185 E2.44506
G1 X78.619 Y82.658 E2.45835
G1 X78.321 Y82.889 E2.46559
G1 X77.729 Y83.265 E2.47908
G1 X77.095 Y83.563 E2.49257
G1 X76.741 Y83.691 E2.49982
G1 X76.062 Y83.865 E2.51330
G1 X75.366 Y83.953 E2.52679
G1 X74.990 Y83.965 E2.53404
G1 X74.290 Y83.921 E2.54752
G1 X73.601 Y83.789 E2.56101
G1 X72.905 Y83.563 E2.57510
G1 X72.271 Y83.265 E2.58858
G1 X71.679 Y82.889 E2.60207
G1 X71.381 Y82.658 E2.60932
G1 X70.878 Y82.185 E2.62260
G1 X70.411 Y81.621 E2.63669
G1 X70.041 Y81.038 E2.64997
G1 X69.870 Y80.703 E2.65722
G1 X69.612 Y80.051 E2.67071
G1 X69.450 Y79.420 E2.68324
G1 X69.688 Y79.313 F6000.000
G1 F1800.000
G1 X69.604 Y78.646 E2.69618
G1 X69.593 Y78.294 E2.70297
G1 X69.635 Y77.622 E2.71591
G1 X69.761 Y76.961 E2.72885
G1 X69.859 Y76.623 E2.73563
G1 X70.104 Y76.003 E2.74845
G1 X70.264 Y75.689 E2.75523
G1 X70.621 Y75.127 E2.76805
G1 X71.062 Y74.594 E2.78136
G1 X71.548 Y74.138 E2.79418
G1 X71.827 Y73.921 E2.80096
G1 X72.395 Y73.561 E2.81390
G1 X73.003 Y73.275 E2.82685
G1 X73.335 Y73.155 E2.83363
G1 X73.987 Y72.988 E2.84657
G1 X74.654 Y72.904 E2.85951
G1 X75.006 Y72.893 E2.86629
G1 X75.678 Y72.935 E2.87924
G1 X76.339 Y73.061 E2.89218
G1 X76.997 Y73.275 E2.90549
G1 X77.605 Y73.561 E2.91843
G1 X78.173 Y73.921 E2.93137
G1 X78.452 Y74.138 E2.93815
G1 X78.938 Y74.594 E2.95097
G1 X79.379 Y75.127 E2.96428
G1 X79.739 Y75.695 E2.97723
G1 X80.028 Y76.309 E2.99029
G1 X80.238 Y76.955 E3.00336
G1 X80.364 Y77.616 E3.01630
G1 X80.397 Y77.960 E3.02296
G1 X80.407 Y78.306 E3.02962
G1 X80.366 Y78.971 E3.04244
G1 X80.310 Y79.320 E3.04922
G1 X80.143 Y79.971 E3.06216
G1 X79.896 Y80.597 E3.07510
G1 X79.736 Y80.911 E3.08188
G1 X79.379 Y81.473 E3.09470
G1 X78.938 Y82.006 E3.10801
G1 X78.452 Y82.462 E3.12083
G1 X78.173 Y82.679 E3.12761
G1 X77.605 Y83.039 E3.14055
G1 X76.997 Y83.325 E3.15350
G1 X76.665 Y83.445 E3.16028
G1 X76.013 Y83.612 E3.17322
G1 X75.346 Y83.696 E3.18616
G1 X74.994 Y83.707 E3.19294
G1 X74.322 Y83.665 E3.20589
G1 X73.661 Y83.539 E3.21883
G1 X73.003 Y83.325 E3.23214
G1 X72.395 Y83.039 E3.24508
G1 X71.827 Y82.679 E3.25802
G1 X71.548 Y82.462 E3.26480
G1 X71.062 Y82.006 E3.27762
G1 X70.621 Y81.473 E3.29093
G1 X70.264 Y80.911 E3.30375
G1 X70.104 Y80.597 E3.31053
G1 X69.857 Y79.971 E3.32347
G1 X69.703 Y79.371 E3.33539
G1 X69.941 Y79.265 F6000.000
G1 F1800.000
G1 X69.860 Y78.626 E3.34778
G1 X69.850 Y78.298 E3.35410
G1 X69.890 Y77.654 E3.36650
G1 X70.011 Y77.021 E3.37890
G1 X70.103 Y76.706 E3.38521
G1 X70.339 Y76.109 E3.39756
G1 X70.488 Y75.817 E3.40388
G1 X70.832 Y75.275 E3.41623
G1 X71.247 Y74.773 E3.42876
G1 X71.715 Y74.333 E3.44111
G1 X71.975 Y74.132 E3.44743
G1 X72.519 Y73.787 E3.45983
G1 X73.102 Y73.512 E3.47223
G1 X73.411 Y73.401 E3.47854
G1 X74.035 Y73.241 E3.49094
G1 X74.674 Y73.160 E3.50334
G1 X75.002 Y73.150 E3.50965
G1 X75.646 Y73.190 E3.52205
G1 X76.279 Y73.311 E3.53445
G1 X76.898 Y73.512 E3.54698
G1 X77.481 Y73.787 E3.55938
G1 X78.025 Y74.132 E3.57177
G1 X78.285 Y74.333 E3.57809
G1 X78.753 Y74.773 E3.59044
G1 X79.168 Y75.275 E3.60298
G1 X79.513 Y75.819 E3.61537
G1 X79.789 Y76.404 E3.62782
G1 X79.988 Y77.019 E3.64026
G1 X80.109 Y77.652 E3.65266
G1 X80.140 Y77.977 E3.65893
G1 X80.150 Y78.302 E3.66520
G1 X80.110 Y78.943 E3.67755
G1 X80.058 Y79.267 E3.68386
G1 X79.898 Y79.892 E3.69626
G1 X79.661 Y80.491 E3.70866
G1 X79.512 Y80.783 E3.71498
G1 X79.168 Y81.325 E3.72733
G1 X78.753 Y81.827 E3.73986
G1 X78.285 Y82.267 E3.75221
G1 X78.025 Y82.468 E3.75853
G1 X77.481 Y82.813 E3.77093
G1 X76.898 Y83.088 E3.78332
G1 X76.589 Y83.199 E3.78964
G1 X75.965 Y83.359 E3.80204
G1 X75.326 Y83.440 E3.81443
G1 X74.998 Y83.450 E3.82075
G1 X74.354 Y83.410 E3.83315
G1 X73.721 Y83.289 E3.84554
G1 X73.102 Y83.088 E3.85808
G1 X72.519 Y82.813 E3.87048
G1 X71.975 Y82.468 E3.88287
G1 X71.715 Y82.267 E3.88919
G1 X71.247 Y81.827 E3.90154
G1 X70.832 Y81.325 E3.91407
G1 X70.488 Y80.783 E3.92643
G1 X70.339 Y80.491 E3.93274
G1 X70.102 Y79.892 E3.94514
G1 X69.956 Y79.323 E3.95643
G1 X69.563 Y79.133 F6000.000
G1 E1.95643 F1200.00000
G92 E0
G1 Z0.700 F6000.000
G1 X79.336 Y60.133 F6000.000
G1 Z0.200 F6000.000
G1 E2.00000 F1200.00000
G1 F1800.000
G1 X80.768 Y60.549 E2.02868
G1 X81.871 Y60.946 E2.05124
G1 X82.947 Y61.412 E2.07380
G1 X83.992 Y61.944 E2.09636
G1 X85.001 Y62.541 E2.11892
G1 X85.971 Y63.200 E2.14147
G1 X86.897 Y63.919 E2.16403
G1 X87.777 Y64.694 E2.18659
G1 X88.606 Y65.523 E2.20915
G1 X89.381 Y66.403 E2.23171
G1 X90.100 Y67.329 E2.25426
G1 X90.759 Y68.299 E2.27682
G1 X91.356 Y69.308 E2.29938
G1 X91.888 Y70.353 E2.32194
G1 X92.354 Y71.429 E2.34450
G1 X92.751 Y72.532 E2.36705
G1 X93.167 Y73.964 E2.39574
G1 X81.548 Y73.964 E2.61927
G1 X81.037 Y73.305 E2.63531
G1 X80.712 Y72.936 E2.64478
G1 X80.364 Y72.588 E2.65424
G1 X79.995 Y72.263 E2.66372
G1 X79.336 Y71.752 E2.67975
G1 X79.336 Y60.193 E2.90213
G1 X79.593 Y60.475 F6000.000
G1 F1800.000
G1 X80.688 Y60.794 E2.92407
G1 X81.776 Y61.185 E2.94631
G1 X82.837 Y61.645 E2.96856
G1 X83.868 Y62.170 E2.99081
G1 X84.863 Y62.758 E3.01306
G1 X85.819 Y63.408 E3.03530
G1 X86.733 Y64.117 E3.05755
G1 X87.601 Y64.882 E3.07980
G1 X88.418 Y65.699 E3.10204
G1 X89.183 Y66.567 E3.12429
G1 X89.892 Y67.480 E3.14654
G1 X90.542 Y68.437 E3.16878
G1 X91.130 Y69.432 E3.19103
G1 X91.655 Y70.463 E3.21328
G1 X92.115 Y71.524 E3.23553
G1 X92.506 Y72.612 E3.25777
G1 X92.825 Y73.707 E3.27972
G1 X81.674 Y73.707 E3.49423
G1 X81.236 Y73.141 E3.50800
G1 X80.899 Y72.760 E3.51779
G1 X80.540 Y72.401 E3.52756
G1 X80.158 Y72.064 E3.53735
G1 X79.593 Y71.626 E3.55112
