; generated by Slic3r 1.3.1-dev (Build (Unknown revision)) on 2020-12-03 at 16:05:04

; external perimeters extrusion width = 0.44mm (2.86mm^3/s)
; perimeters extrusion width = 0.56mm (4.14mm^3/s)
; infill extrusion width = 0.50mm (3.66mm^3/s)
; solid infill extrusion width = 0.56mm (3.10mm^3/s)
; top infill extrusion width = 0.45mm (2.44mm^3/s)

M107
G92 E0
;D3D:START:START
T0
M104 S215 T0

G21
G90
M107
T0
G28
G29
M109 T0 S215 T0
G0 F3000
M107
T0
G92 E0
G0 X0 Y149 Z0.1 F3600
G1 Y49 E6.5 F1200
G0 Z1
G92 E0
; Filament gcode

G21 ; set units to millimeters
G90 ; use absolute coordinates
M82 ; use absolute distances for extrusion
G92 E0
G1 Z0.300 F6000.000
G1 E-2.00000 F1200.00000
G92 E0
G1 Z0.800 F6000.000
G1 X51.951 Y51.066 F6000.000
G1 Z0.300 F6000.000
G1 E2.00000 F1200.00000
G1 F1800.000
G1 X53.665 Y49.821 E2.09477
G1 X54.780 Y49.253 E2.15074
G1 X55.263 Y49.030 E2.17452
G1 X71.173 Y42.440 E2.94480
G1 X72.705 Y42.008 E3.01599
G1 X73.941 Y41.812 E3.07197
G1 X76.059 Y41.812 E3.16674
G1 X77.295 Y42.008 E3.22272
G1 X78.827 Y42.440 E3.29391
G1 X94.737 Y49.030 E4.06420
G1 X95.220 Y49.253 E4.08797
G1 X96.335 Y49.821 E4.14395
G1 X98.049 Y51.066 E4.23871
G1 X98.934 Y51.951 E4.29470
G1 X100.179 Y53.665 E4.38946
G1 X100.747 Y54.780 E4.44543
G1 X100.970 Y55.263 E4.46921
G1 X107.560 Y71.173 E5.23949
G1 X107.992 Y72.705 E5.31069
G1 X108.188 Y73.941 E5.36667
G1 X108.188 Y76.059 E5.46144
G1 X107.992 Y77.295 E5.51742
G1 X107.560 Y78.827 E5.58861
G1 X100.970 Y94.737 E6.35889
G1 X100.747 Y95.220 E6.38267
G1 X100.179 Y96.335 E6.43864
G1 X98.934 Y98.049 E6.53341
G1 X98.049 Y98.934 E6.58939
G1 X96.335 Y100.179 E6.68416
G1 X95.220 Y100.747 E6.74013
G1 X94.737 Y100.970 E6.76391
G1 X78.827 Y107.560 E7.53419
G1 X77.295 Y107.992 E7.60538
G1 X76.059 Y108.188 E7.66136
G1 X73.941 Y108.188 E7.75613
G1 X72.705 Y107.992 E7.81211
G1 X71.173 Y107.560 E7.88330
G1 X55.263 Y100.970 E8.65359
G1 X54.780 Y100.747 E8.67736
G1 X53.665 Y100.179 E8.73334
G1 X51.951 Y98.934 E8.82810
G1 X51.066 Y98.049 E8.88409
G1 X49.821 Y96.335 E8.97885
G1 X49.253 Y95.220 E9.03483
G1 X49.030 Y94.737 E9.05860
G1 X42.440 Y78.827 E9.82889
G1 X42.008 Y77.295 E9.90008
G1 X41.812 Y76.059 E9.95606
G1 X41.812 Y73.941 E10.05083
G1 X42.008 Y72.705 E10.10681
G1 X42.440 Y71.173 E10.17800
G1 X49.030 Y55.263 E10.94828
G1 X49.253 Y54.780 E10.97206
G1 X49.821 Y53.665 E11.02803
G1 X51.066 Y51.951 E11.12280
G1 X51.909 Y51.108 E11.17610
G1 X52.224 Y51.339 F6000.000
G1 F1800.000
G1 X53.840 Y50.164 E11.26547
G1 X54.955 Y49.596 E11.32144
G1 X55.410 Y49.386 E11.34386
G1 X71.320 Y42.796 E12.11415
G1 X72.765 Y42.389 E12.18128
G1 X74.001 Y42.193 E12.23726
G1 X75.999 Y42.193 E12.32664
G1 X77.235 Y42.389 E12.38262
G1 X78.680 Y42.796 E12.44976
G1 X94.590 Y49.386 E13.22004
G1 X95.045 Y49.596 E13.24246
G1 X96.160 Y50.164 E13.29843
G1 X97.776 Y51.339 E13.38780
G1 X98.661 Y52.224 E13.44379
G1 X99.836 Y53.840 E13.53315
G1 X100.404 Y54.955 E13.58913
G1 X100.614 Y55.410 E13.61155
G1 X107.204 Y71.320 E14.38183
G1 X107.611 Y72.765 E14.44897
G1 X107.807 Y74.001 E14.50495
G1 X107.807 Y75.999 E14.59433
G1 X107.611 Y77.235 E14.65030
G1 X107.204 Y78.680 E14.71744
G1 X100.614 Y94.590 E15.48773
G1 X100.404 Y95.045 E15.51015
G1 X99.836 Y96.160 E15.56612
G1 X98.661 Y97.776 E15.65549
G1 X97.776 Y98.661 E15.71147
G1 X96.160 Y99.836 E15.80084
G1 X95.045 Y100.404 E15.85682
G1 X94.590 Y100.614 E15.87924
G1 X78.680 Y107.204 E16.64952
G1 X77.235 Y107.611 E16.71666
G1 X75.999 Y107.807 E16.77264
G1 X74.001 Y107.807 E16.86201
G1 X72.765 Y107.611 E16.91799
G1 X71.320 Y107.204 E16.98513
G1 X55.410 Y100.614 E17.75541
G1 X54.955 Y100.404 E17.77784
G1 X53.840 Y99.836 E17.83381
G1 X52.224 Y98.661 E17.92318
G1 X51.339 Y97.776 E17.97916
G1 X50.164 Y96.160 E18.06853
G1 X49.596 Y95.045 E18.12450
G1 X49.386 Y94.590 E18.14693
G1 X42.796 Y78.680 E18.91721
G1 X42.389 Y77.235 E18.98435
G1 X42.193 Y75.999 E19.04033
G1 X42.193 Y74.001 E19.12970
G1 X42.389 Y72.765 E19.18568
G1 X42.796 Y71.320 E19.25282
G1 X49.386 Y55.410 E20.02310
G1 X49.596 Y54.955 E20.04552
G1 X50.164 Y53.840 E20.10150
G1 X51.339 Y52.224 E20.19087
G1 X52.181 Y51.381 E20.24416
G1 E18.24416 F1200.00000
G92 E0
G1 Z0.800 F6000.000
G1 X97.500 Y78.560 F6000.000
G1 Z0.300 F6000.000
G1 E2.00000 F1200.00000
G1 F1800.000
G1 X94.417 Y76.780 E2.15923
G1 X94.417 Y75.168 E2.23134
G1 X94.204 Y75.151 E2.24091
G1 X94.022 Y76.298 E2.29283
G1 X91.359 Y82.727 E2.60411
G1 X90.771 Y83.882 E2.66208
G1 X89.836 Y84.817 E2.72124
G1 X88.659 Y85.416 E2.78028
G1 X88.066 Y85.525 E2.80728
G1 X87.273 Y85.882 E2.84617
G1 X86.493 Y86.493 E2.89049
G1 X85.882 Y87.273 E2.93482
G1 X85.525 Y88.066 E2.97370
G1 X85.416 Y88.659 E3.00070
G1 X84.817 Y89.836 E3.05974
G1 X83.882 Y90.771 E3.11891
G1 X82.727 Y91.359 E3.17688
G1 X76.298 Y94.022 E3.48815
G1 X75.151 Y94.204 E3.54008
G1 X75.168 Y94.417 E3.54964
G1 X76.780 Y94.417 E3.62175
G1 X78.560 Y97.500 E3.78098
G1 X76.780 Y100.583 E3.94021
G1 X73.220 Y100.583 E4.09944
G1 X71.440 Y97.500 E4.25867
G1 X73.220 Y94.417 E4.41790
G1 X74.832 Y94.417 E4.49001
G1 X74.849 Y94.204 E4.49958
G1 X73.702 Y94.022 E4.55151
G1 X67.273 Y91.359 E4.86278
G1 X66.118 Y90.771 E4.92075
G1 X65.183 Y89.836 E4.97992
G1 X64.584 Y88.659 E5.03896
G1 X64.475 Y88.066 E5.06596
G1 X64.118 Y87.273 E5.10484
G1 X63.507 Y86.493 E5.14917
G1 X62.727 Y85.882 E5.19349
G1 X61.934 Y85.525 E5.23237
G1 X61.341 Y85.416 E5.25937
G1 X60.164 Y84.817 E5.31842
G1 X59.229 Y83.882 E5.37758
G1 X58.641 Y82.727 E5.43555
G1 X55.978 Y76.298 E5.74683
G1 X55.796 Y75.151 E5.79875
G1 X55.583 Y75.168 E5.80832
G1 X55.583 Y76.780 E5.88043
G1 X52.500 Y78.560 E6.03966
G1 X49.417 Y76.780 E6.19889
G1 X49.417 Y73.220 E6.35812
G1 X52.500 Y71.440 E6.51735
G1 X55.583 Y73.220 E6.67658
G1 X55.583 Y74.832 E6.74869
G1 X55.796 Y74.849 E6.75826
G1 X55.978 Y73.702 E6.81018
G1 X58.641 Y67.273 E7.12146
G1 X59.229 Y66.118 E7.17943
G1 X60.164 Y65.183 E7.23859
G1 X61.341 Y64.584 E7.29764
G1 X61.934 Y64.475 E7.32464
G1 X62.727 Y64.118 E7.36352
G1 X63.507 Y63.507 E7.40784
G1 X64.118 Y62.727 E7.45217
G1 X64.475 Y61.934 E7.49105
G1 X64.584 Y61.341 E7.51805
G1 X65.183 Y60.164 E7.57709
G1 X66.118 Y59.229 E7.63626
G1 X67.273 Y58.641 E7.69423
G1 X73.702 Y55.978 E8.00550
G1 X74.849 Y55.796 E8.05743
G1 X74.832 Y55.583 E8.06700
G1 X73.220 Y55.583 E8.13911
G1 X71.440 Y52.500 E8.29834
G1 X73.220 Y49.417 E8.45757
G1 X76.780 Y49.417 E8.61680
G1 X78.560 Y52.500 E8.77603
G1 X76.780 Y55.583 E8.93526
G1 X75.168 Y55.583 E9.00737
G1 X75.151 Y55.796 E9.01693
G1 X76.298 Y55.978 E9.06886
G1 X82.727 Y58.641 E9.38014
G1 X83.882 Y59.229 E9.43810
G1 X84.817 Y60.164 E9.49727
G1 X85.416 Y61.341 E9.55631
G1 X85.525 Y61.934 E9.58331
G1 X85.882 Y62.727 E9.62219
G1 X86.493 Y63.507 E9.66652
G1 X87.273 Y64.118 E9.71084
G1 X88.066 Y64.475 E9.74973
G1 X88.659 Y64.584 E9.77673
G1 X89.836 Y65.183 E9.83577
G1 X90.771 Y66.118 E9.89494
G1 X91.359 Y67.273 E9.95290
G1 X94.022 Y73.702 E10.26418
G1 X94.204 Y74.849 E10.31611
G1 X94.417 Y74.832 E10.32567
G1 X94.417 Y73.220 E10.39778
G1 X97.500 Y71.440 E10.55701
G1 X100.583 Y73.220 E10.71624
G1 X100.583 Y76.780 E10.87547
G1 X97.552 Y78.530 E11.03202
G1 X97.300 Y78.906 F6000.000
G1 E9.03202 F1200.00000
G92 E0
G1 Z0.800 F6000.000
G1 X70.550 Y52.500 F6000.000
G1 Z0.300 F6000.000
G1 E2.00000 F1200.00000
G1 F1800.000
G1 X72.390 Y55.687 E2.16460
G1 X66.950 Y57.940 E2.42795
G1 X65.659 Y58.597 E2.49274
G1 X64.551 Y59.706 E2.56283
G1 X63.845 Y61.091 E2.63238
G1 X63.733 Y61.703 E2.66023
G1 X63.453 Y62.325 E2.69073
G1 X62.958 Y62.958 E2.72668
G1 X62.325 Y63.453 E2.76262
G1 X61.703 Y63.733 E2.79313
G1 X61.091 Y63.845 E2.82098
G1 X59.706 Y64.551 E2.89052
G1 X58.597 Y65.659 E2.96062
G1 X57.940 Y66.950 E3.02540
G1 X55.687 Y72.390 E3.28876
G1 X52.500 Y70.550 E3.45336
G1 X50.891 Y71.479 E3.53648
G1 X50.766 Y71.370 E3.54390
G1 X55.247 Y60.550 E4.06772
G1 X55.836 Y61.711 E4.12594
G1 X56.756 Y62.640 E4.18444
G1 X57.917 Y63.243 E4.24294
G1 X59.205 Y63.460 E4.30138
G1 X60.497 Y63.269 E4.35978
G1 X61.664 Y62.686 E4.41812
G1 X62.590 Y61.768 E4.47646
G1 X63.185 Y60.607 E4.53481
G1 X63.389 Y59.318 E4.59320
G1 X63.185 Y58.027 E4.65164
G1 X62.594 Y56.861 E4.71014
G1 X61.674 Y55.931 E4.76864
G1 X60.443 Y55.292 E4.83068
G1 X71.370 Y50.766 E5.35970
G1 X71.479 Y50.891 E5.36712
G1 X70.580 Y52.448 E5.44756
G1 X70.995 Y52.500 F6000.000
G1 F1800.000
G1 X72.943 Y55.875 E5.62186
G1 X67.112 Y58.290 E5.90421
G1 X65.889 Y58.913 E5.96559
G1 X64.867 Y59.935 E6.03022
G1 X64.215 Y61.216 E6.09451
G1 X64.104 Y61.819 E6.12194
G1 X63.786 Y62.526 E6.15663
G1 X63.232 Y63.232 E6.19677
G1 X62.526 Y63.786 E6.23690
G1 X61.819 Y64.104 E6.27160
G1 X61.216 Y64.215 E6.29902
G1 X59.935 Y64.867 E6.36332
G1 X58.913 Y65.889 E6.42794
G1 X58.290 Y67.112 E6.48932
G1 X55.875 Y72.943 E6.77167
G1 X52.500 Y70.995 E6.94597
G1 X50.100 Y72.381 E7.06995
G1 X49.975 Y72.271 E7.07737
G1 X55.290 Y59.440 E7.69860
G1 X55.464 Y59.461 E7.70643
G1 X55.616 Y60.425 E7.75007
G1 X56.153 Y61.483 E7.80314
G1 X56.988 Y62.326 E7.85623
G1 X58.041 Y62.873 E7.90930
G1 X59.209 Y63.070 E7.96230
G1 X60.379 Y62.896 E8.01522
G1 X61.436 Y62.368 E8.06806
G1 X62.275 Y61.537 E8.12088
G1 X62.814 Y60.486 E8.17372
G1 X62.999 Y59.318 E8.22663
G1 X62.814 Y58.147 E8.27963
G1 X62.277 Y57.089 E8.33270
G1 X61.442 Y56.246 E8.38579
G1 X60.389 Y55.699 E8.43886
G1 X59.324 Y55.519 E8.48720
G1 X59.304 Y55.346 E8.49499
G1 X72.271 Y49.975 E9.12280
G1 X72.381 Y50.100 E9.13022
G1 X71.025 Y52.448 E9.25152
G1 E7.25152 F1200.00000
G92 E0
G1 Z0.800 F6000.000
G1 X61.961 Y57.317 F6000.000
G1 Z0.300 F6000.000
G1 E2.00000 F1200.00000
G1 F1800.000
G1 X62.443 Y58.267 E2.04765
G1 X62.609 Y59.317 E2.09520
G1 X62.442 Y60.365 E2.14263
G1 X61.960 Y61.307 E2.18997
G1 X61.209 Y62.051 E2.23727
G1 X60.262 Y62.524 E2.28461
G1 X59.213 Y62.679 E2.33204
G1 X58.164 Y62.503 E2.37959
G1 X57.219 Y62.012 E2.42724
G1 X56.469 Y61.254 E2.47492
G1 X55.987 Y60.304 E2.52257
G1 X55.821 Y59.254 E2.57012
G1 X55.988 Y58.207 E2.61755
G1 X56.470 Y57.265 E2.66488
G1 X57.221 Y56.521 E2.71218
G1 X58.168 Y56.048 E2.75952
G1 X59.217 Y55.892 E2.80696
G1 X60.266 Y56.069 E2.85451
G1 X61.211 Y56.560 E2.90216
G1 X61.919 Y57.275 E2.94715
G1 X62.359 Y57.277 F6000.000
G1 E0.94715 F1200.00000
G92 E0
G1 Z0.800 F6000.000
G1 X55.687 Y77.610 F6000.000
G1 Z0.300 F6000.000
G1 E2.00000 F1200.00000
G1 F1800.000
G1 X57.940 Y83.050 E2.26336
G1 X58.597 Y84.341 E2.32814
G1 X59.706 Y85.449 E2.39824
G1 X61.091 Y86.154 E2.46778
G1 X61.703 Y86.267 E2.49563
G1 X62.325 Y86.547 E2.52614
G1 X62.958 Y87.042 E2.56208
G1 X63.453 Y87.675 E2.59803
G1 X63.733 Y88.297 E2.62853
G1 X63.845 Y88.909 E2.65638
G1 X64.551 Y90.294 E2.72593
G1 X65.659 Y91.403 E2.79602
G1 X66.950 Y92.060 E2.86081
G1 X72.390 Y94.313 E3.12417
G1 X70.550 Y97.500 E3.28876
G1 X71.479 Y99.109 E3.37189
G1 X71.370 Y99.234 E3.37930
G1 X60.443 Y94.708 E3.90832
G1 X61.674 Y94.069 E3.97036
G1 X62.594 Y93.139 E4.02887
G1 X63.185 Y91.973 E4.08736
G1 X63.389 Y90.682 E4.14580
G1 X63.185 Y89.393 E4.20419
G1 X62.590 Y88.232 E4.26255
G1 X61.664 Y87.314 E4.32088
G1 X60.497 Y86.731 E4.37923
G1 X59.205 Y86.540 E4.43762
G1 X57.917 Y86.757 E4.49607
G1 X56.756 Y87.360 E4.55456
G1 X55.836 Y88.289 E4.61306
G1 X55.247 Y89.450 E4.67128
G1 X50.766 Y78.630 E5.19510
G1 X50.891 Y78.521 E5.20252
G1 X52.500 Y79.450 E5.28565
G1 X55.635 Y77.640 E5.44756
G1 X55.875 Y77.057 F6000.000
G1 F1800.000
G1 X58.290 Y82.888 E5.72991
G1 X58.913 Y84.111 E5.79128
G1 X59.935 Y85.133 E5.85591
G1 X61.216 Y85.785 E5.92021
G1 X61.819 Y85.896 E5.94763
G1 X62.526 Y86.214 E5.98232
G1 X63.232 Y86.768 E6.02246
G1 X63.786 Y87.474 E6.06260
G1 X64.104 Y88.181 E6.09729
G1 X64.215 Y88.784 E6.12472
G1 X64.867 Y90.065 E6.18901
G1 X65.889 Y91.087 E6.25364
G1 X67.112 Y91.710 E6.31502
G1 X72.943 Y94.125 E6.59736
G1 X70.995 Y97.500 E6.77167
G1 X72.381 Y99.900 E6.89565
G1 X72.271 Y100.025 E6.90307
G1 X59.304 Y94.654 E7.53088
G1 X59.324 Y94.481 E7.53867
G1 X60.389 Y94.301 E7.58701
G1 X61.442 Y93.754 E7.64008
G1 X62.277 Y92.911 E7.69317
G1 X62.814 Y91.853 E7.74624
G1 X62.999 Y90.682 E7.79923
G1 X62.814 Y89.514 E7.85214
G1 X62.275 Y88.463 E7.90499
G1 X61.436 Y87.632 E7.95781
G1 X60.379 Y87.104 E8.01065
G1 X59.209 Y86.930 E8.06356
G1 X58.041 Y87.127 E8.11656
G1 X56.988 Y87.674 E8.16964
G1 X56.153 Y88.517 E8.22273
G1 X55.616 Y89.575 E8.27580
G1 X55.464 Y90.539 E8.31944
G1 X55.290 Y90.560 E8.32727
G1 X49.975 Y77.729 E8.94850
G1 X50.100 Y77.619 E8.95591
G1 X52.500 Y79.005 E9.07989
G1 X55.823 Y77.087 E9.25152
G1 E7.25152 F1200.00000
G92 E0
G1 Z0.800 F6000.000
G1 X58.164 Y87.497 F6000.000
G1 Z0.300 F6000.000
G1 E2.00000 F1200.00000
G1 F1800.000
G1 X59.213 Y87.321 E2.04755
G1 X60.262 Y87.476 E2.09499
G1 X61.209 Y87.949 E2.14232
G1 X61.960 Y88.693 E2.18962
G1 X62.442 Y89.635 E2.23697
G1 X62.609 Y90.683 E2.28440
G1 X62.443 Y91.733 E2.33195
G1 X61.961 Y92.683 E2.37959
G1 X61.211 Y93.440 E2.42727
G1 X60.266 Y93.931 E2.47492
G1 X59.217 Y94.108 E2.52247
G1 X58.168 Y93.952 E2.56991
G1 X57.221 Y93.479 E2.61725
G1 X56.470 Y92.735 E2.66454
G1 X55.988 Y91.793 E2.71188
G1 X55.821 Y90.746 E2.75931
G1 X55.987 Y89.696 E2.80686
G1 X56.469 Y88.746 E2.85451
G1 X57.219 Y87.988 E2.90219
G1 X58.111 Y87.525 E2.94715
G1 X58.244 Y87.105 F6000.000
G1 E0.94715 F1200.00000
G92 E0
G1 Z0.800 F6000.000
G1 X87.391 Y90.683 F6000.000
G1 Z0.300 F6000.000
G1 E2.00000 F1200.00000
G1 F1800.000
G1 X87.558 Y89.635 E2.04743
G1 X88.040 Y88.693 E2.09477
G1 X88.791 Y87.949 E2.14207
G1 X89.738 Y87.476 E2.18941
G1 X90.787 Y87.321 E2.23684
G1 X91.836 Y87.497 E2.28440
G1 X92.781 Y87.988 E2.33204
G1 X93.531 Y88.746 E2.37972
G1 X94.013 Y89.696 E2.42737
G1 X94.179 Y90.746 E2.47492
G1 X94.012 Y91.793 E2.52235
G1 X93.530 Y92.735 E2.56969
G1 X92.779 Y93.479 E2.61699
G1 X91.832 Y93.952 E2.66433
G1 X90.783 Y94.108 E2.71176
G1 X89.734 Y93.931 E2.75932
G1 X88.789 Y93.440 E2.80696
G1 X88.039 Y92.683 E2.85464
G1 X87.557 Y91.733 E2.90229
G1 X87.401 Y90.742 E2.94715
G1 X87.045 Y90.482 F6000.000
G1 E0.94715 F1200.00000
G92 E0
G1 Z0.800 F6000.000
G1 X89.557 Y94.708 F6000.000
G1 Z0.300 F6000.000
G1 E2.00000 F1200.00000
G1 F1800.000
G1 X78.630 Y99.234 E2.52902
G1 X78.521 Y99.109 E2.53643
G1 X79.450 Y97.500 E2.61956
G1 X77.610 Y94.313 E2.78415
G1 X83.050 Y92.060 E3.04751
G1 X84.341 Y91.403 E3.11230
G1 X85.449 Y90.294 E3.18239
G1 X86.155 Y88.909 E3.25194
G1 X86.267 Y88.297 E3.27979
G1 X86.547 Y87.675 E3.31029
G1 X87.042 Y87.042 E3.34624
G1 X87.675 Y86.547 E3.38218
G1 X88.297 Y86.267 E3.41269
G1 X88.909 Y86.154 E3.44054
G1 X90.294 Y85.449 E3.51008
G1 X91.403 Y84.341 E3.58018
G1 X92.060 Y83.050 E3.64496
G1 X94.313 Y77.610 E3.90832
G1 X97.500 Y79.450 E4.07292
G1 X99.109 Y78.521 E4.15604
G1 X99.234 Y78.630 E4.16346
G1 X94.753 Y89.450 E4.68728
G1 X94.164 Y88.289 E4.74550
G1 X93.244 Y87.360 E4.80400
G1 X92.083 Y86.757 E4.86250
G1 X90.795 Y86.540 E4.92094
G1 X89.503 Y86.731 E4.97933
G1 X88.336 Y87.314 E5.03768
G1 X87.410 Y88.232 E5.09602
G1 X86.815 Y89.393 E5.15437
G1 X86.611 Y90.682 E5.21276
G1 X86.815 Y91.973 E5.27120
G1 X87.406 Y93.139 E5.32970
G1 X88.326 Y94.069 E5.38820
G1 X89.504 Y94.680 E5.44756
G1 X90.696 Y94.654 F6000.000
G1 F1800.000
G1 X77.729 Y100.025 E6.07537
G1 X77.619 Y99.900 E6.08279
G1 X79.005 Y97.500 E6.20677
G1 X77.057 Y94.125 E6.38107
G1 X82.888 Y91.710 E6.66342
G1 X84.111 Y91.087 E6.72480
G1 X85.133 Y90.065 E6.78943
G1 X85.785 Y88.784 E6.85372
G1 X85.896 Y88.181 E6.88115
G1 X86.214 Y87.474 E6.91584
G1 X86.768 Y86.768 E6.95598
G1 X87.474 Y86.214 E6.99611
G1 X88.181 Y85.896 E7.03081
G1 X88.784 Y85.785 E7.05823
G1 X90.065 Y85.133 E7.12253
G1 X91.087 Y84.111 E7.18715
G1 X91.710 Y82.888 E7.24853
G1 X94.125 Y77.057 E7.53088
G1 X97.500 Y79.005 E7.70518
G1 X99.900 Y77.619 E7.82916
G1 X100.025 Y77.729 E7.83658
G1 X94.710 Y90.560 E8.45781
G1 X94.536 Y90.539 E8.46564
G1 X94.384 Y89.575 E8.50928
G1 X93.847 Y88.517 E8.56235
G1 X93.012 Y87.674 E8.61544
G1 X91.959 Y87.127 E8.66851
G1 X90.791 Y86.930 E8.72151
G1 X89.621 Y87.104 E8.77443
G1 X88.564 Y87.632 E8.82727
G1 X87.725 Y88.463 E8.88009
G1 X87.186 Y89.514 E8.93293
G1 X87.001 Y90.682 E8.98584
G1 X87.186 Y91.853 E9.03884
G1 X87.723 Y92.911 E9.09191
G1 X88.558 Y93.754 E9.14500
G1 X89.611 Y94.301 E9.19807
G1 X90.676 Y94.481 E9.24641
G1 X90.689 Y94.594 E9.25152
