; generated by Slic3r 1.3.1-dev (Build (Unknown revision)) on 2020-12-03 at 02:08:19

; external perimeters extrusion width = 0.44mm (2.86mm^3/s)
; perimeters extrusion width = 0.56mm (4.14mm^3/s)
; infill extrusion width = 0.50mm (3.66mm^3/s)
; solid infill extrusion width = 0.56mm (3.10mm^3/s)
; top infill extrusion width = 0.45mm (2.44mm^3/s)

M107
G92 E0
;D3D:START:START
T0
M104 S215 T0

G21
G90
M107
T0
G28
G29
M109 T0 S215 T0
G0 F3000
M107
T0
G92 E0
G0 X0 Y149 Z0.1 F3600
G1 Y49 E6.5 F1200
G0 Z1
G92 E0
; Filament gcode

G21 ; set units to millimeters
G90 ; use absolute coordinates
M82 ; use absolute distances for extrusion
G92 E0
G1 Z0.300 F6000.000
G1 E-2.00000 F1200.00000
G92 E0
G1 Z0.800 F6000.000
G1 X3.500 Y33.229 F6000.000
G1 Z0.300 F6000.000
G1 E2.00000 F1200.00000
G1 F1800.000
G1 X146.500 Y33.229 E8.39636
G1 X148.785 Y33.626 E8.50009
G1 X150.801 Y34.770 E8.60381
G1 X152.313 Y36.528 E8.70753
G1 X153.144 Y38.693 E8.81125
G1 X153.271 Y40.000 E8.86997
G1 X153.271 Y110.000 E12.00106
G1 X152.874 Y112.285 E12.10478
G1 X151.730 Y114.301 E12.20850
G1 X149.972 Y115.813 E12.31223
G1 X147.807 Y116.644 E12.41595
G1 X146.500 Y116.771 E12.47467
G1 X3.500 Y116.771 E18.87104
G1 X1.215 Y116.374 E18.97476
G1 X-0.801 Y115.230 E19.07848
G1 X-2.313 Y113.472 E19.18220
G1 X-3.144 Y111.307 E19.28592
G1 X-3.271 Y110.000 E19.34465
G1 X-3.271 Y40.000 E22.47573
G1 X-2.874 Y37.715 E22.57946
G1 X-1.730 Y35.699 E22.68318
G1 X0.028 Y34.187 E22.78690
G1 X2.193 Y33.356 E22.89062
G1 X3.440 Y33.235 E22.94666
G1 X3.500 Y33.614 F6000.000
G1 F1800.000
G1 X146.500 Y33.614 E29.34303
G1 X148.716 Y34.011 E29.44373
G1 X150.657 Y35.153 E29.54443
G1 X152.081 Y36.896 E29.64513
G1 X152.886 Y40.000 E29.78855
G1 X152.886 Y110.000 E32.91964
G1 X152.489 Y112.216 E33.02034
G1 X151.347 Y114.157 E33.12104
G1 X149.604 Y115.581 E33.22174
G1 X146.500 Y116.386 E33.36516
G1 X3.500 Y116.386 E39.76153
G1 X1.284 Y115.989 E39.86223
G1 X-0.657 Y114.847 E39.96293
G1 X-2.081 Y113.104 E40.06363
G1 X-2.886 Y110.000 E40.20705
G1 X-2.886 Y40.000 E43.33814
G1 X-2.489 Y37.784 E43.43884
G1 X-1.347 Y35.843 E43.53954
G1 X0.396 Y34.419 E43.64024
G1 X3.442 Y33.629 E43.78098
G1 E41.78098 F1200.00000
G92 E0
G1 Z0.800 F6000.000
G1 X116.136 Y80.750 F6000.000
G1 Z0.300 F6000.000
G1 E2.00000 F1200.00000
G1 F1800.000
G1 X116.289 Y80.726 E2.00695
G1 X116.289 Y79.962 E2.04112
G1 X116.351 Y79.469 E2.06335
G1 X116.443 Y79.185 E2.07668
G1 X116.571 Y78.916 E2.08998
G1 X116.874 Y78.499 E2.11305
G1 X117.104 Y78.283 E2.12718
G1 X117.557 Y77.995 E2.15118
G1 X118.066 Y77.830 E2.17514
G1 X118.362 Y77.793 E2.18846
G1 X128.638 Y77.793 E2.64813
G1 X128.934 Y77.830 E2.66145
G1 X129.443 Y77.995 E2.68540
G1 X129.912 Y78.293 E2.71026
G1 X130.279 Y78.684 E2.73421
G1 X130.438 Y78.934 E2.74746
G1 X130.557 Y79.185 E2.75992
G1 X130.649 Y79.469 E2.77324
G1 X130.711 Y79.962 E2.79547
G1 X130.711 Y100.038 E3.69349
G1 X130.649 Y100.531 E3.71572
G1 X130.557 Y100.815 E3.72905
G1 X130.438 Y101.066 E3.74150
G1 X130.279 Y101.316 E3.75476
G1 X129.912 Y101.707 E3.77870
G1 X129.443 Y102.005 E3.80356
G1 X128.934 Y102.170 E3.82752
G1 X128.638 Y102.207 E3.84084
G1 X118.362 Y102.207 E4.30050
G1 X118.085 Y102.173 E4.31297
G1 X117.817 Y102.103 E4.32537
G1 X117.541 Y101.994 E4.33865
G1 X117.088 Y101.707 E4.36265
G1 X116.721 Y101.316 E4.38659
G1 X116.562 Y101.066 E4.39985
G1 X116.443 Y100.815 E4.41231
G1 X116.351 Y100.531 E4.42563
G1 X116.289 Y100.038 E4.44786
G1 X116.289 Y80.774 E5.30953
G1 X116.195 Y80.759 E5.31380
G1 X116.675 Y79.986 F6000.000
G1 F1800.000
G1 X116.729 Y79.553 E5.33332
G1 X116.802 Y79.328 E5.34391
G1 X116.904 Y79.114 E5.35449
G1 X117.164 Y78.755 E5.37432
G1 X117.341 Y78.589 E5.38520
G1 X117.722 Y78.347 E5.40538
G1 X118.151 Y78.208 E5.42552
G1 X118.386 Y78.178 E5.43613
G1 X128.614 Y78.178 E5.89363
G1 X128.849 Y78.208 E5.90423
G1 X129.278 Y78.347 E5.92438
G1 X129.665 Y78.592 E5.94488
G1 X129.973 Y78.921 E5.96502
G1 X130.099 Y79.120 E5.97558
G1 X130.198 Y79.328 E5.98586
G1 X130.271 Y79.553 E5.99644
G1 X130.325 Y79.986 E6.01596
G1 X130.325 Y100.014 E6.91182
G1 X130.271 Y100.447 E6.93134
G1 X130.198 Y100.672 E6.94192
G1 X130.099 Y100.880 E6.95219
G1 X129.973 Y101.079 E6.96276
G1 X129.665 Y101.408 E6.98290
G1 X129.278 Y101.653 E7.00340
G1 X128.849 Y101.792 E7.02354
G1 X128.614 Y101.822 E7.03415
G1 X118.386 Y101.822 E7.49165
G1 X118.158 Y101.793 E7.50194
G1 X117.936 Y101.736 E7.51217
G1 X117.716 Y101.649 E7.52274
G1 X117.335 Y101.408 E7.54292
G1 X117.027 Y101.079 E7.56306
G1 X116.901 Y100.880 E7.57363
G1 X116.802 Y100.672 E7.58390
G1 X116.729 Y100.447 E7.59448
G1 X116.675 Y100.014 E7.61400
G1 X116.675 Y80.046 E8.50718
G1 X116.346 Y79.758 F6000.000
G1 X116.092 Y80.750 F6000.000
G1 F1800.000
G1 X115.711 Y81.921 E8.56225
G1 X114.715 Y82.645 E8.61732
G1 X113.485 Y82.645 E8.67237
G1 X112.489 Y81.921 E8.72744
G1 X112.108 Y80.750 E8.78251
G1 X112.489 Y79.579 E8.83759
G1 X113.485 Y78.855 E8.89265
G1 X114.715 Y78.855 E8.94771
G1 X115.711 Y79.579 E9.00277
G1 X116.074 Y80.693 E9.05516
G1 X115.687 Y80.750 F6000.000
G1 F1800.000
G1 X115.383 Y81.683 E9.09903
G1 X114.590 Y82.259 E9.14289
G1 X113.610 Y82.259 E9.18673
G1 X112.817 Y81.683 E9.23059
G1 X112.513 Y80.750 E9.27445
G1 X112.817 Y79.817 E9.31832
G1 X113.610 Y79.241 E9.36218
G1 X114.590 Y79.241 E9.40602
G1 X115.383 Y79.817 E9.44988
G1 X115.668 Y80.693 E9.49106
G1 X116.033 Y80.950 F6000.000
G1 E7.49106 F1200.00000
G92 E0
G1 Z0.800 F6000.000
G1 X131.351 Y84.469 F6000.000
G1 Z0.300 F6000.000
G1 E2.00000 F1200.00000
G1 F1800.000
G1 X131.443 Y84.185 E2.01332
G1 X131.571 Y83.916 E2.02663
G1 X131.874 Y83.499 E2.04969
G1 X132.104 Y83.283 E2.06383
G1 X132.557 Y82.995 E2.08783
G1 X133.066 Y82.830 E2.11178
G1 X133.362 Y82.793 E2.12511
G1 X133.638 Y82.793 E2.13748
G1 X133.915 Y82.827 E2.14994
G1 X134.183 Y82.896 E2.16234
G1 X134.459 Y83.006 E2.17562
G1 X134.912 Y83.293 E2.19962
G1 X135.279 Y83.684 E2.22357
G1 X135.438 Y83.934 E2.23682
G1 X135.557 Y84.185 E2.24928
G1 X135.649 Y84.469 E2.26260
G1 X135.715 Y85.000 E2.28656
G1 X135.649 Y85.531 E2.31051
G1 X135.557 Y85.815 E2.32383
G1 X135.429 Y86.084 E2.33714
G1 X135.126 Y86.501 E2.36020
G1 X134.896 Y86.717 E2.37434
G1 X134.443 Y87.005 E2.39834
G1 X133.934 Y87.170 E2.42230
G1 X133.638 Y87.207 E2.43562
G1 X133.362 Y87.207 E2.44798
G1 X133.085 Y87.173 E2.46045
G1 X132.817 Y87.103 E2.47285
G1 X132.541 Y86.994 E2.48613
G1 X132.088 Y86.707 E2.51013
G1 X131.721 Y86.316 E2.53407
G1 X131.562 Y86.066 E2.54733
G1 X131.443 Y85.815 E2.55979
G1 X131.351 Y85.531 E2.57311
G1 X131.285 Y85.000 E2.59707
G1 X131.344 Y84.528 E2.61834
G1 X131.729 Y84.553 F6000.000
G1 F1800.000
G1 X131.802 Y84.328 E2.62892
G1 X131.904 Y84.114 E2.63951
G1 X132.164 Y83.755 E2.65934
G1 X132.341 Y83.589 E2.67021
G1 X132.722 Y83.347 E2.69039
G1 X133.151 Y83.208 E2.71054
G1 X133.386 Y83.178 E2.72114
G1 X133.614 Y83.178 E2.73135
G1 X133.842 Y83.207 E2.74164
G1 X134.064 Y83.264 E2.75186
G1 X134.284 Y83.351 E2.76244
G1 X134.665 Y83.592 E2.78262
G1 X134.973 Y83.921 E2.80276
G1 X135.099 Y84.120 E2.81333
G1 X135.198 Y84.328 E2.82360
G1 X135.271 Y84.553 E2.83418
G1 X135.327 Y85.000 E2.85434
G1 X135.271 Y85.447 E2.87449
G1 X135.198 Y85.672 E2.88508
G1 X135.096 Y85.886 E2.89566
G1 X134.836 Y86.245 E2.91549
G1 X134.659 Y86.411 E2.92637
G1 X134.278 Y86.653 E2.94655
G1 X133.849 Y86.792 E2.96670
G1 X133.614 Y86.822 E2.97730
G1 X133.386 Y86.822 E2.98750
G1 X133.158 Y86.793 E2.99779
G1 X132.936 Y86.736 E3.00802
G1 X132.716 Y86.649 E3.01859
G1 X132.335 Y86.408 E3.03878
G1 X132.027 Y86.079 E3.05892
G1 X131.901 Y85.880 E3.06948
G1 X131.802 Y85.672 E3.07975
G1 X131.729 Y85.447 E3.09034
G1 X131.673 Y85.000 E3.11049
G1 X131.722 Y84.612 E3.12796
G1 X131.554 Y84.395 F6000.000
G1 E1.12796 F1200.00000
G92 E0
G1 Z0.800 F6000.000
G1 X133.362 Y67.207 F6000.000
G1 Z0.300 F6000.000
G1 E2.00000 F1200.00000
G1 F1800.000
G1 X133.085 Y67.173 E2.01246
G1 X132.817 Y67.104 E2.02486
G1 X132.541 Y66.994 E2.03814
G1 X132.088 Y66.707 E2.06214
G1 X131.721 Y66.316 E2.08609
G1 X131.562 Y66.066 E2.09934
G1 X131.443 Y65.815 E2.11180
G1 X131.351 Y65.531 E2.12512
G1 X131.285 Y65.000 E2.14908
G1 X131.351 Y64.469 E2.17303
G1 X131.443 Y64.185 E2.18636
G1 X131.571 Y63.916 E2.19967
G1 X131.874 Y63.499 E2.22273
G1 X132.104 Y63.283 E2.23686
G1 X132.557 Y62.995 E2.26086
G1 X133.066 Y62.830 E2.28482
G1 X133.362 Y62.793 E2.29814
G1 X133.638 Y62.793 E2.31050
G1 X133.915 Y62.827 E2.32297
G1 X134.183 Y62.897 E2.33538
G1 X134.459 Y63.006 E2.34865
G1 X134.912 Y63.293 E2.37265
G1 X135.279 Y63.684 E2.39660
G1 X135.438 Y63.934 E2.40985
G1 X135.557 Y64.185 E2.42231
G1 X135.649 Y64.469 E2.43563
G1 X135.715 Y65.000 E2.45959
G1 X135.649 Y65.531 E2.48354
G1 X135.557 Y65.815 E2.49687
G1 X135.429 Y66.084 E2.51018
G1 X135.126 Y66.501 E2.53324
G1 X134.896 Y66.717 E2.54737
G1 X134.443 Y67.005 E2.57137
G1 X133.934 Y67.170 E2.59533
G1 X133.638 Y67.207 E2.60865
G1 X133.422 Y67.207 E2.61834
G1 X133.386 Y66.822 F6000.000
G1 F1800.000
G1 X133.158 Y66.793 E2.62862
G1 X132.936 Y66.736 E2.63885
G1 X132.716 Y66.649 E2.64942
G1 X132.335 Y66.408 E2.66961
G1 X132.027 Y66.079 E2.68975
G1 X131.901 Y65.880 E2.70031
G1 X131.802 Y65.672 E2.71058
G1 X131.729 Y65.447 E2.72117
G1 X131.673 Y65.000 E2.74132
G1 X131.729 Y64.553 E2.76148
G1 X131.802 Y64.328 E2.77206
G1 X131.904 Y64.114 E2.78265
G1 X132.164 Y63.755 E2.80248
G1 X132.341 Y63.589 E2.81335
G1 X132.722 Y63.347 E2.83354
G1 X133.151 Y63.208 E2.85368
G1 X133.386 Y63.178 E2.86428
G1 X133.614 Y63.178 E2.87449
G1 X133.842 Y63.207 E2.88478
G1 X134.064 Y63.264 E2.89501
G1 X134.284 Y63.351 E2.90558
G1 X134.665 Y63.592 E2.92576
G1 X134.973 Y63.921 E2.94590
G1 X135.099 Y64.120 E2.95647
G1 X135.198 Y64.328 E2.96674
G1 X135.271 Y64.553 E2.97732
G1 X135.327 Y65.000 E2.99748
G1 X135.271 Y65.447 E3.01763
G1 X135.198 Y65.672 E3.02822
G1 X135.096 Y65.886 E3.03881
G1 X134.836 Y66.245 E3.05864
G1 X134.659 Y66.411 E3.06951
G1 X134.278 Y66.653 E3.08969
G1 X133.849 Y66.792 E3.10984
G1 X133.446 Y66.822 E3.12793
G1 X133.259 Y67.013 F6000.000
G1 E1.12793 F1200.00000
G92 E0
G1 Z0.800 F6000.000
G1 X95.737 Y83.685 F6000.000
G1 Z0.300 F6000.000
G1 E2.00000 F1200.00000
G1 F1800.000
G1 X95.904 Y83.637 E2.00777
G1 X95.904 Y79.969 E2.17185
G1 X95.922 Y79.674 E2.18505
G1 X95.983 Y79.354 E2.19965
G1 X96.084 Y79.044 E2.21423
G1 X96.223 Y78.748 E2.22883
G1 X96.398 Y78.473 E2.24342
G1 X96.606 Y78.221 E2.25801
G1 X96.844 Y77.998 E2.27262
G1 X97.108 Y77.806 E2.28721
G1 X97.394 Y77.649 E2.30180
G1 X97.697 Y77.529 E2.31640
G1 X98.013 Y77.448 E2.33099
G1 X98.337 Y77.407 E2.34558
G1 X108.662 Y77.407 E2.80745
G1 X109.018 Y77.452 E2.82349
G1 X109.608 Y77.644 E2.85125
G1 X110.160 Y77.994 E2.88048
G1 X110.584 Y78.446 E2.90822
G1 X110.776 Y78.747 E2.92416
G1 X110.916 Y79.043 E2.93881
G1 X111.027 Y79.384 E2.95487
G1 X111.096 Y79.938 E2.97982
G1 X111.096 Y100.062 E3.87999
G1 X111.027 Y100.616 E3.90493
G1 X110.916 Y100.957 E3.92100
G1 X110.776 Y101.253 E3.93564
G1 X110.584 Y101.554 E3.95159
G1 X110.160 Y102.006 E3.97933
G1 X109.609 Y102.356 E4.00855
G1 X109.018 Y102.548 E4.03632
G1 X108.662 Y102.593 E4.05237
G1 X98.337 Y102.593 E4.51421
G1 X98.013 Y102.552 E4.52881
G1 X97.697 Y102.471 E4.54342
G1 X97.394 Y102.351 E4.55801
G1 X97.108 Y102.194 E4.57259
G1 X96.844 Y102.002 E4.58718
G1 X96.606 Y101.779 E4.60179
G1 X96.398 Y101.527 E4.61639
G1 X96.223 Y101.252 E4.63098
G1 X96.084 Y100.956 E4.64557
G1 X95.983 Y100.646 E4.66016
G1 X95.922 Y100.326 E4.67476
G1 X95.904 Y100.031 E4.68795
G1 X95.904 Y86.363 E5.29933
G1 X95.737 Y86.315 E5.30710
G1 X95.602 Y86.527 E5.31837
G1 X95.394 Y86.779 E5.33297
G1 X95.156 Y87.002 E5.34756
G1 X94.892 Y87.194 E5.36216
G1 X94.606 Y87.351 E5.37675
G1 X94.303 Y87.471 E5.39133
G1 X93.987 Y87.552 E5.40594
G1 X93.663 Y87.593 E5.42054
G1 X93.337 Y87.593 E5.43512
G1 X93.013 Y87.552 E5.44972
G1 X92.697 Y87.471 E5.46432
G1 X92.394 Y87.351 E5.47891
G1 X92.108 Y87.194 E5.49350
G1 X91.844 Y87.002 E5.50809
G1 X91.606 Y86.779 E5.52269
G1 X91.398 Y86.527 E5.53729
G1 X91.263 Y86.315 E5.54855
G1 X91.096 Y86.363 E5.55632
G1 X91.096 Y100.031 E6.16770
G1 X91.078 Y100.326 E6.18090
G1 X91.017 Y100.646 E6.19550
G1 X90.916 Y100.956 E6.21008
G1 X90.777 Y101.252 E6.22468
G1 X90.602 Y101.527 E6.23928
G1 X90.394 Y101.779 E6.25387
G1 X90.156 Y102.002 E6.26846
G1 X89.892 Y102.194 E6.28306
G1 X89.606 Y102.351 E6.29765
G1 X89.303 Y102.471 E6.31224
G1 X88.987 Y102.552 E6.32685
G1 X88.663 Y102.593 E6.34144
G1 X78.337 Y102.593 E6.80332
G1 X78.013 Y102.552 E6.81792
G1 X77.697 Y102.471 E6.83253
G1 X77.394 Y102.351 E6.84712
G1 X77.108 Y102.194 E6.86170
G1 X76.844 Y102.002 E6.87629
G1 X76.606 Y101.779 E6.89090
G1 X76.398 Y101.527 E6.90550
G1 X76.223 Y101.252 E6.92009
G1 X76.084 Y100.956 E6.93469
G1 X75.983 Y100.646 E6.94927
G1 X75.922 Y100.326 E6.96387
G1 X75.904 Y100.031 E6.97706
G1 X75.904 Y86.363 E7.58844
G1 X75.737 Y86.315 E7.59621
G1 X75.602 Y86.527 E7.60748
G1 X75.394 Y86.779 E7.62208
G1 X75.156 Y87.002 E7.63667
G1 X74.892 Y87.194 E7.65127
G1 X74.606 Y87.351 E7.66586
G1 X74.303 Y87.471 E7.68045
G1 X73.987 Y87.552 E7.69505
G1 X73.663 Y87.593 E7.70965
G1 X73.337 Y87.593 E7.72423
G1 X73.013 Y87.552 E7.73883
G1 X72.697 Y87.471 E7.75343
G1 X72.394 Y87.351 E7.76802
G1 X72.108 Y87.194 E7.78261
G1 X71.844 Y87.002 E7.79720
G1 X71.606 Y86.779 E7.81180
G1 X71.398 Y86.527 E7.82640
G1 X71.263 Y86.315 E7.83766
G1 X71.096 Y86.363 E7.84543
G1 X71.096 Y100.031 E8.45681
G1 X71.078 Y100.326 E8.47001
G1 X71.017 Y100.646 E8.48461
G1 X70.916 Y100.956 E8.49919
G1 X70.777 Y101.252 E8.51379
G1 X70.602 Y101.527 E8.52839
G1 X70.394 Y101.779 E8.54298
G1 X70.156 Y102.002 E8.55757
G1 X69.892 Y102.194 E8.57217
G1 X69.606 Y102.351 E8.58676
G1 X69.303 Y102.471 E8.60135
G1 X68.987 Y102.552 E8.61596
G1 X68.663 Y102.593 E8.63055
G1 X58.337 Y102.593 E9.09243
G1 X58.013 Y102.552 E9.10703
G1 X57.697 Y102.471 E9.12164
G1 X57.394 Y102.351 E9.13623
G1 X57.108 Y102.194 E9.15081
G1 X56.844 Y102.002 E9.16541
G1 X56.606 Y101.779 E9.18001
G1 X56.398 Y101.527 E9.19461
G1 X56.223 Y101.252 E9.20920
G1 X56.084 Y100.956 E9.22380
G1 X55.983 Y100.646 E9.23838
G1 X55.922 Y100.326 E9.25298
G1 X55.904 Y100.031 E9.26617
G1 X55.904 Y86.363 E9.87755
G1 X55.737 Y86.315 E9.88532
G1 X55.602 Y86.527 E9.89659
G1 X55.394 Y86.779 E9.91119
G1 X55.156 Y87.002 E9.92578
G1 X54.892 Y87.194 E9.94038
G1 X54.606 Y87.351 E9.95497
G1 X54.303 Y87.471 E9.96956
G1 X53.987 Y87.552 E9.98416
G1 X53.663 Y87.593 E9.99876
G1 X53.337 Y87.593 E10.01334
G1 X53.013 Y87.552 E10.02794
G1 X52.697 Y87.471 E10.04254
G1 X52.394 Y87.351 E10.05713
G1 X52.108 Y87.194 E10.07172
G1 X51.844 Y87.002 E10.08631
G1 X51.606 Y86.779 E10.10091
G1 X51.398 Y86.527 E10.11551
G1 X51.263 Y86.315 E10.12677
G1 X51.096 Y86.363 E10.13454
G1 X51.096 Y100.031 E10.74592
G1 X51.078 Y100.326 E10.75912
G1 X51.017 Y100.646 E10.77372
G1 X50.916 Y100.956 E10.78830
G1 X50.777 Y101.252 E10.80290
G1 X50.602 Y101.527 E10.81750
G1 X50.394 Y101.779 E10.83209
G1 X50.156 Y102.002 E10.84668
G1 X49.892 Y102.194 E10.86128
G1 X49.606 Y102.351 E10.87587
G1 X49.303 Y102.471 E10.89046
G1 X48.987 Y102.552 E10.90507
G1 X48.663 Y102.593 E10.91966
G1 X38.337 Y102.593 E11.38154
G1 X38.013 Y102.552 E11.39614
G1 X37.697 Y102.471 E11.41075
G1 X37.394 Y102.351 E11.42534
G1 X37.108 Y102.194 E11.43992
G1 X36.844 Y102.002 E11.45452
G1 X36.606 Y101.779 E11.46912
G1 X36.398 Y101.527 E11.48372
G1 X36.223 Y101.252 E11.49831
G1 X36.084 Y100.956 E11.51290
G1 X35.983 Y100.646 E11.52749
G1 X35.922 Y100.326 E11.54209
G1 X35.904 Y100.031 E11.55528
G1 X35.904 Y86.363 E12.16666
G1 X35.737 Y86.315 E12.17443
G1 X35.602 Y86.527 E12.18571
G1 X35.394 Y86.779 E12.20030
G1 X35.156 Y87.002 E12.21489
G1 X34.892 Y87.194 E12.22949
G1 X34.606 Y87.351 E12.24408
G1 X34.303 Y87.471 E12.25867
G1 X33.987 Y87.552 E12.27327
G1 X33.663 Y87.593 E12.28787
G1 X33.337 Y87.593 E12.30245
G1 X33.013 Y87.552 E12.31705
G1 X32.697 Y87.471 E12.33165
G1 X32.394 Y87.351 E12.34624
G1 X32.108 Y87.194 E12.36083
G1 X31.844 Y87.002 E12.37542
G1 X31.606 Y86.779 E12.39002
G1 X31.398 Y86.527 E12.40462
G1 X31.223 Y86.252 E12.41922
G1 X31.084 Y85.956 E12.43381
G1 X30.983 Y85.646 E12.44840
G1 X30.922 Y85.326 E12.46300
G1 X30.902 Y85.000 E12.47759
