; generated by Slic3r 1.3.1-dev (Build (Unknown revision)) on 2020-06-19 at 09:06:05

; external perimeters extrusion width = 0.44mm (2.86mm^3/s)
; perimeters extrusion width = 0.56mm (4.14mm^3/s)
; infill extrusion width = 0.50mm (5.48mm^3/s)
; solid infill extrusion width = 0.56mm (3.10mm^3/s)
; top infill extrusion width = 0.45mm (2.44mm^3/s)

M107
G92 E0
;D3D:START:START
T0
M104 S215 T0

G21
G90
M107
T0
G28
G29
M109 T0 S215 T0
G0 F3000
M107
T0
G92 E0
G0 X0 Y149 Z0.1 F3600
G1 Y49 E6.5 F1200
G0 Z1
G92 E0
; Filament gcode

G21 ; set units to millimeters
G90 ; use absolute coordinates
M82 ; use absolute distances for extrusion
G92 E0
G1 Z0.200 F6000.000
G1 E-2.00000 F1200.00000
G92 E0
G1 X46.853 Y56.114 F6000.000
G1 E2.00000 F1200.00000
G1 F1800.000
G1 X67.153 Y44.114 E2.45368
G1 X69.450 Y43.486 E2.49949
G1 X77.450 Y43.486 E2.65340
G1 X79.298 Y43.881 E2.68976
G1 X80.408 Y44.590 E2.71510
G1 X103.808 Y64.890 E3.31108
G1 X104.945 Y66.400 E3.34743
G1 X105.364 Y68.300 E3.38487
G1 X105.364 Y81.700 E3.64267
G1 X104.969 Y83.548 E3.67902
G1 X103.808 Y85.110 E3.71646
G1 X80.408 Y105.410 E4.31244
G1 X78.753 Y106.322 E4.34880
G1 X77.450 Y106.514 E4.37414
G1 X69.450 Y106.514 E4.52804
G1 X67.153 Y105.886 E4.57386
G1 X46.853 Y93.886 E5.02754
G1 X45.463 Y92.605 E5.06389
G1 X44.636 Y90.000 E5.11648
G1 X44.636 Y60.000 E5.69364
G1 X45.031 Y58.152 E5.73000
G1 X46.813 Y56.159 E5.78143
G1 X46.984 Y56.335 F6000.000
G1 F1800.000
G1 X67.284 Y44.335 E6.23511
G1 X69.450 Y43.743 E6.27831
G1 X77.450 Y43.743 E6.43222
G1 X79.241 Y44.138 E6.46752
G1 X80.240 Y44.784 E6.49039
G1 X103.640 Y65.084 E7.08637
G1 X104.734 Y66.557 E7.12167
G1 X105.107 Y68.300 E7.15596
G1 X105.107 Y81.700 E7.41376
G1 X104.712 Y83.491 E7.44905
G1 X103.640 Y84.916 E7.48335
G1 X80.240 Y105.216 E8.07933
G1 X78.627 Y106.091 E8.11462
G1 X77.450 Y106.257 E8.13750
G1 X69.450 Y106.257 E8.29141
G1 X67.284 Y105.665 E8.33461
G1 X46.984 Y93.665 E8.78829
G1 X45.643 Y92.413 E8.82359
G1 X44.893 Y90.000 E8.87219
G1 X44.893 Y60.000 E9.44935
G1 X45.288 Y58.209 E9.48465
G1 X46.943 Y56.380 E9.53210
G1 E7.53210 F1200.00000
G92 E0
G1 X94.512 Y80.754 F6000.000
G1 E2.00000 F1200.00000
G1 F1800.000
G1 X93.798 Y80.754 E2.01373
G1 X93.417 Y80.718 E2.02110
G1 X92.726 Y80.586 E2.03462
G1 X92.359 Y80.479 E2.04199
G1 X91.705 Y80.221 E2.05552
G1 X91.373 Y80.051 E2.06269
G1 X91.052 Y79.862 E2.06986
G1 X90.475 Y79.442 E2.08358
G1 X89.947 Y78.947 E2.09751
G1 X89.492 Y78.397 E2.11124
G1 X89.277 Y78.080 E2.11861
G1 X88.933 Y77.455 E2.13234
G1 X88.671 Y76.791 E2.14607
G1 X88.567 Y76.434 E2.15323
G1 X88.485 Y76.070 E2.16040
G1 X88.396 Y75.362 E2.17413
G1 X88.396 Y74.648 E2.18786
G1 X88.431 Y74.278 E2.19503
G1 X88.489 Y73.910 E2.20219
G1 X88.667 Y73.218 E2.21592
G1 X88.933 Y72.545 E2.22985
G1 X89.277 Y71.920 E2.24358
G1 X89.492 Y71.603 E2.25095
G1 X89.947 Y71.053 E2.26468
G1 X90.467 Y70.565 E2.27841
G1 X90.762 Y70.336 E2.28557
G1 X91.070 Y70.127 E2.29274
G1 X91.695 Y69.783 E2.30647
G1 X92.359 Y69.521 E2.32020
G1 X92.726 Y69.414 E2.32757
G1 X93.417 Y69.282 E2.34109
G1 X93.798 Y69.246 E2.34846
G1 X94.502 Y69.246 E2.36199
G1 X94.883 Y69.282 E2.36936
G1 X95.574 Y69.414 E2.38288
G1 X95.941 Y69.521 E2.39025
G1 X96.595 Y69.779 E2.40378
G1 X96.936 Y69.953 E2.41115
G1 X97.530 Y70.330 E2.42468
G1 X97.833 Y70.565 E2.43205
G1 X98.353 Y71.053 E2.44577
G1 X98.808 Y71.603 E2.45950
G1 X99.023 Y71.920 E2.46687
G1 X99.367 Y72.545 E2.48060
G1 X99.629 Y73.209 E2.49433
G1 X99.733 Y73.566 E2.50149
G1 X99.815 Y73.930 E2.50866
G1 X99.904 Y74.638 E2.52239
G1 X99.904 Y75.352 E2.53612
G1 X99.869 Y75.722 E2.54329
G1 X99.811 Y76.090 E2.55046
G1 X99.633 Y76.782 E2.56418
G1 X99.367 Y77.455 E2.57811
G1 X99.023 Y78.080 E2.59184
G1 X98.808 Y78.397 E2.59921
G1 X98.360 Y78.939 E2.61274
G1 X98.089 Y79.210 E2.62011
G1 X97.547 Y79.658 E2.63363
G1 X97.230 Y79.873 E2.64100
G1 X96.605 Y80.217 E2.65473
G1 X95.941 Y80.479 E2.66846
G1 X95.584 Y80.583 E2.67563
G1 X95.220 Y80.665 E2.68279
G1 X94.572 Y80.747 E2.69537
G1 X94.496 Y80.497 F6000.000
G1 F1800.000
G1 X93.811 Y80.497 E2.70855
G1 X93.453 Y80.463 E2.71545
G1 X92.787 Y80.336 E2.72851
G1 X92.442 Y80.236 E2.73542
G1 X91.811 Y79.986 E2.74848
G1 X91.497 Y79.826 E2.75526
G1 X91.194 Y79.647 E2.76204
G1 X90.639 Y79.244 E2.77522
G1 X90.135 Y78.770 E2.78853
G1 X89.698 Y78.242 E2.80171
G1 X89.496 Y77.946 E2.80861
G1 X89.166 Y77.345 E2.82180
G1 X88.914 Y76.708 E2.83498
G1 X88.816 Y76.370 E2.84176
G1 X88.739 Y76.026 E2.84854
G1 X88.653 Y75.346 E2.86172
G1 X88.653 Y74.661 E2.87491
G1 X88.686 Y74.310 E2.88169
G1 X88.741 Y73.962 E2.88846
G1 X88.912 Y73.298 E2.90165
G1 X89.166 Y72.655 E2.91496
G1 X89.496 Y72.054 E2.92814
G1 X89.698 Y71.758 E2.93504
G1 X90.135 Y71.230 E2.94822
G1 X90.634 Y70.760 E2.96141
G1 X90.913 Y70.545 E2.96819
G1 X91.204 Y70.346 E2.97497
G1 X91.805 Y70.016 E2.98815
G1 X92.442 Y69.764 E3.00133
G1 X92.787 Y69.664 E3.00824
G1 X93.453 Y69.537 E3.02130
G1 X93.811 Y69.503 E3.02820
G1 X94.489 Y69.503 E3.04126
G1 X94.847 Y69.537 E3.04816
G1 X95.513 Y69.664 E3.06122
G1 X95.858 Y69.764 E3.06813
G1 X96.489 Y70.014 E3.08119
G1 X96.809 Y70.177 E3.08809
G1 X97.382 Y70.541 E3.10115
G1 X97.666 Y70.760 E3.10805
G1 X98.165 Y71.230 E3.12124
G1 X98.602 Y71.758 E3.13442
G1 X98.804 Y72.054 E3.14132
G1 X99.134 Y72.655 E3.15450
G1 X99.386 Y73.292 E3.16769
G1 X99.484 Y73.630 E3.17447
G1 X99.561 Y73.974 E3.18125
G1 X99.647 Y74.654 E3.19443
G1 X99.647 Y75.339 E3.20761
G1 X99.614 Y75.690 E3.21439
G1 X99.559 Y76.038 E3.22117
G1 X99.388 Y76.702 E3.23436
G1 X99.134 Y77.345 E3.24766
G1 X98.804 Y77.946 E3.26085
G1 X98.602 Y78.242 E3.26775
G1 X98.169 Y78.765 E3.28081
G1 X97.915 Y79.019 E3.28771
G1 X97.392 Y79.452 E3.30077
G1 X97.096 Y79.654 E3.30768
G1 X96.495 Y79.984 E3.32086
G1 X95.858 Y80.236 E3.33404
G1 X95.520 Y80.334 E3.34082
G1 X95.176 Y80.411 E3.34760
G1 X94.555 Y80.489 E3.35963
G1 X94.480 Y80.240 F6000.000
G1 F1800.000
G1 X93.823 Y80.240 E3.37227
G1 X93.490 Y80.208 E3.37871
G1 X92.847 Y80.086 E3.39130
G1 X92.525 Y79.992 E3.39774
G1 X91.917 Y79.751 E3.41033
G1 X91.621 Y79.601 E3.41672
G1 X91.335 Y79.432 E3.42311
G1 X90.803 Y79.045 E3.43575
G1 X90.323 Y78.594 E3.44844
G1 X89.904 Y78.088 E3.46108
G1 X89.716 Y77.811 E3.46751
G1 X89.399 Y77.235 E3.48015
G1 X89.158 Y76.625 E3.49279
G1 X89.065 Y76.306 E3.49918
G1 X88.992 Y75.981 E3.50557
G1 X88.910 Y75.330 E3.51821
G1 X88.910 Y74.673 E3.53085
G1 X88.941 Y74.342 E3.53724
G1 X88.993 Y74.014 E3.54363
G1 X89.157 Y73.378 E3.55627
G1 X89.399 Y72.765 E3.56895
G1 X89.716 Y72.189 E3.58159
G1 X89.904 Y71.912 E3.58803
G1 X90.323 Y71.406 E3.60067
G1 X90.802 Y70.956 E3.61331
G1 X91.064 Y70.753 E3.61970
G1 X91.339 Y70.566 E3.62609
G1 X91.915 Y70.249 E3.63873
G1 X92.525 Y70.008 E3.65137
G1 X92.847 Y69.914 E3.65780
G1 X93.490 Y69.792 E3.67040
G1 X93.823 Y69.760 E3.67683
G1 X94.477 Y69.760 E3.68943
G1 X94.810 Y69.792 E3.69586
G1 X95.453 Y69.914 E3.70846
G1 X95.775 Y70.008 E3.71489
G1 X96.383 Y70.249 E3.72749
G1 X96.681 Y70.400 E3.73392
G1 X97.234 Y70.751 E3.74652
G1 X97.498 Y70.956 E3.75295
G1 X97.977 Y71.406 E3.76559
G1 X98.396 Y71.912 E3.77823
G1 X98.584 Y72.189 E3.78467
G1 X98.901 Y72.765 E3.79731
G1 X99.142 Y73.375 E3.80995
G1 X99.235 Y73.694 E3.81634
G1 X99.308 Y74.019 E3.82273
G1 X99.390 Y74.670 E3.83537
G1 X99.390 Y75.327 E3.84801
G1 X99.359 Y75.658 E3.85440
G1 X99.307 Y75.986 E3.86079
G1 X99.143 Y76.622 E3.87343
G1 X98.901 Y77.235 E3.88611
G1 X98.584 Y77.811 E3.89875
G1 X98.396 Y78.088 E3.90519
G1 X97.979 Y78.592 E3.91778
G1 X97.742 Y78.829 E3.92422
G1 X97.238 Y79.246 E3.93681
G1 X96.961 Y79.434 E3.94325
G1 X96.385 Y79.751 E3.95589
G1 X95.775 Y79.992 E3.96853
G1 X95.456 Y80.085 E3.97492
G1 X95.131 Y80.158 E3.98131
G1 X94.539 Y80.232 E3.99279
G1 X94.298 Y80.596 F6000.000
G1 E1.99279 F1200.00000
G92 E0
G1 X87.114 Y77.721 F6000.000
G1 E2.00000 F1200.00000
G1 F1800.000
G1 X87.114 Y72.279 E2.10469
G1 X85.114 Y72.279 E2.14317
G1 X85.114 Y68.343 E2.21890
G1 X70.114 Y51.744 E2.64931
G1 X70.114 Y48.664 E2.70857
G1 X77.170 Y48.664 E2.84431
G1 X96.940 Y68.964 E3.38946
G1 X100.186 Y68.964 E3.45190
G1 X100.186 Y81.036 E3.68415
G1 X96.940 Y81.036 E3.74659
G1 X77.170 Y101.336 E4.29175
G1 X70.114 Y101.336 E4.42749
G1 X70.114 Y98.256 E4.48674
G1 X85.114 Y81.657 E4.91715
G1 X85.114 Y77.721 E4.99288
G1 X87.054 Y77.721 E5.03020
G1 X86.857 Y77.464 F6000.000
G1 F1800.000
G1 X86.857 Y72.536 E5.12501
G1 X84.857 Y72.536 E5.16348
G1 X84.857 Y68.442 E5.24226
G1 X69.857 Y51.843 E5.67266
G1 X69.857 Y48.407 E5.73877
G1 X77.278 Y48.407 E5.88154
G1 X97.049 Y68.707 E6.42670
G1 X100.443 Y68.707 E6.49200
G1 X100.443 Y81.293 E6.73414
G1 X97.049 Y81.293 E6.79944
G1 X77.278 Y101.593 E7.34459
G1 X69.857 Y101.593 E7.48737
G1 X69.857 Y98.157 E7.55347
G1 X84.857 Y81.558 E7.98388
G1 X84.857 Y77.464 E8.06265
G1 X86.797 Y77.464 E8.09998
G1 X86.600 Y77.207 F6000.000
G1 F1800.000
G1 X86.600 Y72.793 E8.18489
G1 X84.600 Y72.793 E8.22336
G1 X84.600 Y68.541 E8.30518
G1 X69.600 Y51.942 E8.73558
G1 X69.600 Y48.150 E8.80854
G1 X77.387 Y48.150 E8.95835
G1 X97.157 Y68.450 E9.50350
G1 X100.700 Y68.450 E9.57166
G1 X100.700 Y81.550 E9.82369
G1 X97.157 Y81.550 E9.89185
G1 X77.387 Y101.850 E10.43701
G1 X69.600 Y101.850 E10.58681
G1 X69.600 Y98.058 E10.65977
G1 X84.600 Y81.459 E11.09018
G1 X84.600 Y77.207 E11.17199
G1 X86.540 Y77.207 E11.20931
G1 X86.972 Y77.059 F6000.000
G1 X87.262 Y77.726 F6000.000
G1 F1800.000
G1 X88.466 Y76.523 E11.24223
G1 X88.391 Y76.231 E11.24805
G1 X87.262 Y77.360 E11.27895
G1 X87.262 Y76.995 E11.28602
G1 X88.331 Y75.926 E11.31526
G1 X88.290 Y75.602 E11.32158
G1 X87.262 Y76.629 E11.34970
G1 X87.262 Y76.264 E11.35677
G1 X88.249 Y75.277 E11.38377
G1 X88.248 Y74.912 E11.39082
G1 X87.262 Y75.898 E11.41779
G1 X87.262 Y75.533 E11.42486
G1 X88.248 Y74.547 E11.45183
G1 X88.284 Y74.145 E11.45963
G1 X87.262 Y75.167 E11.48758
G1 X87.262 Y74.802 E11.49466
G1 X88.357 Y73.707 E11.52461
G1 X88.483 Y73.215 E11.53443
G1 X87.262 Y74.436 E11.56784
G1 X87.262 Y74.070 E11.57491
G1 X88.680 Y72.652 E11.61371
G1 X88.809 Y72.326 E11.62048
G1 X89.015 Y71.952 E11.62876
G1 X87.262 Y73.705 E11.67672
G1 X87.262 Y73.339 E11.68379
G1 E9.68379 F1200.00000
G92 E0
G1 X85.657 Y77.869 F6000.000
G1 E2.00000 F1200.00000
G1 F1800.000
G1 X85.262 Y78.264 E2.01080
G1 X85.262 Y78.629 E2.01787
G1 X86.023 Y77.869 E2.03868
G1 X86.388 Y77.869 E2.04575
G1 X85.262 Y78.995 E2.07655
G1 X85.262 Y79.360 E2.08362
G1 X86.754 Y77.869 E2.12443
G1 X87.119 Y77.869 E2.13150
G1 X85.262 Y79.726 E2.18230
G1 X85.262 Y80.092 E2.18937
G1 X88.551 Y76.803 E2.27934
G1 X88.655 Y77.065 E2.28479
G1 X85.262 Y80.457 E2.37760
G1 X85.262 Y80.823 E2.38467
G1 X88.758 Y77.327 E2.48032
G1 X88.875 Y77.575 E2.48563
G1 X85.262 Y81.188 E2.58447
G1 X85.262 Y81.554 E2.59154
G1 X89.005 Y77.811 E2.69393
G1 X89.135 Y78.047 E2.69914
G1 X84.754 Y82.427 E2.81897
G1 X81.324 Y86.223 E2.91795
G1 X89.278 Y78.269 E3.13555
G1 X89.429 Y78.483 E3.14062
G1 X77.893 Y90.020 E3.45623
G1 X74.462 Y93.816 E3.55521
G1 X89.595 Y78.683 E3.96919
G1 X89.760 Y78.883 E3.97421
G1 X71.032 Y97.612 E4.48658
G1 X70.262 Y98.464 E4.50878
G1 X70.262 Y98.747 E4.51426
G1 X89.934 Y79.075 E5.05243
G1 X90.122 Y79.252 E5.05743
G1 X70.262 Y99.113 E5.60075
G1 X70.262 Y99.478 E5.60782
G1 X90.311 Y79.430 E6.15630
G1 X90.509 Y79.597 E6.16132
G1 X70.262 Y99.844 E6.71522
G1 X70.262 Y100.209 E6.72229
G1 X90.721 Y79.751 E7.28199
G1 X90.933 Y79.904 E7.28705
G1 X70.262 Y100.575 E7.85254
G1 X70.262 Y100.941 E7.85961
G1 X91.155 Y80.048 E8.43118
G1 X91.386 Y80.182 E8.43636
G1 X70.380 Y101.188 E9.01101
G1 X70.746 Y101.188 E9.01808
G1 X91.628 Y80.305 E9.58937
G1 X91.884 Y80.416 E9.59475
G1 X71.112 Y101.188 E10.16301
G1 X71.477 Y101.188 E10.17009
G1 X92.146 Y80.519 E10.73552
G1 X92.409 Y80.621 E10.74099
G1 X71.843 Y101.188 E11.30363
G1 X72.208 Y101.188 E11.31070
G1 X92.693 Y80.703 E11.87110
G1 X92.993 Y80.769 E11.87704
G1 X72.574 Y101.188 E12.43564
G1 X72.939 Y101.188 E12.44272
G1 X93.300 Y80.827 E12.99972
G1 X93.617 Y80.876 E13.00593
G1 X73.305 Y101.188 E13.56161
G1 X73.671 Y101.188 E13.56868
G1 X93.956 Y80.902 E14.12364
G1 X94.322 Y80.902 E14.13071
G1 X74.036 Y101.188 E14.68567
G1 X74.402 Y101.188 E14.69274
G1 X94.695 Y80.895 E15.24790
G1 X95.113 Y80.842 E15.25606
G1 X74.767 Y101.188 E15.81266
G1 X75.133 Y101.188 E15.81973
G1 X95.551 Y80.769 E16.37833
G1 X96.047 Y80.639 E16.38825
G1 X75.498 Y101.188 E16.95040
G1 X75.864 Y101.188 E16.95748
G1 X96.637 Y80.414 E17.52578
G1 X96.824 Y80.341 E17.52965
G1 X97.386 Y80.032 E17.54206
G1 X76.229 Y101.188 E18.12083
G1 X76.595 Y101.188 F6000.000
G1 F1800.000
G1 X90.504 Y87.279 E18.50133
G1 X77.170 Y100.970 E18.87101
G1 X76.813 Y100.970 E18.87792
G1 E16.87792 F1200.00000
G92 E0
G1 X99.820 Y80.888 F6000.000
G1 E2.00000 F1200.00000
G1 F1800.000
G1 X100.038 Y80.670 E2.00597
G1 X100.038 Y80.304 E2.01304
G1 X99.454 Y80.888 E2.02902
G1 X99.088 Y80.888 E2.03609
G1 X100.038 Y79.938 E2.06206
G1 X100.038 Y79.573 E2.06913
G1 X98.723 Y80.888 E2.10511
G1 X98.357 Y80.888 E2.11218
G1 X100.038 Y79.207 E2.15815
G1 X100.038 Y78.842 E2.16522
G1 X97.992 Y80.888 E2.22120
G1 X97.626 Y80.888 E2.22827
G1 X100.038 Y78.476 E2.29425
G1 X100.038 Y78.111 E2.30132
G1 X97.261 Y80.888 E2.37730
G1 X96.895 Y80.888 E2.38437
G1 X100.038 Y77.745 E2.47034
G1 X100.038 Y77.379 E2.47742
G1 X99.182 Y78.236 E2.50084
G1 X99.491 Y77.674 E2.51325
G1 X99.564 Y77.487 E2.51712
G1 X99.969 Y77.082 E2.52820
G1 E0.52820 F1200.00000
G92 E0
G1 X99.747 Y72.918 F6000.000
G1 E2.00000 F1200.00000
G1 F1800.000
G1 X100.038 Y72.627 E2.00796
G1 X100.038 Y72.262 E2.01503
G1 X99.566 Y72.734 E2.02795
G1 X99.455 Y72.479 E2.03333
G1 X100.038 Y71.896 E2.04928
G1 X100.038 Y71.530 E2.05635
G1 X99.325 Y72.243 E2.07585
G1 X99.195 Y72.007 E2.08106
G1 X100.038 Y71.165 E2.10410
G1 X100.038 Y70.799 E2.11117
G1 X99.056 Y71.781 E2.13803
G1 X98.908 Y71.563 E2.14312
G1 X100.038 Y70.434 E2.17402
G1 X100.038 Y70.068 E2.18109
G1 X98.743 Y71.363 E2.21651
G1 X98.578 Y71.163 E2.22153
G1 X100.038 Y69.703 E2.26148
G1 X100.038 Y69.337 E2.26855
G1 X98.410 Y70.965 E2.31309
G1 X98.221 Y70.788 E2.31810
G1 X99.897 Y69.112 E2.36395
G1 X99.532 Y69.112 E2.37102
G1 X98.033 Y70.611 E2.41204
G1 X97.840 Y70.439 E2.41705
G1 X99.166 Y69.112 E2.45333
G1 X98.801 Y69.112 E2.46040
G1 X97.634 Y70.279 E2.49232
G1 X97.416 Y70.131 E2.49741
G1 X98.435 Y69.112 E2.52530
G1 X98.069 Y69.112 E2.53237
G1 X97.192 Y69.989 E2.55637
G1 X96.968 Y69.848 E2.56149
G1 X97.704 Y69.112 E2.58161
G1 X97.338 Y69.112 E2.58868
G1 X96.727 Y69.723 E2.60539
G1 X96.477 Y69.608 E2.61073
G1 X96.973 Y69.112 E2.62430
G1 X96.941 Y69.112 E2.62492
G1 X96.776 Y68.943 E2.62948
G1 X96.215 Y69.505 E2.64484
G1 X95.953 Y69.401 E2.65029
G1 X96.596 Y68.758 E2.66788
G1 X96.415 Y68.573 E2.67288
G1 X95.673 Y69.316 E2.69320
G1 X95.378 Y69.245 E2.69906
G1 X96.235 Y68.388 E2.72251
G1 X96.055 Y68.202 E2.72751
G1 X95.071 Y69.186 E2.75442
G1 X94.760 Y69.132 E2.76053
G1 X95.874 Y68.017 E2.79102
G1 X95.694 Y67.832 E2.79602
G1 X94.426 Y69.100 E2.83071
G1 X94.062 Y69.098 E2.83774
G1 X95.514 Y67.647 E2.87744
G1 X95.333 Y67.462 E2.88244
G1 X93.697 Y69.098 E2.92720
G1 X93.295 Y69.134 E2.93501
G1 X95.153 Y67.276 E2.98583
G1 X94.972 Y67.091 E2.99083
G1 X92.846 Y69.217 E3.04900
G1 X92.372 Y69.326 E3.05842
G1 X94.792 Y66.906 E3.12464
G1 X94.612 Y66.721 E3.12964
G1 X91.802 Y69.530 E3.20650
G1 X91.476 Y69.659 E3.21328
G1 X91.102 Y69.865 E3.22155
G1 X94.431 Y66.536 E3.31264
G1 X94.251 Y66.350 E3.31764
G1 X87.262 Y73.339 E3.50884
G1 X87.262 Y72.974 E3.51591
G1 X94.071 Y66.165 E3.70217
G1 X93.890 Y65.980 E3.70717
G1 X87.262 Y72.608 E3.88850
G1 X87.262 Y72.243 E3.89557
G1 X93.710 Y65.795 E4.07196
G1 X93.530 Y65.610 E4.07696
G1 X87.008 Y72.131 E4.25537
G1 X86.642 Y72.131 E4.26245
G1 X93.349 Y65.424 E4.44592
G1 X93.169 Y65.239 E4.45092
G1 X86.277 Y72.131 E4.63947
G1 X85.911 Y72.131 E4.64654
G1 X92.988 Y65.054 E4.84015
G1 X92.808 Y64.869 E4.84515
G1 X85.546 Y72.131 E5.04382
G1 X85.262 Y72.131 E5.04931
G1 X85.262 Y72.049 E5.05089
G1 X92.628 Y64.684 E5.25240
G1 X92.447 Y64.498 E5.25740
G1 X85.262 Y71.684 E5.45396
G1 X85.262 Y71.318 E5.46104
G1 X92.267 Y64.313 E5.65267
G1 X92.087 Y64.128 E5.65767
G1 X85.262 Y70.952 E5.84437
G1 X85.262 Y70.587 E5.85144
G1 X91.906 Y63.943 E6.03320
