; generated by Slic3r 1.3.0 on 2021-03-05 at 23:19:48

; external perimeters extrusion width = 0.44mm (2.86mm^3/s)
; perimeters extrusion width = 0.56mm (4.14mm^3/s)
; infill extrusion width = 0.50mm (3.66mm^3/s)
; solid infill extrusion width = 0.56mm (3.10mm^3/s)
; top infill extrusion width = 0.45mm (2.44mm^3/s)

M107
;D3D:START:START
T0
M104 S215 T0

G21
G90
M107
T0
G28
G29
M109 T0 S215 T0
G0 F3000
M107
T0
G92 E0
G0 X0 Y149 Z0.1 F3600
G1 Y49 E6.5 F1200
G0 Z1
G92 E0
; Filament gcode

G21 ; set units to millimeters
G90 ; use absolute coordinates
M82 ; use absolute distances for extrusion
G92 E0
G1 Z0.300 F6000.000
G1 E-2.00000 F1200.00000
G92 E0
G1 Z0.800 F6000.000
G1 X50.645 Y55.849 F6000.000
G1 Z0.300 F6000.000
G1 E2.00000 F1200.00000
G1 F1800
G1 X52.403 Y54.337 E2.10372
G1 X54.568 Y53.506 E2.20744
G1 X55.875 Y53.379 E2.26617
G1 X94.125 Y53.379 E3.97708
G1 X96.410 Y53.776 E4.08080
G1 X98.426 Y54.920 E4.18453
G1 X99.938 Y56.678 E4.28825
G1 X100.769 Y58.843 E4.39197
G1 X100.896 Y60.150 E4.45069
G1 X100.896 Y91.850 E5.86863
G1 X100.499 Y94.135 E5.97235
G1 X99.355 Y96.151 E6.07607
G1 X97.597 Y97.663 E6.17979
G1 X95.432 Y98.494 E6.28351
G1 X94.125 Y98.621 E6.34224
G1 X55.875 Y98.621 E8.05315
G1 X53.590 Y98.224 E8.15688
G1 X51.574 Y97.080 E8.26060
G1 X50.062 Y95.322 E8.36432
G1 X49.231 Y93.157 E8.46804
G1 X49.104 Y91.850 E8.52677
G1 X49.104 Y60.150 E9.94470
G1 X49.501 Y57.865 E10.04842
G1 X50.616 Y55.901 E10.14946
G1 X51.028 Y55.993 F6000.000
G1 F1800
G1 X52.771 Y54.569 E10.25016
G1 X55.875 Y53.764 E10.39358
G1 X94.125 Y53.764 E12.10450
G1 X96.341 Y54.161 E12.20520
G1 X98.282 Y55.303 E12.30590
G1 X99.706 Y57.046 E12.40660
G1 X100.511 Y60.150 E12.55002
G1 X100.511 Y91.850 E13.96796
G1 X100.114 Y94.066 E14.06866
G1 X98.972 Y96.007 E14.16936
G1 X97.229 Y97.431 E14.27006
G1 X94.125 Y98.236 E14.41348
G1 X55.875 Y98.236 E16.12440
G1 X53.659 Y97.839 E16.22510
G1 X51.718 Y96.697 E16.32580
G1 X50.294 Y94.954 E16.42650
G1 X49.489 Y91.850 E16.56992
G1 X49.489 Y60.150 E17.98786
G1 X49.886 Y57.934 E18.08856
G1 X50.997 Y56.045 E18.18658
G1 E16.18658 F1200.00000
G92 E0
G1 Z0.800 F6000.000
G1 X93.514 Y91.239 F6000.000
G1 Z0.300 F6000.000
G1 E2.00000 F1200.00000
G1 F1800
G1 X56.486 Y91.239 E3.65629
G1 X56.486 Y86.397 E3.87291
G1 X93.514 Y86.397 E5.52920
G1 X93.514 Y91.179 E5.74313
G1 X93.900 Y91.625 F6000.000
G1 F1800
G1 X56.100 Y91.625 E7.43392
G1 X56.100 Y86.011 E7.68503
G1 X93.900 Y86.011 E9.37582
G1 X93.900 Y91.565 E9.62425
G1 X93.500 Y91.605 F6000.000
G1 X92.815 Y91.167 F6000.000
G1 F1800
G1 X93.442 Y90.540 E9.66444
G1 X93.442 Y89.988 E9.68948
G1 X92.263 Y91.167 E9.76507
G1 X91.710 Y91.167 E9.79011
G1 X93.442 Y89.435 E9.90111
G1 X93.442 Y88.883 E9.92614
G1 X91.158 Y91.167 E10.07254
G1 X90.605 Y91.167 E10.09758
G1 X93.442 Y88.330 E10.27938
G1 X93.442 Y87.778 E10.30441
G1 X90.053 Y91.167 E10.52162
G1 X89.500 Y91.167 E10.54665
G1 X93.442 Y87.225 E10.79926
G1 X93.442 Y86.673 E10.82429
G1 X88.948 Y91.167 E11.11230
G1 X88.395 Y91.167 E11.13734
G1 X93.094 Y86.469 E11.43843
G1 X92.542 Y86.469 E11.46347
G1 X87.843 Y91.167 E11.76457
G1 X87.291 Y91.167 E11.78960
G1 X91.989 Y86.469 E12.09070
G1 X91.437 Y86.469 E12.11573
G1 X86.738 Y91.167 E12.41683
G1 X86.186 Y91.167 E12.44187
G1 X90.884 Y86.469 E12.74296
G1 X90.332 Y86.469 E12.76800
G1 X85.633 Y91.167 E13.06910
G1 X85.081 Y91.167 E13.09413
G1 X89.779 Y86.469 E13.39523
G1 X89.227 Y86.469 E13.42026
G1 X84.528 Y91.167 E13.72136
G1 X83.976 Y91.167 E13.74639
G1 X88.675 Y86.469 E14.04749
G1 X88.122 Y86.469 E14.07253
G1 X83.423 Y91.167 E14.37363
G1 X82.871 Y91.167 E14.39866
G1 X87.570 Y86.469 E14.69976
G1 X87.017 Y86.469 E14.72479
G1 X82.319 Y91.167 E15.02589
G1 X81.766 Y91.167 E15.05092
G1 X86.465 Y86.469 E15.35202
G1 X85.912 Y86.469 E15.37706
G1 X81.214 Y91.167 E15.67816
G1 X80.661 Y91.167 E15.70319
G1 X85.360 Y86.469 E16.00429
G1 X84.807 Y86.469 E16.02932
G1 X80.109 Y91.167 E16.33042
G1 X79.556 Y91.167 E16.35545
G1 X84.255 Y86.469 E16.65655
G1 X83.703 Y86.469 E16.68159
G1 X79.004 Y91.167 E16.98269
G1 X78.451 Y91.167 E17.00772
G1 X83.150 Y86.469 E17.30882
G1 X82.598 Y86.469 E17.33385
G1 X77.899 Y91.167 E17.63495
G1 X77.346 Y91.167 E17.65998
G1 X82.045 Y86.469 E17.96108
G1 X81.493 Y86.469 E17.98612
G1 X76.794 Y91.167 E18.28722
G1 X76.242 Y91.167 E18.31225
G1 X80.940 Y86.469 E18.61335
G1 X80.388 Y86.469 E18.63838
G1 X75.689 Y91.167 E18.93948
G1 X75.137 Y91.167 E18.96451
G1 X79.835 Y86.469 E19.26561
G1 X79.283 Y86.469 E19.29065
G1 X74.584 Y91.167 E19.59175
G1 X74.032 Y91.167 E19.61678
G1 X78.730 Y86.469 E19.91788
G1 X78.178 Y86.469 E19.94291
G1 X73.479 Y91.167 E20.24401
G1 X72.927 Y91.167 E20.26904
G1 X77.626 Y86.469 E20.57014
G1 X77.073 Y86.469 E20.59518
G1 X72.374 Y91.167 E20.89628
G1 X71.822 Y91.167 E20.92131
G1 X76.521 Y86.469 E21.22241
G1 X75.968 Y86.469 E21.24744
G1 X71.270 Y91.167 E21.54854
G1 X70.717 Y91.167 E21.57357
G1 X75.416 Y86.469 E21.87467
G1 X74.863 Y86.469 E21.89971
G1 X70.165 Y91.167 E22.20081
G1 X69.612 Y91.167 E22.22584
G1 X74.311 Y86.469 E22.52694
G1 X73.758 Y86.469 E22.55197
G1 X69.060 Y91.167 E22.85307
G1 X68.507 Y91.167 E22.87810
G1 X73.206 Y86.469 E23.17920
G1 X72.654 Y86.469 E23.20424
G1 X67.955 Y91.167 E23.50534
G1 X67.402 Y91.167 E23.53037
G1 X72.101 Y86.469 E23.83147
G1 X71.549 Y86.469 E23.85650
G1 X66.850 Y91.167 E24.15760
G1 X66.297 Y91.167 E24.18263
G1 X70.996 Y86.469 E24.48373
G1 X70.444 Y86.469 E24.50877
G1 X65.745 Y91.167 E24.80987
G1 X65.193 Y91.167 E24.83490
G1 X69.891 Y86.469 E25.13600
G1 X69.339 Y86.469 E25.16103
G1 X64.640 Y91.167 E25.46213
G1 X64.088 Y91.167 E25.48716
G1 X68.786 Y86.469 E25.78826
G1 X68.234 Y86.469 E25.81330
G1 X63.535 Y91.167 E26.11440
G1 X62.983 Y91.167 E26.13943
G1 X67.681 Y86.469 E26.44053
G1 X67.129 Y86.469 E26.46556
G1 X62.430 Y91.167 E26.76666
G1 X61.878 Y91.167 E26.79169
G1 X66.577 Y86.469 E27.09279
G1 X66.024 Y86.469 E27.11783
G1 X61.325 Y91.167 E27.41893
G1 X60.773 Y91.167 E27.44396
G1 X65.472 Y86.469 E27.74506
G1 X64.919 Y86.469 E27.77009
G1 X60.221 Y91.167 E28.07119
G1 X59.668 Y91.167 E28.09622
G1 X64.367 Y86.469 E28.39732
G1 X63.814 Y86.469 E28.42236
G1 X59.116 Y91.167 E28.72346
G1 X58.563 Y91.167 E28.74849
G1 X63.262 Y86.469 E29.04959
G1 X62.709 Y86.469 E29.07462
G1 X58.011 Y91.167 E29.37572
G1 X57.458 Y91.167 E29.40075
G1 X62.157 Y86.469 E29.70185
G1 X61.605 Y86.469 E29.72689
G1 X56.906 Y91.167 E30.02799
G1 X56.558 Y91.167 E30.04376
G1 X56.558 Y90.963 E30.05302
G1 X61.052 Y86.469 E30.34103
G1 X60.500 Y86.469 E30.36606
G1 X56.558 Y90.411 E30.61867
G1 X56.558 Y89.858 E30.64370
G1 X59.947 Y86.469 E30.86091
G1 X59.395 Y86.469 E30.88594
G1 X56.558 Y89.306 E31.06775
G1 X56.558 Y88.753 E31.09278
G1 X58.842 Y86.469 E31.23918
G1 X58.290 Y86.469 E31.26422
G1 X56.558 Y88.201 E31.37522
G1 X56.558 Y87.648 E31.40025
G1 X57.737 Y86.469 E31.47585
G1 X57.185 Y86.469 E31.50088
G1 X56.558 Y87.096 E31.54107
G1 E29.54107 F1200.00000
G92 E0
G1 Z0.800 F6000.000
G1 X93.514 Y65.603 F6000.000
G1 Z0.300 F6000.000
G1 E2.00000 F1200.00000
G1 F1800
G1 X56.486 Y65.603 E3.65629
G1 X56.486 Y60.761 E3.87290
G1 X93.514 Y60.761 E5.52919
G1 X93.514 Y65.543 E5.74312
G1 X93.900 Y65.989 F6000.000
G1 F1800
G1 X56.100 Y65.989 E7.43391
G1 X56.100 Y60.375 E7.68502
G1 X93.900 Y60.375 E9.37581
G1 X93.900 Y65.929 E9.62424
G1 X93.500 Y65.969 F6000.000
G1 X92.815 Y65.531 F6000.000
G1 F1800
G1 X93.442 Y64.904 E9.66444
G1 X93.442 Y64.352 E9.68947
G1 X92.263 Y65.531 E9.76507
G1 X91.710 Y65.531 E9.79010
G1 X93.442 Y63.799 E9.90110
G1 X93.442 Y63.247 E9.92613
G1 X91.158 Y65.531 E10.07253
G1 X90.605 Y65.531 E10.09757
G1 X93.442 Y62.694 E10.27937
G1 X93.442 Y62.142 E10.30440
G1 X90.053 Y65.531 E10.52161
G1 X89.500 Y65.531 E10.54664
G1 X93.442 Y61.589 E10.79925
G1 X93.442 Y61.037 E10.82428
G1 X88.948 Y65.531 E11.11229
G1 X88.395 Y65.531 E11.13732
G1 X93.094 Y60.833 E11.43842
G1 X92.542 Y60.833 E11.46345
G1 X87.843 Y65.531 E11.76455
G1 X87.291 Y65.531 E11.78958
G1 X91.989 Y60.833 E12.09068
G1 X91.437 Y60.833 E12.11571
G1 X86.738 Y65.531 E12.41680
G1 X86.186 Y65.531 E12.44184
G1 X90.884 Y60.833 E12.74293
G1 X90.332 Y60.833 E12.76797
G1 X85.633 Y65.531 E13.06906
G1 X85.081 Y65.531 E13.09410
G1 X89.779 Y60.833 E13.39519
G1 X89.227 Y60.833 E13.42022
G1 X84.528 Y65.531 E13.72132
G1 X83.976 Y65.531 E13.74635
G1 X88.675 Y60.833 E14.04745
G1 X88.122 Y60.833 E14.07248
G1 X83.423 Y65.531 E14.37358
G1 X82.871 Y65.531 E14.39861
G1 X87.570 Y60.833 E14.69971
G1 X87.017 Y60.833 E14.72474
G1 X82.319 Y65.531 E15.02584
G1 X81.766 Y65.531 E15.05087
G1 X86.465 Y60.833 E15.35197
G1 X85.912 Y60.833 E15.37700
G1 X81.214 Y65.531 E15.67809
G1 X80.661 Y65.531 E15.70313
G1 X85.360 Y60.833 E16.00422
G1 X84.807 Y60.833 E16.02926
G1 X80.109 Y65.531 E16.33035
G1 X79.556 Y65.531 E16.35539
G1 X84.255 Y60.833 E16.65648
G1 X83.703 Y60.833 E16.68151
G1 X79.004 Y65.531 E16.98261
G1 X78.451 Y65.531 E17.00764
G1 X83.150 Y60.833 E17.30874
G1 X82.598 Y60.833 E17.33377
G1 X77.899 Y65.531 E17.63487
G1 X77.347 Y65.531 E17.65990
G1 X82.045 Y60.833 E17.96100
G1 X81.493 Y60.833 E17.98603
G1 X76.794 Y65.531 E18.28713
G1 X76.242 Y65.531 E18.31216
G1 X80.940 Y60.833 E18.61326
G1 X80.388 Y60.833 E18.63829
G1 X75.689 Y65.531 E18.93938
G1 X75.137 Y65.531 E18.96442
G1 X79.835 Y60.833 E19.26551
G1 X79.283 Y60.833 E19.29055
G1 X74.584 Y65.531 E19.59164
G1 X74.032 Y65.531 E19.61667
G1 X78.730 Y60.833 E19.91777
G1 X78.178 Y60.833 E19.94280
G1 X73.479 Y65.531 E20.24390
G1 X72.927 Y65.531 E20.26893
G1 X77.626 Y60.833 E20.57003
G1 X77.073 Y60.833 E20.59506
G1 X72.374 Y65.531 E20.89616
G1 X71.822 Y65.531 E20.92119
G1 X76.521 Y60.833 E21.22229
G1 X75.968 Y60.833 E21.24732
G1 X71.270 Y65.531 E21.54842
G1 X70.717 Y65.531 E21.57345
G1 X75.416 Y60.833 E21.87454
G1 X74.863 Y60.833 E21.89958
G1 X70.165 Y65.531 E22.20067
G1 X69.612 Y65.531 E22.22571
G1 X74.311 Y60.833 E22.52680
G1 X73.758 Y60.833 E22.55183
G1 X69.060 Y65.531 E22.85293
G1 X68.507 Y65.531 E22.87796
G1 X73.206 Y60.833 E23.17906
G1 X72.654 Y60.833 E23.20409
G1 X67.955 Y65.531 E23.50519
G1 X67.402 Y65.531 E23.53022
G1 X72.101 Y60.833 E23.83132
G1 X71.549 Y60.833 E23.85635
G1 X66.850 Y65.531 E24.15745
G1 X66.298 Y65.531 E24.18248
G1 X70.996 Y60.833 E24.48358
G1 X70.444 Y60.833 E24.50861
G1 X65.745 Y65.531 E24.80970
G1 X65.193 Y65.531 E24.83474
G1 X69.891 Y60.833 E25.13583
G1 X69.339 Y60.833 E25.16087
G1 X64.640 Y65.531 E25.46196
G1 X64.088 Y65.531 E25.48700
G1 X68.786 Y60.833 E25.78809
G1 X68.234 Y60.833 E25.81312
G1 X63.535 Y65.531 E26.11422
G1 X62.983 Y65.531 E26.13925
G1 X67.682 Y60.833 E26.44035
G1 X67.129 Y60.833 E26.46538
G1 X62.430 Y65.531 E26.76648
G1 X61.878 Y65.531 E26.79151
G1 X66.577 Y60.833 E27.09261
G1 X66.024 Y60.833 E27.11764
G1 X61.326 Y65.531 E27.41874
G1 X60.773 Y65.531 E27.44377
G1 X65.472 Y60.833 E27.74487
G1 X64.919 Y60.833 E27.76990
G1 X60.221 Y65.531 E28.07099
G1 X59.668 Y65.531 E28.09603
G1 X64.367 Y60.833 E28.39712
G1 X63.814 Y60.833 E28.42216
G1 X59.116 Y65.531 E28.72325
G1 X58.563 Y65.531 E28.74829
G1 X63.262 Y60.833 E29.04938
G1 X62.709 Y60.833 E29.07441
G1 X58.011 Y65.531 E29.37551
G1 X57.458 Y65.531 E29.40054
G1 X62.157 Y60.833 E29.70164
G1 X61.605 Y60.833 E29.72667
G1 X56.906 Y65.531 E30.02777
G1 X56.558 Y65.531 E30.04355
G1 X56.558 Y65.327 E30.05280
G1 X61.052 Y60.833 E30.34081
G1 X60.500 Y60.833 E30.36585
G1 X56.558 Y64.775 E30.61846
G1 X56.558 Y64.222 E30.64349
G1 X59.947 Y60.833 E30.86070
G1 X59.395 Y60.833 E30.88573
G1 X56.558 Y63.670 E31.06754
G1 X56.558 Y63.117 E31.09257
G1 X58.842 Y60.833 E31.23898
G1 X58.290 Y60.833 E31.26401
G1 X56.558 Y62.565 E31.37502
G1 X56.558 Y62.012 E31.40005
G1 X57.737 Y60.833 E31.47565
G1 X57.185 Y60.833 E31.50069
G1 X56.558 Y61.460 E31.54087
G1 Z0.500 F6000.000
G1 E29.54087 F1200.00000
G92 E0
G1 Z1.000 F6000.000
G1 X57.302 Y65.287 F6000.000
G1 Z0.500 F6000.000
G1 E2.00000 F1200.00000
G1 F2400
G1 X56.552 Y65.287 E2.02999
G1 X56.552 Y61.077 E2.19832
G1 X57.302 Y61.077 E2.22831
G1 X57.302 Y59.950 E2.27338

G1 F2400
G1 X57.302 Y45.677 E2.96687
G1 X93.448 Y45.677 E4.72311
G1 X93.448 Y59.950 E5.41660

G1 F2400
G1 X93.448 Y66.414 E5.67507

G1 F2400
G1 X93.448 Y85.586 E6.60659

G1 F2400
G1 X93.448 Y92.050 E6.86506

G1 F2400
G1 X93.448 Y104.323 E7.46137
G1 X57.302 Y104.323 E9.21762
G1 X57.302 Y92.050 E9.81393

G1 F2400
G1 X57.302 Y90.923 E9.85900
G1 X56.552 Y90.923 E9.88899
G1 X56.552 Y86.713 E10.05732
G1 X57.302 Y86.713 E10.08731
G1 X57.302 Y85.586 E10.13238

G1 F2400
G1 X57.302 Y66.414 E11.06391

G1 F2400
G1 X57.302 Y65.347 E11.10657
G1 X56.845 Y65.744 F6000.000
G1 F2160
G1 X56.095 Y65.744 E11.12960
G1 X56.095 Y60.620 E11.28694
G1 X56.845 Y60.620 E11.30997
G1 X56.845 Y59.950 E11.33054

G1 F2400
G1 X56.845 Y45.220 E12.04624
G1 X93.905 Y45.220 E13.84690
G1 X93.905 Y59.950 E14.56260

G1 F2160
G1 X93.905 Y66.414 E14.76108

G1 F2400
G1 X93.905 Y85.586 E15.69261

G1 F2160
G1 X93.905 Y92.050 E15.89110

G1 F2400
G1 X93.905 Y104.780 E16.50962
G1 X56.845 Y104.780 E18.31028
G1 X56.845 Y92.050 E18.92880

G1 F2160
G1 X56.845 Y91.380 E18.94937
G1 X56.095 Y91.380 E18.97240
G1 X56.095 Y86.256 E19.12974
G1 X56.845 Y86.256 E19.15277
G1 X56.845 Y85.586 E19.17335

G1 F2400
G1 X56.845 Y66.414 E20.10487

G1 F2160
G1 X56.845 Y65.804 E20.12360
G1 X56.571 Y65.453 F6000.000
G1 X57.491 Y65.359 F6000.000

G1 F2400
G1 X57.491 Y62.883 E20.24683
G1 X57.036 Y62.883 E20.26946
G1 X57.036 Y65.359 E20.39269
G1 X57.036 Y63.995 E20.46058

G1 E18.46058 F1200.00000
G92 E0
G1 Z1.000 F6000.000
G1 X57.036 Y87.753 F6000.000
G1 Z0.500 F6000.000
G1 E2.00000 F1200.00000

G1 F2400
G1 X57.036 Y89.117 E2.06789
G1 X57.036 Y86.641 E2.19112
G1 X57.491 Y86.641 E2.21375
G1 X57.491 Y89.117 E2.33698
G1 X57.945 Y89.117 E2.35961
G1 X57.945 Y62.883 E3.66499
G1 X58.400 Y62.883 E3.68762
G1 X58.400 Y89.117 E4.99300
G1 X58.855 Y89.117 E5.01563
G1 X58.855 Y62.883 E6.32101
G1 X59.310 Y62.883 E6.34364
G1 X59.310 Y89.117 E7.64902
G1 X59.764 Y89.117 E7.67165
G1 X59.764 Y62.883 E8.97704
G1 X60.219 Y62.883 E8.99967
G1 X60.219 Y89.117 E10.30505
G1 X60.674 Y89.117 E10.32768
G1 X60.674 Y62.883 E11.63306
G1 X61.129 Y62.883 E11.65569
G1 X61.129 Y89.117 E12.96107
G1 X61.584 Y89.117 E12.98370
G1 X61.584 Y62.883 E14.28908
G1 X62.038 Y62.883 E14.31171
G1 X62.038 Y89.117 E15.61709
G1 X62.493 Y89.117 E15.63972
G1 X62.493 Y62.883 E16.94510
G1 X62.948 Y62.883 E16.96773
G1 X62.948 Y89.117 E18.27312
G1 X63.403 Y89.117 E18.29575
G1 X63.403 Y62.883 E19.60113
G1 X63.858 Y62.883 E19.62376
G1 X63.858 Y89.117 E20.92914
G1 X64.312 Y89.117 E20.95177
G1 X64.312 Y62.883 E22.25715
G1 X64.767 Y62.883 E22.27978
G1 X64.767 Y89.117 E23.58516
G1 X65.222 Y89.117 E23.60779
G1 X65.222 Y62.883 E24.91317
G1 X65.677 Y62.883 E24.93580
G1 X65.677 Y89.117 E26.24118
G1 X66.132 Y89.117 E26.26381
G1 X66.132 Y62.883 E27.56920
G1 X66.586 Y62.883 E27.59183
G1 X66.586 Y89.117 E28.89721
G1 X67.041 Y89.117 E28.91984
G1 X67.041 Y62.883 E30.22522
G1 X67.496 Y62.883 E30.24785
G1 X67.496 Y89.117 E31.55323
G1 X67.951 Y89.117 E31.57586
G1 X67.951 Y62.883 E32.88124
G1 X68.406 Y62.883 E32.90387
G1 X68.406 Y89.117 E34.20925
G1 X68.860 Y89.117 E34.23188
G1 X68.860 Y62.883 E35.53726
G1 X69.315 Y62.883 E35.55989
G1 X69.315 Y89.117 E36.86528
G1 X69.770 Y89.117 E36.88791
G1 X69.770 Y62.883 E38.19329
G1 X70.225 Y62.883 E38.21592
G1 X70.225 Y89.117 E39.52130
G1 X70.679 Y89.117 E39.54393
G1 X70.679 Y62.883 E40.84931
G1 X71.134 Y62.883 E40.87194
G1 X71.134 Y89.117 E42.17732
G1 X71.589 Y89.117 E42.19995
G1 X71.589 Y62.883 E43.50533
G1 X72.044 Y62.883 E43.52796
G1 X72.044 Y89.117 E44.83334
G1 X72.499 Y89.117 E44.85597
G1 X72.499 Y62.883 E46.16136
G1 X72.953 Y62.883 E46.18399
G1 X72.953 Y89.117 E47.48937
G1 X73.408 Y89.117 E47.51200
G1 X73.408 Y62.883 E48.81738
G1 X73.863 Y62.883 E48.84001
G1 X73.863 Y89.117 E50.14539
G1 X74.318 Y89.117 E50.16802
G1 X74.318 Y62.883 E51.47340
G1 X74.773 Y62.883 E51.49603
G1 X74.773 Y89.117 E52.80141
G1 X75.227 Y89.117 E52.82404
G1 X75.227 Y62.883 E54.12942
G1 X75.682 Y62.883 E54.15205
G1 X75.682 Y89.117 E55.45743
G1 X76.137 Y89.117 E55.48006
G1 X76.137 Y62.883 E56.78545
G1 X76.592 Y62.883 E56.80808
G1 X76.592 Y89.117 E58.11346
G1 X77.047 Y89.117 E58.13609
G1 X77.047 Y62.883 E59.44147
G1 X77.501 Y62.883 E59.46410
