; generated by Slic3r 1.3.0 on 2020-12-22 at 16:21:08

; external perimeters extrusion width = 0.44mm (2.86mm^3/s)
; perimeters extrusion width = 0.56mm (4.14mm^3/s)
; infill extrusion width = 0.50mm (5.48mm^3/s)
; solid infill extrusion width = 0.56mm (3.10mm^3/s)
; top infill extrusion width = 0.45mm (2.44mm^3/s)

M107
;D3D:START:START
T0
M104 S215 T0

G21
G90
M107
T0
G28
G29
M109 T0 S215 T0
G0 F3000
M107
T0
G92 E0
G0 X0 Y149 Z0.1 F3600
G1 Y49 E6.5 F1200
G0 Z1
G92 E0
; Filament gcode

G21 ; set units to millimeters
G90 ; use absolute coordinates
M82 ; use absolute distances for extrusion
G92 E0
G1 Z0.300 F6000.000
G1 E-2.00000 F1200.00000
G92 E0
G1 X66.011 Y60.170 F6000.000
G1 E2.00000 F1200.00000
G1 F1800
G1 X68.093 Y58.524 E2.11871
G1 X68.912 Y58.200 E2.15811
G1 X69.692 Y57.937 E2.19492
G1 X71.066 Y57.569 E2.25854
G1 X71.872 Y57.406 E2.29535
G1 X72.983 Y57.245 E2.34555
G1 X74.402 Y57.141 E2.40919
G1 X75.524 Y57.138 E2.45938
G1 X76.645 Y57.206 E2.50961
G1 X77.462 Y57.301 E2.54643
G1 X78.568 Y57.490 E2.59662
G1 X79.949 Y57.830 E2.66022
G1 X81.018 Y58.174 E2.71045
G1 X81.786 Y58.469 E2.74727
G1 X83.080 Y59.061 E2.81089
G1 X84.064 Y59.600 E2.86107
G1 X84.764 Y60.034 E2.89791
G1 X85.923 Y60.858 E2.96151
G1 X86.789 Y61.571 E3.01172
G1 X87.609 Y62.338 E3.06193
G1 X88.012 Y62.757 E3.08793
G1 X89.043 Y64.405 E3.17486
G1 X89.235 Y67.052 E3.29358
G1 X84.771 Y88.051 E4.25384
G1 X83.989 Y89.830 E4.34077
G1 X81.907 Y91.476 E4.45948
G1 X81.088 Y91.800 E4.49888
G1 X80.308 Y92.063 E4.53569
G1 X78.934 Y92.431 E4.59931
G1 X78.128 Y92.594 E4.63612
G1 X77.017 Y92.755 E4.68632
G1 X75.898 Y92.847 E4.73655
G1 X74.476 Y92.862 E4.80015
G1 X73.355 Y92.794 E4.85038
G1 X72.538 Y92.699 E4.88719
G1 X71.432 Y92.510 E4.93739
G1 X70.051 Y92.170 E5.00099
G1 X68.982 Y91.826 E5.05123
G1 X68.214 Y91.531 E5.08804
G1 X67.189 Y91.072 E5.13823
G1 X65.936 Y90.400 E5.20184
G1 X65.236 Y89.966 E5.23868
G1 X64.316 Y89.324 E5.28888
G1 X63.211 Y88.429 E5.35249
G1 X62.605 Y87.872 E5.38930
G1 X61.988 Y87.243 E5.42870
G1 X60.957 Y85.595 E5.51563
G1 X60.765 Y82.948 E5.63433
G1 X65.229 Y61.949 E6.59461
G1 X65.987 Y60.225 E6.67886
G1 X66.371 Y60.331 F6000.000
G1 F1800
G1 X68.238 Y58.881 E6.78462
G1 X69.035 Y58.565 E6.82295
G1 X69.815 Y58.303 E6.85976
G1 X71.142 Y57.947 E6.92121
G1 X71.949 Y57.784 E6.95802
G1 X73.035 Y57.627 E7.00713
G1 X74.406 Y57.526 E7.06861
G1 X75.504 Y57.523 E7.11771
G1 X76.600 Y57.589 E7.16686
G1 X77.418 Y57.684 E7.20368
G1 X78.500 Y57.870 E7.25279
G1 X79.834 Y58.198 E7.31422
G1 X80.880 Y58.534 E7.36337
G1 X81.648 Y58.829 E7.40019
G1 X82.897 Y59.401 E7.46164
G1 X83.861 Y59.928 E7.51075
G1 X84.561 Y60.362 E7.54758
G1 X85.680 Y61.157 E7.60902
G1 X86.528 Y61.855 E7.65814
G1 X87.331 Y62.605 E7.70727
G1 X87.733 Y63.024 E7.73327
G1 X88.707 Y64.612 E7.81657
G1 X88.858 Y66.972 E7.92235
G1 X84.394 Y87.971 E8.88261
G1 X83.629 Y89.669 E8.96592
G1 X81.762 Y91.119 E9.07169
G1 X80.965 Y91.435 E9.11001
G1 X80.185 Y91.697 E9.14682
G1 X78.858 Y92.053 E9.20827
G1 X78.051 Y92.216 E9.24508
G1 X76.965 Y92.373 E9.29419
G1 X75.870 Y92.462 E9.34334
G1 X74.496 Y92.477 E9.40478
G1 X73.400 Y92.411 E9.45392
G1 X72.582 Y92.316 E9.49073
G1 X71.500 Y92.130 E9.53985
G1 X70.166 Y91.802 E9.60129
G1 X69.120 Y91.466 E9.65044
G1 X68.352 Y91.171 E9.68725
G1 X67.350 Y90.722 E9.73636
G1 X66.139 Y90.072 E9.79781
G1 X65.439 Y89.638 E9.83464
G1 X64.539 Y89.009 E9.88376
G1 X63.472 Y88.145 E9.94521
G1 X62.866 Y87.588 E9.98202
G1 X62.267 Y86.976 E10.02033
G1 X61.293 Y85.388 E10.10364
G1 X61.142 Y83.029 E10.20940
G1 X65.606 Y62.029 E11.16968
G1 X66.346 Y60.386 E11.25030
G1 E9.25030 F1200.00000
G92 E0
G1 X75.367 Y85.205 F6000.000
G1 E2.00000 F1200.00000
G1 F1800
G1 X74.854 Y85.840 E2.03651
G1 X74.169 Y86.284 E2.07301
G1 X73.381 Y86.496 E2.10952
G1 X72.556 Y86.452 E2.14646
G1 X71.771 Y86.134 E2.18437
G1 X71.169 Y85.647 E2.21898
G1 X70.725 Y84.962 E2.25549
G1 X70.514 Y84.174 E2.29199
G1 X70.556 Y83.359 E2.32850
G1 X70.849 Y82.597 E2.36501
G1 X71.362 Y81.963 E2.40151
G1 X72.047 Y81.518 E2.43802
G1 X72.794 Y81.318 E2.47264
G1 X73.641 Y81.346 E2.51054
G1 X74.412 Y81.642 E2.54748
G1 X75.047 Y82.156 E2.58398
G1 X75.491 Y82.840 E2.62049
G1 X75.714 Y83.670 E2.65894
G1 X75.656 Y84.454 E2.69407
G1 X75.389 Y85.149 E2.72741
G1 X75.029 Y85.010 F6000.000
G1 F1800
G1 X74.592 Y85.550 E2.75845
G1 X74.010 Y85.928 E2.78949
G1 X73.340 Y86.107 E2.82054
G1 X72.641 Y86.071 E2.85185
G1 X71.969 Y85.798 E2.88428
G1 X71.460 Y85.385 E2.91360
G1 X71.082 Y84.803 E2.94465
G1 X70.902 Y84.133 E2.97569
G1 X70.938 Y83.440 E3.00673
G1 X71.187 Y82.792 E3.03778
G1 X71.624 Y82.253 E3.06882
G1 X72.206 Y81.875 E3.09986
G1 X72.839 Y81.705 E3.12918
G1 X73.564 Y81.729 E3.16162
G1 X74.217 Y81.980 E3.19292
G1 X74.756 Y82.417 E3.22397
G1 X75.134 Y82.999 E3.25501
G1 X75.324 Y83.707 E3.28780
G1 X75.275 Y84.369 E3.31747
G1 X75.051 Y84.954 E3.34553
G1 X74.691 Y84.815 F6000.000
G1 F1800
G1 X74.331 Y85.259 E3.37112
G1 X73.851 Y85.571 E3.39669
G1 X73.299 Y85.719 E3.42227
G1 X72.726 Y85.689 E3.44795
G1 X72.167 Y85.462 E3.47492
G1 X71.750 Y85.124 E3.49895
G1 X71.438 Y84.645 E3.52452
G1 X71.290 Y84.092 E3.55010
G1 X71.320 Y83.521 E3.57568
G1 X71.525 Y82.987 E3.60126
G1 X71.885 Y82.543 E3.62684
G1 X72.365 Y82.231 E3.65242
G1 X72.883 Y82.092 E3.67644
G1 X73.486 Y82.112 E3.70342
G1 X74.022 Y82.318 E3.72909
G1 X74.466 Y82.678 E3.75467
G1 X74.778 Y83.158 E3.78025
G1 X74.935 Y83.744 E3.80739
G1 X74.895 Y84.283 E3.83160
G1 X74.712 Y84.759 E3.85438
G1 X74.889 Y85.162 F6000.000
G1 E1.85438 F1200.00000
G92 E0
G1 X75.278 Y77.644 F6000.000
G1 E2.00000 F1200.00000
G1 F1800
G1 X74.447 Y77.601 E2.03721
G1 X73.671 Y77.302 E2.07441
G1 X73.024 Y76.779 E2.11162
G1 X72.571 Y76.081 E2.14883
G1 X72.356 Y75.278 E2.18603
G1 X72.399 Y74.447 E2.22324
G1 X72.698 Y73.671 E2.26045
G1 X73.221 Y73.024 E2.29765
G1 X73.919 Y72.571 E2.33486
G1 X74.722 Y72.356 E2.37207
G1 X75.553 Y72.399 E2.40927
G1 X76.329 Y72.698 E2.44648
G1 X76.976 Y73.221 E2.48369
G1 X77.429 Y73.919 E2.52089
G1 X77.644 Y74.722 E2.55810
G1 X77.601 Y75.553 E2.59531
G1 X77.302 Y76.329 E2.63251
G1 X76.779 Y76.976 E2.66972
G1 X76.081 Y77.429 E2.70693
G1 X75.336 Y77.629 E2.74145
G1 X75.237 Y77.256 F6000.000
G1 F1800
G1 X74.528 Y77.219 E2.77319
G1 X73.866 Y76.964 E2.80494
G1 X73.314 Y76.518 E2.83668
G1 X72.928 Y75.923 E2.86842
G1 X72.744 Y75.237 E2.90017
G1 X72.781 Y74.528 E2.93191
G1 X73.036 Y73.866 E2.96365
G1 X73.482 Y73.314 E2.99539
G1 X74.077 Y72.928 E3.02714
G1 X74.763 Y72.744 E3.05888
G1 X75.472 Y72.781 E3.09062
G1 X76.134 Y73.036 E3.12237
G1 X76.686 Y73.482 E3.15411
G1 X77.072 Y74.077 E3.18585
G1 X77.256 Y74.763 E3.21759
G1 X77.219 Y75.472 E3.24934
G1 X76.964 Y76.134 E3.28108
G1 X76.518 Y76.686 E3.31282
G1 X75.923 Y77.072 E3.34457
G1 X75.295 Y77.240 E3.37363
G1 X75.196 Y76.868 F6000.000
G1 F1800
G1 X74.610 Y76.837 E3.39990
G1 X74.061 Y76.626 E3.42618
G1 X73.605 Y76.257 E3.45246
G1 X73.285 Y75.764 E3.47874
G1 X73.132 Y75.196 E3.50502
G1 X73.163 Y74.610 E3.53130
G1 X73.374 Y74.061 E3.55758
G1 X73.743 Y73.605 E3.58386
G1 X74.236 Y73.285 E3.61014
G1 X74.804 Y73.132 E3.63642
G1 X75.390 Y73.163 E3.66269
G1 X75.939 Y73.374 E3.68897
G1 X76.395 Y73.743 E3.71525
G1 X76.715 Y74.236 E3.74153
G1 X76.868 Y74.804 E3.76781
G1 X76.837 Y75.390 E3.79409
G1 X76.626 Y75.939 E3.82037
G1 X76.257 Y76.395 E3.84665
G1 X75.764 Y76.715 E3.87293
G1 X75.254 Y76.852 E3.89652
G1 X75.034 Y77.233 F6000.000
G1 E1.89652 F1200.00000
G92 E0
G1 X76.400 Y68.670 F6000.000
G1 E2.00000 F1200.00000
G1 F1800
G1 X75.588 Y68.358 E2.03890
G1 X74.953 Y67.844 E2.07541
G1 X74.509 Y67.160 E2.11192
G1 X74.298 Y66.372 E2.14843
G1 X74.340 Y65.556 E2.18493
G1 X74.633 Y64.795 E2.22144
G1 X75.146 Y64.160 E2.25795
G1 X75.831 Y63.716 E2.29445
G1 X76.578 Y63.515 E2.32907
G1 X77.425 Y63.544 E2.36697
G1 X78.196 Y63.840 E2.40391
G1 X78.831 Y64.353 E2.44042
G1 X79.252 Y65.002 E2.47503
G1 X79.487 Y65.816 E2.51293
G1 X79.444 Y66.641 E2.54988
G1 X79.151 Y67.403 E2.58638
G1 X78.638 Y68.037 E2.62289
G1 X77.953 Y68.482 E2.65940
G1 X77.178 Y68.690 E2.69530
G1 X76.460 Y68.671 E2.72743
G1 X76.476 Y68.286 F6000.000
G1 F1800
G1 X75.783 Y68.020 E2.76063
G1 X75.244 Y67.583 E2.79168
G1 X74.866 Y67.001 E2.82272
G1 X74.686 Y66.331 E2.85376
G1 X74.722 Y65.638 E2.88481
G1 X74.971 Y64.990 E2.91585
G1 X75.408 Y64.450 E2.94689
G1 X75.990 Y64.072 E2.97794
G1 X76.623 Y63.903 E3.00725
G1 X77.348 Y63.927 E3.03969
G1 X78.001 Y64.178 E3.07100
G1 X78.540 Y64.615 E3.10204
G1 X78.897 Y65.164 E3.13136
G1 X79.098 Y65.861 E3.16380
G1 X79.062 Y66.560 E3.19511
G1 X78.813 Y67.208 E3.22615
G1 X78.376 Y67.747 E3.25719
G1 X77.794 Y68.125 E3.28824
G1 X77.132 Y68.303 E3.31891
G1 X76.536 Y68.287 E3.34558
G1 X76.552 Y67.902 F6000.000
G1 F1800
G1 X75.978 Y67.682 E3.37308
G1 X75.534 Y67.322 E3.39866
G1 X75.222 Y66.842 E3.42424
G1 X75.074 Y66.290 E3.44982
G1 X75.104 Y65.719 E3.47540
G1 X75.309 Y65.185 E3.50098
G1 X75.669 Y64.741 E3.52656
G1 X76.149 Y64.429 E3.55214
G1 X76.667 Y64.290 E3.57616
G1 X77.270 Y64.310 E3.60313
G1 X77.806 Y64.516 E3.62881
G1 X78.250 Y64.876 E3.65439
G1 X78.543 Y65.326 E3.67841
G1 X78.710 Y65.906 E3.70538
G1 X78.680 Y66.479 E3.73106
G1 X78.475 Y67.013 E3.75664
G1 X78.115 Y67.457 E3.78222
G1 X77.635 Y67.769 E3.80780
G1 X77.086 Y67.916 E3.83324
G1 X76.612 Y67.904 E3.85444
G1 X76.286 Y68.201 F6000.000
G1 E1.85444 F1200.00000
G92 E0
G1 X83.484 Y66.367 F6000.000
G1 E2.00000 F1200.00000
G1 F1800
G1 X79.239 Y86.337 E2.91322
G1 X78.498 Y86.587 E2.94819
G1 X77.764 Y86.783 E2.98220
G1 X77.018 Y86.934 E3.01621
G1 X76.265 Y87.037 E3.05022
G1 X75.507 Y87.093 E3.08423
G1 X74.747 Y87.101 E3.11824
G1 X73.987 Y87.061 E3.15225
G1 X73.232 Y86.973 E3.18626
G1 X72.484 Y86.839 E3.22027
G1 X71.745 Y86.657 E3.25428
G1 X71.020 Y86.430 E3.28829
G1 X70.310 Y86.158 E3.32231
G1 X69.618 Y85.841 E3.35631
G1 X68.948 Y85.482 E3.39032
G1 X68.318 Y85.091 E3.42348
G1 X67.682 Y84.640 E3.45837
G1 X67.091 Y84.162 E3.49235
G1 X66.516 Y83.633 E3.52732
G1 X70.761 Y63.663 E4.44055
G1 X71.502 Y63.413 E4.47552
G1 X72.236 Y63.217 E4.50953
G1 X72.982 Y63.066 E4.54354
G1 X73.735 Y62.963 E4.57755
G1 X74.493 Y62.907 E4.61156
G1 X75.253 Y62.899 E4.64557
G1 X75.994 Y62.938 E4.67872
G1 X76.769 Y63.027 E4.71362
G1 X77.516 Y63.161 E4.74760
G1 X78.255 Y63.343 E4.78161
G1 X78.980 Y63.570 E4.81562
G1 X79.690 Y63.842 E4.84963
G1 X80.382 Y64.159 E4.88364
G1 X81.052 Y64.518 E4.91765
G1 X81.682 Y64.909 E4.95080
G1 X82.318 Y65.360 E4.98570
G1 X82.909 Y65.838 E5.01968
G1 X83.440 Y66.326 E5.05196
G1 X83.903 Y66.249 F6000.000
G1 F1800
G1 X79.574 Y86.616 E5.98330
G1 X78.610 Y86.956 E6.02906
G1 X77.852 Y87.159 E6.06415
G1 X77.083 Y87.314 E6.09925
G1 X76.305 Y87.421 E6.13434
G1 X75.523 Y87.478 E6.16943
G1 X74.738 Y87.486 E6.20453
G1 X73.955 Y87.445 E6.23962
G1 X73.176 Y87.355 E6.27472
G1 X72.403 Y87.216 E6.30981
G1 X71.641 Y87.029 E6.34491
G1 X70.893 Y86.794 E6.38000
G1 X70.160 Y86.513 E6.41510
G1 X69.447 Y86.187 E6.45019
G1 X68.755 Y85.816 E6.48528
G1 X68.105 Y85.413 E6.51951
G1 X67.449 Y84.948 E6.55549
G1 X66.839 Y84.454 E6.59056
G1 X66.262 Y83.923 E6.62566
G1 X66.097 Y83.751 E6.63633
G1 X70.426 Y63.384 E7.56767
G1 X71.390 Y63.044 E7.61343
G1 X72.148 Y62.841 E7.64852
G1 X72.917 Y62.686 E7.68362
G1 X73.695 Y62.579 E7.71871
G1 X74.477 Y62.522 E7.75380
G1 X75.262 Y62.514 E7.78890
G1 X76.026 Y62.554 E7.82312
G1 X76.825 Y62.645 E7.85911
G1 X77.597 Y62.784 E7.89418
G1 X78.359 Y62.971 E7.92927
G1 X79.107 Y63.206 E7.96437
G1 X79.840 Y63.487 E7.99946
G1 X80.553 Y63.813 E8.03456
G1 X81.245 Y64.184 E8.06965
G1 X81.895 Y64.587 E8.10388
G1 X82.551 Y65.052 E8.13986
G1 X83.161 Y65.546 E8.17493
G1 X83.862 Y66.206 E8.21801
G1 X84.323 Y66.130 F6000.000
G1 F1800
G1 X79.909 Y86.896 E9.16761
G1 X79.488 Y87.067 E9.18796
G1 X78.721 Y87.325 E9.22414
G1 X77.940 Y87.535 E9.26032
G1 X77.147 Y87.695 E9.29650
G1 X76.346 Y87.804 E9.33268
G1 X75.539 Y87.864 E9.36885
G1 X74.730 Y87.872 E9.40503
G1 X73.923 Y87.830 E9.44121
G1 X73.119 Y87.737 E9.47739
G1 X72.323 Y87.594 E9.51357
G1 X71.538 Y87.401 E9.54974
G1 X70.766 Y87.159 E9.58592
G1 X70.011 Y86.869 E9.62210
G1 X69.275 Y86.532 E9.65828
G1 X68.563 Y86.150 E9.69446
G1 X67.892 Y85.734 E9.72975
G1 X67.216 Y85.255 E9.76682
G1 X66.587 Y84.746 E9.80299
G1 X65.992 Y84.199 E9.83917
G1 X65.677 Y83.870 E9.85952
G1 X70.091 Y63.104 E10.80913
G1 X70.512 Y62.933 E10.82948
G1 X71.279 Y62.675 E10.86565
G1 X72.060 Y62.465 E10.90183
G1 X72.853 Y62.305 E10.93801
G1 X73.654 Y62.196 E10.97419
G1 X74.461 Y62.136 E11.01037
G1 X75.270 Y62.128 E11.04655
G1 X76.058 Y62.169 E11.08184
G1 X76.881 Y62.263 E11.11891
G1 X77.677 Y62.406 E11.15508
G1 X78.462 Y62.599 E11.19126
G1 X79.234 Y62.841 E11.22744
G1 X79.989 Y63.131 E11.26361
G1 X80.725 Y63.468 E11.29979
G1 X81.437 Y63.850 E11.33597
G1 X82.108 Y64.266 E11.37127
G1 X82.784 Y64.745 E11.40833
G1 X83.413 Y65.254 E11.44450
G1 X84.008 Y65.801 E11.48068
G1 X84.281 Y66.086 E11.49835
G1 X84.005 Y66.372 F6000.000
G1 E9.49835 F1200.00000
G92 E0
G1 X79.122 Y64.063 F6000.000
G1 E2.00000 F1200.00000
G1 F1800
G1 X78.755 Y63.855 E2.01514
G1 F1800
G1 X78.542 Y63.741 E2.02155
G1 F1800
G1 X78.329 Y63.627 E2.02543
G1 F1800
G1 X77.811 Y63.458 E2.02847
G1 X77.149 Y63.316 F6000.000
G1 F1800
G1 X76.539 Y63.259 E2.02974
G1 F1800
G1 X76.309 Y63.277 E2.03263
G1 F1800
G1 X76.079 Y63.294 E2.03783
G1 F1800
G1 X75.683 Y63.332 E2.05075
G1 E0.05075 F1200.00000
G92 E0
G1 X79.985 Y63.924 F6000.000
G1 E2.00000 F1200.00000
G1 F1800
G1 X79.068 Y64.842 E2.05891
G1 X79.283 Y65.180 E2.07712
G1 X80.365 Y64.098 E2.14659
G1 X80.734 Y64.283 E2.16534
G1 X79.407 Y65.610 E2.25057
G1 X79.531 Y66.040 E2.27088
G1 X81.094 Y64.476 E2.37129
G1 X81.441 Y64.683 E2.38963
G1 X79.522 Y66.602 E2.51289
G1 X79.498 Y67.050 E2.53322
G1 X79.417 Y67.261 E2.54348
G1 X81.783 Y64.895 E2.69540
G1 X82.107 Y65.124 E2.71345
G1 X74.908 Y72.324 E3.17585
G1 X75.307 Y72.345 E3.19400
G1 X75.403 Y72.382 E3.19870
G1 X82.430 Y65.355 E3.65002
G1 X82.736 Y65.603 E3.66790
G1 X75.803 Y72.535 E4.11317
G1 X76.202 Y72.691 E4.13259
G1 X83.039 Y65.854 E4.57170
G1 X83.327 Y66.119 E4.58949
G1 X76.508 Y72.938 E5.02747
G1 X76.814 Y73.186 E5.04535
G1 X83.270 Y66.730 E5.46001
G1 X83.121 Y67.433 E5.49266
G1 X77.068 Y73.486 E5.88143
G1 X77.286 Y73.822 E5.89960
G1 X82.972 Y68.136 E6.26477
G1 X82.822 Y68.839 E6.29741
G1 X77.483 Y74.178 E6.64033
G1 X77.600 Y74.615 E6.66086
G1 X82.673 Y69.542 E6.98667
G1 X82.523 Y70.245 E7.01932
G1 X77.702 Y75.066 E7.32895
G1 X77.671 Y75.651 E7.35552
G1 X82.374 Y70.948 E7.65752
G1 X82.224 Y71.652 E7.69017
G1 X77.494 Y76.382 E7.99400
G1 E5.99400 F1200.00000
G92 E0
G1 X74.382 Y72.296 F6000.000
G1 E2.00000 F1200.00000
G1 F1800
G1 X78.067 Y68.611 E2.23668
G1 X77.551 Y68.749 E2.26093
G1 X77.379 Y68.745 E2.26873
G1 X73.637 Y72.487 E2.50905
G1 X73.433 Y72.542 E2.51868
G1 X72.633 Y73.061 E2.56200
G1 X72.032 Y73.803 E2.60532
G1 X71.852 Y74.272 E2.62816
G1 X72.506 Y73.618 F6000.000
G1 F1800
G1 X67.776 Y78.348 E2.93199
G1 X67.626 Y79.052 E2.96463
G1 X72.329 Y74.349 E3.26663
G1 X72.298 Y74.934 E3.29321
G1 X67.477 Y79.755 E3.60284
G1 X67.327 Y80.458 E3.63549
G1 X72.400 Y75.385 E3.96129
G1 X72.517 Y75.822 E3.98183
G1 X67.178 Y81.161 E4.32475
G1 X67.028 Y81.864 E4.35739
G1 X72.714 Y76.178 E4.72256
G1 X72.932 Y76.514 E4.74074
G1 X66.879 Y82.567 E5.12950
G1 X66.730 Y83.270 E5.16215
G1 X73.186 Y76.814 E5.57682
G1 X73.492 Y77.062 E5.59470
G1 X66.673 Y83.881 E6.03268
G1 X66.961 Y84.146 E6.05047
G1 X73.798 Y77.309 E6.48957
G1 X74.197 Y77.465 E6.50900
G1 X67.264 Y84.398 E6.95427
G1 X67.570 Y84.645 E6.97215
G1 X74.597 Y77.618 E7.42347
G1 X74.693 Y77.655 E7.42817
G1 X75.092 Y77.676 E7.44632
G1 X67.893 Y84.876 E7.90873
G1 X68.217 Y85.105 E7.92677
G1 X69.928 Y83.394 E8.03665
G1 X70.184 Y82.729 E8.06901
G1 X70.774 Y82.000 E8.11162
G1 X71.561 Y81.489 E8.15423
G1 X71.933 Y81.389 E8.17174
G1 X75.618 Y77.704 E8.40842
G1 X76.363 Y77.513 E8.44331
G1 X72.612 Y81.264 E8.68422
G1 X73.148 Y81.282 E8.70856
G1 X82.075 Y72.355 E9.28191
G1 X81.925 Y73.058 E9.31455
G1 X73.610 Y81.374 E9.84863
G1 X74.010 Y81.527 E9.86809
G1 X81.776 Y73.761 E10.36687
G1 X81.626 Y74.464 E10.39952
G1 X74.379 Y81.711 E10.86496
G1 X74.685 Y81.959 E10.88284
G1 X81.477 Y75.167 E11.31903
G1 X81.327 Y75.871 E11.35168
