; generated by Slic3r 1.3.0 on 2020-07-23 at 21:51:49

; external perimeters extrusion width = 0.44mm (2.86mm^3/s)
; perimeters extrusion width = 0.56mm (4.14mm^3/s)
; infill extrusion width = 0.50mm (5.48mm^3/s)
; solid infill extrusion width = 0.56mm (3.10mm^3/s)
; top infill extrusion width = 0.45mm (2.44mm^3/s)

M107
;D3D:START:START
T0
M104 S215 T0

G21
G90
M107
T0
G28
G29
M109 T0 S215 T0
G0 F3000
M107
T0
G92 E0
G0 X0 Y149 Z0.1 F3600
G1 Y49 E6.5 F1200
G0 Z1
G92 E0
; Filament gcode

G21 ; set units to millimeters
G90 ; use absolute coordinates
M82 ; use absolute distances for extrusion
G92 E0
G1 Z0.300 F6000.000
G1 E-2.00000 F1200.00000
G92 E0
G1 X30.616 Y29.199 F6000.000
G1 E2.00000 F1200.00000
G1 F1800
G1 X32.371 Y28.364 E2.08413
G1 X33.500 Y28.229 E2.13335
G1 X94.500 Y28.229 E4.77385
G1 X97.062 Y28.975 E4.88934
G1 X119.062 Y42.975 E6.01812
G1 X120.454 Y44.330 E6.10225
G1 X121.247 Y46.517 E6.20295
G1 X124.652 Y80.013 E7.66036
G1 X124.745 Y81.097 E7.70742
G1 X124.769 Y82.150 E7.75303
G1 X124.726 Y83.202 E7.79862
G1 X124.652 Y83.987 E7.83272
G1 X121.247 Y117.483 E9.29014
G1 X120.661 Y119.336 E9.37426
G1 X119.384 Y120.801 E9.45839
G1 X117.629 Y121.636 E9.54251
G1 X116.500 Y121.771 E9.59174
G1 X55.500 Y121.771 E12.23224
G1 X52.938 Y121.025 E12.34773
G1 X30.938 Y107.025 E13.47651
G1 X29.546 Y105.670 E13.56064
G1 X28.753 Y103.483 E13.66134
G1 X25.348 Y69.987 E15.11875
G1 X25.255 Y68.903 E15.16581
G1 X25.231 Y67.850 E15.21142
G1 X25.274 Y66.798 E15.25701
G1 X25.348 Y66.013 E15.29111
G1 X28.753 Y32.517 E16.74852
G1 X29.339 Y30.664 E16.83265
G1 X30.577 Y29.244 E16.91418
G1 X30.975 Y29.415 F6000.000
G1 F1800
G1 X33.500 Y28.614 E17.02885
G1 X94.500 Y28.614 E19.66936
G1 X96.855 Y29.300 E19.77551
G1 X118.855 Y43.300 E20.90430
G1 X120.178 Y44.611 E20.98491
G1 X120.863 Y46.556 E21.07421
G1 X124.269 Y80.052 E22.53162
G1 X124.360 Y81.109 E22.57752
G1 X124.383 Y82.138 E22.62208
G1 X124.342 Y83.166 E22.66662
G1 X124.269 Y83.948 E22.70060
G1 X120.863 Y117.444 E24.15801
G1 X120.286 Y119.214 E24.23863
G1 X119.025 Y120.585 E24.31925
G1 X116.500 Y121.386 E24.43392
G1 X55.500 Y121.386 E27.07443
G1 X53.145 Y120.700 E27.18058
G1 X31.145 Y106.700 E28.30937
G1 X29.822 Y105.389 E28.38998
G1 X29.137 Y103.444 E28.47928
G1 X25.731 Y69.948 E29.93669
G1 X25.640 Y68.891 E29.98258
G1 X25.617 Y67.862 E30.02715
G1 X25.658 Y66.834 E30.07169
G1 X25.731 Y66.052 E30.10567
G1 X29.137 Y32.556 E31.56308
G1 X29.714 Y30.786 E31.64370
G1 X30.934 Y29.459 E31.72172
G1 E29.72172 F1200.00000
G92 E0
G1 X115.318 Y82.978 F6000.000
G1 E2.00000 F1200.00000
G1 F1800
G1 X115.678 Y82.534 E2.02475
G1 X116.158 Y82.222 E2.04951
G1 X116.667 Y82.086 E2.07234
G1 X117.279 Y82.103 E2.09882
G1 X117.815 Y82.309 E2.12369
G1 X118.259 Y82.669 E2.14844
G1 X118.571 Y83.149 E2.17320
G1 X118.719 Y83.701 E2.19795
G1 X118.689 Y84.272 E2.22271
G1 X118.484 Y84.806 E2.24746
G1 X118.124 Y85.250 E2.27221
G1 X117.645 Y85.562 E2.29697
G1 X117.092 Y85.710 E2.32172
G1 X116.521 Y85.680 E2.34648
G1 X115.987 Y85.475 E2.37123
G1 X115.543 Y85.115 E2.39599
G1 X115.231 Y84.635 E2.42074
G1 X115.083 Y84.083 E2.44549
G1 X115.113 Y83.512 E2.47025
G1 X115.297 Y83.034 E2.49241
G1 X115.118 Y82.632 F6000.000
G1 E0.49241 F1200.00000
G92 E0
G1 X100.887 Y80.488 F6000.000
G1 E2.00000 F1200.00000
G1 F1800
G1 X100.682 Y81.022 E2.02475
G1 X100.322 Y81.466 E2.04951
G1 X99.842 Y81.778 E2.07426
G1 X99.290 Y81.926 E2.09902
G1 X98.719 Y81.896 E2.12377
G1 X98.185 Y81.691 E2.14852
G1 X97.741 Y81.331 E2.17328
G1 X97.429 Y80.851 E2.19803
G1 X97.281 Y80.299 E2.22279
G1 X97.311 Y79.728 E2.24754
G1 X97.516 Y79.194 E2.27230
G1 X97.876 Y78.750 E2.29705
G1 X98.355 Y78.438 E2.32181
G1 X98.865 Y78.302 E2.34463
G1 X99.476 Y78.319 E2.37111
G1 X100.013 Y78.525 E2.39599
G1 X100.457 Y78.885 E2.42074
G1 X100.769 Y79.365 E2.44550
G1 X100.917 Y79.917 E2.47025
G1 X100.890 Y80.428 E2.49241
G1 X101.184 Y80.756 F6000.000
G1 E0.49241 F1200.00000
G92 E0
G1 X107.194 Y110.184 F6000.000
G1 E2.00000 F1200.00000
G1 F1800
G1 X107.947 Y110.065 E2.03300
G1 X108.795 Y110.178 E2.07005
G1 X109.533 Y110.555 E2.10591
G1 X110.110 Y111.132 E2.14124
G1 X110.481 Y111.859 E2.17657
G1 X110.609 Y112.665 E2.21190
G1 X110.481 Y113.471 E2.24723
G1 X110.110 Y114.198 E2.28256
G1 X109.533 Y114.775 E2.31788
G1 X108.806 Y115.146 E2.35322
G1 X108.000 Y115.274 E2.38854
G1 X107.194 Y115.146 E2.42387
G1 X106.467 Y114.775 E2.45920
G1 X105.890 Y114.198 E2.49453
G1 X105.519 Y113.471 E2.52986
G1 X105.391 Y112.665 E2.56519
G1 X105.519 Y111.859 E2.60052
G1 X105.890 Y111.132 E2.63585
G1 X106.467 Y110.555 E2.67118
G1 X107.140 Y110.211 E2.70391
G1 X107.315 Y110.555 F6000.000
G1 F1800
G1 X107.951 Y110.454 E2.73182
G1 X108.679 Y110.552 E2.76359
G1 X109.304 Y110.870 E2.79396
G1 X109.795 Y111.361 E2.82400
G1 X110.110 Y111.980 E2.85404
G1 X110.218 Y112.665 E2.88408
G1 X110.110 Y113.350 E2.91412
G1 X109.795 Y113.969 E2.94417
G1 X109.304 Y114.460 E2.97421
G1 X108.685 Y114.775 E3.00425
G1 X108.000 Y114.883 E3.03429
G1 X107.315 Y114.775 E3.06433
G1 X106.696 Y114.460 E3.09438
G1 X106.205 Y113.969 E3.12442
G1 X105.890 Y113.350 E3.15446
G1 X105.782 Y112.665 E3.18450
G1 X105.890 Y111.980 E3.21454
G1 X106.205 Y111.361 E3.24459
G1 X106.696 Y110.870 E3.27462
G1 X107.261 Y110.583 E3.30207
G1 X107.435 Y110.927 F6000.000
G1 F1800
G1 X107.956 Y110.844 E3.32490
G1 X108.562 Y110.925 E3.35138
G1 X109.074 Y111.186 E3.37625
G1 X109.479 Y111.591 E3.40100
G1 X109.738 Y112.100 E3.42576
G1 X109.828 Y112.665 E3.45051
G1 X109.738 Y113.230 E3.47527
G1 X109.479 Y113.739 E3.50003
G1 X109.074 Y114.144 E3.52478
G1 X108.565 Y114.403 E3.54953
G1 X108.000 Y114.493 E3.57429
G1 X107.435 Y114.403 E3.59904
G1 X106.926 Y114.144 E3.62380
G1 X106.521 Y113.739 E3.64855
G1 X106.262 Y113.230 E3.67330
G1 X106.172 Y112.665 E3.69806
G1 X106.262 Y112.100 E3.72281
G1 X106.521 Y111.591 E3.74757
G1 X106.926 Y111.186 E3.77232
G1 X107.382 Y110.954 E3.79448
G1 X107.518 Y110.535 F6000.000
G1 E1.79448 F1200.00000
G92 E0
G1 X108.000 Y101.109 F6000.000
G1 E2.00000 F1200.00000
G1 F1800
G1 X107.182 Y100.979 E2.03586
G1 X106.429 Y100.572 E2.07291
G1 X105.890 Y100.033 E2.10591
G1 X105.519 Y99.306 E2.14124
G1 X105.391 Y98.500 E2.17657
G1 X105.519 Y97.694 E2.21190
G1 X105.890 Y96.967 E2.24723
G1 X106.467 Y96.390 E2.28256
G1 X107.194 Y96.019 E2.31789
G1 X107.947 Y95.900 E2.35088
G1 X108.795 Y96.013 E2.38794
G1 X109.533 Y96.390 E2.42380
G1 X110.110 Y96.967 E2.45912
G1 X110.481 Y97.694 E2.49446
G1 X110.609 Y98.500 E2.52979
G1 X110.481 Y99.306 E2.56511
G1 X110.110 Y100.033 E2.60045
G1 X109.533 Y100.610 E2.63577
G1 X108.806 Y100.981 E2.67110
G1 X108.059 Y101.099 E2.70384
G1 X108.000 Y100.718 F6000.000
G1 F1800
G1 X107.307 Y100.608 E2.73420
G1 X106.661 Y100.260 E2.76597
G1 X106.205 Y99.804 E2.79388
G1 X105.890 Y99.185 E2.82392
G1 X105.782 Y98.500 E2.85396
G1 X105.890 Y97.815 E2.88401
G1 X106.205 Y97.196 E2.91405
G1 X106.696 Y96.705 E2.94409
G1 X107.315 Y96.390 E2.97413
G1 X107.951 Y96.289 E3.00205
G1 X108.679 Y96.387 E3.03381
G1 X109.304 Y96.705 E3.06418
G1 X109.795 Y97.196 E3.09422
G1 X110.110 Y97.815 E3.12426
G1 X110.218 Y98.500 E3.15430
G1 X110.110 Y99.185 E3.18434
G1 X109.795 Y99.804 E3.21439
G1 X109.304 Y100.295 E3.24443
G1 X108.685 Y100.610 E3.27447
G1 X108.059 Y100.709 E3.30192
G1 X108.000 Y100.328 F6000.000
G1 F1800
G1 X107.432 Y100.238 E3.32679
G1 X106.894 Y99.947 E3.35327
G1 X106.521 Y99.574 E3.37610
G1 X106.262 Y99.065 E3.40085
G1 X106.172 Y98.500 E3.42561
G1 X106.262 Y97.935 E3.45036
G1 X106.521 Y97.426 E3.47512
G1 X106.926 Y97.021 E3.49987
G1 X107.435 Y96.762 E3.52462
G1 X107.956 Y96.679 E3.54745
G1 X108.562 Y96.760 E3.57393
G1 X109.074 Y97.021 E3.59881
G1 X109.479 Y97.426 E3.62356
G1 X109.738 Y97.935 E3.64831
G1 X109.828 Y98.500 E3.67307
G1 X109.738 Y99.065 E3.69782
G1 X109.479 Y99.574 E3.72258
G1 X109.074 Y99.979 E3.74733
G1 X108.565 Y100.238 E3.77209
G1 X108.059 Y100.318 E3.79424
G1 X107.800 Y100.674 F6000.000
G1 E1.79424 F1200.00000
G92 E0
G1 X108.000 Y84.609 F6000.000
G1 E2.00000 F1200.00000
G1 F1800
G1 X107.182 Y84.479 E2.03586
G1 X106.429 Y84.072 E2.07292
G1 X105.890 Y83.533 E2.10591
G1 X105.519 Y82.806 E2.14124
G1 X105.391 Y82.000 E2.17657
G1 X105.519 Y81.194 E2.21190
G1 X105.890 Y80.467 E2.24723
G1 X106.467 Y79.890 E2.28256
G1 X107.194 Y79.519 E2.31789
G1 X107.947 Y79.400 E2.35088
G1 X108.795 Y79.513 E2.38794
G1 X109.533 Y79.890 E2.42380
G1 X110.110 Y80.467 E2.45913
G1 X110.481 Y81.194 E2.49445
G1 X110.609 Y82.000 E2.52979
G1 X110.481 Y82.806 E2.56512
G1 X110.110 Y83.533 E2.60044
G1 X109.533 Y84.110 E2.63577
G1 X108.806 Y84.481 E2.67111
G1 X108.059 Y84.599 E2.70384
G1 X108.000 Y84.218 F6000.000
G1 F1800
G1 X107.307 Y84.108 E2.73420
G1 X106.661 Y83.760 E2.76597
G1 X106.205 Y83.304 E2.79388
G1 X105.890 Y82.685 E2.82392
G1 X105.782 Y82.000 E2.85396
G1 X105.890 Y81.315 E2.88401
G1 X106.205 Y80.696 E2.91405
G1 X106.696 Y80.205 E2.94409
G1 X107.315 Y79.890 E2.97413
G1 X107.951 Y79.789 E3.00205
G1 X108.679 Y79.887 E3.03381
G1 X109.304 Y80.205 E3.06418
G1 X109.795 Y80.696 E3.09422
G1 X110.110 Y81.315 E3.12426
G1 X110.218 Y82.000 E3.15430
G1 X110.110 Y82.685 E3.18435
G1 X109.795 Y83.304 E3.21439
G1 X109.304 Y83.795 E3.24443
G1 X108.685 Y84.110 E3.27447
G1 X108.059 Y84.209 E3.30192
G1 X108.000 Y83.828 F6000.000
G1 F1800
G1 X107.432 Y83.738 E3.32679
G1 X106.894 Y83.447 E3.35327
G1 X106.521 Y83.074 E3.37610
G1 X106.262 Y82.565 E3.40085
G1 X106.172 Y82.000 E3.42561
G1 X106.262 Y81.435 E3.45036
G1 X106.521 Y80.926 E3.47511
G1 X106.926 Y80.521 E3.49987
G1 X107.435 Y80.262 E3.52462
G1 X107.956 Y80.179 E3.54745
G1 X108.562 Y80.260 E3.57393
G1 X109.074 Y80.521 E3.59881
G1 X109.479 Y80.926 E3.62356
G1 X109.738 Y81.435 E3.64831
G1 X109.828 Y82.000 E3.67307
G1 X109.738 Y82.565 E3.69782
G1 X109.479 Y83.074 E3.72258
G1 X109.074 Y83.479 E3.74733
G1 X108.565 Y83.738 E3.77209
G1 X108.059 Y83.818 E3.79424
G1 X107.800 Y84.174 F6000.000
G1 E1.79424 F1200.00000
G92 E0
G1 X108.000 Y68.109 F6000.000
G1 E2.00000 F1200.00000
G1 F1800
G1 X107.182 Y67.979 E2.03586
G1 X106.429 Y67.572 E2.07292
G1 X105.890 Y67.033 E2.10591
G1 X105.519 Y66.306 E2.14124
G1 X105.391 Y65.500 E2.17657
G1 X105.519 Y64.694 E2.21190
G1 X105.890 Y63.967 E2.24723
G1 X106.467 Y63.390 E2.28256
G1 X107.194 Y63.019 E2.31789
G1 X107.947 Y62.900 E2.35088
G1 X108.795 Y63.013 E2.38794
G1 X109.533 Y63.390 E2.42380
G1 X110.110 Y63.967 E2.45912
G1 X110.481 Y64.694 E2.49446
G1 X110.609 Y65.500 E2.52979
G1 X110.481 Y66.306 E2.56512
G1 X110.110 Y67.033 E2.60044
G1 X109.533 Y67.610 E2.63577
G1 X108.806 Y67.981 E2.67111
G1 X108.059 Y68.099 E2.70384
G1 X108.000 Y67.718 F6000.000
G1 F1800
G1 X107.307 Y67.608 E2.73420
G1 X106.661 Y67.260 E2.76597
G1 X106.205 Y66.804 E2.79388
G1 X105.890 Y66.185 E2.82392
G1 X105.782 Y65.500 E2.85397
G1 X105.890 Y64.815 E2.88401
G1 X106.205 Y64.196 E2.91405
G1 X106.696 Y63.705 E2.94409
G1 X107.315 Y63.390 E2.97413
G1 X107.951 Y63.289 E3.00205
G1 X108.679 Y63.387 E3.03381
G1 X109.304 Y63.705 E3.06418
G1 X109.795 Y64.196 E3.09422
G1 X110.110 Y64.815 E3.12426
G1 X110.218 Y65.500 E3.15430
G1 X110.110 Y66.185 E3.18435
G1 X109.795 Y66.804 E3.21439
G1 X109.304 Y67.295 E3.24443
G1 X108.685 Y67.610 E3.27447
G1 X108.059 Y67.709 E3.30192
G1 X108.000 Y67.328 F6000.000
G1 F1800
G1 X107.432 Y67.238 E3.32679
G1 X106.894 Y66.947 E3.35327
G1 X106.521 Y66.574 E3.37610
G1 X106.262 Y66.065 E3.40085
G1 X106.172 Y65.500 E3.42561
G1 X106.262 Y64.935 E3.45036
G1 X106.521 Y64.426 E3.47512
G1 X106.926 Y64.021 E3.49987
G1 X107.435 Y63.762 E3.52462
G1 X107.956 Y63.679 E3.54745
G1 X108.562 Y63.760 E3.57393
G1 X109.074 Y64.021 E3.59881
G1 X109.479 Y64.426 E3.62356
G1 X109.738 Y64.935 E3.64831
G1 X109.828 Y65.500 E3.67307
G1 X109.738 Y66.065 E3.69782
G1 X109.479 Y66.574 E3.72258
G1 X109.074 Y66.979 E3.74733
G1 X108.565 Y67.238 E3.77209
G1 X108.059 Y67.318 E3.79424
G1 X107.800 Y67.674 F6000.000
G1 E1.79424 F1200.00000
G92 E0
G1 X108.000 Y53.944 F6000.000
G1 E2.00000 F1200.00000
G1 F1800
G1 X107.194 Y53.816 E2.03533
G1 X106.467 Y53.445 E2.07066
G1 X105.890 Y52.868 E2.10599
G1 X105.519 Y52.141 E2.14132
G1 X105.391 Y51.335 E2.17665
G1 X105.519 Y50.529 E2.21198
G1 X105.890 Y49.802 E2.24731
G1 X106.467 Y49.225 E2.28263
G1 X107.194 Y48.854 E2.31797
G1 X107.947 Y48.735 E2.35096
G1 X108.795 Y48.848 E2.38802
G1 X109.533 Y49.225 E2.42388
G1 X110.110 Y49.802 E2.45920
G1 X110.481 Y50.529 E2.49454
G1 X110.609 Y51.335 E2.52986
G1 X110.481 Y52.141 E2.56519
G1 X110.110 Y52.868 E2.60052
G1 X109.533 Y53.445 E2.63585
G1 X108.806 Y53.816 E2.67118
G1 X108.059 Y53.934 E2.70391
G1 X108.000 Y53.553 F6000.000
G1 F1800
G1 X107.315 Y53.445 E2.73395
G1 X106.696 Y53.130 E2.76400
G1 X106.205 Y52.639 E2.79404
G1 X105.890 Y52.020 E2.82408
G1 X105.782 Y51.335 E2.85412
G1 X105.890 Y50.650 E2.88416
G1 X106.205 Y50.031 E2.91421
G1 X106.696 Y49.540 E2.94425
G1 X107.315 Y49.225 E2.97429
G1 X107.951 Y49.124 E3.00220
G1 X108.679 Y49.222 E3.03397
G1 X109.304 Y49.540 E3.06434
G1 X109.795 Y50.031 E3.09437
G1 X110.110 Y50.650 E3.12442
G1 X110.218 Y51.335 E3.15446
G1 X110.110 Y52.020 E3.18450
G1 X109.795 Y52.639 E3.21455
G1 X109.304 Y53.130 E3.24458
G1 X108.685 Y53.445 E3.27463
G1 X108.059 Y53.544 E3.30207
G1 X108.000 Y53.163 F6000.000
G1 F1800
G1 X107.435 Y53.073 E3.32683
G1 X106.926 Y52.814 E3.35158
G1 X106.521 Y52.409 E3.37633
G1 X106.262 Y51.900 E3.40109
G1 X106.172 Y51.335 E3.42584
G1 X106.262 Y50.770 E3.45060
G1 X106.521 Y50.261 E3.47535
G1 X106.926 Y49.856 E3.50010
G1 X107.435 Y49.597 E3.52486
G1 X107.956 Y49.514 E3.54769
G1 X108.562 Y49.595 E3.57417
G1 X109.074 Y49.856 E3.59904
G1 X109.479 Y50.261 E3.62379
G1 X109.738 Y50.770 E3.64855
G1 X109.828 Y51.335 E3.67330
G1 X109.738 Y51.900 E3.69806
G1 X109.479 Y52.409 E3.72282
G1 X109.074 Y52.814 E3.74757
G1 X108.565 Y53.073 E3.77232
G1 X108.059 Y53.153 E3.79448
G1 X107.800 Y53.509 F6000.000
G1 E1.79448 F1200.00000
G92 E0
G1 X115.504 Y47.996 F6000.000
G1 E2.00000 F1200.00000
G1 F1800
G1 X115.504 Y63.074 E2.65267
G1 X114.919 Y63.306 E2.67990
G1 X114.411 Y63.675 E2.70708
G1 X114.011 Y64.158 E2.73425
G1 X113.743 Y64.726 E2.76142
G1 X113.626 Y65.343 E2.78860
G1 X113.665 Y65.969 E2.81577
G1 X113.859 Y66.566 E2.84293
G1 X114.195 Y67.096 E2.87010
G1 X114.653 Y67.526 E2.89728
G1 X115.203 Y67.828 E2.92445
G1 X115.811 Y67.984 E2.95162
G1 X116.266 Y67.984 E2.97133
G1 X118.808 Y79.933 E3.50012
G1 X118.917 Y80.621 E3.53027
G1 X118.982 Y81.309 E3.56019
G1 X119.003 Y82.000 E3.59011
G1 X118.995 Y82.272 E3.60188
G1 X118.205 Y81.633 E3.64585
G1 X117.432 Y81.336 E3.68170
G1 X116.576 Y81.312 E3.71876
G1 X115.840 Y81.509 E3.75175
G1 X115.156 Y81.953 E3.78708
G1 X114.642 Y82.588 E3.82241
G1 X114.349 Y83.350 E3.85774
G1 X114.307 Y84.165 E3.89307
G1 X114.518 Y84.953 E3.92840
G1 X114.962 Y85.638 E3.96373
G1 X115.597 Y86.151 E3.99906
G1 X116.359 Y86.444 E4.03439
G1 X117.174 Y86.486 E4.06972
G1 X117.962 Y86.275 E4.10504
G1 X118.398 Y85.992 E4.12755
G1 X116.266 Y96.016 E4.57114
G1 X115.811 Y96.016 E4.59084
G1 X115.203 Y96.172 E4.61802
G1 X114.653 Y96.474 E4.64519
G1 X114.207 Y96.893 E4.67167
G1 X113.942 Y97.282 E4.69205
G1 X113.789 Y97.609 E4.70767
G1 X113.641 Y98.186 E4.73347
G1 X113.641 Y98.814 E4.76064
G1 X113.797 Y99.422 E4.78782
G1 X114.099 Y99.972 E4.81499
G1 X114.529 Y100.430 E4.84216
G1 X115.059 Y100.766 E4.86933
G1 X115.504 Y100.910 E4.88958
G1 X115.504 Y116.004 E5.54293
G1 X100.496 Y116.004 E6.19256
G1 X100.496 Y100.910 E6.84590
G1 X100.941 Y100.766 E6.86616
G1 X101.471 Y100.430 E6.89333
G1 X101.901 Y99.972 E6.92050
G1 X102.203 Y99.422 E6.94767
G1 X102.359 Y98.814 E6.97484
G1 X102.359 Y98.186 E7.00202
G1 X102.211 Y97.609 E7.02782
G1 X102.058 Y97.282 E7.04344
G1 X101.793 Y96.893 E7.06382
G1 X101.347 Y96.474 E7.09030
G1 X100.797 Y96.172 E7.11747
G1 X100.189 Y96.016 E7.14465
G1 X99.734 Y96.016 E7.16435
G1 X97.192 Y84.067 E7.69314
G1 X97.083 Y83.379 E7.72329
G1 X97.018 Y82.691 E7.75321
G1 X96.997 Y82.000 E7.78313
G1 X97.005 Y81.728 E7.79490
G1 X97.795 Y82.367 E7.83887
G1 X98.556 Y82.660 E7.87419
G1 X99.372 Y82.702 E7.90952
G1 X100.160 Y82.491 E7.94485
G1 X100.844 Y82.047 E7.98018
G1 X101.358 Y81.412 E8.01551
G1 X101.651 Y80.650 E8.05084
G1 X101.693 Y79.835 E8.08617
G1 X101.482 Y79.047 E8.12150
