; generated by Slic3r 1.3.0 on 2021-03-06 at 11:50:51

; external perimeters extrusion width = 0.44mm (2.86mm^3/s)
; perimeters extrusion width = 0.56mm (4.14mm^3/s)
; infill extrusion width = 0.50mm (3.66mm^3/s)
; solid infill extrusion width = 0.56mm (3.10mm^3/s)
; top infill extrusion width = 0.45mm (2.44mm^3/s)

M107
;D3D:START:START
T0
M104 S215 T0

G21
G90
M107
T0
G28
G29
M109 T0 S215 T0
G0 F3000
M107
T0
G92 E0
G0 X0 Y149 Z0.1 F3600
G1 Y49 E6.5 F1200
G0 Z1
G92 E0
; Filament gcode

G21 ; set units to millimeters
G90 ; use absolute coordinates
M82 ; use absolute distances for extrusion
G92 E0
G1 Z0.300 F6000.000
G1 E-2.00000 F1200.00000
G92 E0
G1 Z0.800 F6000.000
G1 X54.770 Y60.699 F6000.000
G1 Z0.300 F6000.000
G1 E2.00000 F1200.00000
G1 F1800
G1 X56.528 Y59.187 E2.10372
G1 X58.444 Y58.410 E2.19619
G1 X77.582 Y53.891 E3.07576
G1 X78.289 Y53.764 E3.10792
G1 X78.863 Y53.691 E3.13376
G1 X79.711 Y53.638 E3.17179
G1 X80.289 Y53.638 E3.19762
G1 X81.137 Y53.691 E3.23565
G1 X81.711 Y53.764 E3.26150
G1 X82.545 Y53.923 E3.29951
G1 X83.105 Y54.066 E3.32535
G1 X83.915 Y54.330 E3.36343
G1 X84.452 Y54.542 E3.38927
G1 X85.071 Y54.824 E3.41972
G1 X93.113 Y58.987 E3.82473
G1 X94.959 Y60.389 E3.92846
G1 X96.224 Y62.333 E4.03218
G1 X96.771 Y65.000 E4.15397
G1 X96.771 Y85.000 E5.04856
G1 X96.374 Y87.285 E5.15228
G1 X95.230 Y89.301 E5.25601
G1 X93.113 Y91.013 E5.37780
G1 X85.071 Y95.176 E5.78281
G1 X84.452 Y95.458 E5.81325
G1 X83.915 Y95.670 E5.83910
G1 X83.105 Y95.934 E5.87718
G1 X82.545 Y96.077 E5.90302
G1 X81.711 Y96.236 E5.94103
G1 X81.137 Y96.309 E5.96688
G1 X80.289 Y96.362 E6.00491
G1 X79.711 Y96.362 E6.03074
G1 X78.863 Y96.309 E6.06877
G1 X78.290 Y96.236 E6.09461
G1 X77.582 Y96.109 E6.12677
G1 X58.444 Y91.590 E7.00634
G1 X56.312 Y90.679 E7.11006
G1 X54.612 Y89.101 E7.21378
G1 X53.544 Y87.043 E7.31751
G1 X53.229 Y85.000 E7.40997
G1 X53.229 Y65.000 E8.30457
G1 X53.626 Y62.715 E8.40829
G1 X54.741 Y60.751 E8.50933
G1 X55.153 Y60.843 F6000.000
G1 F1800
G1 X56.896 Y59.419 E8.61003
G1 X58.533 Y58.785 E8.68853
G1 X77.671 Y54.267 E9.56810
G1 X78.338 Y54.146 E9.59842
G1 X78.911 Y54.074 E9.62427
G1 X79.711 Y54.023 E9.66013
G1 X80.289 Y54.023 E9.68597
G1 X81.089 Y54.074 E9.72183
G1 X81.662 Y54.146 E9.74767
G1 X82.449 Y54.296 E9.78352
G1 X83.009 Y54.440 E9.80936
G1 X83.773 Y54.688 E9.84528
G1 X84.310 Y54.901 E9.87112
G1 X84.894 Y55.167 E9.89983
G1 X92.935 Y59.329 E10.30484
G1 X94.721 Y60.700 E10.40554
G1 X95.920 Y62.606 E10.50625
G1 X96.386 Y65.000 E10.61535
G1 X96.386 Y85.000 E11.50995
G1 X95.989 Y87.216 E11.61065
G1 X94.847 Y89.157 E11.71135
G1 X92.935 Y90.671 E11.82045
G1 X84.894 Y94.833 E12.22547
G1 X84.310 Y95.099 E12.25418
G1 X83.773 Y95.312 E12.28002
G1 X83.009 Y95.560 E12.31594
G1 X82.449 Y95.704 E12.34178
G1 X81.662 Y95.854 E12.37762
G1 X81.089 Y95.926 E12.40347
G1 X80.289 Y95.977 E12.43933
G1 X79.711 Y95.977 E12.46517
G1 X78.911 Y95.926 E12.50103
G1 X78.338 Y95.854 E12.52687
G1 X77.671 Y95.733 E12.55720
G1 X58.533 Y91.215 E13.43677
G1 X56.467 Y90.319 E13.53747
G1 X54.841 Y88.763 E13.63817
G1 X53.856 Y86.738 E13.73888
G1 X53.614 Y85.000 E13.81737
G1 X53.614 Y65.000 E14.71197
G1 X54.011 Y62.784 E14.81267
G1 X55.122 Y60.895 E14.91069
G1 E12.91069 F1200.00000
G92 E0
G1 Z0.800 F6000.000
G1 X81.894 Y86.779 F6000.000
G1 Z0.300 F6000.000
G1 E2.00000 F1200.00000
G1 F1800
G1 X81.656 Y87.002 E2.01459
G1 X81.392 Y87.194 E2.02919
G1 X81.106 Y87.351 E2.04378
G1 X80.803 Y87.471 E2.05837
G1 X80.487 Y87.552 E2.07297
G1 X80.163 Y87.593 E2.08757
G1 X79.837 Y87.593 E2.10215
G1 X79.513 Y87.552 E2.11675
G1 X79.197 Y87.471 E2.13136
G1 X78.894 Y87.351 E2.14594
G1 X78.608 Y87.194 E2.16053
G1 X78.344 Y87.002 E2.17512
G1 X78.106 Y86.779 E2.18973
G1 X77.898 Y86.527 E2.20432
G1 X77.723 Y86.252 E2.21892
G1 X77.584 Y85.956 E2.23351
G1 X77.483 Y85.646 E2.24810
G1 X77.422 Y85.326 E2.26270
G1 X77.402 Y85.000 E2.27729
G1 X77.422 Y84.674 E2.29189
G1 X77.483 Y84.354 E2.30649
G1 X77.584 Y84.044 E2.32107
G1 X77.723 Y83.748 E2.33567
G1 X77.898 Y83.473 E2.35027
G1 X78.125 Y83.198 E2.36621
G1 X78.564 Y82.834 E2.39172
G1 X78.890 Y82.651 E2.40844
G1 X79.197 Y82.529 E2.42323
G1 X79.513 Y82.448 E2.43782
G1 X79.837 Y82.407 E2.45242
G1 X80.163 Y82.407 E2.46701
G1 X80.487 Y82.448 E2.48161
G1 X80.803 Y82.529 E2.49620
G1 X81.106 Y82.649 E2.51079
G1 X81.392 Y82.806 E2.52539
G1 X81.656 Y82.998 E2.53999
G1 X81.894 Y83.221 E2.55458
G1 X82.102 Y83.473 E2.56917
G1 X82.277 Y83.748 E2.58377
G1 X82.416 Y84.044 E2.59837
G1 X82.517 Y84.354 E2.61295
G1 X82.578 Y84.674 E2.62755
G1 X82.598 Y85.000 E2.64215
G1 X82.578 Y85.326 E2.65674
G1 X82.517 Y85.646 E2.67134
G1 X82.416 Y85.956 E2.68593
G1 X82.277 Y86.252 E2.70052
G1 X82.102 Y86.527 E2.71513
G1 X81.932 Y86.732 E2.72704
G1 X81.612 Y86.514 F6000.000
G1 F1800
G1 X81.410 Y86.704 E2.73946
G1 X81.185 Y86.868 E2.75188
G1 X80.942 Y87.001 E2.76430
G1 X80.684 Y87.104 E2.77673
G1 X80.414 Y87.173 E2.78916
G1 X80.139 Y87.207 E2.80158
G1 X79.861 Y87.207 E2.81400
G1 X79.586 Y87.173 E2.82642
G1 X79.316 Y87.104 E2.83885
G1 X79.058 Y87.001 E2.85128
G1 X78.815 Y86.868 E2.86370
G1 X78.590 Y86.704 E2.87612
G1 X78.388 Y86.514 E2.88855
G1 X78.211 Y86.300 E2.90097
G1 X78.062 Y86.065 E2.91340
G1 X77.944 Y85.814 E2.92582
G1 X77.858 Y85.550 E2.93824
G1 X77.806 Y85.277 E2.95067
G1 X77.788 Y85.000 E2.96309
G1 X77.806 Y84.723 E2.97552
G1 X77.858 Y84.450 E2.98795
G1 X77.944 Y84.186 E3.00036
G1 X78.062 Y83.934 E3.01279
G1 X78.211 Y83.700 E3.02521
G1 X78.399 Y83.472 E3.03847
G1 X78.783 Y83.153 E3.06078
G1 X79.056 Y83.000 E3.07477
G1 X79.317 Y82.896 E3.08731
G1 X79.586 Y82.827 E3.09974
G1 X79.861 Y82.793 E3.11216
G1 X80.139 Y82.793 E3.12459
G1 X80.414 Y82.827 E3.13701
G1 X80.683 Y82.896 E3.14943
G1 X80.942 Y82.999 E3.16186
G1 X81.185 Y83.132 E3.17428
G1 X81.410 Y83.296 E3.18671
G1 X81.612 Y83.486 E3.19913
G1 X81.789 Y83.700 E3.21155
G1 X81.938 Y83.934 E3.22398
G1 X82.056 Y84.186 E3.23641
G1 X82.142 Y84.450 E3.24882
G1 X82.194 Y84.723 E3.26125
G1 X82.212 Y85.000 E3.27368
G1 X82.194 Y85.277 E3.28610
G1 X82.142 Y85.550 E3.29853
G1 X82.056 Y85.814 E3.31095
G1 X81.938 Y86.065 E3.32337
G1 X81.789 Y86.300 E3.33580
G1 X81.651 Y86.468 E3.34554
G1 X81.331 Y86.250 F6000.000
G1 F1800
G1 X81.164 Y86.407 E3.35579
G1 X80.978 Y86.541 E3.36605
G1 X80.777 Y86.652 E3.37630
G1 X80.564 Y86.736 E3.38655
G1 X80.342 Y86.793 E3.39681
G1 X80.115 Y86.822 E3.40706
G1 X79.885 Y86.822 E3.41732
G1 X79.658 Y86.793 E3.42757
G1 X79.436 Y86.736 E3.43782
G1 X79.223 Y86.652 E3.44808
G1 X79.022 Y86.541 E3.45833
G1 X78.836 Y86.407 E3.46858
G1 X78.669 Y86.250 E3.47884
G1 X78.523 Y86.073 E3.48909
G1 X78.400 Y85.879 E3.49935
G1 X78.303 Y85.672 E3.50960
G1 X78.232 Y85.454 E3.51985
G1 X78.189 Y85.229 E3.53011
G1 X78.175 Y85.000 E3.54036
G1 X78.189 Y84.771 E3.55062
G1 X78.232 Y84.546 E3.56087
G1 X78.303 Y84.328 E3.57112
G1 X78.400 Y84.121 E3.58138
G1 X78.523 Y83.927 E3.59163
G1 X78.674 Y83.745 E3.60219
G1 X79.002 Y83.472 E3.62132
G1 X79.222 Y83.349 E3.63257
G1 X79.436 Y83.264 E3.64287
G1 X79.658 Y83.207 E3.65312
G1 X79.885 Y83.178 E3.66337
G1 X80.115 Y83.178 E3.67363
G1 X80.342 Y83.207 E3.68388
G1 X80.564 Y83.264 E3.69414
G1 X80.777 Y83.348 E3.70439
G1 X80.978 Y83.459 E3.71464
G1 X81.164 Y83.593 E3.72490
G1 X81.331 Y83.750 E3.73515
G1 X81.477 Y83.927 E3.74541
G1 X81.600 Y84.121 E3.75566
G1 X81.697 Y84.328 E3.76592
G1 X81.768 Y84.546 E3.77617
G1 X81.811 Y84.771 E3.78642
G1 X81.825 Y85.000 E3.79668
G1 X81.811 Y85.229 E3.80693
G1 X81.768 Y85.454 E3.81719
G1 X81.697 Y85.672 E3.82744
G1 X81.600 Y85.879 E3.83769
G1 X81.369 Y86.203 E3.85548
G1 X81.397 Y86.469 F6000.000
G1 E1.85548 F1200.00000
G92 E0
G1 Z0.800 F6000.000
G1 X71.894 Y76.779 F6000.000
G1 Z0.300 F6000.000
G1 E2.00000 F1200.00000
G1 F1800
G1 X71.656 Y77.002 E2.01459
G1 X71.392 Y77.194 E2.02920
G1 X71.106 Y77.351 E2.04379
G1 X70.803 Y77.471 E2.05838
G1 X70.487 Y77.552 E2.07297
G1 X70.163 Y77.593 E2.08757
G1 X69.837 Y77.593 E2.10216
G1 X69.513 Y77.552 E2.11676
G1 X69.197 Y77.471 E2.13135
G1 X68.894 Y77.351 E2.14595
G1 X68.608 Y77.194 E2.16054
G1 X68.344 Y77.002 E2.17514
G1 X68.106 Y76.779 E2.18973
G1 X67.898 Y76.527 E2.20433
G1 X67.723 Y76.252 E2.21892
G1 X67.584 Y75.956 E2.23352
G1 X67.483 Y75.646 E2.24811
G1 X67.422 Y75.326 E2.26271
G1 X67.400 Y74.971 E2.27859
G1 X67.466 Y74.424 E2.30325
G1 X67.581 Y74.051 E2.32070
G1 X67.723 Y73.748 E2.33566
G1 X67.898 Y73.473 E2.35026
G1 X68.106 Y73.221 E2.36485
G1 X68.344 Y72.998 E2.37945
G1 X68.608 Y72.806 E2.39404
G1 X68.894 Y72.649 E2.40864
G1 X69.197 Y72.529 E2.42323
G1 X69.513 Y72.448 E2.43783
G1 X69.837 Y72.407 E2.45242
G1 X70.163 Y72.407 E2.46702
G1 X70.487 Y72.448 E2.48161
G1 X70.803 Y72.529 E2.49620
G1 X71.106 Y72.649 E2.51080
G1 X71.392 Y72.806 E2.52539
G1 X71.656 Y72.998 E2.53999
G1 X71.894 Y73.221 E2.55458
G1 X72.102 Y73.473 E2.56917
G1 X72.277 Y73.748 E2.58377
G1 X72.416 Y74.044 E2.59837
G1 X72.517 Y74.354 E2.61295
G1 X72.578 Y74.674 E2.62755
G1 X72.598 Y75.000 E2.64215
G1 X72.578 Y75.326 E2.65675
G1 X72.517 Y75.646 E2.67135
G1 X72.416 Y75.956 E2.68593
G1 X72.277 Y76.252 E2.70053
G1 X72.102 Y76.527 E2.71513
G1 X71.932 Y76.732 E2.72703
G1 X71.612 Y76.514 F6000.000
G1 F1800
G1 X71.410 Y76.704 E2.73946
G1 X71.185 Y76.868 E2.75189
G1 X70.942 Y77.001 E2.76431
G1 X70.683 Y77.104 E2.77673
G1 X70.414 Y77.173 E2.78915
G1 X70.139 Y77.207 E2.80158
G1 X69.861 Y77.207 E2.81400
G1 X69.586 Y77.173 E2.82643
G1 X69.316 Y77.104 E2.83885
G1 X69.058 Y77.001 E2.85128
G1 X68.815 Y76.868 E2.86370
G1 X68.590 Y76.704 E2.87612
G1 X68.388 Y76.514 E2.88855
G1 X68.211 Y76.300 E2.90097
G1 X68.062 Y76.066 E2.91340
G1 X67.943 Y75.814 E2.92582
G1 X67.858 Y75.550 E2.93825
G1 X67.806 Y75.277 E2.95067
G1 X67.787 Y74.982 E2.96389
G1 X67.845 Y74.504 E2.98542
G1 X67.941 Y74.190 E3.00012
G1 X68.062 Y73.934 E3.01276
G1 X68.211 Y73.700 E3.02519
G1 X68.388 Y73.486 E3.03761
G1 X68.590 Y73.296 E3.05004
G1 X68.815 Y73.132 E3.06246
G1 X69.058 Y72.999 E3.07489
G1 X69.316 Y72.896 E3.08731
G1 X69.586 Y72.827 E3.09974
G1 X69.861 Y72.793 E3.11216
G1 X70.139 Y72.793 E3.12459
G1 X70.414 Y72.827 E3.13701
G1 X70.683 Y72.896 E3.14943
G1 X70.942 Y72.999 E3.16185
G1 X71.185 Y73.132 E3.17428
G1 X71.410 Y73.296 E3.18671
G1 X71.612 Y73.486 E3.19913
G1 X71.789 Y73.700 E3.21155
G1 X71.938 Y73.934 E3.22398
G1 X72.056 Y74.186 E3.23640
G1 X72.142 Y74.450 E3.24882
G1 X72.194 Y74.723 E3.26125
G1 X72.212 Y75.000 E3.27367
G1 X72.194 Y75.277 E3.28610
G1 X72.142 Y75.550 E3.29853
G1 X72.056 Y75.814 E3.31095
G1 X71.938 Y76.066 E3.32337
G1 X71.789 Y76.300 E3.33580
G1 X71.651 Y76.468 E3.34554
G1 X71.331 Y76.250 F6000.000
G1 F1800
G1 X71.164 Y76.407 E3.35579
G1 X70.978 Y76.541 E3.36604
G1 X70.777 Y76.652 E3.37630
G1 X70.564 Y76.736 E3.38655
G1 X70.342 Y76.793 E3.39680
G1 X70.115 Y76.822 E3.40706
G1 X69.885 Y76.822 E3.41731
G1 X69.658 Y76.793 E3.42757
G1 X69.436 Y76.736 E3.43782
G1 X69.223 Y76.652 E3.44807
G1 X69.022 Y76.541 E3.45833
G1 X68.836 Y76.407 E3.46858
G1 X68.669 Y76.250 E3.47884
G1 X68.523 Y76.073 E3.48909
G1 X68.400 Y75.879 E3.49934
G1 X68.303 Y75.672 E3.50960
G1 X68.232 Y75.454 E3.51985
G1 X68.189 Y75.229 E3.53011
G1 X68.174 Y74.993 E3.54065
G1 X68.224 Y74.585 E3.55907
G1 X68.302 Y74.330 E3.57100
G1 X68.400 Y74.121 E3.58134
G1 X68.523 Y73.927 E3.59159
G1 X68.669 Y73.750 E3.60185
G1 X68.836 Y73.593 E3.61210
G1 X69.022 Y73.459 E3.62235
G1 X69.223 Y73.348 E3.63261
G1 X69.436 Y73.264 E3.64286
G1 X69.658 Y73.207 E3.65312
G1 X69.885 Y73.178 E3.66337
G1 X70.115 Y73.178 E3.67363
G1 X70.342 Y73.207 E3.68388
G1 X70.564 Y73.264 E3.69413
G1 X70.777 Y73.348 E3.70438
G1 X70.978 Y73.459 E3.71464
G1 X71.164 Y73.593 E3.72489
G1 X71.331 Y73.750 E3.73515
G1 X71.477 Y73.927 E3.74540
G1 X71.600 Y74.121 E3.75566
G1 X71.697 Y74.328 E3.76591
G1 X71.768 Y74.546 E3.77616
G1 X71.811 Y74.771 E3.78642
G1 X71.825 Y75.000 E3.79667
G1 X71.811 Y75.229 E3.80692
G1 X71.768 Y75.454 E3.81718
G1 X71.697 Y75.672 E3.82743
G1 X71.600 Y75.879 E3.83768
G1 X71.369 Y76.203 E3.85548
G1 X71.397 Y76.469 F6000.000
G1 E1.85548 F1200.00000
G92 E0
G1 Z0.800 F6000.000
G1 X78.344 Y67.002 F6000.000
G1 Z0.300 F6000.000
G1 E2.00000 F1200.00000
G1 F1800
G1 X78.106 Y66.779 E2.01460
G1 X77.898 Y66.527 E2.02920
G1 X77.723 Y66.252 E2.04379
G1 X77.584 Y65.956 E2.05839
G1 X77.483 Y65.646 E2.07297
G1 X77.422 Y65.326 E2.08757
G1 X77.402 Y65.000 E2.10217
G1 X77.422 Y64.674 E2.11676
G1 X77.483 Y64.354 E2.13136
G1 X77.584 Y64.044 E2.14595
G1 X77.723 Y63.748 E2.16054
G1 X77.898 Y63.473 E2.17514
G1 X78.106 Y63.221 E2.18974
G1 X78.344 Y62.998 E2.20434
G1 X78.608 Y62.806 E2.21893
G1 X78.894 Y62.649 E2.23352
G1 X79.197 Y62.529 E2.24811
G1 X79.513 Y62.448 E2.26271
G1 X79.837 Y62.407 E2.27731
G1 X80.163 Y62.407 E2.29189
G1 X80.487 Y62.448 E2.30649
G1 X80.803 Y62.529 E2.32109
G1 X81.106 Y62.649 E2.33568
G1 X81.392 Y62.806 E2.35027
G1 X81.656 Y62.998 E2.36487
G1 X81.894 Y63.221 E2.37946
G1 X82.102 Y63.473 E2.39405
G1 X82.277 Y63.748 E2.40866
G1 X82.416 Y64.044 E2.42325
G1 X82.517 Y64.354 E2.43784
G1 X82.578 Y64.674 E2.45244
G1 X82.598 Y65.000 E2.46703
G1 X82.578 Y65.326 E2.48163
G1 X82.517 Y65.646 E2.49623
G1 X82.416 Y65.956 E2.51081
G1 X82.277 Y66.252 E2.52541
G1 X82.102 Y66.527 E2.54001
G1 X81.894 Y66.779 E2.55460
G1 X81.656 Y67.002 E2.56919
G1 X81.392 Y67.194 E2.58380
G1 X81.106 Y67.351 E2.59839
G1 X80.803 Y67.471 E2.61298
G1 X80.487 Y67.552 E2.62757
G1 X80.159 Y67.594 E2.64236
G1 X79.785 Y67.590 E2.65909
G1 X79.225 Y67.482 E2.68459
G1 X78.894 Y67.351 E2.70053
G1 X78.608 Y67.194 E2.71512
G1 X78.392 Y67.037 E2.72704
G1 X78.590 Y66.704 F6000.000
G1 F1800
G1 X78.388 Y66.514 E2.73947
G1 X78.211 Y66.300 E2.75189
G1 X78.062 Y66.066 E2.76431
G1 X77.944 Y65.814 E2.77674
G1 X77.858 Y65.550 E2.78916
G1 X77.806 Y65.277 E2.80158
G1 X77.788 Y65.000 E2.81401
G1 X77.806 Y64.723 E2.82643
G1 X77.858 Y64.450 E2.83886
G1 X77.944 Y64.186 E2.85128
G1 X78.062 Y63.934 E2.86370
G1 X78.211 Y63.700 E2.87613
G1 X78.388 Y63.486 E2.88855
G1 X78.590 Y63.296 E2.90098
G1 X78.815 Y63.132 E2.91341
G1 X79.058 Y62.999 E2.92583
G1 X79.316 Y62.896 E2.93825
G1 X79.586 Y62.827 E2.95068
G1 X79.861 Y62.793 E2.96310
G1 X80.139 Y62.793 E2.97552
G1 X80.414 Y62.827 E2.98794
G1 X80.684 Y62.896 E3.00038
G1 X80.942 Y62.999 E3.01280
G1 X81.185 Y63.132 E3.02522
G1 X81.410 Y63.296 E3.03765
G1 X81.612 Y63.486 E3.05007
G1 X81.789 Y63.700 E3.06249
G1 X81.938 Y63.934 E3.07492
G1 X82.056 Y64.186 E3.08734
G1 X82.142 Y64.450 E3.09976
G1 X82.194 Y64.723 E3.11219
G1 X82.212 Y65.000 E3.12461
G1 X82.194 Y65.277 E3.13704
G1 X82.142 Y65.550 E3.14947
G1 X82.056 Y65.814 E3.16189
G1 X81.938 Y66.066 E3.17431
G1 X81.789 Y66.300 E3.18674
G1 X81.612 Y66.514 E3.19916
G1 X81.410 Y66.704 E3.21158
G1 X81.185 Y66.868 E3.22401
G1 X80.942 Y67.001 E3.23644
G1 X80.683 Y67.104 E3.24886
G1 X80.414 Y67.173 E3.26128
G1 X80.136 Y67.208 E3.27382
G1 X79.823 Y67.205 E3.28782
G1 X79.334 Y67.110 E3.31013
G1 X79.058 Y67.001 E3.32338
G1 X78.815 Y66.868 E3.33580
G1 X78.639 Y66.740 E3.34554
G1 X78.836 Y66.407 F6000.000
G1 F1800
G1 X78.669 Y66.250 E3.35580
G1 X78.523 Y66.073 E3.36605
G1 X78.400 Y65.879 E3.37631
G1 X78.303 Y65.672 E3.38656
G1 X78.232 Y65.454 E3.39681
G1 X78.189 Y65.229 E3.40707
G1 X78.175 Y65.000 E3.41732
G1 X78.189 Y64.771 E3.42757
G1 X78.232 Y64.546 E3.43783
G1 X78.303 Y64.328 E3.44808
G1 X78.400 Y64.121 E3.45833
G1 X78.523 Y63.927 E3.46859
G1 X78.669 Y63.750 E3.47884
G1 X78.836 Y63.593 E3.48910
G1 X79.022 Y63.459 E3.49935
G1 X79.223 Y63.348 E3.50961
G1 X79.436 Y63.264 E3.51986
G1 X79.658 Y63.207 E3.53011
G1 X79.885 Y63.178 E3.54037
G1 X80.115 Y63.178 E3.55062
G1 X80.342 Y63.207 E3.56087
G1 X80.564 Y63.264 E3.57113
G1 X80.777 Y63.348 E3.58138
G1 X80.978 Y63.459 E3.59163
G1 X81.164 Y63.593 E3.60189
G1 X81.331 Y63.750 E3.61214
G1 X81.477 Y63.927 E3.62239
G1 X81.600 Y64.121 E3.63265
G1 X81.697 Y64.328 E3.64291
G1 X81.768 Y64.546 E3.65316
G1 X81.811 Y64.771 E3.66341
G1 X81.825 Y65.000 E3.67367
G1 X81.811 Y65.229 E3.68392
G1 X81.768 Y65.454 E3.69418
G1 X81.697 Y65.672 E3.70443
G1 X81.600 Y65.879 E3.71468
G1 X81.477 Y66.073 E3.72494
G1 X81.331 Y66.250 E3.73519
G1 X81.164 Y66.407 E3.74544
G1 X80.978 Y66.541 E3.75570
G1 X80.777 Y66.652 E3.76595
G1 X80.564 Y66.736 E3.77621
G1 X80.342 Y66.793 E3.78646
