; generated by Slic3r 1.3.1-dev (Build (Unknown revision)) on 2020-06-18 at 22:15:53

; external perimeters extrusion width = 0.44mm (2.86mm^3/s)
; perimeters extrusion width = 0.56mm (4.14mm^3/s)
; infill extrusion width = 0.50mm (5.48mm^3/s)
; solid infill extrusion width = 0.56mm (3.10mm^3/s)
; top infill extrusion width = 0.45mm (2.44mm^3/s)

M107
G92 E0
;D3D:START:START
T0
M104 S215 T0

G21
G90
M107
T0
G28
G29
M109 T0 S215 T0
G0 F3000
M107
T0
G92 E0
G0 X0 Y149 Z0.1 F3600
G1 Y49 E6.5 F1200
G0 Z1
G92 E0
; Filament gcode

G21 ; set units to millimeters
G90 ; use absolute coordinates
M82 ; use absolute distances for extrusion
G92 E0
G1 Z0.200 F6000.000
G1 E-2.00000 F1200.00000
G92 E0
G1 X49.267 Y23.229 F6000.000
G1 E2.00000 F1200.00000
G1 F1800.000
G1 X49.627 Y22.579 E2.01430
G1 X50.711 Y20.956 E2.05183
G1 X51.956 Y19.711 E2.08572
G1 X53.579 Y18.627 E2.12325
G1 X55.206 Y17.953 E2.15714
G1 X57.119 Y17.573 E2.19467
G1 X58.084 Y17.487 E2.21329
G1 X112.084 Y18.487 E3.25236
G1 X113.924 Y18.916 E3.28871
G1 X115.427 Y20.062 E3.32507
G1 X116.330 Y21.722 E3.36143
G1 X116.514 Y23.000 E3.38627
G1 X116.514 Y33.000 E3.57865
G1 X116.479 Y33.560 E3.58945
G1 X106.479 Y113.560 E5.14052
G1 X106.114 Y114.858 E5.16646
G1 X100.733 Y126.771 E5.41795
G1 X100.373 Y127.421 E5.43225
G1 X99.289 Y129.044 E5.46978
G1 X98.044 Y130.289 E5.50367
G1 X96.421 Y131.373 E5.54120
G1 X94.794 Y132.047 E5.57509
G1 X92.881 Y132.427 E5.61262
G1 X91.916 Y132.513 E5.63124
G1 X37.916 Y131.513 E6.67031
G1 X36.076 Y131.084 E6.70666
G1 X34.573 Y129.938 E6.74302
G1 X33.670 Y128.278 E6.77938
G1 X33.486 Y127.000 E6.80422
G1 X33.486 Y117.000 E6.99660
G1 X33.521 Y116.440 E7.00740
G1 X43.521 Y36.440 E8.55847
G1 X43.886 Y35.142 E8.58441
G1 X49.242 Y23.283 E8.83475
G1 X49.501 Y23.334 F6000.000
G1 F1800.000
G1 X49.841 Y22.721 E8.84823
G1 X50.925 Y21.099 E8.88576
G1 X52.099 Y19.925 E8.91772
G1 X53.721 Y18.841 E8.95525
G1 X55.256 Y18.205 E8.98721
G1 X57.169 Y17.825 E9.02474
G1 X58.079 Y17.744 E9.04230
G1 X112.079 Y18.744 E10.08137
G1 X113.863 Y19.172 E10.11666
G1 X115.301 Y20.311 E10.15196
G1 X116.126 Y21.950 E10.18725
G1 X116.257 Y23.000 E10.20761
G1 X116.257 Y33.000 E10.40000
G1 X116.224 Y33.528 E10.41017
G1 X106.224 Y113.528 E11.96124
G1 X105.880 Y114.752 E11.98571
G1 X100.499 Y126.666 E12.23720
G1 X100.159 Y127.279 E12.25069
G1 X99.075 Y128.901 E12.28822
G1 X97.901 Y130.075 E12.32017
G1 X96.279 Y131.159 E12.35770
G1 X94.744 Y131.795 E12.38966
G1 X92.831 Y132.175 E12.42719
G1 X91.921 Y132.256 E12.44476
G1 X37.921 Y131.256 E13.48382
G1 X36.137 Y130.828 E13.51912
G1 X34.699 Y129.689 E13.55441
G1 X33.874 Y128.050 E13.58971
G1 X33.743 Y127.000 E13.61006
G1 X33.743 Y117.000 E13.80245
G1 X33.776 Y116.472 E13.81263
G1 X43.776 Y36.472 E15.36370
G1 X44.120 Y35.248 E15.38816
G1 X49.476 Y23.389 E15.63850
G1 E13.63850 F1200.00000
G92 E0
G1 X91.858 Y120.739 F6000.000
G1 E2.00000 F1200.00000
G1 F1800.000
G1 X92.142 Y120.739 E2.00547
G1 X92.424 Y120.775 E2.01094
G1 X92.700 Y120.845 E2.01642
G1 X92.965 Y120.950 E2.02189
G1 X93.214 Y121.087 E2.02736
G1 X93.444 Y121.254 E2.03284
G1 X93.651 Y121.449 E2.03831
G1 X93.833 Y121.668 E2.04378
G1 X93.985 Y121.909 E2.04926
G1 X94.106 Y122.166 E2.05473
G1 X94.194 Y122.437 E2.06020
G1 X94.248 Y122.716 E2.06568
G1 X94.265 Y123.000 E2.07115
G1 X94.248 Y123.284 E2.07663
G1 X94.194 Y123.563 E2.08210
G1 X94.106 Y123.834 E2.08757
G1 X93.985 Y124.091 E2.09304
G1 X93.833 Y124.332 E2.09852
G1 X93.651 Y124.551 E2.10399
G1 X93.444 Y124.746 E2.10947
G1 X93.214 Y124.913 E2.11494
G1 X92.965 Y125.050 E2.12041
G1 X92.700 Y125.155 E2.12588
G1 X92.424 Y125.225 E2.13136
G1 X92.142 Y125.261 E2.13683
G1 X91.858 Y125.261 E2.14230
G1 X91.576 Y125.225 E2.14778
G1 X91.300 Y125.155 E2.15325
G1 X91.035 Y125.050 E2.15873
G1 X90.786 Y124.913 E2.16420
G1 X90.556 Y124.746 E2.16967
G1 X90.349 Y124.551 E2.17514
G1 X90.167 Y124.332 E2.18062
G1 X90.015 Y124.091 E2.18609
G1 X89.894 Y123.834 E2.19157
G1 X89.806 Y123.563 E2.19704
G1 X89.752 Y123.284 E2.20251
G1 X89.735 Y123.000 E2.20799
G1 X89.752 Y122.716 E2.21346
G1 X89.806 Y122.437 E2.21893
G1 X89.894 Y122.166 E2.22441
G1 X90.015 Y121.909 E2.22988
G1 X90.167 Y121.668 E2.23536
G1 X90.349 Y121.449 E2.24083
G1 X90.556 Y121.254 E2.24630
G1 X90.786 Y121.087 E2.25177
G1 X91.035 Y120.950 E2.25725
G1 X91.300 Y120.845 E2.26272
G1 X91.576 Y120.775 E2.26819
G1 X91.798 Y120.747 E2.27251
G1 X91.874 Y120.996 F6000.000
G1 F1800.000
G1 X92.126 Y120.996 E2.27736
G1 X92.376 Y121.028 E2.28221
G1 X92.621 Y121.090 E2.28707
G1 X92.855 Y121.183 E2.29192
G1 X93.076 Y121.305 E2.29677
G1 X93.280 Y121.453 E2.30162
G1 X93.464 Y121.625 E2.30647
G1 X93.624 Y121.820 E2.31132
G1 X93.760 Y122.033 E2.31617
G1 X93.867 Y122.261 E2.32102
G1 X93.945 Y122.501 E2.32587
G1 X93.992 Y122.748 E2.33073
G1 X94.008 Y123.000 E2.33558
G1 X93.992 Y123.252 E2.34043
G1 X93.945 Y123.499 E2.34528
G1 X93.867 Y123.739 E2.35013
G1 X93.760 Y123.967 E2.35498
G1 X93.624 Y124.180 E2.35983
G1 X93.464 Y124.375 E2.36468
G1 X93.280 Y124.547 E2.36953
G1 X93.076 Y124.695 E2.37439
G1 X92.855 Y124.817 E2.37924
G1 X92.621 Y124.910 E2.38409
G1 X92.376 Y124.972 E2.38894
G1 X92.126 Y125.004 E2.39379
G1 X91.874 Y125.004 E2.39864
G1 X91.624 Y124.972 E2.40349
G1 X91.379 Y124.910 E2.40834
G1 X91.145 Y124.817 E2.41319
G1 X90.924 Y124.695 E2.41804
G1 X90.720 Y124.547 E2.42290
G1 X90.536 Y124.375 E2.42775
G1 X90.376 Y124.180 E2.43260
G1 X90.240 Y123.967 E2.43745
G1 X90.133 Y123.739 E2.44230
G1 X90.055 Y123.499 E2.44715
G1 X90.008 Y123.252 E2.45200
G1 X89.992 Y123.000 E2.45685
G1 X90.008 Y122.748 E2.46170
G1 X90.055 Y122.501 E2.46656
G1 X90.133 Y122.261 E2.47141
G1 X90.240 Y122.033 E2.47626
G1 X90.376 Y121.820 E2.48111
G1 X90.536 Y121.625 E2.48596
G1 X90.720 Y121.453 E2.49081
G1 X90.924 Y121.305 E2.49566
G1 X91.145 Y121.183 E2.50051
G1 X91.379 Y121.090 E2.50536
G1 X91.624 Y121.028 E2.51021
G1 X91.814 Y121.004 E2.51391
G1 X91.890 Y121.253 F6000.000
G1 F1800.000
G1 X92.110 Y121.253 E2.51814
G1 X92.328 Y121.281 E2.52237
G1 X92.541 Y121.335 E2.52660
G1 X92.745 Y121.416 E2.53083
G1 X92.938 Y121.522 E2.53505
G1 X93.116 Y121.651 E2.53928
G1 X93.276 Y121.802 E2.54351
G1 X93.416 Y121.971 E2.54774
G1 X93.534 Y122.157 E2.55197
G1 X93.627 Y122.356 E2.55620
G1 X93.695 Y122.565 E2.56043
G1 X93.737 Y122.781 E2.56466
G1 X93.750 Y123.000 E2.56888
G1 X93.737 Y123.219 E2.57311
G1 X93.695 Y123.435 E2.57734
G1 X93.627 Y123.644 E2.58157
G1 X93.534 Y123.843 E2.58580
G1 X93.416 Y124.029 E2.59003
G1 X93.276 Y124.198 E2.59426
G1 X93.116 Y124.349 E2.59849
G1 X92.938 Y124.478 E2.60271
G1 X92.745 Y124.584 E2.60694
G1 X92.541 Y124.665 E2.61117
G1 X92.328 Y124.719 E2.61540
G1 X92.110 Y124.747 E2.61963
G1 X91.890 Y124.747 E2.62386
G1 X91.672 Y124.719 E2.62809
G1 X91.459 Y124.665 E2.63232
G1 X91.255 Y124.584 E2.63654
G1 X91.062 Y124.478 E2.64077
G1 X90.884 Y124.349 E2.64500
G1 X90.724 Y124.198 E2.64923
G1 X90.584 Y124.029 E2.65346
G1 X90.466 Y123.843 E2.65769
G1 X90.373 Y123.644 E2.66192
G1 X90.305 Y123.435 E2.66614
G1 X90.263 Y123.219 E2.67037
G1 X90.250 Y123.000 E2.67460
G1 X90.263 Y122.781 E2.67883
G1 X90.305 Y122.565 E2.68306
G1 X90.373 Y122.356 E2.68729
G1 X90.466 Y122.157 E2.69152
G1 X90.584 Y121.971 E2.69575
G1 X90.724 Y121.802 E2.69998
G1 X90.884 Y121.651 E2.70420
G1 X91.062 Y121.522 E2.70843
G1 X91.255 Y121.416 E2.71266
G1 X91.459 Y121.335 E2.71689
G1 X91.831 Y121.261 E2.72418
G1 X91.988 Y121.056 F6000.000
G1 E0.72418 F1200.00000
G92 E0
G1 X96.299 Y110.157 F6000.000
G1 E2.00000 F1200.00000
G1 F1800.000
G1 X95.866 Y109.964 E2.00912
G1 X95.483 Y109.685 E2.01824
G1 X95.165 Y109.333 E2.02736
G1 X94.928 Y108.922 E2.03649
G1 X94.782 Y108.472 E2.04561
G1 X94.732 Y108.000 E2.05473
G1 X94.782 Y107.528 E2.06385
G1 X94.928 Y107.078 E2.07297
G1 X95.165 Y106.667 E2.08209
G1 X95.483 Y106.315 E2.09121
G1 X95.866 Y106.036 E2.10033
G1 X96.299 Y105.843 E2.10945
G1 X96.763 Y105.745 E2.11858
G1 X97.237 Y105.745 E2.12769
G1 X97.701 Y105.843 E2.13682
G1 X98.134 Y106.036 E2.14594
G1 X98.517 Y106.315 E2.15506
G1 X98.835 Y106.667 E2.16418
G1 X99.072 Y107.078 E2.17330
G1 X99.218 Y107.528 E2.18242
G1 X99.268 Y108.000 E2.19154
G1 X99.218 Y108.472 E2.20066
G1 X99.072 Y108.922 E2.20978
G1 X98.835 Y109.333 E2.21891
G1 X98.517 Y109.685 E2.22803
G1 X98.134 Y109.964 E2.23715
G1 X97.701 Y110.157 E2.24627
G1 X97.237 Y110.255 E2.25539
G1 X96.763 Y110.255 E2.26451
G1 X96.358 Y110.169 E2.27248
G1 X96.379 Y109.911 F6000.000
G1 F1800.000
G1 X95.995 Y109.740 E2.28056
G1 X95.656 Y109.493 E2.28864
G1 X95.374 Y109.181 E2.29672
G1 X95.164 Y108.817 E2.30480
G1 X95.035 Y108.418 E2.31288
G1 X94.991 Y108.000 E2.32097
G1 X95.035 Y107.582 E2.32905
G1 X95.164 Y107.183 E2.33713
G1 X95.374 Y106.819 E2.34521
G1 X95.656 Y106.507 E2.35329
G1 X95.995 Y106.260 E2.36137
G1 X96.379 Y106.089 E2.36946
G1 X96.790 Y106.002 E2.37754
G1 X97.210 Y106.002 E2.38562
G1 X97.621 Y106.089 E2.39370
G1 X98.005 Y106.260 E2.40178
G1 X98.344 Y106.507 E2.40986
G1 X98.626 Y106.819 E2.41794
G1 X98.836 Y107.183 E2.42602
G1 X98.965 Y107.582 E2.43410
G1 X99.009 Y108.000 E2.44219
G1 X98.965 Y108.418 E2.45027
G1 X98.836 Y108.817 E2.45835
G1 X98.626 Y109.181 E2.46643
G1 X98.344 Y109.493 E2.47451
G1 X98.005 Y109.740 E2.48259
G1 X97.621 Y109.911 E2.49068
G1 X97.210 Y109.998 E2.49876
G1 X96.790 Y109.998 E2.50684
G1 X96.438 Y109.923 E2.51376
G1 X96.459 Y109.665 F6000.000
G1 F1800.000
G1 X96.125 Y109.516 E2.52081
G1 X95.828 Y109.301 E2.52785
G1 X95.584 Y109.029 E2.53489
G1 X95.401 Y108.712 E2.54193
G1 X95.287 Y108.364 E2.54897
G1 X95.249 Y108.000 E2.55601
G1 X95.287 Y107.636 E2.56306
G1 X95.401 Y107.288 E2.57010
G1 X95.584 Y106.971 E2.57714
G1 X95.828 Y106.699 E2.58418
G1 X96.125 Y106.484 E2.59122
G1 X96.459 Y106.335 E2.59827
G1 X96.817 Y106.259 E2.60531
G1 X97.183 Y106.259 E2.61235
G1 X97.541 Y106.335 E2.61939
G1 X97.875 Y106.484 E2.62643
G1 X98.172 Y106.699 E2.63347
G1 X98.416 Y106.971 E2.64051
G1 X98.599 Y107.288 E2.64756
G1 X98.713 Y107.636 E2.65460
G1 X98.751 Y108.000 E2.66164
G1 X98.713 Y108.364 E2.66868
G1 X98.599 Y108.712 E2.67572
G1 X98.416 Y109.029 E2.68277
G1 X98.172 Y109.301 E2.68981
G1 X97.875 Y109.516 E2.69685
G1 X97.541 Y109.665 E2.70389
G1 X97.183 Y109.741 E2.71093
G1 X96.817 Y109.741 E2.71797
G1 X96.518 Y109.678 E2.72386
G1 X96.187 Y109.910 F6000.000
G1 E0.72386 F1200.00000
G92 E0
G1 X89.218 Y108.472 F6000.000
G1 E2.00000 F1200.00000
G1 F1800.000
G1 X89.072 Y108.922 E2.00912
G1 X88.835 Y109.333 E2.01824
G1 X88.517 Y109.685 E2.02736
G1 X88.134 Y109.964 E2.03648
G1 X87.701 Y110.157 E2.04561
G1 X87.237 Y110.255 E2.05473
G1 X86.763 Y110.255 E2.06384
G1 X86.299 Y110.157 E2.07297
G1 X85.866 Y109.964 E2.08209
G1 X85.483 Y109.685 E2.09121
G1 X85.165 Y109.333 E2.10033
G1 X84.928 Y108.922 E2.10945
G1 X84.782 Y108.472 E2.11857
G1 X84.732 Y108.000 E2.12769
G1 X84.782 Y107.528 E2.13682
G1 X84.928 Y107.078 E2.14594
G1 X85.165 Y106.667 E2.15506
G1 X85.483 Y106.315 E2.16418
G1 X85.866 Y106.036 E2.17330
G1 X86.299 Y105.843 E2.18242
G1 X86.763 Y105.745 E2.19154
G1 X87.237 Y105.745 E2.20066
G1 X87.701 Y105.843 E2.20978
G1 X88.134 Y106.036 E2.21891
G1 X88.517 Y106.315 E2.22802
G1 X88.835 Y106.667 E2.23714
G1 X89.072 Y107.078 E2.24627
G1 X89.218 Y107.528 E2.25539
G1 X89.268 Y108.000 E2.26451
G1 X89.224 Y108.412 E2.27248
G1 X88.965 Y108.418 F6000.000
G1 F1800.000
G1 X88.836 Y108.817 E2.28056
G1 X88.626 Y109.181 E2.28864
G1 X88.344 Y109.493 E2.29672
G1 X88.005 Y109.740 E2.30480
G1 X87.621 Y109.911 E2.31288
G1 X87.210 Y109.998 E2.32097
G1 X86.790 Y109.998 E2.32904
G1 X86.379 Y109.911 E2.33713
G1 X85.995 Y109.740 E2.34521
G1 X85.656 Y109.493 E2.35329
G1 X85.374 Y109.181 E2.36137
G1 X85.164 Y108.817 E2.36945
G1 X85.035 Y108.418 E2.37753
G1 X84.991 Y108.000 E2.38562
G1 X85.035 Y107.582 E2.39370
G1 X85.164 Y107.183 E2.40178
G1 X85.374 Y106.819 E2.40986
G1 X85.656 Y106.507 E2.41794
G1 X85.995 Y106.260 E2.42602
G1 X86.379 Y106.089 E2.43410
G1 X86.790 Y106.002 E2.44219
G1 X87.210 Y106.002 E2.45026
G1 X87.621 Y106.089 E2.45835
G1 X88.005 Y106.260 E2.46643
G1 X88.344 Y106.507 E2.47451
G1 X88.626 Y106.819 E2.48259
G1 X88.836 Y107.183 E2.49067
G1 X88.965 Y107.582 E2.49875
G1 X89.009 Y108.000 E2.50684
G1 X88.972 Y108.358 E2.51376
G1 X88.713 Y108.364 F6000.000
G1 F1800.000
G1 X88.599 Y108.712 E2.52080
G1 X88.416 Y109.029 E2.52785
G1 X88.172 Y109.301 E2.53489
G1 X87.875 Y109.516 E2.54193
G1 X87.541 Y109.665 E2.54897
G1 X87.183 Y109.741 E2.55601
G1 X86.817 Y109.741 E2.56305
G1 X86.459 Y109.665 E2.57010
G1 X86.125 Y109.516 E2.57714
G1 X85.828 Y109.301 E2.58418
G1 X85.584 Y109.029 E2.59122
G1 X85.401 Y108.712 E2.59826
G1 X85.287 Y108.364 E2.60530
G1 X85.249 Y108.000 E2.61235
G1 X85.287 Y107.636 E2.61939
G1 X85.401 Y107.288 E2.62643
G1 X85.584 Y106.971 E2.63347
G1 X85.828 Y106.699 E2.64051
G1 X86.125 Y106.484 E2.64755
G1 X86.459 Y106.335 E2.65460
G1 X86.817 Y106.259 E2.66164
G1 X87.183 Y106.259 E2.66868
G1 X87.541 Y106.335 E2.67572
G1 X87.875 Y106.484 E2.68276
G1 X88.172 Y106.699 E2.68981
G1 X88.416 Y106.971 E2.69685
G1 X88.599 Y107.288 E2.70389
G1 X88.713 Y107.636 E2.71093
G1 X88.751 Y108.000 E2.71797
G1 X88.719 Y108.304 E2.72386
G1 X88.985 Y108.609 F6000.000
G1 E0.72386 F1200.00000
G92 E0
G1 X85.337 Y102.164 F6000.000
G1 E2.00000 F1200.00000
G1 F1800.000
G1 X82.599 Y102.164 E2.05267
G1 X81.227 Y88.836 E2.31044
G1 X83.965 Y88.836 E2.36310
G1 X85.331 Y102.104 E2.61972
G1 X85.052 Y101.907 F6000.000
G1 F1800.000
G1 X82.831 Y101.907 E2.66244
G1 X81.512 Y89.093 E2.91027
G1 X83.733 Y89.093 E2.95300
G1 X85.046 Y101.847 E3.19967
G1 X84.767 Y101.650 F6000.000
G1 F1800.000
G1 X83.063 Y101.650 E3.23245
G1 X81.797 Y89.350 E3.47033
G1 X83.501 Y89.350 E3.50311
G1 X84.761 Y101.590 E3.73984
G1 X84.798 Y102.049 F6000.000
G1 E1.73984 F1200.00000
G92 E0
G1 X86.382 Y103.714 F6000.000
G1 E2.00000 F1200.00000
G1 F1800.000
G1 X84.619 Y79.036 E2.47599
G1 X99.381 Y79.036 E2.75999
G1 X97.618 Y103.714 E3.23598
G1 X86.442 Y103.714 E3.45101
G1 X86.621 Y103.457 F6000.000
G1 F1800.000
G1 X84.895 Y79.293 E3.91708
G1 X99.105 Y79.293 E4.19046
G1 X97.379 Y103.457 E4.65653
G1 X86.681 Y103.457 E4.86235
G1 X86.860 Y103.200 F6000.000
G1 F1800.000
G1 X85.171 Y79.550 E5.31850
G1 X98.829 Y79.550 E5.58126
G1 X97.140 Y103.200 E6.03742
G1 X86.920 Y103.200 E6.23402
G1 X86.494 Y103.361 F6000.000
G1 E4.23402 F1200.00000
G92 E0
G1 X83.793 Y87.164 F6000.000
G1 E2.00000 F1200.00000
G1 F1800.000
G1 X81.055 Y87.164 E2.05267
G1 X79.683 Y73.836 E2.31044
G1 X82.421 Y73.836 E2.36310
G1 X83.786 Y87.104 E2.61972
G1 X83.508 Y86.907 F6000.000
G1 F1800.000
G1 X81.287 Y86.907 E2.66245
G1 X79.968 Y74.093 E2.91027
G1 X82.189 Y74.093 E2.95300
G1 X83.502 Y86.847 E3.19967
G1 X83.223 Y86.650 F6000.000
G1 F1800.000
G1 X81.519 Y86.650 E3.23245
G1 X80.253 Y74.350 E3.47033
G1 X81.957 Y74.350 E3.50311
G1 X83.217 Y86.590 E3.73984
G1 X83.254 Y87.049 F6000.000
G1 E1.73984 F1200.00000
G92 E0
G1 X82.248 Y72.164 F6000.000
G1 E2.00000 F1200.00000
G1 F1800.000
G1 X79.511 Y72.164 E2.05267
G1 X78.139 Y58.836 E2.31044
G1 X80.876 Y58.836 E2.36310
G1 X82.242 Y72.104 E2.61972
G1 X81.964 Y71.907 F6000.000
G1 F1800.000
G1 X79.743 Y71.907 E2.66245
G1 X78.424 Y59.093 E2.91027
G1 X80.644 Y59.093 E2.95300
G1 X81.957 Y71.847 E3.19967
G1 X81.679 Y71.650 F6000.000
G1 F1800.000
G1 X79.975 Y71.650 E3.23245
G1 X78.709 Y59.350 E3.47033
G1 X80.412 Y59.350 E3.50311
G1 X81.673 Y71.590 E3.73984
G1 X81.710 Y72.049 F6000.000
G1 E1.73984 F1200.00000
G92 E0
G1 X80.704 Y57.164 F6000.000
G1 E2.00000 F1200.00000
G1 F1800.000
G1 X77.967 Y57.164 E2.05267
G1 X76.595 Y43.836 E2.31044
G1 X79.332 Y43.836 E2.36310
G1 X80.698 Y57.104 E2.61972
G1 X80.419 Y56.907 F6000.000
G1 F1800.000
G1 X78.199 Y56.907 E2.66244
G1 X76.880 Y44.093 E2.91027
G1 X79.100 Y44.093 E2.95300
G1 X80.413 Y56.847 E3.19967
G1 X80.135 Y56.650 F6000.000
G1 F1800.000
G1 X78.431 Y56.650 E3.23245
G1 X77.165 Y44.350 E3.47033
G1 X78.868 Y44.350 E3.50311
G1 X80.128 Y56.590 E3.73984
G1 X80.166 Y57.049 F6000.000
G1 E1.73984 F1200.00000
G92 E0
G1 X79.160 Y42.164 F6000.000
G1 E2.00000 F1200.00000
G1 F1800.000
G1 X76.423 Y42.164 E2.05267
G1 X75.563 Y33.815 E2.21414
G1 X76.515 Y32.506 E2.24527
G1 X78.223 Y33.061 E2.27983
G1 X79.154 Y42.104 E2.45474
G1 X78.875 Y41.907 F6000.000
