; generated by Slic3r 1.3.1-dev (Build (Unknown revision)) on 2020-09-25 at 11:48:26

; external perimeters extrusion width = 0.44mm (2.86mm^3/s)
; perimeters extrusion width = 0.56mm (4.14mm^3/s)
; infill extrusion width = 0.50mm (3.66mm^3/s)
; solid infill extrusion width = 0.56mm (3.10mm^3/s)
; top infill extrusion width = 0.45mm (2.44mm^3/s)

M107
G92 E0
;D3D:START:START
T0
M104 S215 T0

G21
G90
M107
T0
G28
G29
M109 T0 S215 T0
G0 F3000
M107
T0
G92 E0
G0 X0 Y149 Z0.1 F3600
G1 Y49 E6.5 F1200
G0 Z1
G92 E0
; Filament gcode

G21 ; set units to millimeters
G90 ; use absolute coordinates
M82 ; use absolute distances for extrusion
G92 E0
G1 Z0.300 F6000.000
G1 E-2.00000 F1200.00000
G92 E0
G1 Z0.800 F6000.000
G1 X52.770 Y53.699 F6000.000
G1 Z0.300 F6000.000
G1 E2.00000 F1200.00000
G1 F1800.000
G1 X54.528 Y52.187 E2.10372
G1 X56.693 Y51.356 E2.20744
G1 X58.000 Y51.229 E2.26617
G1 X92.000 Y51.229 E3.78698
G1 X94.285 Y51.626 E3.89070
G1 X96.301 Y52.770 E3.99442
G1 X97.813 Y54.528 E4.09815
G1 X98.644 Y56.693 E4.20187
G1 X98.771 Y58.000 E4.26059
G1 X98.771 Y88.000 E5.60249
G1 X98.374 Y90.285 E5.70621
G1 X97.230 Y92.301 E5.80993
G1 X95.472 Y93.813 E5.91365
G1 X93.307 Y94.644 E6.01737
G1 X92.000 Y94.771 E6.07610
G1 X58.000 Y94.771 E7.59691
G1 X55.715 Y94.374 E7.70063
G1 X53.699 Y93.230 E7.80435
G1 X52.187 Y91.472 E7.90807
G1 X51.356 Y89.307 E8.01179
G1 X51.229 Y88.000 E8.07052
G1 X51.229 Y58.000 E9.41242
G1 X51.626 Y55.715 E9.51614
G1 X52.741 Y53.751 E9.61717
G1 X53.153 Y53.843 F6000.000
G1 F1800.000
G1 X54.896 Y52.419 E9.71788
G1 X58.000 Y51.614 E9.86129
G1 X92.000 Y51.614 E11.38211
G1 X94.216 Y52.011 E11.48281
G1 X96.157 Y53.153 E11.58351
G1 X97.581 Y54.896 E11.68421
G1 X98.386 Y58.000 E11.82763
G1 X98.386 Y88.000 E13.16953
G1 X97.989 Y90.216 E13.27023
G1 X96.847 Y92.157 E13.37093
G1 X95.104 Y93.581 E13.47163
G1 X92.000 Y94.386 E13.61505
G1 X58.000 Y94.386 E15.13587
G1 X55.784 Y93.989 E15.23657
G1 X53.843 Y92.847 E15.33727
G1 X52.419 Y91.104 E15.43797
G1 X51.614 Y88.000 E15.58139
G1 X51.614 Y58.000 E16.92329
G1 X52.011 Y55.784 E17.02399
G1 X53.122 Y53.895 E17.12201
G1 E15.12201 F1200.00000
G92 E0
G1 Z0.800 F6000.000
G1 X90.611 Y83.611 F6000.000
G1 Z0.300 F6000.000
G1 E2.00000 F1200.00000
G1 F1800.000
G1 X59.389 Y83.611 E3.39652
G1 X59.389 Y62.389 E4.34574
G1 X90.611 Y62.389 E5.74226
G1 X90.611 Y83.551 E6.68880
G1 X90.225 Y83.225 F6000.000
G1 F1800.000
G1 X59.775 Y83.225 E8.05082
G1 X59.775 Y62.775 E8.96555
G1 X90.225 Y62.775 E10.32757
G1 X90.225 Y83.165 E11.23961
G1 X90.353 Y83.604 F6000.000
G1 E9.23961 F1200.00000
G92 E0
G1 Z0.800 F6000.000
G1 X91.004 Y62.004 F6000.000
G1 Z0.300 F6000.000
G1 E2.00000 F1200.00000
G1 F1800.000
G1 X58.996 Y62.004 E3.43169
G1 X58.996 Y58.996 E3.56622
G1 X91.004 Y58.996 E4.99791
G1 X91.004 Y61.944 E5.12975
G1 E3.12975 F1200.00000
G92 E0
G1 Z0.800 F6000.000
G1 X91.004 Y83.996 F6000.000
G1 Z0.300 F6000.000
G1 E2.00000 F1200.00000
G1 F1800.000
G1 X91.004 Y87.004 E2.13453
G1 X58.996 Y87.004 E3.56622
G1 X58.996 Y83.996 E3.70074
G1 X90.944 Y83.996 E5.12975
G1 E3.12975 F1200.00000
G92 E0
G1 Z0.800 F6000.000
G1 X91.389 Y87.389 F6000.000
G1 Z0.300 F6000.000
G1 E2.00000 F1200.00000
G1 F1800.000
G1 X58.611 Y87.389 E3.46619
G1 X58.611 Y58.611 E4.75346
G1 X91.389 Y58.611 E6.21965
G1 X91.389 Y87.329 E7.50423
G1 X91.775 Y87.775 F6000.000
G1 F1800.000
G1 X58.225 Y87.775 E9.00492
G1 X58.225 Y58.225 E10.32668
G1 X91.775 Y58.225 E11.82737
G1 X91.775 Y87.715 E13.14645
G1 X91.387 Y87.680 F6000.000
G1 X90.304 Y86.932 F6000.000
G1 F1800.000
G1 X90.932 Y86.304 E13.18638
G1 X90.932 Y85.756 E13.21107
G1 X89.756 Y86.932 E13.28593
G1 X89.207 Y86.932 E13.31062
G1 X90.932 Y85.207 E13.42040
G1 X90.932 Y84.658 E13.44510
G1 X88.658 Y86.932 E13.58980
G1 X88.110 Y86.932 E13.61450
G1 X90.932 Y84.110 E13.79413
G1 X90.932 Y84.068 E13.79599
G1 X90.424 Y84.068 E13.81883
G1 X87.561 Y86.932 E14.00109
G1 X87.012 Y86.932 E14.02578
G1 X89.876 Y84.068 E14.20804
G1 X89.327 Y84.068 E14.23274
G1 X86.463 Y86.932 E14.41500
G1 X85.915 Y86.932 E14.43969
G1 X88.778 Y84.068 E14.62195
G1 X88.229 Y84.068 E14.64665
G1 X85.366 Y86.932 E14.82891
G1 X84.817 Y86.932 E14.85360
G1 X87.681 Y84.068 E15.03586
G1 X87.132 Y84.068 E15.06056
G1 X84.268 Y86.932 E15.24282
G1 X83.720 Y86.932 E15.26751
G1 X86.583 Y84.068 E15.44977
G1 X86.034 Y84.068 E15.47447
G1 X83.171 Y86.932 E15.65672
G1 X82.622 Y86.932 E15.68142
G1 X85.486 Y84.068 E15.86368
G1 X84.937 Y84.068 E15.88838
G1 X82.074 Y86.932 E16.07063
G1 X81.525 Y86.932 E16.09533
G1 X84.388 Y84.068 E16.27759
G1 X83.840 Y84.068 E16.30229
G1 X80.976 Y86.932 E16.48454
G1 X80.427 Y86.932 E16.50924
G1 X83.291 Y84.068 E16.69150
G1 X82.742 Y84.068 E16.71620
G1 X79.879 Y86.932 E16.89845
G1 X79.330 Y86.932 E16.92315
G1 X82.193 Y84.068 E17.10541
G1 X81.645 Y84.068 E17.13011
G1 X78.781 Y86.932 E17.31236
G1 X78.232 Y86.932 E17.33706
G1 X81.096 Y84.068 E17.51932
G1 X80.547 Y84.068 E17.54402
G1 X77.684 Y86.932 E17.72627
G1 X77.135 Y86.932 E17.75097
G1 X79.998 Y84.068 E17.93323
G1 X79.450 Y84.068 E17.95793
G1 X76.586 Y86.932 E18.14019
G1 X76.038 Y86.932 E18.16488
G1 X78.901 Y84.068 E18.34714
G1 X78.352 Y84.068 E18.37184
G1 X75.489 Y86.932 E18.55409
G1 X74.940 Y86.932 E18.57879
G1 X77.804 Y84.068 E18.76105
G1 X77.255 Y84.068 E18.78575
G1 X74.391 Y86.932 E18.96800
G1 X73.843 Y86.932 E18.99270
G1 X76.706 Y84.068 E19.17496
G1 X76.157 Y84.068 E19.19966
G1 X73.294 Y86.932 E19.38192
G1 X72.745 Y86.932 E19.40661
G1 X75.609 Y84.068 E19.58887
G1 X75.060 Y84.068 E19.61357
G1 X72.196 Y86.932 E19.79583
G1 X71.648 Y86.932 E19.82052
G1 X74.511 Y84.068 E20.00278
G1 X73.963 Y84.068 E20.02748
G1 X71.099 Y86.932 E20.20974
G1 X70.550 Y86.932 E20.23443
G1 X73.414 Y84.068 E20.41669
G1 X72.865 Y84.068 E20.44139
G1 X70.002 Y86.932 E20.62365
G1 X69.453 Y86.932 E20.64834
G1 X72.316 Y84.068 E20.83060
G1 X71.768 Y84.068 E20.85530
G1 X68.904 Y86.932 E21.03756
G1 X68.355 Y86.932 E21.06225
G1 X71.219 Y84.068 E21.24451
G1 X70.670 Y84.068 E21.26921
G1 X67.807 Y86.932 E21.45147
G1 X67.258 Y86.932 E21.47616
G1 X70.121 Y84.068 E21.65842
G1 X69.573 Y84.068 E21.68312
G1 X66.709 Y86.932 E21.86538
G1 X66.160 Y86.932 E21.89007
G1 X69.024 Y84.068 E22.07233
G1 X68.475 Y84.068 E22.09703
G1 X65.612 Y86.932 E22.27929
G1 X65.063 Y86.932 E22.30398
G1 X67.927 Y84.068 E22.48624
G1 X67.378 Y84.068 E22.51094
G1 X64.514 Y86.932 E22.69320
G1 X63.966 Y86.932 E22.71789
G1 X66.829 Y84.068 E22.90015
G1 X66.280 Y84.068 E22.92485
G1 X63.417 Y86.932 E23.10711
G1 X62.868 Y86.932 E23.13180
G1 X65.732 Y84.068 E23.31406
G1 X65.183 Y84.068 E23.33876
G1 X62.319 Y86.932 E23.52102
G1 X61.771 Y86.932 E23.54571
G1 X64.634 Y84.068 E23.72797
G1 X64.085 Y84.068 E23.75267
G1 X61.222 Y86.932 E23.93493
G1 X60.673 Y86.932 E23.95962
G1 X63.537 Y84.068 E24.14188
G1 X62.988 Y84.068 E24.16658
G1 X60.125 Y86.932 E24.34883
G1 X59.576 Y86.932 E24.37353
G1 X62.439 Y84.068 E24.55579
G1 X61.891 Y84.068 E24.58049
G1 X59.068 Y86.891 E24.76012
G1 X59.068 Y86.342 E24.78482
G1 X61.342 Y84.068 E24.92953
G1 X60.793 Y84.068 E24.95422
G1 X59.068 Y85.793 E25.06401
G1 X59.068 Y85.244 E25.08870
G1 X60.244 Y84.068 E25.16356
G1 X59.696 Y84.068 E25.18826
G1 X59.068 Y84.695 E25.22818
G1 X59.000 Y83.803 F6000.000
G1 F1800.000
G1 X59.000 Y62.197 E26.05215
G1 E24.05215 F1200.00000
G92 E0
G1 Z0.800 F6000.000
G1 X59.068 Y59.695 F6000.000
G1 Z0.300 F6000.000
G1 E2.00000 F1200.00000
G1 F1800.000
G1 X59.696 Y59.068 E2.03992
G1 X60.244 Y59.068 E2.06461
G1 X59.068 Y60.244 E2.13947
G1 X59.068 Y60.793 E2.16417
G1 X60.793 Y59.068 E2.27395
G1 X61.342 Y59.068 E2.29865
G1 X59.068 Y61.342 E2.44336
G1 X59.068 Y61.891 E2.46805
G1 X61.891 Y59.068 E2.64769
G1 X62.439 Y59.068 E2.67239
G1 X59.576 Y61.932 E2.85464
G1 X60.125 Y61.932 E2.87934
G1 X62.988 Y59.068 E3.06160
G1 X63.537 Y59.068 E3.08630
G1 X60.673 Y61.932 E3.26855
G1 X61.222 Y61.932 E3.29325
G1 X64.085 Y59.068 E3.47551
G1 X64.634 Y59.068 E3.50020
G1 X61.771 Y61.932 E3.68246
G1 X62.319 Y61.932 E3.70716
G1 X65.183 Y59.068 E3.88942
G1 X65.732 Y59.068 E3.91411
G1 X62.868 Y61.932 E4.09637
G1 X63.417 Y61.932 E4.12107
G1 X66.280 Y59.068 E4.30333
G1 X66.829 Y59.068 E4.32802
G1 X63.966 Y61.932 E4.51028
G1 X64.514 Y61.932 E4.53498
G1 X67.378 Y59.068 E4.71724
G1 X67.927 Y59.068 E4.74193
G1 X65.063 Y61.932 E4.92419
G1 X65.612 Y61.932 E4.94889
G1 X68.475 Y59.068 E5.13115
G1 X69.024 Y59.068 E5.15584
G1 X66.160 Y61.932 E5.33810
G1 X66.709 Y61.932 E5.36280
G1 X69.573 Y59.068 E5.54506
G1 X70.121 Y59.068 E5.56975
G1 X67.258 Y61.932 E5.75201
G1 X67.807 Y61.932 E5.77671
G1 X70.670 Y59.068 E5.95897
G1 X71.219 Y59.068 E5.98366
G1 X68.355 Y61.932 E6.16592
G1 X68.904 Y61.932 E6.19062
G1 X71.768 Y59.068 E6.37288
G1 X72.316 Y59.068 E6.39757
G1 X69.453 Y61.932 E6.57983
G1 X70.002 Y61.932 E6.60453
G1 X72.865 Y59.068 E6.78679
G1 X73.414 Y59.068 E6.81148
G1 X70.550 Y61.932 E6.99374
G1 X71.099 Y61.932 E7.01844
G1 X73.963 Y59.068 E7.20070
G1 X74.511 Y59.068 E7.22539
G1 X71.648 Y61.932 E7.40765
G1 X72.196 Y61.932 E7.43235
G1 X75.060 Y59.068 E7.61461
G1 X75.609 Y59.068 E7.63930
G1 X72.745 Y61.932 E7.82156
G1 X73.294 Y61.932 E7.84626
G1 X76.157 Y59.068 E8.02852
G1 X76.706 Y59.068 E8.05321
G1 X73.843 Y61.932 E8.23547
G1 X74.391 Y61.932 E8.26017
G1 X77.255 Y59.068 E8.44243
G1 X77.804 Y59.068 E8.46712
G1 X74.940 Y61.932 E8.64938
G1 X75.489 Y61.932 E8.67408
G1 X78.352 Y59.068 E8.85634
G1 X78.901 Y59.068 E8.88103
G1 X76.038 Y61.932 E9.06329
G1 X76.586 Y61.932 E9.08799
G1 X79.450 Y59.068 E9.27025
G1 X79.998 Y59.068 E9.29494
G1 X77.135 Y61.932 E9.47720
G1 X77.684 Y61.932 E9.50190
G1 X80.547 Y59.068 E9.68416
G1 X81.096 Y59.068 E9.70885
G1 X78.232 Y61.932 E9.89111
G1 X78.781 Y61.932 E9.91581
G1 X81.645 Y59.068 E10.09807
G1 X82.193 Y59.068 E10.12276
G1 X79.330 Y61.932 E10.30502
G1 X79.879 Y61.932 E10.32972
G1 X82.742 Y59.068 E10.51198
G1 X83.291 Y59.068 E10.53667
G1 X80.427 Y61.932 E10.71893
G1 X80.976 Y61.932 E10.74363
G1 X83.840 Y59.068 E10.92589
G1 X84.388 Y59.068 E10.95058
G1 X81.525 Y61.932 E11.13284
G1 X82.074 Y61.932 E11.15754
G1 X84.937 Y59.068 E11.33980
G1 X85.486 Y59.068 E11.36449
G1 X82.622 Y61.932 E11.54675
G1 X83.171 Y61.932 E11.57145
G1 X86.034 Y59.068 E11.75371
G1 X86.583 Y59.068 E11.77840
G1 X83.720 Y61.932 E11.96066
G1 X84.268 Y61.932 E11.98536
G1 X87.132 Y59.068 E12.16762
G1 X87.681 Y59.068 E12.19231
G1 X84.817 Y61.932 E12.37457
G1 X85.366 Y61.932 E12.39927
G1 X88.229 Y59.068 E12.58153
G1 X88.778 Y59.068 E12.60622
G1 X85.915 Y61.932 E12.78848
G1 X86.463 Y61.932 E12.81318
G1 X89.327 Y59.068 E12.99544
G1 X89.876 Y59.068 E13.02013
G1 X87.012 Y61.932 E13.20239
G1 X87.561 Y61.932 E13.22709
G1 X90.424 Y59.068 E13.40935
G1 X90.932 Y59.068 E13.43218
G1 X90.932 Y59.110 E13.43404
G1 X88.110 Y61.932 E13.61367
G1 X88.658 Y61.932 E13.63837
G1 X90.932 Y59.658 E13.78307
G1 X90.932 Y60.207 E13.80777
G1 X89.207 Y61.932 E13.91755
G1 X89.756 Y61.932 E13.94225
G1 X90.932 Y60.756 E14.01710
G1 X90.932 Y61.304 E14.04180
G1 X90.304 Y61.932 E14.08172
G1 X91.000 Y62.197 F6000.000
G1 F1800.000
G1 X91.000 Y83.803 E14.90570
G1 Z0.500 F6000.000
G1 X90.677 Y83.677 F6000.000
G1 F2400.000
G1 X59.323 Y83.677 E16.15941
G1 X59.323 Y62.323 E17.01327
G1 X90.677 Y62.323 E18.26699
G1 X90.677 Y83.617 E19.11845
G1 X90.220 Y83.220 F6000.000
G1 F2160.000
G1 X59.780 Y83.220 E20.05314
G1 X59.780 Y62.780 E20.68078
G1 X90.220 Y62.780 E21.61547
G1 X90.220 Y83.160 E22.24126
G1 X90.348 Y83.599 F6000.000
G1 E20.24126 F1200.00000
G92 E0
G1 Z1.000 F6000.000
G1 X90.806 Y61.806 F6000.000
G1 Z0.500 F6000.000
G1 E2.00000 F1200.00000
G1 F2400.000
G1 X59.194 Y61.806 E3.26401
G1 X59.194 Y59.194 E3.36844
G1 X90.806 Y59.194 E4.63246
G1 X90.806 Y61.746 E4.73449
G1 E2.73449 F1200.00000
G92 E0
G1 Z1.000 F6000.000
G1 X90.806 Y84.194 F6000.000
G1 Z0.500 F6000.000
G1 E2.00000 F1200.00000
G1 F2400.000
G1 X90.806 Y86.806 E2.10443
G1 X59.194 Y86.806 E3.36844
G1 X59.194 Y84.194 E3.47287
G1 X90.746 Y84.194 E4.73449
G1 E2.73449 F1200.00000
G92 E0
G1 Z1.000 F6000.000
G1 X91.323 Y87.323 F6000.000
G1 Z0.500 F6000.000
G1 E2.00000 F1200.00000
G1 F2400.000
G1 X58.677 Y87.323 E3.30537
G1 X58.677 Y58.677 E4.45079
G1 X91.323 Y58.677 E5.75616
G1 X91.323 Y87.263 E6.89918
G1 X91.780 Y87.780 F6000.000
G1 F2160.000
G1 X58.220 Y87.780 E7.92968
G1 X58.220 Y58.220 E8.83735
G1 X91.780 Y58.220 E9.86784
G1 X91.780 Y87.720 E10.77367
G1 X91.392 Y87.685 F6000.000
G1 E8.77367 F1200.00000
G92 E0
G1 Z1.000 F6000.000
G1 X90.709 Y85.132 F6000.000
G1 Z0.500 F6000.000
G1 E2.00000 F1200.00000
G1 F1800.000
G1 X89.868 Y84.291 E2.04864
G1 X89.120 Y84.291 E2.07921
G1 X90.709 Y85.880 E2.17109
G1 X90.709 Y86.627 E2.20167
G1 X88.373 Y84.291 E2.33679
G1 X87.625 Y84.291 E2.36737
G1 X90.043 Y86.709 E2.50722
G1 X89.296 Y86.709 E2.53780
G1 X86.877 Y84.291 E2.67765
G1 X86.129 Y84.291 E2.70823
G1 X88.548 Y86.709 E2.84808
G1 X87.800 Y86.709 E2.87866
G1 X85.381 Y84.291 E3.01851
G1 X84.634 Y84.291 E3.04909
G1 X87.052 Y86.709 E3.18894
G1 X86.304 Y86.709 E3.21952
G1 X83.886 Y84.291 E3.35937
G1 X83.138 Y84.291 E3.38995
G1 X85.557 Y86.709 E3.52980
G1 X84.809 Y86.709 E3.56038
G1 X82.390 Y84.291 E3.70023
G1 X81.643 Y84.291 E3.73081
G1 X84.061 Y86.709 E3.87066
G1 X83.313 Y86.709 E3.90124
G1 X80.895 Y84.291 E4.04109
G1 X80.147 Y84.291 E4.07167
G1 X82.565 Y86.709 E4.21152
G1 X81.818 Y86.709 E4.24210
G1 X79.399 Y84.291 E4.38195
G1 X78.651 Y84.291 E4.41253
G1 X81.070 Y86.709 E4.55238
G1 X80.322 Y86.709 E4.58296
G1 X77.904 Y84.291 E4.72281
G1 X77.156 Y84.291 E4.75339
G1 X79.574 Y86.709 E4.89324
G1 X78.827 Y86.709 E4.92382
G1 X76.408 Y84.291 E5.06367
G1 X75.660 Y84.291 E5.09425
G1 X78.079 Y86.709 E5.23410
G1 X77.331 Y86.709 E5.26468
G1 X74.912 Y84.291 E5.40453
G1 X74.165 Y84.291 E5.43511
G1 X76.583 Y86.709 E5.57496
G1 X75.835 Y86.709 E5.60554
G1 X73.417 Y84.291 E5.74539
G1 X72.669 Y84.291 E5.77597
G1 X75.088 Y86.709 E5.91582
G1 X74.340 Y86.709 E5.94640
G1 X71.921 Y84.291 E6.08625
G1 X71.174 Y84.291 E6.11683
G1 X73.592 Y86.709 E6.25668
G1 X72.844 Y86.709 E6.28726
G1 X70.426 Y84.291 E6.42711
G1 X69.678 Y84.291 E6.45769
G1 X72.096 Y86.709 E6.59754
G1 X71.349 Y86.709 E6.62812
G1 X68.930 Y84.291 E6.76798
G1 X68.182 Y84.291 E6.79855
G1 X70.601 Y86.709 E6.93841
G1 X69.853 Y86.709 E6.96898
G1 X67.435 Y84.291 E7.10884
G1 X66.687 Y84.291 E7.13941
G1 X69.105 Y86.709 E7.27927
G1 X68.358 Y86.709 E7.30984
G1 X65.939 Y84.291 E7.44970
G1 X65.191 Y84.291 E7.48027
G1 X67.610 Y86.709 E7.62013
G1 X66.862 Y86.709 E7.65070
G1 X64.443 Y84.291 E7.79056
G1 X63.696 Y84.291 E7.82113
G1 X66.114 Y86.709 E7.96099
G1 X65.366 Y86.709 E7.99156
G1 X62.948 Y84.291 E8.13142
G1 X62.200 Y84.291 E8.16199
G1 X64.619 Y86.709 E8.30185
G1 X63.871 Y86.709 E8.33242
G1 X61.452 Y84.291 E8.47228
G1 X60.704 Y84.291 E8.50285
G1 X63.123 Y86.709 E8.64271
G1 X62.375 Y86.709 E8.67328
G1 X59.957 Y84.291 E8.81314
G1 X59.291 Y84.291 E8.84037
G1 X59.291 Y84.373 E8.84371
G1 X61.627 Y86.709 E8.97884
G1 X60.880 Y86.709 E9.00941
G1 X59.291 Y85.120 E9.10129
G1 X59.291 Y85.868 E9.13187
G1 X60.132 Y86.709 E9.18050
G1 E7.18050 F1200.00000
G92 E0
G1 Z1.000 F6000.000
G1 X59.000 Y83.936 F6000.000
G1 Z0.500 F6000.000
G1 E2.00000 F1200.00000
G1 F1200.000
G1 X59.000 Y62.064 E2.14519
G1 X60.132 Y61.709 F6000.000
G1 F1800.000
G1 X59.291 Y60.868 E2.19382
G1 X59.291 Y60.120 E2.22440
G1 X60.880 Y61.709 E2.31628
G1 X61.627 Y61.709 E2.34685
G1 X59.291 Y59.373 E2.48198
G1 X59.291 Y59.291 E2.48532
G1 X59.957 Y59.291 E2.51255
G1 X62.375 Y61.709 E2.65241
G1 X63.123 Y61.709 E2.68298
G1 X60.704 Y59.291 E2.82284
G1 X61.452 Y59.291 E2.85341
G1 X63.871 Y61.709 E2.99327
G1 X64.619 Y61.709 E3.02384
G1 X62.200 Y59.291 E3.16370
G1 X62.948 Y59.291 E3.19427
G1 X65.366 Y61.709 E3.33413
G1 X66.114 Y61.709 E3.36470
G1 X63.696 Y59.291 E3.50456
G1 X64.443 Y59.291 E3.53513
G1 X66.862 Y61.709 E3.67499
G1 X67.610 Y61.709 E3.70556
G1 X65.191 Y59.291 E3.84542
G1 X65.939 Y59.291 E3.87599
G1 X68.358 Y61.709 E4.01585
G1 X69.105 Y61.709 E4.04642
G1 X66.687 Y59.291 E4.18628
G1 X67.435 Y59.291 E4.21685
G1 X69.853 Y61.709 E4.35671
G1 X70.601 Y61.709 E4.38728
G1 X68.182 Y59.291 E4.52714
G1 X68.930 Y59.291 E4.55771
G1 X71.349 Y61.709 E4.69757
G1 X72.096 Y61.709 E4.72815
G1 X69.678 Y59.291 E4.86800
G1 X70.426 Y59.291 E4.89858
