; generated by Slic3r 1.3.1-dev (Build (Unknown revision)) on 2020-05-29 at 10:47:34

; external perimeters extrusion width = 0.44mm (2.86mm^3/s)
; perimeters extrusion width = 0.56mm (4.14mm^3/s)
; infill extrusion width = 0.50mm (5.48mm^3/s)
; solid infill extrusion width = 0.56mm (3.10mm^3/s)
; top infill extrusion width = 0.45mm (2.44mm^3/s)

M107
G92 E0
;D3D:START:START
T0
M104 S215 T0

G21
G90
M107
T0
G28
G29
M109 T0 S215 T0
G0 F3000
M107
T0
G92 E0
G0 X0 Y149 Z0.1 F3600
G1 Y49 E6.5 F1200
G0 Z1
G92 E0
; Filament gcode

G21 ; set units to millimeters
G90 ; use absolute coordinates
M82 ; use absolute distances for extrusion
G92 E0
G1 Z0.200 F6000.000
G1 E-2.00000 F1200.00000
G92 E0
G1 X41.541 Y71.075 F6000.000
G1 E2.00000 F1200.00000
G1 F1800.000
G1 X76.944 Y41.368 E2.88913
G1 X78.614 Y40.483 E2.92549
G1 X80.500 Y40.359 E2.96185
G1 X82.271 Y41.018 E2.99820
G1 X83.304 Y41.924 E3.02463
G1 X109.016 Y72.566 E3.79418
G1 X109.900 Y74.236 E3.83054
G1 X110.024 Y76.121 E3.86689
G1 X109.365 Y77.892 E3.90325
G1 X108.459 Y78.925 E3.92968
G1 X73.056 Y108.632 E4.81881
G1 X71.386 Y109.517 E4.85517
G1 X69.500 Y109.641 E4.89153
G1 X67.729 Y108.982 E4.92788
G1 X66.696 Y108.076 E4.95431
G1 X40.984 Y77.434 E5.72386
G1 X40.100 Y75.764 E5.76022
G1 X39.976 Y73.879 E5.79657
G1 X40.635 Y72.108 E5.83293
G1 X41.501 Y71.120 E5.85821
G1 X41.706 Y71.272 F6000.000
G1 F1800.000
G1 X77.110 Y41.565 E6.74734
G1 X78.736 Y40.716 E6.78263
G1 X80.569 Y40.630 E6.81793
G1 X82.267 Y41.324 E6.85322
G1 X83.107 Y42.089 E6.87508
G1 X108.819 Y72.731 E7.64463
G1 X109.667 Y74.357 E7.67992
G1 X109.753 Y76.190 E7.71522
G1 X109.059 Y77.888 E7.75051
G1 X108.294 Y78.728 E7.77238
G1 X72.890 Y108.435 E8.66151
G1 X71.264 Y109.284 E8.69680
G1 X69.431 Y109.370 E8.73210
G1 X67.733 Y108.676 E8.76739
G1 X66.893 Y107.911 E8.78925
G1 X41.181 Y77.269 E9.55880
G1 X40.333 Y75.643 E9.59409
G1 X40.247 Y73.810 E9.62939
G1 X40.941 Y72.112 E9.66468
G1 X41.666 Y71.316 E9.68539
G1 E7.68539 F1200.00000
G92 E0
G1 X71.462 Y95.153 F6000.000
G1 E2.00000 F1200.00000
G1 F1800.000
G1 X64.919 Y87.355 E2.19584
G1 X66.724 Y87.158 E2.23077
G1 X68.203 Y86.346 E2.26322
G1 X69.259 Y85.031 E2.29567
G1 X69.731 Y83.412 E2.32812
G1 X69.571 Y81.952 E2.35637
G1 X82.789 Y70.861 E2.68833
G1 X84.199 Y71.272 E2.71658
G1 X85.875 Y71.088 E2.74903
G1 X87.354 Y70.277 E2.78148
G1 X88.410 Y68.961 E2.81393
G1 X88.918 Y67.218 E2.84887
G1 X95.461 Y75.016 E3.04470
G1 X71.508 Y95.115 E3.64626
G1 X71.494 Y94.791 F6000.000
G1 F1800.000
G1 X65.425 Y87.558 E3.82790
G1 X66.803 Y87.408 E3.85457
G1 X68.372 Y86.547 E3.88898
G1 X69.491 Y85.152 E3.92340
G1 X69.992 Y83.434 E3.95782
G1 X69.841 Y82.061 E3.98441
G1 X82.849 Y71.146 E4.31108
G1 X84.176 Y71.533 E4.33767
G1 X85.954 Y71.338 E4.37209
G1 X87.523 Y70.477 E4.40651
G1 X88.642 Y69.082 E4.44092
G1 X89.030 Y67.752 E4.46759
G1 X95.099 Y74.984 E4.64923
G1 X71.540 Y94.752 E5.24089
G1 X71.526 Y94.429 F6000.000
G1 F1800.000
G1 X65.931 Y87.762 E5.40833
G1 X66.882 Y87.658 E5.42673
G1 X68.540 Y86.748 E5.46311
G1 X69.724 Y85.273 E5.49950
G1 X70.253 Y83.457 E5.53588
G1 X70.112 Y82.169 E5.56081
G1 X82.909 Y71.431 E5.88220
G1 X84.153 Y71.794 E5.90713
G1 X86.033 Y71.588 E5.94352
G1 X87.691 Y70.678 E5.97990
G1 X88.875 Y69.203 E6.01628
G1 X89.143 Y68.285 E6.03468
G1 X94.737 Y74.952 E6.20212
G1 X71.572 Y94.390 E6.78390
G1 X71.245 Y94.713 F6000.000
G1 E4.78390 F1200.00000
G92 E0
G1 X83.800 Y69.096 F6000.000
G1 E2.00000 F1200.00000
G1 F1800.000
G1 X83.374 Y68.888 E2.00912
G1 X83.000 Y68.596 E2.01824
G1 X82.695 Y68.233 E2.02736
G1 X82.473 Y67.815 E2.03648
G1 X82.342 Y67.359 E2.04561
G1 X82.309 Y66.886 E2.05473
G1 X82.375 Y66.417 E2.06385
G1 X82.537 Y65.971 E2.07297
G1 X82.788 Y65.569 E2.08209
G1 X83.118 Y65.228 E2.09121
G1 X83.511 Y64.963 E2.10033
G1 X83.950 Y64.785 E2.10945
G1 X84.417 Y64.703 E2.11857
G1 X84.891 Y64.719 E2.12770
G1 X85.351 Y64.834 E2.13682
G1 X85.777 Y65.042 E2.14594
G1 X86.151 Y65.334 E2.15506
G1 X86.456 Y65.697 E2.16418
G1 X86.678 Y66.116 E2.17330
G1 X86.809 Y66.571 E2.18242
G1 X86.842 Y67.044 E2.19154
G1 X86.776 Y67.514 E2.20066
G1 X86.614 Y67.959 E2.20978
G1 X86.363 Y68.361 E2.21890
G1 X86.033 Y68.702 E2.22803
G1 X85.640 Y68.968 E2.23715
G1 X85.201 Y69.145 E2.24627
G1 X84.734 Y69.227 E2.25539
G1 X84.260 Y69.211 E2.26451
G1 X83.858 Y69.111 E2.27248
G1 X83.888 Y68.853 F6000.000
G1 F1800.000
G1 X83.511 Y68.669 E2.28056
G1 X83.180 Y68.411 E2.28864
G1 X82.910 Y68.089 E2.29672
G1 X82.713 Y67.718 E2.30480
G1 X82.597 Y67.314 E2.31288
G1 X82.567 Y66.895 E2.32097
G1 X82.626 Y66.479 E2.32905
G1 X82.770 Y66.084 E2.33713
G1 X82.992 Y65.728 E2.34521
G1 X83.284 Y65.426 E2.35329
G1 X83.632 Y65.191 E2.36137
G1 X84.022 Y65.034 E2.36945
G1 X84.435 Y64.961 E2.37754
G1 X84.855 Y64.975 E2.38562
G1 X85.263 Y65.077 E2.39370
G1 X85.640 Y65.261 E2.40178
G1 X85.971 Y65.520 E2.40986
G1 X86.241 Y65.842 E2.41794
G1 X86.439 Y66.212 E2.42602
G1 X86.554 Y66.616 E2.43410
G1 X86.584 Y67.035 E2.44219
G1 X86.525 Y67.451 E2.45027
G1 X86.382 Y67.846 E2.45835
G1 X86.159 Y68.202 E2.46643
G1 X85.867 Y68.504 E2.47451
G1 X85.519 Y68.739 E2.48259
G1 X85.129 Y68.897 E2.49067
G1 X84.716 Y68.970 E2.49876
G1 X84.296 Y68.955 E2.50684
G1 X83.947 Y68.868 E2.51377
G1 X83.977 Y68.610 F6000.000
G1 F1800.000
G1 X83.648 Y68.450 E2.52081
G1 X83.359 Y68.225 E2.52785
G1 X83.124 Y67.944 E2.53489
G1 X82.952 Y67.621 E2.54193
G1 X82.851 Y67.269 E2.54897
G1 X82.826 Y66.904 E2.55602
G1 X82.877 Y66.542 E2.56306
G1 X83.002 Y66.198 E2.57010
G1 X83.196 Y65.887 E2.57714
G1 X83.450 Y65.624 E2.58418
G1 X83.754 Y65.419 E2.59123
G1 X84.093 Y65.282 E2.59827
G1 X84.453 Y65.219 E2.60531
G1 X84.819 Y65.231 E2.61235
G1 X85.174 Y65.320 E2.61939
G1 X85.503 Y65.480 E2.62643
G1 X85.792 Y65.706 E2.63348
G1 X86.027 Y65.986 E2.64052
G1 X86.199 Y66.309 E2.64756
G1 X86.300 Y66.661 E2.65460
G1 X86.325 Y67.026 E2.66164
G1 X86.274 Y67.389 E2.66868
G1 X86.149 Y67.733 E2.67573
G1 X85.955 Y68.043 E2.68277
G1 X85.701 Y68.306 E2.68981
G1 X85.398 Y68.511 E2.69685
G1 X85.058 Y68.648 E2.70389
G1 X84.698 Y68.712 E2.71093
G1 X84.332 Y68.699 E2.71798
G1 X84.035 Y68.625 E2.72386
G1 X83.696 Y68.846 F6000.000
G1 E0.72386 F1200.00000
G92 E0
G1 X67.305 Y81.767 F6000.000
G1 E2.00000 F1200.00000
G1 F1800.000
G1 X67.527 Y82.185 E2.00912
G1 X67.658 Y82.641 E2.01824
G1 X67.691 Y83.114 E2.02736
G1 X67.625 Y83.583 E2.03648
G1 X67.463 Y84.029 E2.04561
G1 X67.212 Y84.431 E2.05473
G1 X66.882 Y84.772 E2.06385
G1 X66.489 Y85.037 E2.07297
G1 X66.050 Y85.215 E2.08209
G1 X65.583 Y85.297 E2.09121
G1 X65.109 Y85.281 E2.10033
G1 X64.649 Y85.166 E2.10945
G1 X64.223 Y84.958 E2.11857
G1 X63.849 Y84.666 E2.12769
G1 X63.544 Y84.303 E2.13682
G1 X63.322 Y83.884 E2.14594
G1 X63.191 Y83.429 E2.15506
G1 X63.158 Y82.956 E2.16418
G1 X63.224 Y82.486 E2.17330
G1 X63.386 Y82.041 E2.18242
G1 X63.637 Y81.639 E2.19154
G1 X63.967 Y81.298 E2.20066
G1 X64.360 Y81.032 E2.20978
G1 X64.799 Y80.855 E2.21890
G1 X65.266 Y80.773 E2.22803
G1 X65.740 Y80.789 E2.23715
G1 X66.200 Y80.904 E2.24627
G1 X66.648 Y81.122 E2.25586
G1 X67.003 Y81.407 E2.26461
G1 X67.266 Y81.721 E2.27249
G1 X67.090 Y81.911 F6000.000
G1 F1800.000
G1 X67.287 Y82.282 E2.28057
G1 X67.403 Y82.686 E2.28865
G1 X67.433 Y83.105 E2.29673
G1 X67.374 Y83.521 E2.30481
G1 X67.230 Y83.916 E2.31289
G1 X67.008 Y84.272 E2.32098
G1 X66.716 Y84.574 E2.32906
G1 X66.368 Y84.809 E2.33714
G1 X65.978 Y84.966 E2.34522
G1 X65.565 Y85.039 E2.35330
G1 X65.145 Y85.025 E2.36138
G1 X64.737 Y84.923 E2.36946
G1 X64.360 Y84.739 E2.37755
G1 X64.029 Y84.480 E2.38563
G1 X63.759 Y84.158 E2.39371
G1 X63.561 Y83.788 E2.40179
G1 X63.446 Y83.384 E2.40987
G1 X63.416 Y82.965 E2.41795
G1 X63.475 Y82.549 E2.42603
G1 X63.618 Y82.154 E2.43411
G1 X63.841 Y81.798 E2.44220
G1 X64.133 Y81.496 E2.45028
G1 X64.481 Y81.261 E2.45836
G1 X64.871 Y81.103 E2.46644
G1 X65.284 Y81.030 E2.47452
G1 X65.704 Y81.045 E2.48260
G1 X66.112 Y81.147 E2.49068
G1 X66.510 Y81.341 E2.49920
G1 X66.822 Y81.592 E2.50691
G1 X67.052 Y81.865 E2.51378
G1 X66.876 Y82.056 F6000.000
G1 F1800.000
G1 X67.048 Y82.379 E2.52083
G1 X67.149 Y82.731 E2.52787
G1 X67.174 Y83.096 E2.53491
G1 X67.123 Y83.458 E2.54195
G1 X66.998 Y83.802 E2.54899
G1 X66.804 Y84.113 E2.55603
G1 X66.550 Y84.376 E2.56308
G1 X66.246 Y84.581 E2.57012
G1 X65.907 Y84.718 E2.57716
G1 X65.547 Y84.781 E2.58420
G1 X65.181 Y84.769 E2.59124
G1 X64.826 Y84.680 E2.59829
G1 X64.497 Y84.520 E2.60533
G1 X64.208 Y84.294 E2.61237
G1 X63.973 Y84.014 E2.61941
G1 X63.801 Y83.691 E2.62645
G1 X63.700 Y83.339 E2.63349
G1 X63.675 Y82.974 E2.64053
G1 X63.726 Y82.611 E2.64758
G1 X63.851 Y82.267 E2.65462
G1 X64.045 Y81.957 E2.66166
G1 X64.299 Y81.694 E2.66870
G1 X64.602 Y81.489 E2.67574
G1 X64.942 Y81.352 E2.68279
G1 X65.302 Y81.288 E2.68983
G1 X65.668 Y81.301 E2.69687
G1 X66.023 Y81.390 E2.70391
G1 X66.371 Y81.559 E2.71136
G1 X66.641 Y81.776 E2.71802
G1 X66.837 Y82.010 E2.72389
G1 X67.241 Y82.031 F6000.000
G1 E0.72389 F1200.00000
G92 E0
G1 X61.082 Y82.782 F6000.000
G1 E2.00000 F1200.00000
G1 F1800.000
G1 X54.539 Y74.984 E2.19584
G1 X78.538 Y54.847 E2.79855
G1 X85.081 Y62.645 E2.99439
G1 X83.276 Y62.842 E3.02932
G1 X81.797 Y63.654 E3.06177
G1 X80.741 Y64.969 E3.09422
G1 X80.269 Y66.588 E3.12667
G1 X80.429 Y68.048 E3.15492
G1 X67.211 Y79.139 E3.48688
G1 X65.801 Y78.728 E3.51513
G1 X64.125 Y78.912 E3.54758
G1 X62.646 Y79.723 E3.58003
G1 X61.590 Y81.039 E3.61248
G1 X61.099 Y82.725 E3.64626
G1 X60.970 Y82.248 F6000.000
G1 F1800.000
G1 X54.901 Y75.016 E3.82790
G1 X78.506 Y55.209 E4.42072
G1 X84.575 Y62.442 E4.60236
G1 X83.197 Y62.592 E4.62902
G1 X81.628 Y63.453 E4.66344
G1 X80.509 Y64.848 E4.69786
G1 X80.008 Y66.566 E4.73228
G1 X80.159 Y67.939 E4.75886
G1 X67.151 Y78.854 E5.08554
G1 X65.824 Y78.467 E5.11213
G1 X64.046 Y78.662 E5.14655
G1 X62.477 Y79.523 E5.18096
G1 X61.358 Y80.918 E5.21538
G1 X60.986 Y82.191 E5.24089
G1 X60.857 Y81.715 F6000.000
G1 F1800.000
G1 X55.263 Y75.048 E5.40833
G1 X78.474 Y55.571 E5.99126
G1 X84.069 Y62.238 E6.15870
G1 X83.118 Y62.342 E6.17710
G1 X81.460 Y63.252 E6.21348
G1 X80.276 Y64.727 E6.24987
G1 X79.747 Y66.543 E6.28625
G1 X79.888 Y67.831 E6.31118
G1 X67.091 Y78.569 E6.63257
G1 X65.847 Y78.206 E6.65750
G1 X63.967 Y78.412 E6.69388
G1 X62.309 Y79.322 E6.73027
G1 X61.125 Y80.797 E6.76665
G1 X60.874 Y81.657 E6.78390
G1 X60.581 Y82.004 F6000.000
G1 E4.78390 F1200.00000
G92 E0
G1 X45.378 Y74.614 F6000.000
G1 E2.00000 F1200.00000
G1 F1800.000
G1 X79.764 Y45.761 E2.86358
G1 X104.622 Y75.386 E3.60757
G1 X70.236 Y104.239 E4.47114
G1 X45.417 Y74.660 E5.21398
G1 X45.016 Y74.583 F6000.000
G1 F1800.000
G1 X79.796 Y45.399 E6.08745
G1 X104.984 Y75.417 E6.84133
G1 X70.204 Y104.601 E7.71480
G1 X45.055 Y74.629 E8.46752
G1 X44.654 Y74.551 F6000.000
G1 F1800.000
G1 X79.827 Y45.037 E9.35088
G1 X105.346 Y75.449 E10.11466
G1 X70.173 Y104.963 E10.99802
G1 X44.692 Y74.597 E11.76064
G1 X45.012 Y74.373 F6000.000
G1 X45.850 Y74.536 F6000.000
G1 F1800.000
G1 X45.631 Y74.755 E11.76663
G1 X45.798 Y74.954 E11.77165
G1 X48.122 Y72.630 E11.83524
G1 X50.395 Y70.723 E11.89262
G1 X45.965 Y75.153 E12.01382
G1 X46.132 Y75.352 E12.01884
G1 X52.667 Y68.817 E12.19764
G1 X54.939 Y66.910 E12.25502
G1 X46.299 Y75.550 E12.49142
G1 X46.465 Y75.749 E12.49644
G1 X57.211 Y65.003 E12.79044
G1 X59.483 Y63.097 E12.84782
G1 X46.632 Y75.948 E13.19943
G1 X46.799 Y76.147 E13.20445
G1 X61.756 Y61.190 E13.61365
G1 X64.028 Y59.284 E13.67103
G1 X46.966 Y76.346 E14.13784
G1 X47.133 Y76.544 E14.14286
G1 X66.300 Y57.377 E14.66727
G1 X68.572 Y55.471 E14.72465
G1 X47.299 Y76.743 E15.30666
G1 X47.466 Y76.942 E15.31168
G1 X70.844 Y53.564 E15.95130
G1 X73.116 Y51.657 E16.00868
G1 X47.633 Y77.141 E16.70589
G1 X47.800 Y77.340 E16.71091
G1 X75.389 Y49.751 E17.46573
G1 X77.661 Y47.844 E17.52311
G1 X47.967 Y77.538 E18.33553
G1 X48.133 Y77.737 E18.34055
G1 X79.848 Y46.022 E19.20825
G1 X80.015 Y46.221 E19.21327
G1 X48.300 Y77.936 E20.08098
G1 X48.467 Y78.135 E20.08600
G1 X80.182 Y46.420 E20.95370
G1 X80.349 Y46.619 E20.95872
G1 X48.634 Y78.334 E21.82642
G1 X48.801 Y78.532 E21.83144
G1 X80.515 Y46.818 E22.69914
G1 X80.682 Y47.016 E22.70417
G1 X48.967 Y78.731 E23.57187
G1 X49.134 Y78.930 E23.57689
G1 X80.849 Y47.215 E24.44459
G1 X81.016 Y47.414 E24.44961
G1 X49.301 Y79.129 E25.31731
G1 X49.468 Y79.328 E25.32233
G1 X81.183 Y47.613 E26.19004
G1 X81.349 Y47.812 E26.19506
G1 X54.264 Y74.897 E26.93610
G1 X56.536 Y72.990 E26.99349
G1 X81.516 Y48.010 E27.67693
G1 X81.683 Y48.209 E27.68195
G1 X58.808 Y71.084 E28.30779
G1 X61.081 Y69.177 E28.36517
G1 X81.850 Y48.408 E28.93341
G1 X82.017 Y48.607 E28.93843
G1 X63.353 Y67.270 E29.44906
G1 X65.625 Y65.364 E29.50644
G1 X82.183 Y48.805 E29.95947
G1 X82.350 Y49.004 E29.96449
G1 X67.897 Y63.457 E30.35992
G1 X70.170 Y61.551 E30.41730
G1 X82.517 Y49.203 E30.75513
G1 X82.684 Y49.402 E30.76015
G1 X72.442 Y59.644 E31.04037
G1 X74.714 Y57.737 E31.09775
G1 X82.851 Y49.601 E31.32036
G1 X83.018 Y49.799 E31.32539
G1 X76.986 Y55.831 E31.49040
G1 X78.460 Y54.594 E31.52762
G1 X78.519 Y54.664 E31.52939
G1 X83.184 Y49.998 E31.65703
G1 X83.351 Y50.197 E31.66205
G1 X78.686 Y54.862 E31.78970
G1 X78.853 Y55.061 E31.79472
G1 X83.518 Y50.396 E31.92236
G1 X83.685 Y50.595 E31.92738
G1 X79.019 Y55.260 E32.05503
G1 X79.186 Y55.459 E32.06005
G1 X83.852 Y50.793 E32.18769
G1 X84.018 Y50.992 E32.19271
G1 X79.353 Y55.658 E32.32036
G1 X79.520 Y55.856 E32.32538
G1 X84.185 Y51.191 E32.45302
G1 X84.352 Y51.390 E32.45804
G1 X79.687 Y56.055 E32.58569
G1 X79.853 Y56.254 E32.59071
G1 X84.519 Y51.589 E32.71835
G1 X84.686 Y51.787 E32.72337
G1 X80.020 Y56.453 E32.85102
G1 X80.187 Y56.652 E32.85604
G1 X84.852 Y51.986 E32.98368
G1 X85.019 Y52.185 E32.98870
G1 X80.354 Y56.850 E33.11635
G1 X80.521 Y57.049 E33.12137
G1 X85.186 Y52.384 E33.24901
G1 X85.353 Y52.583 E33.25403
G1 X80.687 Y57.248 E33.38168
G1 X80.854 Y57.447 E33.38670
G1 X85.520 Y52.781 E33.51434
G1 X85.686 Y52.980 E33.51936
G1 X81.021 Y57.646 E33.64701
G1 X81.188 Y57.844 E33.65203
G1 X85.853 Y53.179 E33.77967
G1 X86.020 Y53.378 E33.78469
G1 X81.355 Y58.043 E33.91234
G1 X81.521 Y58.242 E33.91736
G1 X86.187 Y53.576 E34.04500
G1 X86.354 Y53.775 E34.05002
G1 X81.688 Y58.441 E34.17767
G1 X81.855 Y58.639 E34.18269
G1 X86.520 Y53.974 E34.31033
G1 X86.687 Y54.173 E34.31535
G1 X82.022 Y58.838 E34.44300
G1 X82.189 Y59.037 E34.44802
G1 X86.854 Y54.372 E34.57566
G1 X87.021 Y54.570 E34.58068
G1 X82.355 Y59.236 E34.70833
G1 X82.522 Y59.435 E34.71335
G1 X87.188 Y54.769 E34.84099
G1 X87.354 Y54.968 E34.84601
G1 X82.689 Y59.633 E34.97366
G1 X82.856 Y59.832 E34.97868
G1 X87.521 Y55.167 E35.10633
G1 X87.688 Y55.366 E35.11135
G1 X83.023 Y60.031 E35.23899
G1 X83.189 Y60.230 E35.24401
G1 X87.855 Y55.564 E35.37166
G1 X88.022 Y55.763 E35.37668
G1 X83.356 Y60.429 E35.50432
G1 X83.523 Y60.627 E35.50934
G1 X88.189 Y55.962 E35.63699
G1 X88.355 Y56.161 E35.64201
G1 X83.690 Y60.826 E35.76965
G1 X83.857 Y61.025 E35.77467
G1 X88.522 Y56.360 E35.90232
G1 X88.689 Y56.558 E35.90734
G1 X84.023 Y61.224 E36.03499
G1 X84.190 Y61.423 E36.04001
G1 X88.856 Y56.757 E36.16765
G1 X89.023 Y56.956 E36.17267
G1 X84.357 Y61.621 E36.30032
G1 X84.524 Y61.820 E36.30534
G1 X89.189 Y57.155 E36.43298
G1 X89.356 Y57.353 E36.43800
G1 X84.691 Y62.019 E36.56565
G1 X84.857 Y62.218 E36.57067
G1 X89.523 Y57.552 E36.69831
G1 X89.690 Y57.751 E36.70333
G1 X85.024 Y62.417 E36.83098
G1 X85.191 Y62.615 E36.83600
G1 X89.857 Y57.950 E36.96365
G1 X90.023 Y58.149 E36.96867
G1 X85.358 Y62.814 E37.09631
G1 E35.09631 F1200.00000
G92 E0
G1 X82.426 Y63.553 F6000.000
G1 E2.00000 F1200.00000
G1 F1800.000
G1 X81.211 Y64.767 E2.03323
G1 X80.865 Y65.199 E2.04395
G1 X80.749 Y65.595 E2.05192
G1 X83.236 Y63.108 E2.11995
G1 X83.464 Y62.983 E2.12497
G1 X83.759 Y62.951 E2.13072
G1 X80.599 Y66.111 E2.21717
G1 X80.448 Y66.627 E2.22757
G1 X84.169 Y62.906 E2.32936
G1 X84.580 Y62.861 E2.33735
G1 X80.451 Y66.990 E2.45032
G1 X80.487 Y67.320 E2.45673
G1 X84.990 Y62.816 E2.57995
G1 X85.401 Y62.771 E2.58794
G1 X83.361 Y64.811 E2.64375
G1 X83.770 Y64.646 E2.65229
G1 X83.918 Y64.620 E2.65519
G1 X90.190 Y58.347 E2.82680
G1 X90.357 Y58.546 E2.83182
G1 X84.347 Y64.556 E2.99625
G1 X84.700 Y64.568 E3.00309
G1 X90.524 Y58.745 E3.16241
G1 X90.691 Y58.944 E3.16743
