; generated by Slic3r 1.3.0 on 2020-09-07 at 12:29:56

; external perimeters extrusion width = 0.45mm (4.34mm^3/s)
; perimeters extrusion width = 0.45mm (5.78mm^3/s)
; infill extrusion width = 0.45mm (7.52mm^3/s)
; solid infill extrusion width = 0.45mm (2.31mm^3/s)
; top infill extrusion width = 0.45mm (1.74mm^3/s)

; external perimeters extrusion width = 0.45mm (4.34mm^3/s)
; perimeters extrusion width = 0.45mm (5.78mm^3/s)
; infill extrusion width = 0.45mm (7.52mm^3/s)
; solid infill extrusion width = 0.45mm (2.31mm^3/s)
; top infill extrusion width = 0.45mm (1.74mm^3/s)

;D3D:START:START
T0
M104 S215 T0

G21
G90
M107
T0
G28
G29
M109 T0 S215 T0
G0 F3000
M107
T0
G92 E0
G0 X0 Y149 Z0.1 F3600
G1 Y49 E6.5 F1200
G0 Z1
G92 E0
; Filament gcode

G21 ; set units to millimeters
G90 ; use absolute coordinates
M82 ; use absolute distances for extrusion
G92 E0
G1 Z0.300 F6000.000
G1 E-0.50000 F1200.00000
G92 E0
G1 X47.240 Y77.452 F6000.000
G1 E0.52000 F1200.00000
G1 F1080
G1 X94.935 Y21.597 E2.50579
G1 X96.430 Y20.455 E2.55664
G1 X98.335 Y20.029 E2.60943
G1 X98.902 Y20.029 E2.62476
G1 X100.741 Y20.424 E2.67561
G1 X102.254 Y21.541 E2.72646
G1 X103.175 Y23.181 E2.77730
G1 X103.361 Y24.165 E2.80439
G1 X104.008 Y33.277 E3.05136
G1 X104.591 Y42.315 E3.29621
G1 X104.915 Y48.297 E3.45820
G1 X105.138 Y54.114 E3.61558
G1 X105.219 Y57.535 E3.70811
G1 X105.227 Y60.705 E3.79381
G1 X105.164 Y63.098 E3.85853
G1 X105.030 Y65.210 E3.91575
G1 X104.930 Y66.210 E3.94291
G1 X104.805 Y67.160 E3.96882
G1 X104.652 Y68.065 E3.99364
G1 X104.537 Y68.615 E4.00883
G1 X104.351 Y69.358 E4.02953
G1 X104.171 Y69.945 E4.04614
G1 X103.919 Y70.617 E4.06555
G1 X103.728 Y71.044 E4.07820
G1 X103.332 Y71.765 E4.10043
G1 X102.992 Y72.258 E4.11663
G1 X102.760 Y72.548 E4.12668
G1 X55.065 Y128.403 E6.11247
G1 X53.570 Y129.545 E6.16332
G1 X51.664 Y129.971 E6.21611
G1 X51.098 Y129.971 E6.23144
G1 X49.259 Y129.576 E6.28229
G1 X47.746 Y128.459 E6.33313
G1 X46.825 Y126.819 E6.38398
G1 X46.639 Y125.835 E6.41107
G1 X46.198 Y119.714 E6.57697
G1 X45.726 Y112.728 E6.76628
G1 X45.409 Y107.687 E6.90284
G1 X45.159 Y103.207 E7.02415
G1 X44.989 Y99.471 E7.12528
G1 X44.842 Y95.190 E7.24108
G1 X44.773 Y91.826 E7.33207
G1 X44.773 Y89.294 E7.40050
G1 X44.834 Y86.941 E7.46415
G1 X44.932 Y85.256 E7.50980
G1 X45.017 Y84.283 E7.53619
G1 X45.129 Y83.309 E7.56270
G1 X45.368 Y81.832 E7.60316
G1 X45.537 Y81.067 E7.62433
G1 X45.691 Y80.496 E7.64034
G1 X45.916 Y79.805 E7.65998
G1 X46.081 Y79.383 E7.67223
G1 X46.399 Y78.704 E7.69249
G1 X46.672 Y78.230 E7.70728
G1 X47.008 Y77.742 E7.72331
G1 X47.202 Y77.498 E7.73174
G1 X47.420 Y77.605 F6000.000
G1 F1080
G1 X95.114 Y21.750 E9.71753
G1 X96.575 Y20.647 E9.76700
G1 X98.335 Y20.264 E9.81571
G1 X98.902 Y20.264 E9.83104
G1 X100.689 Y20.660 E9.88051
G1 X102.142 Y21.772 E9.92998
G1 X103.126 Y24.183 E10.00040
G1 X103.816 Y33.932 E10.26464
G1 X104.399 Y43.066 E10.51209
G1 X104.713 Y49.046 E10.67398
G1 X104.923 Y54.819 E10.83018
G1 X104.991 Y58.179 E10.92103
G1 X104.991 Y60.731 E10.99004
G1 X104.929 Y63.087 E11.05375
G1 X104.791 Y65.245 E11.11222
G1 X104.689 Y66.248 E11.13948
G1 X104.572 Y67.127 E11.16345
G1 X104.420 Y68.022 E11.18802
G1 X104.308 Y68.561 E11.20289
G1 X104.123 Y69.297 E11.22339
G1 X103.949 Y69.867 E11.23953
G1 X103.701 Y70.529 E11.25865
G1 X103.514 Y70.945 E11.27095
G1 X103.134 Y71.637 E11.29231
G1 X102.806 Y72.113 E11.30793
G1 X102.580 Y72.395 E11.31770
G1 X54.886 Y128.250 E13.30350
G1 X53.425 Y129.353 E13.35297
G1 X51.664 Y129.736 E13.40168
G1 X51.098 Y129.736 E13.41700
G1 X49.311 Y129.340 E13.46648
G1 X47.858 Y128.228 E13.51595
G1 X46.874 Y125.817 E13.58637
G1 X46.433 Y119.699 E13.75220
G1 X45.961 Y112.713 E13.94151
G1 X45.645 Y107.673 E14.07804
G1 X45.394 Y103.195 E14.19930
G1 X45.224 Y99.462 E14.30034
G1 X45.077 Y95.184 E14.41608
G1 X45.009 Y91.823 E14.50697
G1 X45.008 Y89.296 E14.57527
G1 X45.069 Y86.951 E14.63871
G1 X45.167 Y85.275 E14.68410
G1 X45.251 Y84.305 E14.71042
G1 X45.363 Y83.338 E14.73673
G1 X45.599 Y81.880 E14.77668
G1 X45.767 Y81.121 E14.79768
G1 X45.916 Y80.564 E14.81327
G1 X46.139 Y79.882 E14.83266
G1 X46.299 Y79.471 E14.84461
G1 X46.606 Y78.817 E14.86413
G1 X46.869 Y78.358 E14.87844
G1 X47.194 Y77.887 E14.89390
G1 X47.382 Y77.651 E14.90205
G1 E14.40205 F1200.00000
G92 E0
G1 X51.945 Y96.947 F6000.000
G1 E0.52000 F1200.00000
G1 F1080
G1 X51.583 Y96.949 E0.52979
G1 X51.353 Y96.909 E0.53611
G1 X51.016 Y96.777 E0.54590
G1 X50.820 Y96.657 E0.55210
G1 X50.662 Y96.526 E0.55764
G1 X50.414 Y96.228 E0.56814
G1 X50.243 Y95.865 E0.57899
G1 X50.169 Y95.474 E0.58973
G1 X50.193 Y95.083 E0.60034
G1 X50.245 Y94.881 E0.60597
G1 X50.412 Y94.527 E0.61656
G1 X50.533 Y94.362 E0.62209
G1 X50.815 Y94.096 E0.63257
G1 X50.991 Y93.985 E0.63820
G1 X51.353 Y93.842 E0.64871
G1 X51.583 Y93.801 E0.65504
G1 X51.949 Y93.803 E0.66493
G1 X52.329 Y93.901 E0.67553
G1 X52.517 Y93.989 E0.68116
G1 X52.835 Y94.220 E0.69177
G1 X53.085 Y94.522 E0.70238
G1 X53.185 Y94.705 E0.70802
G1 X53.305 Y95.074 E0.71850
G1 X53.331 Y95.280 E0.72413
G1 X53.307 Y95.667 E0.73461
G1 X53.255 Y95.869 E0.74024
G1 X53.090 Y96.220 E0.75072
G1 X52.967 Y96.388 E0.75636
G1 X52.685 Y96.654 E0.76684
G1 X52.509 Y96.765 E0.77246
G1 X52.174 Y96.900 E0.78222
G1 X52.004 Y96.935 E0.78692
G1 E0.28692 F1200.00000
G92 E0
G1 X51.898 Y84.503 F6000.000
G1 E0.52000 F1200.00000
G1 F1080
G1 X52.329 Y84.601 E0.53194
G1 X52.517 Y84.689 E0.53757
G1 X52.835 Y84.920 E0.54818
G1 X53.085 Y85.222 E0.55879
G1 X53.185 Y85.405 E0.56442
G1 X53.305 Y85.774 E0.57490
G1 X53.331 Y85.980 E0.58054
G1 X53.307 Y86.367 E0.59102
G1 X53.255 Y86.569 E0.59665
G1 X53.090 Y86.920 E0.60713
G1 X52.967 Y87.088 E0.61276
G1 X52.685 Y87.354 E0.62324
G1 X52.509 Y87.465 E0.62887
G1 X52.174 Y87.600 E0.63863
G1 X51.945 Y87.647 E0.64496
G1 X51.556 Y87.647 E0.65547
G1 X51.352 Y87.608 E0.66109
G1 X51.016 Y87.477 E0.67085
G1 X50.816 Y87.354 E0.67718
G1 X50.533 Y87.088 E0.68770
G1 X50.410 Y86.920 E0.69333
G1 X50.243 Y86.565 E0.70394
G1 X50.169 Y86.174 E0.71468
G1 X50.193 Y85.783 E0.72529
G1 X50.245 Y85.581 E0.73091
G1 X50.397 Y85.254 E0.74067
G1 X50.532 Y85.063 E0.74699
G1 X50.794 Y84.814 E0.75678
G1 X50.990 Y84.685 E0.76311
G1 X51.339 Y84.547 E0.77326
G1 X51.129 Y84.509 E0.77902
G1 X50.912 Y84.434 E0.78522
G1 X50.597 Y84.259 E0.79498
G1 X50.436 Y84.126 E0.80060
G1 X50.186 Y83.824 E0.81121
G1 X50.017 Y83.465 E0.82195
G1 X49.943 Y83.075 E0.83268
G1 X49.964 Y82.710 E0.84257
G1 X50.019 Y82.482 E0.84890
G1 X50.184 Y82.130 E0.85941
G1 X50.307 Y81.962 E0.86504
G1 X50.589 Y81.696 E0.87552
G1 X50.765 Y81.585 E0.88116
G1 X51.127 Y81.442 E0.89167
G1 X51.357 Y81.401 E0.89800
G1 X51.723 Y81.403 E0.90789
G1 X52.107 Y81.502 E0.91861
G1 X52.428 Y81.676 E0.92849
G1 X52.611 Y81.822 E0.93481
G1 X52.843 Y82.100 E0.94460
G1 X52.959 Y82.303 E0.95092
G1 X53.072 Y82.647 E0.96071
G1 X53.105 Y82.879 E0.96704
G1 X53.081 Y83.267 E0.97756
G1 X53.029 Y83.469 E0.98319
G1 X52.864 Y83.820 E0.99367
G1 X52.744 Y83.984 E0.99918
G1 X52.605 Y84.133 E1.00468
G1 X52.290 Y84.361 E1.01519
G1 X52.077 Y84.458 E1.02153
G1 X51.956 Y84.488 E1.02489
G1 E0.52489 F1200.00000
G92 E0
G1 X51.541 Y125.350 F6000.000
G1 E0.52000 F1200.00000
G1 F1080
G1 X51.237 Y125.350 E0.52820
G1 X50.808 Y119.393 E0.68967
G1 X50.338 Y112.426 E0.87846
G1 X50.022 Y107.412 E1.01430
G1 X49.774 Y102.972 E1.13452
G1 X49.606 Y99.292 E1.23414
G1 X49.461 Y95.063 E1.34854
G1 X49.394 Y91.767 E1.43766
G1 X49.394 Y89.335 E1.50342
G1 X49.452 Y87.122 E1.56326
G1 X49.576 Y85.163 E1.61636
G1 X49.664 Y84.289 E1.64010
G1 X49.770 Y83.489 E1.66190
G1 X49.894 Y82.768 E1.68169
G1 X50.035 Y82.129 E1.69939
G1 X50.193 Y81.575 E1.71498
G1 X50.368 Y81.109 E1.72842
G1 X50.556 Y80.735 E1.73974
G1 X50.754 Y80.455 E1.74901
G1 X50.961 Y80.266 E1.75659
G1 X51.053 Y80.212 E1.75948
G1 X51.265 Y80.152 E1.76544
G1 X51.479 Y80.168 E1.77123
G1 X51.706 Y80.266 E1.77792
G1 X51.950 Y80.458 E1.78631
G1 X52.072 Y80.584 E1.79106
G1 X52.330 Y80.923 E1.80257
G1 X52.458 Y81.123 E1.80900
G1 X52.716 Y81.601 E1.82369
G1 X53.096 Y82.492 E1.84987
G1 X53.339 Y83.193 E1.86993
G1 X53.685 Y84.406 E1.90403
G1 X53.898 Y85.316 E1.92929
G1 X54.187 Y86.822 E1.97076
G1 X54.355 Y87.914 E2.00062
G1 X54.501 Y89.071 E2.03216
G1 X54.624 Y90.288 E2.06523
G1 X54.762 Y92.215 E2.11748
G1 X54.822 Y93.563 E2.15393
G1 X54.855 Y94.949 E2.19144
G1 X54.861 Y96.372 E2.22989
G1 X54.840 Y97.823 E2.26913
G1 X54.762 Y100.034 E2.32896
G1 X54.638 Y102.269 E2.38947
G1 X54.477 Y104.516 E2.45037
G1 X54.282 Y106.754 E2.51112
G1 X54.059 Y108.964 E2.57118
G1 X53.812 Y111.126 E2.63000
G1 X53.457 Y113.900 E2.70562
G1 X53.084 Y116.510 E2.77691
G1 X52.615 Y119.482 E2.85825
G1 X52.083 Y122.526 E2.94180
G1 X51.552 Y125.291 E3.01792
G1 X51.426 Y124.696 F6000.000
G1 F1080
G1 X51.506 Y124.281 E3.02939
G1 X51.404 Y124.384 E3.03332
G1 X51.381 Y124.071 E3.04183
G1 X51.586 Y123.867 E3.04968
G1 X51.665 Y123.452 E3.06115
G1 X51.359 Y123.759 E3.07293
G1 X51.336 Y123.446 E3.08144
G1 X51.745 Y123.038 E3.09714
G1 X51.824 Y122.623 E3.10861
G1 X51.314 Y123.134 E3.12823
G1 X51.291 Y122.822 E3.13674
G1 X51.898 Y122.215 E3.16007
G1 X51.969 Y121.809 E3.17126
G1 X51.269 Y122.509 E3.19818
G1 X51.246 Y122.197 E3.20669
G1 X52.040 Y121.403 E3.23719
G1 X52.111 Y120.997 E3.24838
G1 X51.224 Y121.884 E3.28247
G1 X51.201 Y121.572 E3.29098
G1 X52.182 Y120.592 E3.32866
G1 X52.253 Y120.186 E3.33985
G1 X51.179 Y121.260 E3.38112
G1 X51.156 Y120.947 E3.38963
G1 X52.323 Y119.780 E3.43449
G1 X52.393 Y119.376 E3.44564
G1 X51.134 Y120.635 E3.49402
G1 X51.111 Y120.322 E3.50254
G1 X52.456 Y118.978 E3.55420
G1 X52.519 Y118.580 E3.56515
G1 X51.089 Y120.010 E3.62009
G1 X51.066 Y119.698 E3.62860
G1 X52.581 Y118.182 E3.68683
G1 X52.644 Y117.785 E3.69777
G1 X51.044 Y119.385 E3.75928
G1 X51.022 Y119.072 E3.76782
G1 X52.707 Y117.387 E3.83256
G1 X52.770 Y116.989 E3.84350
G1 X51.001 Y118.758 E3.91147
G1 X50.980 Y118.444 E3.92001
G1 X52.833 Y116.591 E3.99121
G1 X52.891 Y116.199 E4.00200
G1 X50.959 Y118.130 E4.07623
G1 X50.938 Y117.817 E4.08477
G1 X52.946 Y115.808 E4.16196
G1 X53.002 Y115.417 E4.17268
G1 X50.917 Y117.503 E4.25283
G1 X50.895 Y117.189 E4.26138
G1 X53.058 Y115.027 E4.34448
G1 X53.114 Y114.636 E4.35520
G1 X50.874 Y116.876 E4.44127
G1 X50.853 Y116.562 E4.44981
G1 X53.169 Y114.245 E4.53883
G1 X53.225 Y113.855 E4.54955
G1 X50.832 Y116.248 E4.64152
G1 X50.811 Y115.934 E4.65006
G1 X53.274 Y113.471 E4.74473
G1 X53.323 Y113.087 E4.75525
G1 X50.789 Y115.621 E4.85263
G1 X50.768 Y115.307 E4.86118
G1 X53.373 Y112.703 E4.96126
G1 X53.422 Y112.319 E4.97178
G1 X50.747 Y114.993 E5.07456
G1 X50.726 Y114.680 E5.08311
G1 X53.471 Y111.934 E5.18860
G1 X53.520 Y111.550 E5.19912
G1 X50.705 Y114.366 E5.30731
G1 X50.683 Y114.052 E5.31586
G1 X53.569 Y111.166 E5.42676
G1 X53.613 Y110.787 E5.43713
G1 X50.662 Y113.738 E5.55054
G1 X50.641 Y113.425 E5.55908
G1 X53.657 Y110.409 E5.67496
G1 X53.700 Y110.031 E5.68530
G1 X50.620 Y113.111 E5.80366
G1 X50.599 Y112.797 E5.81220
G1 X53.743 Y109.653 E5.93303
G1 X53.786 Y109.275 E5.94336
G1 X50.578 Y112.484 E6.06666
G1 X50.557 Y112.169 E6.07523
G1 X53.828 Y108.898 E6.20093
G1 X53.866 Y108.525 E6.21111
G1 X50.538 Y111.854 E6.33902
G1 X50.518 Y111.539 E6.34760
G1 X53.904 Y108.153 E6.47772
G1 X53.942 Y107.780 E6.48790
G1 X50.498 Y111.223 E6.62023
G1 X50.478 Y110.908 E6.62881
G1 X53.979 Y107.407 E6.76335
G1 X54.017 Y107.035 E6.77353
G1 X50.458 Y110.593 E6.91028
G1 X50.439 Y110.278 E6.91886
G1 X54.053 Y106.663 E7.05777
G1 X54.085 Y106.296 E7.06778
G1 X50.419 Y109.963 E7.20869
G1 X50.399 Y109.648 E7.21726
G1 X54.117 Y105.930 E7.36016
G1 X54.149 Y105.563 E7.37017
G1 X50.379 Y109.333 E7.51505
G1 X50.359 Y109.018 E7.52363
G1 X54.181 Y105.196 E7.67050
G1 X54.213 Y104.829 E7.68051
G1 X50.340 Y108.703 E7.82937
G1 X50.320 Y108.388 E7.83795
G1 X54.245 Y104.463 E7.98878
G1 X54.270 Y104.102 E7.99861
G1 X50.300 Y108.073 E8.15119
G1 X50.280 Y107.757 E8.15977
G1 X54.296 Y103.741 E8.31411
G1 X54.322 Y103.380 E8.32394
G1 X50.260 Y107.442 E8.48004
G1 X50.242 Y107.126 E8.48867
G1 X54.348 Y103.019 E8.64646
G1 X54.374 Y102.659 E8.65629
G1 X50.225 Y106.808 E8.81576
G1 X50.207 Y106.491 E8.82439
G1 X54.400 Y102.298 E8.98553
G1 X54.420 Y101.943 E8.99520
G1 X50.189 Y106.174 E9.15781
G1 X50.171 Y105.857 E9.16644
G1 X54.440 Y101.588 E9.33048
G1 X54.459 Y101.234 E9.34013
G1 X50.154 Y105.540 E9.50560
G1 X50.136 Y105.223 E9.51423
G1 X54.479 Y100.879 E9.68114
G1 X54.499 Y100.525 E9.69078
G1 X50.118 Y104.905 E9.85912
G1 X50.100 Y104.588 E9.86775
G1 X54.518 Y100.170 E10.03752
G1 X54.533 Y99.820 E10.04705
G1 X50.083 Y104.271 E10.21809
G1 X50.065 Y103.954 E10.22672
G1 X54.546 Y99.473 E10.39892
G1 X54.558 Y99.126 E10.40836
G1 X50.047 Y103.637 E10.58172
G1 X50.029 Y103.320 E10.59035
G1 X54.571 Y98.778 E10.76487
G1 X54.583 Y98.431 E10.77431
G1 X50.012 Y103.002 E10.94998
G1 X49.997 Y102.683 E10.95868
G1 X54.595 Y98.084 E11.13540
G1 X54.606 Y97.738 E11.14480
G1 X49.982 Y102.362 E11.32249
G1 X49.967 Y102.042 E11.33120
G1 X54.611 Y97.399 E11.50964
G1 X54.616 Y97.059 E11.51887
G1 X49.953 Y101.722 E11.69805
G1 X49.938 Y101.401 E11.70676
G1 X54.620 Y96.719 E11.88669
G1 X54.625 Y96.379 E11.89593
G1 X49.924 Y101.081 E12.07660
G1 X49.909 Y100.761 E12.08532
G1 X54.624 Y96.046 E12.26650
G1 X54.623 Y95.712 E12.27556
G1 X49.895 Y100.440 E12.45726
G1 X49.880 Y100.120 E12.46597
G1 X54.621 Y95.379 E12.64817
G1 X54.620 Y95.045 E12.65723
G1 X53.210 Y96.455 E12.71139
G1 X53.294 Y96.340 E12.71524
G1 X53.478 Y95.949 E12.72698
G1 X53.511 Y95.819 E12.73062
G1 X54.614 Y94.716 E12.77300
G1 X54.606 Y94.389 E12.78189
G1 X53.557 Y95.438 E12.82219
G1 X53.568 Y95.273 E12.82669
G1 X53.547 Y95.113 E12.83107
G1 X54.598 Y94.062 E12.87145
G1 X54.590 Y93.735 E12.88034
G1 X53.479 Y94.847 E12.92305
G1 X53.394 Y94.596 E12.93023
G1 X54.579 Y93.411 E12.97577
G1 X54.565 Y93.091 E12.98449
G1 X53.274 Y94.382 E13.03410
G1 X53.122 Y94.198 E13.04057
G1 X54.551 Y92.770 E13.09546
G1 X54.537 Y92.449 E13.10418
G1 X52.963 Y94.022 E13.16464
G1 X52.770 Y93.881 E13.17115
G1 X54.520 Y92.131 E13.23842
G1 X54.510 Y91.993 E13.24218
G1 X54.323 Y91.993 E13.24726
G1 X52.565 Y93.751 E13.31483
G1 X52.325 Y93.656 E13.32185
G1 X53.988 Y91.993 E13.38577
G1 X53.653 Y91.993 E13.39487
G1 X52.058 Y93.588 E13.45617
G1 X51.979 Y93.568 E13.45839
G1 X51.745 Y93.566 E13.46476
G1 X53.319 Y91.993 E13.52523
G1 X52.984 Y91.993 E13.53434
G1 X51.379 Y93.598 E13.59602
G1 X51.288 Y93.614 E13.59851
G1 X50.840 Y93.802 E13.61171
G1 X52.649 Y91.993 E13.68122
G1 X52.314 Y91.993 E13.69032
G1 X49.688 Y94.619 E13.79124
G1 X49.681 Y94.291 E13.80016
G1 X51.979 Y91.993 E13.88847
G1 X51.644 Y91.993 E13.89757
G1 X49.674 Y93.962 E13.97326
G1 X49.668 Y93.634 E13.98218
G1 X51.309 Y91.993 E14.04525
G1 X50.974 Y91.993 E14.05435
G1 X49.661 Y93.306 E14.10482
G1 X49.654 Y92.978 E14.11374
G1 X50.639 Y91.993 E14.15159
G1 X50.304 Y91.993 E14.16069
G1 X49.648 Y92.649 E14.18592
G1 X49.641 Y92.321 E14.19484
G1 X49.970 Y91.993 E14.20746
G1 X49.635 Y91.993 E14.21657
G1 X49.688 Y94.619 F6000.000
G1 F1080
G1 X49.694 Y94.947 E14.22549
G1 X50.184 Y94.457 E14.24432
G1 X50.022 Y94.801 E14.25464
G1 X49.969 Y95.007 E14.26043
G1 X49.704 Y95.272 E14.27063
G1 X49.715 Y95.596 E14.27943
G1 X49.939 Y95.372 E14.28803
G1 X49.932 Y95.489 E14.29121
G1 X49.968 Y95.679 E14.29645
G1 X49.726 Y95.920 E14.30572
G1 X49.737 Y96.244 E14.31452
G1 X50.025 Y95.956 E14.32559
G1 X50.133 Y96.183 E14.33243
G1 X49.749 Y96.567 E14.34719
G1 X49.760 Y96.891 E14.35600
G1 X50.251 Y96.400 E14.37488
G1 X50.403 Y96.583 E14.38134
G1 X49.771 Y97.215 E14.40563
G1 X49.782 Y97.539 E14.41444
G1 X50.567 Y96.753 E14.44461
G1 X50.759 Y96.896 E14.45112
G1 X49.793 Y97.863 E14.48826
G1 X49.804 Y98.186 E14.49706
G1 X50.976 Y97.014 E14.54210
G1 X51.217 Y97.108 E14.54912
G1 X49.815 Y98.510 E14.60299
G1 X49.826 Y98.834 E14.61179
G1 X51.489 Y97.171 E14.67568
G1 X51.812 Y97.183 E14.68447
G1 X49.838 Y99.158 E14.76034
G1 X49.851 Y99.479 E14.76909
G1 X52.194 Y97.136 E14.85914
G1 X52.617 Y96.976 E14.87143
G1 X52.815 Y96.850 E14.87780
G1 X49.865 Y99.800 E14.99115
G1 E14.49115 F1200.00000
G92 E0
G1 X54.493 Y91.757 F6000.000
G1 E0.52000 F1200.00000
G1 F1080
G1 X54.471 Y91.444 E0.52854
G1 X54.158 Y91.757 E0.54059
G1 X53.822 Y91.757 E0.54972
