; generated by Slic3r 1.3.0 on 2020-07-23 at 21:54:44

; external perimeters extrusion width = 0.44mm (2.86mm^3/s)
; perimeters extrusion width = 0.56mm (4.14mm^3/s)
; infill extrusion width = 0.50mm (5.48mm^3/s)
; solid infill extrusion width = 0.56mm (3.10mm^3/s)
; top infill extrusion width = 0.45mm (2.44mm^3/s)

M107
;D3D:START:START
T0
M104 S215 T0

G21
G90
M107
T0
G28
G29
M109 T0 S215 T0
G0 F3000
M107
T0
G92 E0
G0 X0 Y149 Z0.1 F3600
G1 Y49 E6.5 F1200
G0 Z1
G92 E0
; Filament gcode

G21 ; set units to millimeters
G90 ; use absolute coordinates
M82 ; use absolute distances for extrusion
G92 E0
G1 Z0.300 F6000.000
G1 E-2.00000 F1200.00000
G92 E0
G1 X47.858 Y46.339 F6000.000
G1 E2.00000 F1200.00000
G1 F1800
G1 X49.286 Y45.019 E2.08413
G1 X50.750 Y44.443 E2.15226
G1 X54.195 Y43.720 E2.30461
G1 X55.240 Y43.574 E2.35028
G1 X56.440 Y43.488 E2.40239
G1 X102.720 Y42.829 E4.40591
G1 X104.628 Y43.198 E4.49003
G1 X106.231 Y44.297 E4.57416
G1 X107.263 Y45.944 E4.65828
G1 X107.559 Y47.600 E4.73109
G1 X107.559 Y72.600 E5.81327
G1 X107.461 Y73.562 E5.85513
G1 X103.063 Y94.923 E6.79917
G1 X102.292 Y96.707 E6.88330
G1 X100.873 Y98.035 E6.96742
G1 X99.360 Y98.632 E7.03783
G1 X62.541 Y106.268 E8.66554
G1 X56.359 Y107.126 E8.93571
G1 X55.702 Y107.171 E8.96418
G1 X54.599 Y107.171 E9.01196
G1 X53.607 Y107.067 E9.05513
G1 X52.527 Y106.838 E9.10292
G1 X51.579 Y106.529 E9.14609
G1 X50.570 Y106.081 E9.19387
G1 X49.706 Y105.582 E9.23707
G1 X48.813 Y104.933 E9.28485
G1 X48.072 Y104.265 E9.32801
G1 X47.163 Y103.245 E9.38718
G1 X43.954 Y99.260 E9.60863
G1 X43.069 Y97.530 E9.69276
G1 X42.900 Y96.352 E9.74426
G1 X42.442 Y70.508 E10.86318
G1 X42.545 Y69.431 E10.90999
G1 X47.076 Y48.117 E11.85320
G1 X47.834 Y46.394 E11.93473
G1 X48.218 Y46.500 F6000.000
G1 F1800
G1 X49.619 Y45.272 E12.01534
G1 X50.830 Y44.820 E12.07132
G1 X54.263 Y44.100 E12.22316
G1 X55.284 Y43.957 E12.26777
G1 X56.448 Y43.874 E12.31831
G1 X102.726 Y43.215 E14.32171
G1 X104.551 Y43.584 E14.40233
G1 X106.058 Y44.678 E14.48295
G1 X106.976 Y46.299 E14.56356
G1 X107.173 Y47.600 E14.62053
G1 X107.173 Y72.600 E15.70270
G1 X107.083 Y73.484 E15.74118
G1 X102.685 Y94.845 E16.68522
G1 X101.931 Y96.548 E16.76584
G1 X100.538 Y97.784 E16.84646
G1 X99.282 Y98.255 E16.90454
G1 X62.488 Y105.886 E18.53113
G1 X56.306 Y106.744 E18.80130
G1 X55.702 Y106.786 E18.82747
G1 X54.599 Y106.786 E18.87525
G1 X53.687 Y106.690 E18.91494
G1 X52.607 Y106.460 E18.96272
G1 X51.735 Y106.177 E19.00240
G1 X50.727 Y105.728 E19.05018
G1 X49.933 Y105.270 E19.08989
G1 X49.040 Y104.621 E19.13767
G1 X48.358 Y104.007 E19.17734
G1 X47.463 Y103.003 E19.23559
G1 X44.254 Y99.018 E19.45705
G1 X43.421 Y97.353 E19.53766
G1 X43.285 Y96.345 E19.58166
G1 X42.827 Y70.501 E20.70058
G1 X42.922 Y69.511 E20.74361
G1 X47.453 Y48.198 E21.68682
G1 X48.193 Y46.554 E21.76484
G1 E19.76484 F1200.00000
G92 E0
G1 X57.745 Y96.876 F6000.000
G1 E2.00000 F1200.00000
G1 F1800
G1 X57.702 Y97.691 E2.03533
G1 X57.410 Y98.453 E2.07066
G1 X56.896 Y99.088 E2.10599
G1 X56.212 Y99.532 E2.14132
G1 X55.423 Y99.743 E2.17665
G1 X54.608 Y99.701 E2.21198
G1 X53.846 Y99.408 E2.24731
G1 X53.212 Y98.895 E2.28264
G1 X52.767 Y98.210 E2.31797
G1 X52.556 Y97.422 E2.35329
G1 X52.599 Y96.607 E2.38862
G1 X52.891 Y95.845 E2.42396
G1 X53.405 Y95.210 E2.45929
G1 X54.090 Y94.766 E2.49461
G1 X54.837 Y94.566 E2.52811
G1 X55.684 Y94.594 E2.56479
G1 X56.455 Y94.890 E2.60054
G1 X57.089 Y95.404 E2.63587
G1 X57.534 Y96.088 E2.67120
G1 X57.729 Y96.818 E2.70393
G1 X57.357 Y96.917 F6000.000
G1 F1800
G1 X57.320 Y97.610 E2.73397
G1 X57.072 Y98.258 E2.76401
G1 X56.635 Y98.798 E2.79405
G1 X56.053 Y99.176 E2.82410
G1 X55.382 Y99.355 E2.85414
G1 X54.689 Y99.319 E2.88418
G1 X54.041 Y99.070 E2.91422
G1 X53.502 Y98.633 E2.94426
G1 X53.124 Y98.051 E2.97431
G1 X52.944 Y97.381 E3.00435
G1 X52.981 Y96.688 E3.03439
G1 X53.230 Y96.040 E3.06443
G1 X53.666 Y95.501 E3.09448
G1 X54.248 Y95.123 E3.12451
G1 X54.881 Y94.953 E3.15289
G1 X55.606 Y94.977 E3.18428
G1 X56.260 Y95.228 E3.21458
G1 X56.799 Y95.665 E3.24462
G1 X57.177 Y96.247 E3.27466
G1 X57.341 Y96.859 E3.30211
G1 X56.968 Y96.958 F6000.000
G1 F1800
G1 X56.938 Y97.529 E3.32686
G1 X56.733 Y98.063 E3.35161
G1 X56.374 Y98.507 E3.37637
G1 X55.894 Y98.819 E3.40112
G1 X55.342 Y98.967 E3.42588
G1 X54.771 Y98.937 E3.45063
G1 X54.237 Y98.732 E3.47538
G1 X53.792 Y98.372 E3.50014
G1 X53.481 Y97.892 E3.52490
G1 X53.333 Y97.340 E3.54965
G1 X53.363 Y96.769 E3.57440
G1 X53.568 Y96.235 E3.59916
G1 X53.928 Y95.791 E3.62391
G1 X54.407 Y95.479 E3.64866
G1 X54.926 Y95.340 E3.67191
G1 X55.529 Y95.360 E3.69801
G1 X56.064 Y95.566 E3.72286
G1 X56.509 Y95.926 E3.74762
G1 X56.820 Y96.406 E3.77237
G1 X56.953 Y96.900 E3.79453
G1 X57.334 Y97.121 F6000.000
G1 E1.79453 F1200.00000
G92 E0
G1 X57.315 Y90.842 F6000.000
G1 E2.00000 F1200.00000
G1 F1800
G1 X56.500 Y90.800 E2.03533
G1 X55.738 Y90.507 E2.07066
G1 X55.104 Y89.994 E2.10598
G1 X54.659 Y89.309 E2.14131
G1 X54.448 Y88.521 E2.17665
G1 X54.491 Y87.706 E2.21197
G1 X54.783 Y86.944 E2.24730
G1 X55.297 Y86.309 E2.28263
G1 X55.982 Y85.865 E2.31796
G1 X56.736 Y85.663 E2.35178
G1 X57.577 Y85.693 E2.38822
G1 X58.347 Y85.989 E2.42390
G1 X58.981 Y86.502 E2.45922
G1 X59.426 Y87.187 E2.49455
G1 X59.637 Y87.975 E2.52989
G1 X59.594 Y88.790 E2.56521
G1 X59.302 Y89.552 E2.60054
G1 X58.788 Y90.186 E2.63587
G1 X58.104 Y90.631 E2.67120
G1 X57.373 Y90.827 E2.70394
G1 X57.274 Y90.454 F6000.000
G1 F1800
G1 X56.581 Y90.418 E2.73398
G1 X55.933 Y90.169 E2.76402
G1 X55.394 Y89.732 E2.79406
G1 X55.016 Y89.150 E2.82410
G1 X54.836 Y88.480 E2.85414
G1 X54.873 Y87.787 E2.88419
G1 X55.122 Y87.139 E2.91423
G1 X55.558 Y86.600 E2.94426
G1 X56.140 Y86.221 E2.97431
G1 X56.780 Y86.050 E3.00298
G1 X57.499 Y86.076 E3.03413
G1 X58.152 Y86.327 E3.06438
G1 X58.691 Y86.764 E3.09442
G1 X59.069 Y87.346 E3.12446
G1 X59.249 Y88.016 E3.15451
G1 X59.212 Y88.709 E3.18455
G1 X58.964 Y89.357 E3.21459
G1 X58.527 Y89.896 E3.24463
G1 X57.945 Y90.274 E3.27467
G1 X57.332 Y90.438 E3.30212
G1 X57.234 Y90.066 F6000.000
G1 F1800
G1 X56.663 Y90.036 E3.32687
G1 X56.129 Y89.831 E3.35163
G1 X55.684 Y89.471 E3.37638
G1 X55.373 Y88.991 E3.40113
G1 X55.225 Y88.439 E3.42589
G1 X55.255 Y87.868 E3.45064
G1 X55.460 Y87.334 E3.47540
G1 X55.820 Y86.890 E3.50015
G1 X56.299 Y86.578 E3.52491
G1 X56.824 Y86.438 E3.54842
G1 X57.421 Y86.459 E3.57428
G1 X57.956 Y86.665 E3.59911
G1 X58.401 Y87.025 E3.62387
G1 X58.712 Y87.504 E3.64862
G1 X58.860 Y88.057 E3.67338
G1 X58.830 Y88.628 E3.69813
G1 X58.625 Y89.162 E3.72288
G1 X58.266 Y89.606 E3.74764
G1 X57.786 Y89.918 E3.77239
G1 X57.292 Y90.050 E3.79455
G1 X57.071 Y90.431 F6000.000
G1 E1.79455 F1200.00000
G92 E0
G1 X59.330 Y76.018 F6000.000
G1 E2.00000 F1200.00000
G1 F1800
G1 X59.330 Y76.787 E2.03328
G1 X59.468 Y76.792 E2.03926
G1 X60.239 Y77.088 E2.07501
G1 X60.873 Y77.601 E2.11034
G1 X61.318 Y78.286 E2.14568
G1 X61.529 Y79.074 E2.18100
G1 X61.486 Y79.889 E2.21633
G1 X61.194 Y80.651 E2.25166
G1 X60.680 Y81.285 E2.28699
G1 X59.996 Y81.730 E2.32232
G1 X59.207 Y81.941 E2.35765
G1 X58.392 Y81.898 E2.39298
G1 X57.630 Y81.606 E2.42831
G1 X56.996 Y81.092 E2.46364
G1 X56.551 Y80.408 E2.49897
G1 X56.340 Y79.619 E2.53430
G1 X56.383 Y78.804 E2.56963
G1 X56.675 Y78.043 E2.60495
G1 X57.189 Y77.408 E2.64029
G1 X59.279 Y76.051 E2.74817
G1 X58.944 Y76.728 F6000.000
G1 F1800
G1 X58.944 Y77.160 E2.76686
G1 X59.390 Y77.175 E2.78618
G1 X60.044 Y77.426 E2.81648
G1 X60.583 Y77.862 E2.84652
G1 X60.961 Y78.445 E2.87657
G1 X61.141 Y79.115 E2.90660
G1 X61.104 Y79.808 E2.93665
G1 X60.856 Y80.456 E2.96669
G1 X60.419 Y80.995 E2.99673
G1 X59.837 Y81.373 E3.02677
G1 X59.166 Y81.553 E3.05681
G1 X58.473 Y81.517 E3.08686
G1 X57.825 Y81.268 E3.11690
G1 X57.286 Y80.831 E3.14694
G1 X56.908 Y80.249 E3.17698
G1 X56.728 Y79.579 E3.20702
G1 X56.765 Y78.886 E3.23707
G1 X57.014 Y78.238 E3.26710
G1 X57.450 Y77.698 E3.29715
G1 X58.894 Y76.761 E3.37165
G1 X58.558 Y77.439 F6000.000
G1 F1800
G1 X58.558 Y77.579 E3.37771
G1 X58.710 Y77.538 E3.38450
G1 X59.313 Y77.558 E3.41060
G1 X59.848 Y77.764 E3.43545
G1 X60.293 Y78.124 E3.46020
G1 X60.604 Y78.603 E3.48496
G1 X60.752 Y79.156 E3.50971
G1 X60.722 Y79.727 E3.53447
G1 X60.517 Y80.261 E3.55922
G1 X60.158 Y80.705 E3.58398
G1 X59.678 Y81.017 E3.60873
G1 X59.126 Y81.165 E3.63348
G1 X58.555 Y81.135 E3.65824
G1 X58.021 Y80.930 E3.68299
G1 X57.576 Y80.570 E3.70775
G1 X57.265 Y80.090 E3.73250
G1 X57.117 Y79.538 E3.75726
G1 X57.147 Y78.967 E3.78201
G1 X57.352 Y78.433 E3.80676
G1 X57.712 Y77.988 E3.83152
G1 X58.508 Y77.471 E3.87263
G1 X58.695 Y77.407 F6000.000
G1 E1.87263 F1200.00000
G92 E0
G1 X52.968 Y76.136 F6000.000
G1 E2.00000 F1200.00000
G1 F1800
G1 X55.597 Y76.694 E2.11635
G1 X56.072 Y76.167 E2.14705
G1 X56.795 Y75.642 E2.18577
G1 X57.612 Y75.278 E2.22448
G1 X58.487 Y75.092 E2.26320
G1 X59.382 Y75.092 E2.30191
G1 X60.227 Y75.272 E2.33933
G1 X61.076 Y75.643 E2.37944
G1 X61.797 Y76.167 E2.41803
G1 X62.396 Y76.832 E2.45675
G1 X62.843 Y77.607 E2.49546
G1 X63.119 Y78.457 E2.53418
G1 X63.188 Y79.115 E2.56280
G1 X65.306 Y80.654 E2.67610
G1 X61.117 Y100.360 E3.54819
G1 X58.488 Y99.802 E3.66454
G1 X58.013 Y100.328 E3.69524
G1 X57.290 Y100.854 E3.73396
G1 X56.473 Y101.218 E3.77267
G1 X55.598 Y101.404 E3.81139
G1 X54.703 Y101.404 E3.85010
G1 X53.828 Y101.218 E3.88882
G1 X53.011 Y100.854 E3.92753
G1 X52.288 Y100.328 E3.96625
G1 X51.689 Y99.664 E4.00497
G1 X51.242 Y98.889 E4.04368
G1 X50.966 Y98.039 E4.08240
G1 X50.897 Y97.381 E4.11103
G1 X48.779 Y95.842 E4.22433
G1 X52.956 Y76.194 E5.09381
G1 X52.671 Y75.678 F6000.000
G1 F1800
G1 X55.460 Y76.271 E5.21722
G1 X55.812 Y75.879 E5.24003
G1 X56.602 Y75.306 E5.28226
G1 X57.493 Y74.909 E5.32448
G1 X58.447 Y74.706 E5.36671
G1 X59.422 Y74.706 E5.40893
G1 X60.346 Y74.903 E5.44981
G1 X61.269 Y75.307 E5.49343
G1 X62.057 Y75.879 E5.53558
G1 X62.709 Y76.604 E5.57780
G1 X63.197 Y77.449 E5.62003
G1 X63.499 Y78.377 E5.66225
G1 X63.554 Y78.904 E5.68520
G1 X65.735 Y80.489 E5.80191
G1 X61.414 Y100.817 E6.70153
G1 X58.625 Y100.225 E6.82494
G1 X58.273 Y100.617 E6.84775
G1 X57.484 Y101.190 E6.88997
G1 X56.592 Y101.587 E6.93220
G1 X55.638 Y101.790 E6.97442
G1 X54.663 Y101.790 E7.01665
G1 X53.709 Y101.587 E7.05887
G1 X52.818 Y101.190 E7.10110
G1 X52.028 Y100.617 E7.14332
G1 X51.376 Y99.892 E7.18555
G1 X50.888 Y99.047 E7.22777
G1 X50.587 Y98.119 E7.27000
G1 X50.531 Y97.592 E7.29295
G1 X48.350 Y96.007 E7.40966
G1 X52.659 Y75.737 E8.30667
G1 X52.374 Y75.221 F6000.000
G1 F1800
G1 X55.322 Y75.847 E8.43714
G1 X55.553 Y75.591 E8.45207
G1 X56.408 Y74.970 E8.49780
G1 X57.373 Y74.540 E8.54354
G1 X58.406 Y74.321 E8.58927
G1 X59.463 Y74.321 E8.63500
G1 X60.465 Y74.534 E8.67933
G1 X61.462 Y74.970 E8.72647
G1 X62.316 Y75.591 E8.77217
G1 X63.023 Y76.376 E8.81791
G1 X63.551 Y77.291 E8.86364
G1 X63.878 Y78.296 E8.90937
G1 X63.920 Y78.693 E8.92665
G1 X66.164 Y80.324 E9.04676
G1 X61.711 Y101.275 E9.97391
G1 X58.763 Y100.648 E10.10438
G1 X58.532 Y100.905 E10.11930
G1 X57.677 Y101.526 E10.16504
G1 X56.712 Y101.955 E10.21077
G1 X55.679 Y102.175 E10.25651
G1 X54.622 Y102.175 E10.30224
G1 X53.589 Y101.955 E10.34797
G1 X52.624 Y101.526 E10.39371
G1 X51.769 Y100.905 E10.43944
G1 X51.062 Y100.120 E10.48518
G1 X50.534 Y99.205 E10.53091
G1 X50.207 Y98.200 E10.57664
G1 X50.166 Y97.803 E10.59392
G1 X47.921 Y96.172 E10.71403
G1 X52.361 Y75.280 E11.63858
G1 X52.681 Y75.477 F6000.000
G1 X53.579 Y76.279 F6000.000
G1 F1800
G1 X52.951 Y76.907 E11.67739
G1 X52.803 Y77.607 E11.70869
G1 X54.033 Y76.376 E11.78483
G1 X54.488 Y76.473 E11.80517
G1 X52.654 Y78.307 E11.91863
G1 X52.505 Y79.007 E11.94994
G1 X54.942 Y76.569 E12.10074
G1 X55.397 Y76.666 E12.12107
G1 X52.356 Y79.707 E12.30919
G1 X52.208 Y80.406 E12.34050
G1 X55.852 Y76.762 E12.56595
G1 X56.048 Y76.804 E12.57475
G1 X56.645 Y76.142 E12.61374
G1 X57.303 Y75.664 E12.64932
G1 X57.660 Y75.505 E12.66645
G1 X52.059 Y81.106 E13.01302
G1 X51.910 Y81.806 E13.04432
G1 X58.474 Y75.242 E13.45044
G1 X58.841 Y75.164 E13.46687
G1 X59.103 Y75.164 E13.47833
G1 X57.246 Y77.021 E13.59323
G1 X56.599 Y77.668 F6000.000
G1 F1800
G1 X51.761 Y82.506 E13.89255
G1 X51.612 Y83.206 E13.92386
G1 X56.309 Y78.509 E14.21445
G1 X56.279 Y79.091 E14.23993
G1 X51.464 Y83.906 E14.53784
G1 X51.315 Y84.606 E14.56915
G1 X56.331 Y79.590 E14.87947
G1 X56.447 Y80.025 E14.89916
G1 X51.166 Y85.306 E15.22589
G1 X51.017 Y86.006 E15.25719
G1 X56.611 Y80.412 E15.60329
G1 X56.828 Y80.746 E15.62072
G1 X50.869 Y86.706 E15.98945
G1 X50.720 Y87.406 E16.02075
G1 X57.056 Y81.070 E16.41276
G1 X57.360 Y81.316 E16.42990
G1 X50.571 Y88.106 E16.84996
G1 X50.422 Y88.806 E16.88126
G1 X57.665 Y81.563 E17.32936
G1 X57.749 Y81.631 E17.33407
G1 X58.038 Y81.741 E17.34761
G1 X50.273 Y89.506 E17.82796
G1 X50.125 Y90.205 E17.85926
G1 X58.436 Y81.894 E18.37346
G1 X58.625 Y81.967 E18.38231
G1 X58.900 Y81.981 E18.39438
G1 X49.976 Y90.905 E18.94650
G1 X49.827 Y91.605 E18.97780
G1 X53.983 Y87.449 E19.23492
G1 X54.132 Y87.062 E19.25308
G1 X54.722 Y86.333 E19.29412
G1 X55.509 Y85.822 E19.33517
G1 X55.648 Y85.785 E19.34146
G1 X59.424 Y82.009 E19.57507
G1 X59.562 Y82.016 E19.58111
G1 X60.116 Y81.867 E19.60623
G1 X56.394 Y85.589 E19.83651
G1 X56.926 Y85.609 E19.85979
G1 X63.360 Y79.175 E20.25785
G1 X63.679 Y79.407 E20.27511
G1 X57.429 Y85.657 E20.66182
G1 X57.827 Y85.810 E20.68048
G1 X63.998 Y79.639 E21.06230
G1 X64.317 Y79.871 E21.07956
G1 X58.225 Y85.963 E21.45648
G1 X58.531 Y86.209 E21.47363
G1 X64.637 Y80.103 E21.85141
G1 X64.956 Y80.335 E21.86867
G1 X58.835 Y86.455 E22.24735
G1 X58.958 Y86.555 E22.25425
G1 X59.087 Y86.754 E22.26467
G1 X65.151 Y80.691 E22.63979
G1 X65.002 Y81.391 E22.67110
G1 X59.304 Y87.088 E23.02359
G1 X59.469 Y87.342 E23.03680
G1 X59.497 Y87.447 E23.04157
G1 X64.853 Y82.091 E23.37294
G1 X64.704 Y82.791 E23.40425
G1 X59.613 Y87.882 E23.71921
G1 X59.712 Y88.248 E23.73580
G1 X59.707 Y88.339 E23.73981
G1 X64.556 Y83.491 E24.03979
G1 X64.407 Y84.191 E24.07109
G1 X59.676 Y88.921 E24.36375
G1 X59.663 Y89.185 E24.37532
G1 X59.475 Y89.674 E24.39821
G1 X64.258 Y84.891 E24.69413
G1 X64.109 Y85.591 E24.72543
G1 X55.184 Y94.516 E25.27760
G1 X55.448 Y94.524 E25.28915
G1 X55.649 Y94.602 E25.29858
G1 X63.960 Y86.290 E25.81278
G1 X63.812 Y86.990 E25.84408
G1 X56.048 Y94.754 E26.32444
G1 X56.336 Y94.865 E26.33797
G1 X56.420 Y94.933 E26.34268
G1 X63.663 Y87.690 E26.79078
G1 X63.514 Y88.390 E26.82208
G1 X56.725 Y95.180 E27.24214
G1 X57.029 Y95.426 E27.25928
G1 X63.365 Y89.090 E27.65129
G1 X63.217 Y89.790 E27.68259
G1 X57.257 Y95.750 E28.05132
G1 X57.474 Y96.084 E28.06875
G1 X63.068 Y90.490 E28.41485
G1 X62.919 Y91.190 E28.44615
G1 X57.638 Y96.471 E28.77288
G1 X57.754 Y96.906 E28.79257
G1 X62.770 Y91.890 E29.10289
G1 X62.621 Y92.590 E29.13420
G1 X57.806 Y97.405 E29.43211
G1 X57.776 Y97.987 E29.45759
G1 X62.473 Y93.290 E29.74818
G1 X62.324 Y93.990 E29.77948
G1 X57.486 Y98.828 E30.07881
G1 E28.07881 F1200.00000
G92 E0
G1 X60.506 Y100.216 F6000.000
G1 E2.00000 F1200.00000
G1 F1800
G1 X61.134 Y99.589 E2.03881
G1 X61.282 Y98.889 E2.07011
G1 X60.052 Y100.120 E2.14625
G1 X59.597 Y100.023 E2.16658
G1 X61.431 Y98.189 E2.28005
G1 X61.580 Y97.489 E2.31136
G1 X59.143 Y99.927 E2.46215
G1 X58.688 Y99.830 E2.48248
G1 X61.729 Y96.789 E2.67061
G1 X61.878 Y96.089 E2.70191
G1 X58.234 Y99.734 E2.92736
G1 X58.037 Y99.692 E2.93617
G1 X57.440 Y100.354 E2.97515
G1 X56.782 Y100.832 E3.01074
G1 X56.425 Y100.991 E3.02786
G1 X62.026 Y95.390 E3.37443
G1 X62.175 Y94.690 E3.40573
G1 X55.611 Y101.254 E3.81185
G1 X55.244 Y101.332 E3.82828
G1 X54.982 Y101.332 E3.83974
G1 X56.839 Y99.475 E3.95464
G1 X56.684 Y99.575 E3.96273
G1 X56.005 Y99.757 E3.99347
G1 X54.430 Y101.332 E4.09090
G1 X53.976 Y101.235 E4.11122
G1 X55.412 Y99.799 E4.20008
G1 X54.889 Y99.772 E4.22302
G1 X53.540 Y101.120 E4.30648
G1 X53.158 Y100.951 E4.32474
G1 X54.479 Y99.630 E4.40644
G1 X54.081 Y99.477 E4.42510
G1 X52.796 Y100.762 E4.50460
G1 X52.476 Y100.530 E4.52186
G1 X53.749 Y99.258 E4.60057
G1 X53.444 Y99.011 E4.61772
G1 X52.171 Y100.284 E4.69648
G1 X51.910 Y99.994 E4.71355
G1 X53.167 Y98.737 E4.79133
G1 X52.950 Y98.403 E4.80876
G1 X51.658 Y99.695 E4.88869
G1 X51.456 Y99.346 E4.90635
G1 X52.733 Y98.069 E4.98534
G1 X52.613 Y97.638 E5.00490
