; generated by Slic3r 1.3.0 on 2021-03-05 at 23:02:55

; external perimeters extrusion width = 0.44mm (2.86mm^3/s)
; perimeters extrusion width = 0.56mm (4.14mm^3/s)
; infill extrusion width = 0.50mm (5.48mm^3/s)
; solid infill extrusion width = 0.56mm (3.10mm^3/s)
; top infill extrusion width = 0.45mm (2.44mm^3/s)

M107
;D3D:START:START
T0
M104 S215 T0

G21
G90
M107
T0
G28
G29
M109 T0 S215 T0
G0 F3000
M107
T0
G92 E0
G0 X0 Y149 Z0.1 F3600
G1 Y49 E6.5 F1200
G0 Z1
G92 E0
; Filament gcode

G21 ; set units to millimeters
G90 ; use absolute coordinates
M82 ; use absolute distances for extrusion
G92 E0
G1 Z0.200 F6000.000
G1 E-2.00000 F1200.00000
G92 E0
G1 X21.998 Y14.052 F6000.000
G1 E2.00000 F1200.00000
G1 F1800
G1 X22.791 Y12.847 E2.02775
G1 X36.378 Y-1.954 E2.41429
G1 X37.050 Y-2.553 E2.43162
G1 X37.938 Y-3.199 E2.45273
G1 X38.756 Y-3.670 E2.47089
G1 X39.758 Y-4.117 E2.49201
G1 X40.656 Y-4.408 E2.51016
G1 X41.729 Y-4.637 E2.53128
G1 X42.668 Y-4.735 E2.54943
G1 X101.883 Y-4.735 E3.68866
G1 X103.731 Y-4.340 E3.72502
G1 X105.255 Y-3.222 E3.76138
G1 X106.241 Y-1.401 E3.80121
G1 X128.241 Y79.842 E5.42051
G1 X128.398 Y81.022 E5.44341
G1 X128.398 Y150.221 E6.77471
G1 X128.002 Y152.069 E6.81107
G1 X126.885 Y153.593 E6.84742
G1 X125.241 Y154.526 E6.88378
G1 X123.883 Y154.735 E6.91021
G1 X64.668 Y154.735 E8.04944
G1 X63.730 Y154.637 E8.06758
G1 X62.656 Y154.409 E8.08870
G1 X61.758 Y154.117 E8.10687
G1 X60.755 Y153.671 E8.12798
G1 X59.938 Y153.199 E8.14614
G1 X59.050 Y152.554 E8.16725
G1 X58.378 Y151.954 E8.18458
G1 X44.791 Y137.153 E8.57112
G1 X43.771 Y135.323 E8.61143
G1 X21.871 Y57.473 E10.16730
G1 X21.702 Y56.270 E10.19065
G1 X21.602 Y34.120 E10.61679
G1 X21.602 Y15.900 E10.96732
G1 X21.985 Y14.111 E11.00253
G1 X22.255 Y14.109 F6000.000
G1 F1800
G1 X22.980 Y13.021 E11.02767
G1 X36.567 Y-1.780 E11.41422
G1 X37.201 Y-2.345 E11.43056
G1 X38.089 Y-2.991 E11.45167
G1 X38.860 Y-3.436 E11.46880
G1 X39.863 Y-3.882 E11.48991
G1 X40.709 Y-4.157 E11.50703
G1 X41.783 Y-4.385 E11.52815
G1 X42.668 Y-4.478 E11.54527
G1 X101.883 Y-4.478 E12.68450
G1 X103.675 Y-4.083 E12.71979
G1 X105.134 Y-2.970 E12.75509
G1 X105.993 Y-1.334 E12.79065
G1 X127.993 Y79.909 E14.40995
G1 X128.141 Y81.022 E14.43154
G1 X128.141 Y150.221 E15.76284
G1 X127.745 Y152.013 E15.79813
G1 X126.633 Y153.471 E15.83343
G1 X125.010 Y154.326 E15.86872
G1 X123.883 Y154.478 E15.89058
G1 X64.668 Y154.478 E17.02981
G1 X63.783 Y154.385 E17.04692
G1 X62.710 Y154.157 E17.06804
G1 X61.863 Y153.882 E17.08517
G1 X60.860 Y153.436 E17.10629
G1 X60.089 Y152.991 E17.12341
G1 X59.201 Y152.346 E17.14452
G1 X58.568 Y151.780 E17.16086
G1 X44.980 Y136.979 E17.54741
G1 X44.018 Y135.253 E17.58542
G1 X22.118 Y57.403 E19.14128
G1 X21.959 Y56.269 E19.16331
G1 X21.859 Y34.119 E19.58945
G1 X21.859 Y15.900 E19.93996
G1 X22.242 Y14.167 E19.97410
G1 E17.97410 F1200.00000
G92 E0
G1 X65.110 Y142.736 F6000.000
G1 E2.00000 F1200.00000
G1 F1800
G1 X65.627 Y142.770 E2.00998
G1 X65.994 Y142.871 E2.01730
G1 X66.422 Y143.080 E2.02647
G1 X66.724 Y143.306 E2.03372
G1 X67.044 Y143.659 E2.04289
G1 X67.233 Y143.967 E2.04983
G1 X67.348 Y144.233 E2.05540
G1 X67.432 Y144.521 E2.06118
G1 X67.484 Y144.990 E2.07025
G1 X67.455 Y145.349 E2.07719
G1 X67.392 Y145.632 E2.08277
G1 X67.290 Y145.915 E2.08855
G1 X67.057 Y146.324 E2.09761
G1 X66.812 Y146.611 E2.10486
G1 X66.440 Y146.909 E2.11403
G1 X66.107 Y147.085 E2.12128
G1 X65.652 Y147.225 E2.13045
G1 X65.277 Y147.266 E2.13769
G1 X64.802 Y147.229 E2.14687
G1 X64.439 Y147.130 E2.15412
G1 X64.015 Y146.922 E2.16318
G1 X63.773 Y146.746 E2.16896
G1 X63.561 Y146.547 E2.17453
G1 X63.336 Y146.266 E2.18148
G1 X63.113 Y145.844 E2.19065
G1 X63.002 Y145.484 E2.19789
G1 X62.949 Y145.011 E2.20707
G1 X62.979 Y144.635 E2.21431
G1 X63.105 Y144.175 E2.22348
G1 X63.270 Y143.837 E2.23073
G1 X63.557 Y143.456 E2.23990
G1 X63.835 Y143.202 E2.24714
G1 X64.242 Y142.953 E2.25631
G1 X64.598 Y142.819 E2.26363
G1 X65.050 Y142.745 E2.27246
G1 X65.122 Y142.994 F6000.000
G1 F1800
G1 X65.584 Y143.025 E2.28138
G1 X65.903 Y143.112 E2.28774
G1 X66.287 Y143.301 E2.29597
G1 X66.550 Y143.497 E2.30228
G1 X66.838 Y143.814 E2.31052
G1 X67.004 Y144.086 E2.31664
G1 X67.106 Y144.320 E2.32155
G1 X67.179 Y144.571 E2.32659
G1 X67.225 Y144.994 E2.33477
G1 X67.200 Y145.311 E2.34089
G1 X67.145 Y145.560 E2.34581
G1 X67.056 Y145.807 E2.35084
G1 X66.845 Y146.176 E2.35901
G1 X66.632 Y146.425 E2.36533
G1 X66.298 Y146.693 E2.37356
G1 X66.008 Y146.846 E2.37987
G1 X65.599 Y146.972 E2.38811
G1 X65.273 Y147.008 E2.39442
G1 X64.846 Y146.975 E2.40266
G1 X64.530 Y146.888 E2.40897
G1 X64.148 Y146.701 E2.41714
G1 X63.937 Y146.547 E2.42218
G1 X63.750 Y146.372 E2.42709
G1 X63.551 Y146.124 E2.43322
G1 X63.351 Y145.746 E2.44145
G1 X63.255 Y145.432 E2.44776
G1 X63.208 Y145.006 E2.45600
G1 X63.233 Y144.679 E2.46231
G1 X63.346 Y144.267 E2.47055
G1 X63.491 Y143.972 E2.47686
G1 X63.748 Y143.630 E2.48509
G1 X63.990 Y143.409 E2.49140
G1 X64.355 Y143.185 E2.49964
G1 X64.664 Y143.068 E2.50600
G1 X65.063 Y143.004 E2.51376
G1 X65.134 Y143.252 F6000.000
G1 F1800
G1 X65.541 Y143.280 E2.52161
G1 X65.812 Y143.354 E2.52701
G1 X66.153 Y143.521 E2.53431
G1 X66.376 Y143.688 E2.53968
G1 X66.631 Y143.969 E2.54698
G1 X66.776 Y144.204 E2.55229
G1 X66.863 Y144.407 E2.55654
G1 X66.926 Y144.622 E2.56084
G1 X66.967 Y144.998 E2.56812
G1 X66.946 Y145.273 E2.57343
G1 X66.897 Y145.488 E2.57768
G1 X66.822 Y145.699 E2.58197
G1 X66.634 Y146.027 E2.58925
G1 X66.453 Y146.240 E2.59463
G1 X66.156 Y146.477 E2.60193
G1 X65.910 Y146.608 E2.60731
G1 X65.547 Y146.719 E2.61461
G1 X65.269 Y146.750 E2.61998
G1 X64.891 Y146.720 E2.62728
G1 X64.621 Y146.646 E2.63266
G1 X64.282 Y146.480 E2.63994
G1 X64.101 Y146.349 E2.64423
G1 X63.940 Y146.197 E2.64849
G1 X63.767 Y145.982 E2.65380
G1 X63.590 Y145.647 E2.66109
G1 X63.507 Y145.380 E2.66647
G1 X63.466 Y145.002 E2.67377
G1 X63.488 Y144.724 E2.67915
G1 X63.588 Y144.358 E2.68645
G1 X63.711 Y144.107 E2.69183
G1 X63.939 Y143.803 E2.69913
G1 X64.145 Y143.615 E2.70450
G1 X64.469 Y143.417 E2.71180
G1 X64.731 Y143.318 E2.71719
G1 X65.075 Y143.262 E2.72390
G1 X65.321 Y142.899 F6000.000
G1 E0.72390 F1200.00000
G92 E0
G1 X59.936 Y139.318 F6000.000
G1 E2.00000 F1200.00000
G1 F1800
G1 X59.747 Y139.531 E2.00547
G1 X59.534 Y139.719 E2.01095
G1 X59.299 Y139.879 E2.01642
G1 X59.045 Y140.008 E2.02189
G1 X58.777 Y140.105 E2.02737
G1 X58.500 Y140.167 E2.03284
G1 X58.217 Y140.193 E2.03831
G1 X57.932 Y140.184 E2.04378
G1 X57.651 Y140.140 E2.04926
G1 X57.378 Y140.061 E2.05473
G1 X57.117 Y139.948 E2.06021
G1 X56.872 Y139.803 E2.06568
G1 X56.647 Y139.628 E2.07116
G1 X56.446 Y139.427 E2.07663
G1 X56.272 Y139.203 E2.08210
G1 X56.127 Y138.957 E2.08757
G1 X56.014 Y138.696 E2.09305
G1 X55.935 Y138.423 E2.09852
G1 X55.890 Y138.142 E2.10399
G1 X55.881 Y137.858 E2.10947
G1 X55.908 Y137.574 E2.11494
G1 X55.974 Y137.277 E2.12080
G1 X56.174 Y136.812 E2.13055
G1 X56.364 Y136.526 E2.13715
G1 X56.724 Y136.165 E2.14696
G1 X56.989 Y135.980 E2.15317
G1 X57.246 Y135.850 E2.15871
G1 X57.532 Y135.747 E2.16457
G1 X58.032 Y135.666 E2.17432
G1 X58.356 Y135.673 E2.18053
G1 X58.640 Y135.718 E2.18607
G1 X58.913 Y135.797 E2.19154
G1 X59.174 Y135.910 E2.19701
G1 X59.419 Y136.055 E2.20249
G1 X59.644 Y136.230 E2.20796
G1 X59.845 Y136.431 E2.21343
G1 X60.019 Y136.656 E2.21891
G1 X60.164 Y136.901 E2.22438
G1 X60.277 Y137.162 E2.22985
G1 X60.356 Y137.435 E2.23533
G1 X60.401 Y137.716 E2.24080
G1 X60.410 Y138.000 E2.24628
G1 X60.383 Y138.283 E2.25175
G1 X60.321 Y138.561 E2.25722
G1 X60.225 Y138.829 E2.26270
G1 X60.095 Y139.082 E2.26817
G1 X59.969 Y139.268 E2.27249
G1 X59.732 Y139.160 F6000.000
G1 F1800
G1 X59.565 Y139.349 E2.27734
G1 X59.376 Y139.516 E2.28219
G1 X59.167 Y139.657 E2.28704
G1 X58.943 Y139.772 E2.29189
G1 X58.706 Y139.857 E2.29674
G1 X58.459 Y139.912 E2.30159
G1 X58.209 Y139.936 E2.30644
G1 X57.957 Y139.928 E2.31129
G1 X57.707 Y139.889 E2.31615
G1 X57.465 Y139.818 E2.32100
G1 X57.234 Y139.718 E2.32585
G1 X57.017 Y139.590 E2.33070
G1 X56.817 Y139.435 E2.33555
G1 X56.639 Y139.257 E2.34040
G1 X56.485 Y139.058 E2.34525
G1 X56.356 Y138.841 E2.35010
G1 X56.256 Y138.609 E2.35496
G1 X56.186 Y138.367 E2.35980
G1 X56.146 Y138.118 E2.36466
G1 X56.139 Y137.866 E2.36951
G1 X56.162 Y137.615 E2.37436
G1 X56.220 Y137.357 E2.37945
G1 X56.401 Y136.935 E2.38828
G1 X56.564 Y136.690 E2.39395
G1 X56.890 Y136.363 E2.40282
G1 X57.122 Y136.202 E2.40825
G1 X57.348 Y136.086 E2.41314
G1 X57.597 Y135.997 E2.41823
G1 X58.050 Y135.924 E2.42707
G1 X58.332 Y135.930 E2.43250
G1 X58.584 Y135.970 E2.43739
G1 X58.826 Y136.040 E2.44224
G1 X59.057 Y136.140 E2.44709
G1 X59.274 Y136.268 E2.45194
G1 X59.473 Y136.423 E2.45679
G1 X59.652 Y136.601 E2.46164
G1 X59.806 Y136.800 E2.46649
G1 X59.934 Y137.018 E2.47134
G1 X60.035 Y137.249 E2.47619
G1 X60.105 Y137.491 E2.48105
G1 X60.144 Y137.740 E2.48590
G1 X60.152 Y137.992 E2.49075
G1 X60.129 Y138.243 E2.49560
G1 X60.074 Y138.489 E2.50045
G1 X59.988 Y138.727 E2.50530
G1 X59.874 Y138.951 E2.51015
G1 X59.766 Y139.110 E2.51385
G1 X59.528 Y139.002 F6000.000
G1 F1800
G1 X59.383 Y139.167 E2.51808
G1 X59.218 Y139.312 E2.52231
G1 X59.036 Y139.436 E2.52653
G1 X58.841 Y139.535 E2.53076
G1 X58.634 Y139.610 E2.53499
G1 X58.419 Y139.658 E2.53922
G1 X58.200 Y139.678 E2.54345
G1 X57.981 Y139.672 E2.54768
G1 X57.764 Y139.637 E2.55191
G1 X57.553 Y139.576 E2.55613
G1 X57.351 Y139.489 E2.56036
G1 X57.162 Y139.377 E2.56459
G1 X56.988 Y139.242 E2.56882
G1 X56.833 Y139.086 E2.57305
G1 X56.698 Y138.913 E2.57728
G1 X56.586 Y138.724 E2.58151
G1 X56.499 Y138.522 E2.58574
G1 X56.437 Y138.311 E2.58996
G1 X56.403 Y138.094 E2.59419
G1 X56.396 Y137.874 E2.59842
G1 X56.417 Y137.655 E2.60265
G1 X56.466 Y137.436 E2.60697
G1 X56.628 Y137.058 E2.61489
G1 X56.764 Y136.853 E2.61962
G1 X57.056 Y136.560 E2.62756
G1 X57.254 Y136.423 E2.63221
G1 X57.450 Y136.323 E2.63645
G1 X57.661 Y136.247 E2.64077
G1 X58.068 Y136.181 E2.64869
G1 X58.309 Y136.186 E2.65334
G1 X58.527 Y136.221 E2.65758
G1 X58.738 Y136.282 E2.66181
G1 X58.940 Y136.369 E2.66604
G1 X59.129 Y136.481 E2.67027
G1 X59.303 Y136.616 E2.67449
G1 X59.458 Y136.771 E2.67872
G1 X59.593 Y136.945 E2.68295
G1 X59.705 Y137.134 E2.68718
G1 X59.792 Y137.336 E2.69141
G1 X59.854 Y137.547 E2.69564
G1 X59.888 Y137.764 E2.69987
G1 X59.895 Y137.984 E2.70410
G1 X59.874 Y138.203 E2.70832
G1 X59.826 Y138.417 E2.71255
G1 X59.752 Y138.624 E2.71678
G1 X59.562 Y138.952 E2.72407
G1 X59.611 Y139.205 F6000.000
G1 E0.72407 F1200.00000
G92 E0
G1 X56.384 Y130.316 F6000.000
G1 E2.00000 F1200.00000
G1 F1800
G1 X56.161 Y130.009 E2.00731
G1 X56.063 Y129.709 E2.01337
G1 X56.063 Y129.291 E2.02142
G1 X56.161 Y128.991 E2.02748
G1 X56.407 Y128.653 E2.03553
G1 X56.661 Y128.468 E2.04158
G1 X57.059 Y128.339 E2.04963
G1 X81.374 Y128.339 E2.51742
G1 X81.772 Y128.468 E2.52546
G1 X82.026 Y128.653 E2.53152
G1 X82.294 Y129.021 E2.54026
G1 X82.395 Y129.500 E2.54969
G1 X82.294 Y129.980 E2.55912
G1 X82.049 Y130.316 E2.56712
G1 X69.946 Y141.411 E2.88300
G1 X69.581 Y141.621 E2.89111
G1 X69.093 Y141.673 E2.90054
G1 X68.661 Y141.532 E2.90928
G1 X68.461 Y141.387 E2.91404
G1 X56.428 Y130.357 E3.22808
G1 X56.392 Y129.110 F6000.000
G1 F1800
G1 X56.591 Y128.837 E3.23457
G1 X56.779 Y128.700 E3.23906
G1 X57.100 Y128.596 E3.24553
G1 X81.333 Y128.596 E3.71176
G1 X81.654 Y128.700 E3.71824
G1 X81.842 Y128.837 E3.72273
G1 X82.054 Y129.127 E3.72963
G1 X82.133 Y129.500 E3.73696
G1 X82.054 Y129.873 E3.74429
G1 X81.856 Y130.144 E3.75074
G1 X69.793 Y141.202 E4.06557
G1 X69.500 Y141.371 E4.07210
G1 X69.121 Y141.411 E4.07943
G1 X68.779 Y141.300 E4.08633
G1 X68.624 Y141.187 E4.09003
G1 X56.577 Y130.144 E4.40444
G1 X56.392 Y129.891 E4.41047
G1 X56.320 Y129.668 E4.41497
G1 X56.320 Y129.332 E4.42145
G1 X56.374 Y129.167 E4.42478
G1 X56.624 Y129.228 F6000.000
G1 F1800
G1 X56.775 Y129.021 E4.42970
G1 X56.898 Y128.932 E4.43262
G1 X57.140 Y128.853 E4.43754
G1 X81.293 Y128.853 E4.90219
G1 X81.535 Y128.932 E4.90710
G1 X81.658 Y129.021 E4.91003
G1 X81.813 Y129.234 E4.91510
G1 X81.870 Y129.500 E4.92033
G1 X81.813 Y129.766 E4.92555
G1 X81.664 Y129.972 E4.93046
G1 X69.640 Y140.993 E5.24425
G1 X69.418 Y141.121 E5.24917
G1 X69.148 Y141.150 E5.25440
G1 X68.898 Y141.068 E5.25947
G1 X68.787 Y140.988 E5.26210
G1 X56.769 Y129.972 E5.57574
G1 X56.624 Y129.772 E5.58049
G1 X56.577 Y129.628 E5.58342
G1 X56.577 Y129.372 E5.58833
G1 X56.606 Y129.285 E5.59010
G1 X56.482 Y129.015 F6000.000
G1 E3.59010 F1200.00000
G92 E0
G1 X54.661 Y126.746 F6000.000
G1 E2.00000 F1200.00000
G1 F1800
G1 X54.430 Y126.913 E2.00547
G1 X54.181 Y127.050 E2.01095
G1 X53.917 Y127.155 E2.01642
G1 X53.641 Y127.226 E2.02190
G1 X53.359 Y127.261 E2.02737
G1 X53.074 Y127.261 E2.03284
G1 X52.792 Y127.226 E2.03831
G1 X52.516 Y127.155 E2.04379
G1 X52.252 Y127.050 E2.04926
G1 X52.003 Y126.913 E2.05473
G1 X51.773 Y126.746 E2.06021
G1 X51.565 Y126.551 E2.06568
G1 X51.384 Y126.332 E2.07115
G1 X51.231 Y126.091 E2.07663
G1 X51.110 Y125.834 E2.08210
G1 X51.022 Y125.564 E2.08757
G1 X50.969 Y125.284 E2.09305
G1 X50.951 Y125.000 E2.09852
G1 X50.969 Y124.716 E2.10399
G1 X51.022 Y124.437 E2.10947
G1 X51.110 Y124.166 E2.11494
G1 X51.231 Y123.909 E2.12041
G1 X51.384 Y123.669 E2.12589
G1 X51.565 Y123.449 E2.13136
G1 X51.773 Y123.254 E2.13684
G1 X52.003 Y123.087 E2.14231
G1 X52.252 Y122.950 E2.14778
G1 X52.516 Y122.846 E2.15325
G1 X52.792 Y122.775 E2.15873
G1 X53.074 Y122.739 E2.16420
G1 X53.359 Y122.739 E2.16967
G1 X53.641 Y122.775 E2.17515
G1 X53.917 Y122.846 E2.18062
G1 X54.181 Y122.950 E2.18610
G1 X54.430 Y123.087 E2.19157
G1 X54.661 Y123.255 E2.19704
G1 X54.868 Y123.449 E2.20251
G1 X55.049 Y123.668 E2.20799
G1 X55.202 Y123.909 E2.21346
G1 X55.323 Y124.166 E2.21894
G1 X55.411 Y124.437 E2.22441
G1 X55.464 Y124.716 E2.22988
G1 X55.482 Y125.000 E2.23536
G1 X55.464 Y125.284 E2.24083
G1 X55.411 Y125.564 E2.24630
G1 X55.323 Y125.834 E2.25177
G1 X55.202 Y126.091 E2.25725
G1 X55.049 Y126.332 E2.26272
G1 X54.868 Y126.551 E2.26820
G1 X54.704 Y126.705 E2.27251
G1 X54.496 Y126.547 F6000.000
G1 F1800
G1 X54.292 Y126.695 E2.27737
G1 X54.071 Y126.817 E2.28222
G1 X53.837 Y126.910 E2.28707
G1 X53.593 Y126.972 E2.29192
G1 X53.343 Y127.004 E2.29677
G1 X53.090 Y127.004 E2.30162
G1 X52.840 Y126.972 E2.30647
G1 X52.596 Y126.910 E2.31132
G1 X52.362 Y126.817 E2.31617
G1 X52.141 Y126.695 E2.32102
G1 X51.937 Y126.547 E2.32587
G1 X51.753 Y126.375 E2.33073
G1 X51.592 Y126.180 E2.33558
G1 X51.457 Y125.967 E2.34043
G1 X51.350 Y125.739 E2.34528
G1 X51.272 Y125.499 E2.35013
G1 X51.224 Y125.252 E2.35498
G1 X51.209 Y125.000 E2.35983
G1 X51.224 Y124.748 E2.36468
G1 X51.272 Y124.501 E2.36954
G1 X51.350 Y124.261 E2.37439
G1 X51.457 Y124.033 E2.37924
G1 X51.592 Y123.820 E2.38409
G1 X51.753 Y123.626 E2.38894
G1 X51.937 Y123.453 E2.39379
G1 X52.141 Y123.305 E2.39864
G1 X52.362 Y123.183 E2.40349
G1 X52.596 Y123.091 E2.40834
G1 X52.840 Y123.028 E2.41320
G1 X53.090 Y122.996 E2.41805
G1 X53.343 Y122.996 E2.42290
G1 X53.593 Y123.028 E2.42775
G1 X53.837 Y123.091 E2.43260
G1 X54.071 Y123.183 E2.43745
G1 X54.292 Y123.305 E2.44230
G1 X54.496 Y123.453 E2.44715
G1 X54.680 Y123.626 E2.45200
G1 X54.841 Y123.820 E2.45685
G1 X54.976 Y124.033 E2.46171
G1 X55.083 Y124.261 E2.46656
G1 X55.161 Y124.501 E2.47141
G1 X55.209 Y124.748 E2.47626
G1 X55.224 Y125.000 E2.48111
G1 X55.209 Y125.252 E2.48596
G1 X55.161 Y125.499 E2.49081
G1 X55.083 Y125.739 E2.49566
G1 X54.976 Y125.967 E2.50051
G1 X54.841 Y126.180 E2.50537
G1 X54.680 Y126.375 E2.51022
G1 X54.540 Y126.506 E2.51391
G1 X54.332 Y126.349 F6000.000
G1 F1800
G1 X54.154 Y126.478 E2.51814
G1 X53.962 Y126.584 E2.52237
G1 X53.757 Y126.665 E2.52660
G1 X53.544 Y126.719 E2.53083
G1 X53.326 Y126.747 E2.53506
G1 X53.107 Y126.747 E2.53928
G1 X52.889 Y126.719 E2.54351
G1 X52.676 Y126.665 E2.54774
G1 X52.471 Y126.584 E2.55197
G1 X52.279 Y126.478 E2.55620
G1 X52.101 Y126.349 E2.56043
G1 X51.941 Y126.198 E2.56466
G1 X51.800 Y126.029 E2.56888
G1 X51.683 Y125.843 E2.57311
G1 X51.589 Y125.644 E2.57734
G1 X51.521 Y125.435 E2.58157
G1 X51.480 Y125.219 E2.58580
G1 X51.466 Y125.000 E2.59003
G1 X51.480 Y124.781 E2.59426
G1 X51.521 Y124.565 E2.59849
G1 X51.589 Y124.356 E2.60272
G1 X51.683 Y124.157 E2.60694
G1 X51.800 Y123.971 E2.61117
