; generated by Slic3r 1.3.0 on 2021-01-21 at 19:58:56

; external perimeters extrusion width = 0.44mm (2.86mm^3/s)
; perimeters extrusion width = 0.56mm (4.14mm^3/s)
; infill extrusion width = 0.50mm (3.66mm^3/s)
; solid infill extrusion width = 0.56mm (3.10mm^3/s)
; top infill extrusion width = 0.45mm (2.44mm^3/s)

M107
;D3D:START:START
T0
M104 S215 T0

G21
G90
M107
T0
G28
G29
M109 T0 S215 T0
G0 F3000
M107
T0
G92 E0
G0 X0 Y149 Z0.1 F3600
G1 Y49 E6.5 F1200
G0 Z1
G92 E0
; Filament gcode

G21 ; set units to millimeters
G90 ; use absolute coordinates
M82 ; use absolute distances for extrusion
G92 E0
G1 Z0.300 F6000.000
G1 E-2.00000 F1200.00000
G92 E0
G1 Z0.800 F6000.000
G1 X7.145 Y106.659 F6000.000
G1 Z0.300 F6000.000
G1 E2.00000 F1200.00000
G1 F1800
G1 X9.463 Y106.607 E2.10372
G1 X11.663 Y107.341 E2.20744
G1 X13.239 Y108.514 E2.29533
G1 X38.013 Y133.287 E3.86242
G1 X39.348 Y135.183 E3.96614
G1 X39.964 Y137.419 E4.06986
G1 X39.790 Y139.731 E4.17358
G1 X38.847 Y141.849 E4.27731
G1 X37.244 Y143.525 E4.38103
G1 X35.170 Y144.561 E4.48475
G1 X33.225 Y144.846 E4.57266
G1 X28.452 Y144.846 E4.78616
G1 X26.167 Y144.449 E4.88989
G1 X23.664 Y142.863 E5.02245
G1 X3.664 Y122.863 E6.28760
G1 X2.329 Y120.967 E6.39132
G1 X1.680 Y118.075 E6.52388
G1 X1.680 Y113.303 E6.73735
G1 X2.078 Y111.018 E6.84107
G1 X3.222 Y109.001 E6.94479
G1 X4.980 Y107.489 E7.04851
G1 X7.089 Y106.680 E7.14955
G1 X7.478 Y106.992 F6000.000
G1 F1800
G1 X9.728 Y107.046 E7.25025
G1 X11.820 Y107.878 E7.35095
G1 X12.967 Y108.787 E7.41640
G1 X37.740 Y133.560 E8.98348
G1 X39.027 Y135.407 E9.08418
G1 X39.592 Y137.587 E9.18488
G1 X39.366 Y139.826 E9.28559
G1 X38.376 Y141.849 E9.38629
G1 X36.746 Y143.402 E9.48699
G1 X34.679 Y144.293 E9.58769
G1 X33.225 Y144.461 E9.65316
G1 X28.452 Y144.461 E9.86666
G1 X26.236 Y144.064 E9.96736
G1 X23.936 Y142.590 E10.08951
G1 X3.936 Y122.590 E11.35466
G1 X2.650 Y120.743 E11.45536
G1 X2.066 Y118.075 E11.57751
G1 X2.066 Y113.303 E11.79098
G1 X2.463 Y111.087 E11.89168
G1 X3.604 Y109.146 E11.99238
G1 X5.348 Y107.722 E12.09308
G1 X7.421 Y107.011 E12.19110
G1 E10.19110 F1200.00000
G92 E0
G1 Z0.800 F6000.000
G1 X29.448 Y135.708 F6000.000
G1 Z0.300 F6000.000
G1 E2.00000 F1200.00000
G1 F1800
G1 X30.819 Y137.079 E2.08672
G1 X29.448 Y137.079 E2.14804
G1 X29.448 Y135.768 E2.20668
G1 X29.062 Y134.777 F6000.000
G1 F1800
G1 X31.750 Y137.464 E2.37670
G1 X29.062 Y137.464 E2.49692
G1 X29.062 Y134.837 E2.61445
G1 X28.677 Y133.846 F6000.000
G1 F1800
G1 X32.681 Y137.850 E2.86776
G1 X28.677 Y137.850 E3.04689
G1 X28.677 Y133.906 E3.22331
G1 X28.290 Y133.949 F6000.000
G1 E1.22331 F1200.00000
G92 E0
G1 Z0.800 F6000.000
G1 X10.819 Y117.079 F6000.000
G1 Z0.300 F6000.000
G1 E2.00000 F1200.00000
G1 F1800
G1 X9.448 Y117.079 E2.06132
G1 X9.448 Y115.708 E2.12265
G1 X10.776 Y117.036 E2.20669
G1 X11.750 Y117.464 F6000.000
G1 F1800
G1 X9.062 Y117.464 E2.32692
G1 X9.062 Y114.777 E2.44713
G1 X11.708 Y117.422 E2.61446
G1 X12.681 Y117.850 F6000.000
G1 F1800
G1 X8.677 Y117.850 E2.79360
G1 X8.677 Y113.846 E2.97270
G1 X12.639 Y117.808 E3.22333
G1 X12.295 Y117.746 F6000.000
G1 Z0.500 F6000.000
G1 E1.22333 F1200.00000
G92 E0
G1 Z1.000 F6000.000
G1 X29.646 Y133.119 F6000.000
G1 Z0.500 F6000.000
G1 E2.00000 F1200.00000

G1 F2400
G1 X34.533 Y133.119 E2.23746
G1 X38.296 Y136.881 E2.49598
G1 X32.313 Y136.881 E2.78669

G1 F2400
G1 X29.646 Y136.881 E2.89333
G1 X29.646 Y134.214 E2.99997

G1 F2400
G1 X29.646 Y133.179 E3.05025

G1 X29.129 Y132.602 F6000.000

G1 F2400
G1 X34.747 Y132.602 E3.32324
G1 X39.545 Y137.398 E3.65283
G1 X32.830 Y137.398 E3.97908

G1 F2400
G1 X29.129 Y137.398 E4.12709
G1 X29.129 Y133.697 E4.27507

G1 F2400
G1 X29.129 Y132.662 E4.32535

G1 X28.672 Y132.145 F6000.000

G1 F2400
G1 X34.937 Y132.145 E4.62976
G1 X40.649 Y137.855 E5.02218
G1 X33.288 Y137.855 E5.37984

G1 F2160
G1 X28.672 Y137.855 E5.52157
G1 X28.672 Y133.240 E5.66329

G1 F2400
G1 X28.672 Y132.205 E5.71357

G1 E3.71357 F1200.00000
G92 E0
G1 Z1.000 F6000.000
G1 X29.772 Y135.971 F6000.000
G1 Z0.500 F6000.000
G1 E2.00000 F1200.00000

G1 F2400
G1 X30.487 Y136.823 E2.06462
G1 X31.123 Y136.823 E2.10158
G1 X29.772 Y135.213 E2.22371
G1 X29.772 Y134.455 E2.26776
G1 X31.759 Y136.823 E2.44738
G1 X32.396 Y136.823 E2.48434
G1 X29.772 Y133.696 E2.72147
G1 X29.772 Y133.177 E2.75167
G1 X29.972 Y133.177 E2.76329
G1 X33.032 Y136.823 E3.03984
G1 X33.668 Y136.823 E3.07680
G1 X30.608 Y133.177 E3.35334
G1 X31.244 Y133.177 E3.39030
G1 X34.304 Y136.823 E3.66685
G1 X34.941 Y136.823 E3.70381
G1 X31.881 Y133.177 E3.98036
G1 X32.517 Y133.177 E4.01732
G1 X35.577 Y136.823 E4.29386
G1 X36.213 Y136.823 E4.33083
G1 X33.153 Y133.177 E4.60737
G1 X33.789 Y133.177 E4.64433
G1 X36.849 Y136.823 E4.92088

G1 X37.486 Y136.823 F6000.000

G1 F2400
G1 X36.771 Y135.971 E4.98549

G1 E2.98549 F1200.00000
G92 E0
G1 Z1.000 F6000.000
G1 X18.296 Y116.881 F6000.000
G1 Z0.500 F6000.000
G1 E2.00000 F1200.00000

G1 F2400
G1 X12.313 Y116.881 E2.29071

G1 F2400
G1 X9.646 Y116.881 E2.39735
G1 X9.646 Y114.214 E2.50399

G1 F2400
G1 X9.646 Y113.119 E2.55718
G1 X14.533 Y113.119 E2.79466
G1 X18.254 Y116.838 E3.05026

G1 X19.545 Y117.398 F6000.000

G1 F2400
G1 X12.830 Y117.398 E3.37650

G1 F2400
G1 X9.129 Y117.398 E3.52451
G1 X9.129 Y113.697 E3.67250

G1 F2400
G1 X9.129 Y112.602 E3.72569
G1 X14.748 Y112.602 E3.99869
G1 X19.502 Y117.356 E4.32537

G1 X20.649 Y117.855 F6000.000

G1 F2400
G1 X13.288 Y117.855 E4.68303

G1 F2160
G1 X8.672 Y117.855 E4.82477
G1 X8.672 Y113.240 E4.96648

G1 F2400
G1 X8.672 Y112.145 E5.01968
G1 X14.937 Y112.145 E5.32409
G1 X20.606 Y117.813 E5.71359

G1 E3.71359 F1200.00000
G92 E0
G1 Z1.000 F6000.000
G1 X17.486 Y116.823 F6000.000
G1 Z0.500 F6000.000
G1 E2.00000 F1200.00000

G1 F2400
G1 X16.771 Y115.971 E2.06461

G1 X16.849 Y116.823 F6000.000

G1 F2400
G1 X13.790 Y113.177 E2.34117
G1 X13.153 Y113.177 E2.37813
G1 X16.213 Y116.823 E2.65469
G1 X15.577 Y116.823 E2.69166
G1 X12.517 Y113.177 E2.96821
G1 X11.881 Y113.177 E3.00518
G1 X14.941 Y116.823 E3.28174
G1 X14.304 Y116.823 E3.31870
G1 X11.245 Y113.177 E3.59526
G1 X10.608 Y113.177 E3.63222
G1 X13.668 Y116.823 E3.90878
G1 X13.032 Y116.823 E3.94575
G1 X9.972 Y113.177 E4.22230
G1 X9.772 Y113.177 E4.23393
G1 X9.772 Y113.696 E4.26413
G1 X12.396 Y116.823 E4.50127
G1 X11.759 Y116.823 E4.53823
G1 X9.772 Y114.455 E4.71787
G1 X9.772 Y115.213 E4.76192
G1 X11.123 Y116.823 E4.88405
G1 X10.487 Y116.823 E4.92101
G1 X9.772 Y115.971 E4.98564

G1 Z0.700 F6000.000
G1 E2.98564 F1200.00000
G92 E0
G1 Z1.200 F6000.000
G1 X29.646 Y133.119 F6000.000
G1 Z0.700 F6000.000
G1 E2.00000 F1200.00000
G1 F2400
G1 X36.505 Y133.119 E2.27426

G1 F2400
G1 X40.897 Y133.119 E2.48767
G1 X44.660 Y136.881 E2.74620
G1 X40.268 Y136.881 E2.95962

G1 F2400
G1 X29.646 Y136.881 E3.38435
G1 X29.646 Y133.179 E3.53237
G1 X29.129 Y132.602 F6000.000
G1 F2400
G1 X35.988 Y132.602 E3.80663

G1 F2400
G1 X41.111 Y132.602 E4.05557
G1 X45.909 Y137.398 E4.38518
G1 X40.785 Y137.398 E4.63412

G1 F2400
G1 X29.129 Y137.398 E5.10022
G1 X29.129 Y132.662 E5.28959
G1 X28.672 Y132.145 F6000.000
G1 F2160
G1 X35.531 Y132.145 E5.50020

G1 F2400
G1 X41.300 Y132.145 E5.78054
G1 X47.013 Y137.855 E6.17298
G1 X41.243 Y137.855 E6.45334

G1 F2160
G1 X28.672 Y137.855 E6.83935
G1 X28.672 Y132.205 E7.01284
G1 X29.068 Y132.202 F6000.000
G1 E5.01284 F1200.00000
G92 E0
G1 Z1.200 F6000.000
G1 X29.743 Y134.057 F6000.000
G1 Z0.700 F6000.000
G1 E2.00000 F1200.00000
G1 F1800
G1 X30.584 Y133.216 E2.04827
G1 X31.326 Y133.216 E2.07840
G1 X29.742 Y134.799 E2.16930
G1 X29.742 Y135.541 E2.19943
G1 X32.068 Y133.216 E2.33293
G1 X32.551 Y133.216 E2.35254
G1 X32.681 Y133.345 E2.35998
G1 X29.742 Y136.284 E2.52866
G1 X29.742 Y136.784 E2.54897
G1 X29.984 Y136.784 E2.55879
G1 X33.052 Y133.717 E2.73489
G1 X33.423 Y134.088 E2.75619
G1 X30.727 Y136.784 E2.91099
G1 X31.469 Y136.784 E2.94112
G1 X33.794 Y134.459 E3.07460
G1 X34.166 Y134.830 E3.09591
G1 X32.211 Y136.784 E3.20809
G1 X32.954 Y136.784 E3.23822
G1 X34.537 Y135.201 E3.32910
G1 X34.908 Y135.572 E3.35040
G1 X33.696 Y136.784 E3.41997
G1 X34.438 Y136.784 F6000.000
G1 F1800
G1 X35.279 Y135.943 E3.46824
G1 E1.46824 F1200.00000
G92 E0
G1 Z1.200 F6000.000
G1 X32.925 Y134.140 F6000.000
G1 Z0.700 F6000.000
G1 E2.00000 F1200.00000

G1 F2400
G1 X32.637 Y133.066 E2.05629
G1 X33.112 Y133.066 E2.08030
G1 X33.573 Y134.788 E2.17055
G1 X34.221 Y135.436 E2.21693
G1 X33.586 Y133.066 E2.34114
G1 X34.061 Y133.066 E2.36515
G1 X34.869 Y136.084 E2.52332
G1 X35.517 Y136.732 E2.56967
G1 X34.535 Y133.066 E2.76175
G1 X35.009 Y133.066 E2.78576
G1 X36.046 Y136.934 E2.98848
G1 X36.520 Y136.934 E3.01249
G1 X35.484 Y133.066 E3.21521
G1 X35.958 Y133.066 E3.23922
G1 X36.995 Y136.934 E3.44193
G1 X37.469 Y136.934 E3.46594
G1 X36.433 Y133.066 E3.66866
G1 X36.907 Y133.066 E3.69267
G1 X37.944 Y136.934 E3.89538
G1 X38.418 Y136.934 E3.91939
G1 X37.381 Y133.066 E4.12211
G1 X37.856 Y133.066 E4.14612
G1 X38.892 Y136.934 E4.34884
G1 X39.367 Y136.934 E4.37285
G1 X38.330 Y133.066 E4.57556
G1 X38.805 Y133.066 E4.59957
G1 X39.841 Y136.934 E4.80229
G1 X40.316 Y136.934 E4.82630
G1 X39.279 Y133.066 E5.02901
G1 X39.753 Y133.066 E5.05302
G1 X40.790 Y136.934 E5.25574
G1 X41.264 Y136.934 E5.27975
G1 X40.228 Y133.066 E5.48247
G1 X40.553 Y133.066 E5.49892
G1 X40.757 Y133.269 E5.51351
G1 X41.739 Y136.934 E5.70555
G1 X42.213 Y136.934 E5.72956
G1 X41.405 Y133.917 E5.88766
G1 X42.053 Y134.565 E5.93403
G1 X42.688 Y136.934 E6.05819
G1 X43.162 Y136.934 E6.08220
G1 X42.701 Y135.212 E6.17243
G1 X43.349 Y135.860 E6.21880
G1 X43.637 Y136.934 E6.27509

G1 E4.27509 F1200.00000
G92 E0
G1 Z1.200 F6000.000
G1 X24.661 Y116.881 F6000.000
G1 Z0.700 F6000.000
G1 E2.00000 F1200.00000

G1 F2400
G1 X20.268 Y116.881 E2.21342

G1 F2400
G1 X9.646 Y116.881 E2.63816
G1 X9.646 Y113.119 E2.78857
G1 X16.505 Y113.119 E3.06284

G1 F2400
G1 X20.897 Y113.119 E3.27626
G1 X24.618 Y116.838 E3.53187

G1 X25.909 Y117.398 F6000.000

G1 F2400
G1 X20.785 Y117.398 E3.78082

G1 F2400
G1 X9.129 Y117.398 E4.24692
G1 X9.129 Y112.602 E4.43868
G1 X15.988 Y112.602 E4.71295

G1 F2400
G1 X21.112 Y112.602 E4.96190
G1 X25.867 Y117.356 E5.28858

G1 X27.013 Y117.855 F6000.000

G1 F2400
G1 X21.243 Y117.855 E5.56894

G1 F2160
G1 X8.672 Y117.855 E5.95495
G1 X8.672 Y112.145 E6.13028
G1 X15.531 Y112.145 E6.34090

G1 F2400
G1 X21.301 Y112.145 E6.62125
G1 X26.971 Y117.813 E7.01076

G1 E5.01076 F1200.00000
G92 E0
G1 Z1.200 F6000.000
G1 X23.637 Y116.934 F6000.000
G1 Z0.700 F6000.000
G1 E2.00000 F1200.00000

G1 F2400
G1 X23.349 Y115.860 E2.05629
G1 X22.701 Y115.212 E2.10267
G1 X23.162 Y116.934 E2.19290
G1 X22.688 Y116.934 E2.21691
G1 X22.053 Y114.565 E2.34108
G1 X21.405 Y113.917 E2.38745
G1 X22.213 Y116.934 E2.54557
G1 X21.739 Y116.934 E2.56958
G1 X20.757 Y113.269 E2.76163
G1 X20.553 Y113.066 E2.77620
G1 X20.228 Y113.066 E2.79266
G1 X21.265 Y116.934 E2.99538
G1 X20.790 Y116.934 E3.01939
G1 X19.754 Y113.066 E3.22211
G1 X19.279 Y113.066 E3.24612
G1 X20.316 Y116.934 E3.44884
G1 X19.841 Y116.934 E3.47285
G1 X18.805 Y113.066 E3.67557
G1 X18.330 Y113.066 E3.69958
G1 X19.367 Y116.934 E3.90230
G1 X18.893 Y116.934 E3.92631
G1 X17.856 Y113.066 E4.12903
G1 X17.382 Y113.066 E4.15304
G1 X18.418 Y116.934 E4.35575
G1 X17.944 Y116.934 E4.37976
G1 X16.907 Y113.066 E4.58248
G1 X16.433 Y113.066 E4.60649
G1 X17.469 Y116.934 E4.80921
G1 X16.995 Y116.934 E4.83322
G1 X15.958 Y113.066 E5.03594
G1 X15.484 Y113.066 E5.05995
G1 X16.521 Y116.934 E5.26267
G1 X16.046 Y116.934 E5.28668
G1 X15.009 Y113.066 E5.48940
G1 X14.535 Y113.066 E5.51341
G1 X15.517 Y116.731 E5.70549
G1 X14.869 Y116.084 E5.75184
G1 X14.061 Y113.066 E5.91000
G1 X13.586 Y113.066 E5.93401
G1 X14.221 Y115.436 E6.05822
G1 X13.573 Y114.788 E6.10460
G1 X13.112 Y113.066 E6.19485
G1 X12.637 Y113.066 E6.21887
G1 X12.925 Y114.140 E6.27515

G1 E4.27515 F1200.00000
G92 E0
G1 Z1.200 F6000.000
G1 X13.696 Y116.784 F6000.000
G1 Z0.700 F6000.000
G1 E2.00000 F1200.00000
G1 F1800
G1 X14.908 Y115.572 E2.06957
G1 X14.537 Y115.201 E2.09088
G1 X12.954 Y116.784 E2.18175
G1 X12.211 Y116.784 E2.21189
G1 X14.166 Y114.830 E2.32407
G1 X13.795 Y114.459 E2.34538
G1 X11.469 Y116.784 E2.47887
G1 X10.727 Y116.784 E2.50900
G1 X13.423 Y114.088 E2.66380
G1 X13.052 Y113.716 E2.68511
G1 X9.984 Y116.784 E2.86122
G1 X9.742 Y116.784 E2.87104
G1 X9.742 Y116.284 E2.89135
G1 X12.681 Y113.345 E3.06004
G1 X12.551 Y113.216 E3.06748
G1 X12.068 Y113.216 E3.08709
G1 X9.742 Y115.542 E3.22060
G1 X9.742 Y114.799 E3.25074
G1 X11.326 Y113.216 E3.34163
G1 X10.584 Y113.216 E3.37177
G1 X9.743 Y114.057 E3.42004
G1 E1.42004 F1200.00000
G92 E0
G1 Z1.200 F6000.000
G1 X14.438 Y116.784 F6000.000
G1 Z0.700 F6000.000
G1 E2.00000 F1200.00000
G1 F1800
G1 X15.279 Y115.943 E2.04827
G1 Z0.900 F6000.000
G1 E0.04827 F1200.00000
G92 E0
G1 Z1.400 F6000.000
G1 X29.646 Y133.119 F6000.000
G1 Z0.900 F6000.000
G1 E2.00000 F1200.00000
G1 F2400
G1 X42.869 Y133.119 E2.52872

G1 F2400
G1 X47.261 Y133.119 E2.74212
G1 X51.024 Y136.881 E3.00067
G1 X46.632 Y136.881 E3.21407

G1 F2400
G1 X29.646 Y136.881 E3.89328
G1 X29.646 Y133.179 E4.04129
G1 X29.129 Y132.602 F6000.000
G1 F2400
G1 X42.352 Y132.602 E4.57002

G1 F2400
G1 X47.475 Y132.602 E4.81894
G1 X52.273 Y137.398 E5.14857
G1 X47.150 Y137.398 E5.39751

G1 F2400
G1 X29.129 Y137.398 E6.11808
G1 X29.129 Y132.662 E6.30745
G1 X28.672 Y132.145 F6000.000
G1 F2160
G1 X41.894 Y132.145 E6.71347

G1 F2400
G1 X47.664 Y132.145 E6.99379
G1 X53.377 Y137.855 E7.38625
G1 X47.607 Y137.855 E7.66661

G1 F2160
G1 X28.672 Y137.855 E8.24804
G1 X28.672 Y132.205 E8.42153
G1 X29.070 Y132.184 F6000.000
G1 E6.42153 F1200.00000
G92 E0
G1 Z1.400 F6000.000
G1 X41.153 Y131.925 F6000.000
G1 Z0.900 F6000.000
G1 E2.00000 F1200.00000
G1 F2160
G1 X41.376 Y125.548 E2.29655
G1 E0.29655 F1200.00000
G92 E0
G1 Z1.400 F6000.000
G1 X39.289 Y134.140 F6000.000
G1 Z0.900 F6000.000
G1 E2.00000 F1200.00000

G1 F2400
G1 X39.001 Y133.066 E2.05629
G1 X39.475 Y133.066 E2.08030
G1 X39.937 Y134.788 E2.17055
G1 X40.585 Y135.436 E2.21693
G1 X39.950 Y133.066 E2.34113
G1 X40.424 Y133.066 E2.36515
G1 X41.233 Y136.084 E2.52330
G1 X41.881 Y136.732 E2.56968
G1 X40.899 Y133.066 E2.76179
G1 X41.373 Y133.066 E2.78580
G1 X42.410 Y136.934 E2.98852
G1 X42.884 Y136.934 E3.01254
G1 X41.847 Y133.066 E3.21526
G1 X42.322 Y133.066 E3.23927
G1 X43.359 Y136.934 E3.44199
G1 X43.833 Y136.934 E3.46600
G1 X42.796 Y133.066 E3.66873
G1 X43.271 Y133.066 E3.69274
G1 X44.307 Y136.934 E3.89546
G1 X44.782 Y136.934 E3.91947
G1 X43.745 Y133.066 E4.12220
G1 X44.220 Y133.066 E4.14621
G1 X45.256 Y136.934 E4.34893
G1 X45.731 Y136.934 E4.37294
G1 X44.694 Y133.066 E4.57566
G1 X45.168 Y133.066 E4.59968
G1 X46.205 Y136.934 E4.80240
G1 X46.679 Y136.934 E4.82641
G1 X45.643 Y133.066 E5.02913
G1 X46.117 Y133.066 E5.05314
G1 X47.154 Y136.934 E5.25587
G1 X47.628 Y136.934 E5.27988
G1 X46.592 Y133.066 E5.48260
G1 X46.916 Y133.066 E5.49904
G1 X47.121 Y133.270 E5.51366
G1 X48.103 Y136.934 E5.70568
G1 X48.577 Y136.934 E5.72970
G1 X47.769 Y133.917 E5.88779
G1 X48.417 Y134.565 E5.93415
G1 X49.052 Y136.934 E6.05831
G1 X49.526 Y136.934 E6.08233
G1 X49.065 Y135.212 E6.17255
G1 X49.712 Y135.860 E6.21892
G1 X50.000 Y136.934 E6.27521

G1 E4.27521 F1200.00000
G92 E0
G1 Z1.400 F6000.000
G1 X41.643 Y136.784 F6000.000
G1 Z0.900 F6000.000
G1 E2.00000 F1200.00000
G1 F1800
G1 X38.074 Y133.216 E2.20346
G1 X37.337 Y133.216 E2.23317
G1 X40.905 Y136.784 E2.43663
G1 X40.168 Y136.784 E2.46635
G1 X36.600 Y133.216 E2.66980
G1 X35.862 Y133.216 E2.69953
G1 X39.431 Y136.784 E2.90298
G1 X38.694 Y136.784 E2.93270
G1 X35.125 Y133.216 E3.13615
G1 X34.388 Y133.216 E3.16588
G1 X37.956 Y136.784 E3.36933
G1 X37.219 Y136.784 E3.39905
G1 X33.650 Y133.216 E3.60250
G1 X32.913 Y133.216 E3.63223
G1 X36.482 Y136.784 E3.83568
G1 X35.744 Y136.784 E3.86540
G1 X32.176 Y133.216 E4.06885
G1 X31.977 Y133.216 E4.07686
G1 X31.888 Y133.394 E4.08488
G1 X31.710 Y133.216 E4.09503
G1 X31.439 Y133.216 E4.10598
G1 X35.007 Y136.784 E4.30943
G1 X34.270 Y136.784 E4.33916
G1 X30.701 Y133.216 E4.54261
G1 X29.964 Y133.216 E4.57233
G1 X33.533 Y136.784 E4.77579
G1 X32.795 Y136.784 E4.80551
G1 X29.742 Y133.731 E4.97956
G1 X29.742 Y134.469 E5.00929
G1 X32.058 Y136.784 E5.14131
G1 X31.321 Y136.784 E5.17103
