; generated by Slic3r 1.3.0 on 2020-04-10 at 14:39:29

; external perimeters extrusion width = 0.44mm (2.86mm^3/s)
; perimeters extrusion width = 0.56mm (4.14mm^3/s)
; infill extrusion width = 0.50mm (5.48mm^3/s)
; solid infill extrusion width = 0.56mm (3.10mm^3/s)
; top infill extrusion width = 0.45mm (2.44mm^3/s)

M107
;D3D:START:START
T0
M104 S215 T0

G21
G90
M107
T0
G28
G29
M109 T0 S215 T0
G0 F3000
M107
T0
G92 E0
G0 X0 Y149 Z0.1 F3600
G1 Y49 E6.5 F1200
G0 Z1
G92 E0
; Filament gcode

G21 ; set units to millimeters
G90 ; use absolute coordinates
M82 ; use absolute distances for extrusion
G92 E0
G1 Z0.200 F6000.000
G1 E-2.00000 F1200.00000
G92 E0
G1 X23.566 Y12.787 F6000.000
G1 E2.00000 F1200.00000
G1 F1800
G1 X24.816 Y11.370 E2.03636
G1 X26.537 Y10.590 E2.07271
G1 X27.500 Y10.486 E2.09134
G1 X132.500 Y10.486 E4.11140
G1 X134.348 Y10.881 E4.14775
G1 X135.872 Y11.999 E4.18411
G1 X136.805 Y13.642 E4.22047
G1 X137.014 Y15.000 E4.24690
G1 X137.014 Y25.000 E4.43928
G1 X136.996 Y25.409 E4.44715
G1 X126.996 Y135.409 E6.57213
G1 X126.434 Y137.213 E6.60849
G1 X125.184 Y138.630 E6.64485
G1 X123.463 Y139.410 E6.68120
G1 X122.500 Y139.514 E6.69983
G1 X17.500 Y139.514 E8.71988
G1 X15.652 Y139.119 E8.75624
G1 X14.128 Y138.001 E8.79260
G1 X13.195 Y136.358 E8.82895
G1 X12.986 Y135.000 E8.85539
G1 X12.986 Y125.000 E9.04777
G1 X13.004 Y124.591 E9.05564
G1 X23.004 Y14.591 E11.18062
G1 X23.548 Y12.844 E11.21582
G1 X23.816 Y12.866 F6000.000
G1 F1800
G1 X25.056 Y11.514 E11.25112
G1 X27.500 Y10.743 E11.30042
G1 X132.500 Y10.743 E13.32047
G1 X134.291 Y11.138 E13.35577
G1 X135.750 Y12.251 E13.39106
G1 X136.605 Y13.874 E13.42636
G1 X136.757 Y15.000 E13.44822
G1 X136.757 Y25.000 E13.64061
G1 X136.740 Y25.385 E13.64803
G1 X126.740 Y135.385 E15.77300
G1 X126.184 Y137.134 E15.80830
G1 X124.944 Y138.486 E15.84359
G1 X122.500 Y139.257 E15.89289
G1 X17.500 Y139.257 E17.91295
G1 X15.709 Y138.862 E17.94825
G1 X14.250 Y137.749 E17.98354
G1 X13.395 Y136.126 E18.01883
G1 X13.243 Y135.000 E18.04070
G1 X13.243 Y125.000 E18.23308
G1 X13.260 Y124.615 E18.24051
G1 X23.260 Y14.615 E20.36548
G1 X23.798 Y12.923 E20.39962
G1 E18.39962 F1200.00000
G92 E0
G1 X71.798 Y127.646 F6000.000
G1 E2.00000 F1200.00000
G1 F1800
G1 X72.262 Y127.547 E2.00914
G1 X72.738 Y127.547 E2.01829
G1 X73.202 Y127.646 E2.02743
G1 X73.636 Y127.841 E2.03658
G1 X74.020 Y128.122 E2.04572
G1 X74.336 Y128.477 E2.05487
G1 X74.573 Y128.890 E2.06402
G1 X74.718 Y129.343 E2.07318
G1 X74.766 Y129.802 E2.08207
G1 X74.719 Y130.287 E2.09144
G1 X74.573 Y130.742 E2.10063
G1 X74.336 Y131.155 E2.10979
G1 X74.020 Y131.509 E2.11893
G1 X73.636 Y131.791 E2.12808
G1 X73.202 Y131.985 E2.13723
G1 X72.738 Y132.085 E2.14637
G1 X72.262 Y132.085 E2.15552
G1 X71.798 Y131.985 E2.16466
G1 X71.364 Y131.791 E2.17380
G1 X70.980 Y131.509 E2.18295
G1 X70.664 Y131.155 E2.19210
G1 X70.427 Y130.742 E2.20125
G1 X70.282 Y130.289 E2.21040
G1 X70.232 Y129.816 E2.21956
G1 X70.282 Y129.343 E2.22871
G1 X70.427 Y128.890 E2.23787
G1 X70.664 Y128.477 E2.24702
G1 X70.980 Y128.122 E2.25617
G1 X71.364 Y127.841 E2.26531
G1 X71.743 Y127.671 E2.27331
G1 X71.878 Y127.892 F6000.000
G1 F1800
G1 X72.290 Y127.804 E2.28140
G1 X72.710 Y127.804 E2.28950
G1 X73.122 Y127.892 E2.29759
G1 X73.506 Y128.064 E2.30569
G1 X73.846 Y128.314 E2.31380
G1 X74.126 Y128.628 E2.32191
G1 X74.336 Y128.994 E2.33002
G1 X74.466 Y129.396 E2.33815
G1 X74.508 Y129.803 E2.34603
G1 X74.466 Y130.234 E2.35436
G1 X74.336 Y130.637 E2.36251
G1 X74.127 Y131.004 E2.37062
G1 X73.846 Y131.318 E2.37873
G1 X73.506 Y131.567 E2.38684
G1 X73.122 Y131.740 E2.39494
G1 X72.710 Y131.828 E2.40304
G1 X72.290 Y131.828 E2.41113
G1 X71.878 Y131.740 E2.41923
G1 X71.494 Y131.567 E2.42733
G1 X71.154 Y131.318 E2.43543
G1 X70.873 Y131.004 E2.44354
G1 X70.664 Y130.637 E2.45166
G1 X70.534 Y130.236 E2.45978
G1 X70.491 Y129.816 E2.46790
G1 X70.534 Y129.396 E2.47602
G1 X70.664 Y128.994 E2.48415
G1 X70.873 Y128.628 E2.49226
G1 X71.154 Y128.314 E2.50037
G1 X71.494 Y128.064 E2.50848
G1 X71.823 Y127.917 E2.51542
G1 X71.959 Y128.138 F6000.000
G1 F1800
G1 X72.317 Y128.061 E2.52247
G1 X72.683 Y128.061 E2.52952
G1 X73.041 Y128.138 E2.53657
G1 X73.376 Y128.288 E2.54362
G1 X73.672 Y128.505 E2.55069
G1 X73.917 Y128.779 E2.55776
G1 X74.100 Y129.098 E2.56484
G1 X74.213 Y129.449 E2.57193
G1 X74.250 Y129.804 E2.57879
G1 X74.213 Y130.182 E2.58610
G1 X74.100 Y130.533 E2.59319
G1 X73.917 Y130.853 E2.60027
G1 X73.672 Y131.127 E2.60734
G1 X73.376 Y131.344 E2.61441
G1 X73.041 Y131.494 E2.62146
G1 X72.683 Y131.571 E2.62851
G1 X72.317 Y131.571 E2.63556
G1 X71.959 Y131.494 E2.64261
G1 X71.624 Y131.344 E2.64966
G1 X71.328 Y131.127 E2.65672
G1 X71.083 Y130.853 E2.66379
G1 X70.900 Y130.533 E2.67088
G1 X70.787 Y130.182 E2.67796
G1 X70.749 Y129.816 E2.68506
G1 X70.787 Y129.449 E2.69215
G1 X70.900 Y129.098 E2.69924
G1 X71.083 Y128.779 E2.70632
G1 X71.328 Y128.505 E2.71339
G1 X71.624 Y128.288 E2.72045
G1 X71.904 Y128.162 E2.72635
G1 X72.034 Y127.779 F6000.000
G1 E0.72635 F1200.00000
G92 E0
G1 X64.718 Y129.343 F6000.000
G1 E2.00000 F1200.00000
G1 F1800
G1 X64.768 Y129.816 E2.00915
G1 X64.718 Y130.289 E2.01831
G1 X64.573 Y130.742 E2.02746
G1 X64.336 Y131.155 E2.03661
G1 X64.020 Y131.509 E2.04576
G1 X63.636 Y131.791 E2.05491
G1 X63.202 Y131.985 E2.06405
G1 X62.738 Y132.085 E2.07320
G1 X62.262 Y132.085 E2.08234
G1 X61.798 Y131.985 E2.09149
G1 X61.364 Y131.791 E2.10063
G1 X60.980 Y131.509 E2.10978
G1 X60.664 Y131.155 E2.11893
G1 X60.427 Y130.742 E2.12808
G1 X60.282 Y130.289 E2.13723
G1 X60.232 Y129.816 E2.14639
G1 X60.282 Y129.343 E2.15554
G1 X60.427 Y128.890 E2.16469
G1 X60.664 Y128.477 E2.17384
G1 X60.980 Y128.122 E2.18299
G1 X61.364 Y127.841 E2.19214
G1 X61.798 Y127.646 E2.20129
G1 X62.262 Y127.547 E2.21043
G1 X62.738 Y127.547 E2.21957
G1 X63.202 Y127.646 E2.22872
G1 X63.636 Y127.841 E2.23786
G1 X64.020 Y128.122 E2.24701
G1 X64.336 Y128.477 E2.25616
G1 X64.573 Y128.890 E2.26531
G1 X64.700 Y129.285 E2.27331
G1 X64.465 Y129.396 F6000.000
G1 F1800
G1 X64.509 Y129.816 E2.28143
G1 X64.465 Y130.236 E2.28956
G1 X64.336 Y130.638 E2.29768
G1 X64.126 Y131.004 E2.30579
G1 X63.846 Y131.318 E2.31390
G1 X63.506 Y131.567 E2.32201
G1 X63.122 Y131.740 E2.33011
G1 X62.710 Y131.828 E2.33820
G1 X62.290 Y131.828 E2.34630
G1 X61.878 Y131.740 E2.35440
G1 X61.494 Y131.567 E2.36249
G1 X61.154 Y131.318 E2.37060
G1 X60.874 Y131.004 E2.37871
G1 X60.664 Y130.637 E2.38683
G1 X60.535 Y130.236 E2.39495
G1 X60.491 Y129.816 E2.40307
G1 X60.535 Y129.396 E2.41119
G1 X60.664 Y128.994 E2.41931
G1 X60.874 Y128.628 E2.42743
G1 X61.154 Y128.314 E2.43554
G1 X61.494 Y128.064 E2.44364
G1 X61.878 Y127.892 E2.45175
G1 X62.290 Y127.804 E2.45984
G1 X62.710 Y127.804 E2.46793
G1 X63.122 Y127.892 E2.47603
G1 X63.506 Y128.064 E2.48413
G1 X63.846 Y128.314 E2.49224
G1 X64.126 Y128.628 E2.50035
G1 X64.336 Y128.994 E2.50846
G1 X64.447 Y129.339 E2.51543
G1 X64.213 Y129.449 F6000.000
G1 F1800
G1 X64.251 Y129.816 E2.52252
G1 X64.213 Y130.182 E2.52961
G1 X64.100 Y130.533 E2.53670
G1 X63.917 Y130.853 E2.54378
G1 X63.672 Y131.127 E2.55085
G1 X63.376 Y131.344 E2.55792
G1 X63.041 Y131.494 E2.56497
G1 X62.683 Y131.571 E2.57202
G1 X62.317 Y131.571 E2.57907
G1 X61.959 Y131.494 E2.58612
G1 X61.624 Y131.344 E2.59317
G1 X61.328 Y131.127 E2.60023
G1 X61.083 Y130.853 E2.60730
G1 X60.900 Y130.533 E2.61439
G1 X60.787 Y130.182 E2.62147
G1 X60.749 Y129.816 E2.62857
G1 X60.787 Y129.449 E2.63566
G1 X60.900 Y129.098 E2.64274
G1 X61.083 Y128.779 E2.64983
G1 X61.328 Y128.505 E2.65690
G1 X61.624 Y128.288 E2.66396
G1 X61.959 Y128.138 E2.67101
G1 X62.317 Y128.061 E2.67806
G1 X62.683 Y128.061 E2.68511
G1 X63.041 Y128.138 E2.69216
G1 X63.376 Y128.288 E2.69921
G1 X63.672 Y128.505 E2.70628
G1 X63.917 Y128.779 E2.71335
G1 X64.100 Y129.098 E2.72043
G1 X64.194 Y129.392 E2.72636
G1 X64.563 Y129.564 F6000.000
G1 E0.72636 F1200.00000
G92 E0
G1 X54.768 Y129.816 F6000.000
G1 E2.00000 F1200.00000
G1 F1800
G1 X54.718 Y130.289 E2.00915
G1 X54.573 Y130.742 E2.01831
G1 X54.336 Y131.155 E2.02746
G1 X54.020 Y131.509 E2.03661
G1 X53.636 Y131.791 E2.04576
G1 X53.202 Y131.985 E2.05490
G1 X52.738 Y132.085 E2.06404
G1 X52.262 Y132.085 E2.07319
G1 X51.798 Y131.985 E2.08233
G1 X51.364 Y131.791 E2.09148
G1 X50.980 Y131.509 E2.10062
G1 X50.664 Y131.155 E2.10977
G1 X50.427 Y130.742 E2.11893
G1 X50.282 Y130.289 E2.12808
G1 X50.232 Y129.816 E2.13723
G1 X50.282 Y129.343 E2.14639
G1 X50.427 Y128.890 E2.15554
G1 X50.664 Y128.477 E2.16469
G1 X50.980 Y128.122 E2.17384
G1 X51.364 Y127.841 E2.18299
G1 X51.798 Y127.646 E2.19214
G1 X52.262 Y127.547 E2.20128
G1 X52.738 Y127.547 E2.21042
G1 X53.202 Y127.646 E2.21956
G1 X53.636 Y127.841 E2.22871
G1 X54.020 Y128.122 E2.23786
G1 X54.336 Y128.477 E2.24700
G1 X54.573 Y128.890 E2.25616
G1 X54.718 Y129.343 E2.26531
G1 X54.762 Y129.756 E2.27331
G1 X54.509 Y129.816 F6000.000
G1 F1800
G1 X54.465 Y130.236 E2.28143
G1 X54.336 Y130.638 E2.28955
G1 X54.126 Y131.004 E2.29767
G1 X53.846 Y131.318 E2.30578
G1 X53.506 Y131.567 E2.31389
G1 X53.122 Y131.740 E2.32199
G1 X52.710 Y131.828 E2.33008
G1 X52.290 Y131.828 E2.33818
G1 X51.878 Y131.740 E2.34627
G1 X51.494 Y131.567 E2.35437
G1 X51.154 Y131.318 E2.36248
G1 X50.874 Y131.004 E2.37059
G1 X50.664 Y130.637 E2.37871
G1 X50.535 Y130.236 E2.38682
G1 X50.491 Y129.816 E2.39495
G1 X50.535 Y129.396 E2.40307
G1 X50.664 Y128.994 E2.41119
G1 X50.874 Y128.628 E2.41931
G1 X51.154 Y128.314 E2.42742
G1 X51.494 Y128.064 E2.43552
G1 X51.878 Y127.892 E2.44362
G1 X52.290 Y127.804 E2.45172
G1 X52.710 Y127.804 E2.45981
G1 X53.122 Y127.892 E2.46791
G1 X53.506 Y128.064 E2.47601
G1 X53.846 Y128.314 E2.48412
G1 X54.126 Y128.628 E2.49222
G1 X54.336 Y128.994 E2.50034
G1 X54.465 Y129.396 E2.50846
G1 X54.503 Y129.756 E2.51543
G1 X54.251 Y129.816 F6000.000
G1 F1800
G1 X54.213 Y130.182 E2.52252
G1 X54.100 Y130.533 E2.52961
G1 X53.917 Y130.853 E2.53669
G1 X53.672 Y131.127 E2.54376
G1 X53.376 Y131.344 E2.55083
G1 X53.041 Y131.494 E2.55788
G1 X52.683 Y131.571 E2.56493
G1 X52.317 Y131.571 E2.57198
G1 X51.959 Y131.494 E2.57902
G1 X51.624 Y131.344 E2.58608
G1 X51.328 Y131.127 E2.59314
G1 X51.083 Y130.853 E2.60021
G1 X50.900 Y130.533 E2.60729
G1 X50.787 Y130.182 E2.61438
G1 X50.749 Y129.816 E2.62147
G1 X50.787 Y129.449 E2.62857
G1 X50.900 Y129.098 E2.63565
G1 X51.083 Y128.779 E2.64273
G1 X51.328 Y128.505 E2.64980
G1 X51.624 Y128.288 E2.65687
G1 X51.959 Y128.138 E2.66392
G1 X52.317 Y128.061 E2.67097
G1 X52.683 Y128.061 E2.67802
G1 X53.041 Y128.138 E2.68507
G1 X53.376 Y128.288 E2.69212
G1 X53.672 Y128.505 E2.69918
G1 X53.917 Y128.779 E2.70626
G1 X54.100 Y129.098 E2.71334
G1 X54.213 Y129.449 E2.72042
G1 X54.245 Y129.756 E2.72636
G1 X54.570 Y130.000 F6000.000
G1 E0.72636 F1200.00000
G92 E0
G1 X44.768 Y129.816 F6000.000
G1 E2.00000 F1200.00000
G1 F1800
G1 X44.718 Y130.289 E2.00915
G1 X44.573 Y130.742 E2.01831
G1 X44.336 Y131.155 E2.02746
G1 X44.020 Y131.509 E2.03661
G1 X43.636 Y131.791 E2.04576
G1 X43.202 Y131.985 E2.05490
G1 X42.738 Y132.085 E2.06404
G1 X42.262 Y132.085 E2.07319
G1 X41.798 Y131.985 E2.08233
G1 X41.364 Y131.791 E2.09148
G1 X40.980 Y131.509 E2.10062
G1 X40.664 Y131.155 E2.10977
G1 X40.427 Y130.742 E2.11893
G1 X40.282 Y130.289 E2.12808
G1 X40.232 Y129.816 E2.13723
G1 X40.282 Y129.343 E2.14639
G1 X40.427 Y128.890 E2.15554
G1 X40.664 Y128.477 E2.16469
G1 X40.980 Y128.122 E2.17384
G1 X41.364 Y127.841 E2.18299
G1 X41.798 Y127.646 E2.19214
G1 X42.262 Y127.547 E2.20128
G1 X42.738 Y127.547 E2.21042
G1 X43.202 Y127.646 E2.21956
G1 X43.636 Y127.841 E2.22871
G1 X44.020 Y128.122 E2.23786
G1 X44.336 Y128.477 E2.24700
G1 X44.573 Y128.890 E2.25616
G1 X44.718 Y129.343 E2.26531
G1 X44.762 Y129.756 E2.27331
G1 X44.509 Y129.816 F6000.000
G1 F1800
G1 X44.465 Y130.236 E2.28143
G1 X44.336 Y130.638 E2.28955
G1 X44.126 Y131.004 E2.29767
G1 X43.846 Y131.318 E2.30578
G1 X43.506 Y131.567 E2.31389
G1 X43.122 Y131.740 E2.32198
G1 X42.710 Y131.828 E2.33008
G1 X42.290 Y131.828 E2.33818
G1 X41.878 Y131.740 E2.34627
G1 X41.494 Y131.567 E2.35437
G1 X41.154 Y131.318 E2.36248
G1 X40.874 Y131.004 E2.37059
G1 X40.664 Y130.637 E2.37871
G1 X40.535 Y130.236 E2.38682
G1 X40.491 Y129.816 E2.39495
G1 X40.535 Y129.396 E2.40307
G1 X40.664 Y128.994 E2.41119
G1 X40.874 Y128.628 E2.41931
G1 X41.154 Y128.314 E2.42742
G1 X41.494 Y128.064 E2.43552
G1 X41.878 Y127.892 E2.44362
G1 X42.290 Y127.804 E2.45172
G1 X42.710 Y127.804 E2.45981
G1 X43.122 Y127.892 E2.46791
G1 X43.506 Y128.064 E2.47601
G1 X43.846 Y128.314 E2.48412
G1 X44.126 Y128.628 E2.49222
G1 X44.336 Y128.994 E2.50034
G1 X44.465 Y129.396 E2.50846
G1 X44.503 Y129.756 E2.51543
G1 X44.251 Y129.816 F6000.000
G1 F1800
G1 X44.213 Y130.182 E2.52252
G1 X44.100 Y130.533 E2.52961
G1 X43.917 Y130.853 E2.53669
G1 X43.672 Y131.127 E2.54376
G1 X43.376 Y131.344 E2.55083
G1 X43.041 Y131.494 E2.55788
G1 X42.683 Y131.571 E2.56493
G1 X42.317 Y131.571 E2.57197
G1 X41.959 Y131.494 E2.57902
G1 X41.624 Y131.344 E2.58608
G1 X41.328 Y131.127 E2.59314
G1 X41.083 Y130.853 E2.60021
G1 X40.900 Y130.533 E2.60729
G1 X40.787 Y130.182 E2.61438
G1 X40.749 Y129.816 E2.62147
G1 X40.787 Y129.449 E2.62856
G1 X40.900 Y129.098 E2.63565
G1 X41.083 Y128.779 E2.64273
G1 X41.328 Y128.505 E2.64980
G1 X41.624 Y128.288 E2.65687
G1 X41.959 Y128.138 E2.66392
G1 X42.317 Y128.061 E2.67097
G1 X42.683 Y128.061 E2.67802
G1 X43.041 Y128.138 E2.68507
G1 X43.376 Y128.288 E2.69212
G1 X43.672 Y128.505 E2.69918
G1 X43.917 Y128.779 E2.70625
G1 X44.100 Y129.098 E2.71334
G1 X44.213 Y129.449 E2.72042
G1 X44.245 Y129.756 E2.72636
G1 X44.570 Y130.000 F6000.000
G1 E0.72636 F1200.00000
G92 E0
G1 X34.768 Y129.816 F6000.000
G1 E2.00000 F1200.00000
G1 F1800
G1 X34.718 Y130.289 E2.00915
G1 X34.573 Y130.742 E2.01831
G1 X34.336 Y131.155 E2.02746
G1 X34.020 Y131.509 E2.03661
G1 X33.636 Y131.791 E2.04576
G1 X33.202 Y131.985 E2.05490
G1 X32.738 Y132.085 E2.06404
G1 X32.262 Y132.085 E2.07319
G1 X31.798 Y131.985 E2.08233
G1 X31.364 Y131.791 E2.09148
G1 X30.980 Y131.509 E2.10062
G1 X30.664 Y131.155 E2.10977
G1 X30.427 Y130.742 E2.11893
G1 X30.282 Y130.289 E2.12808
G1 X30.232 Y129.816 E2.13723
G1 X30.282 Y129.343 E2.14639
G1 X30.427 Y128.890 E2.15554
G1 X30.664 Y128.477 E2.16469
G1 X30.980 Y128.122 E2.17384
G1 X31.364 Y127.841 E2.18299
G1 X31.798 Y127.646 E2.19214
G1 X32.262 Y127.547 E2.20128
G1 X32.738 Y127.547 E2.21042
G1 X33.202 Y127.646 E2.21956
G1 X33.636 Y127.841 E2.22871
G1 X34.020 Y128.122 E2.23786
G1 X34.336 Y128.477 E2.24700
G1 X34.573 Y128.890 E2.25616
G1 X34.718 Y129.343 E2.26531
G1 X34.762 Y129.756 E2.27331
G1 X34.509 Y129.816 F6000.000
G1 F1800
G1 X34.465 Y130.236 E2.28143
G1 X34.336 Y130.638 E2.28955
G1 X34.126 Y131.004 E2.29767
G1 X33.846 Y131.318 E2.30578
G1 X33.506 Y131.567 E2.31389
G1 X33.122 Y131.740 E2.32198
G1 X32.710 Y131.828 E2.33008
G1 X32.290 Y131.828 E2.33818
G1 X31.878 Y131.740 E2.34627
G1 X31.494 Y131.567 E2.35437
G1 X31.154 Y131.318 E2.36248
G1 X30.874 Y131.004 E2.37059
G1 X30.664 Y130.637 E2.37871
G1 X30.535 Y130.236 E2.38682
G1 X30.491 Y129.816 E2.39495
G1 X30.535 Y129.396 E2.40307
G1 X30.664 Y128.994 E2.41119
G1 X30.874 Y128.628 E2.41931
G1 X31.154 Y128.314 E2.42742
G1 X31.494 Y128.064 E2.43552
G1 X31.878 Y127.892 E2.44362
G1 X32.290 Y127.804 E2.45172
G1 X32.710 Y127.804 E2.45981
G1 X33.122 Y127.892 E2.46791
G1 X33.506 Y128.064 E2.47601
G1 X33.846 Y128.314 E2.48412
G1 X34.126 Y128.628 E2.49222
G1 X34.336 Y128.994 E2.50034
G1 X34.465 Y129.396 E2.50846
G1 X34.503 Y129.756 E2.51543
G1 X34.251 Y129.816 F6000.000
G1 F1800
G1 X34.213 Y130.182 E2.52252
G1 X34.100 Y130.533 E2.52961
G1 X33.917 Y130.853 E2.53669
G1 X33.672 Y131.127 E2.54376
G1 X33.376 Y131.344 E2.55083
G1 X33.041 Y131.494 E2.55788
G1 X32.683 Y131.571 E2.56493
G1 X32.317 Y131.571 E2.57197
G1 X31.959 Y131.494 E2.57902
G1 X31.624 Y131.344 E2.58608
G1 X31.328 Y131.127 E2.59314
G1 X31.083 Y130.853 E2.60021
G1 X30.900 Y130.533 E2.60729
G1 X30.787 Y130.182 E2.61438
G1 X30.749 Y129.816 E2.62147
G1 X30.787 Y129.449 E2.62856
G1 X30.900 Y129.098 E2.63565
G1 X31.083 Y128.779 E2.64273
G1 X31.328 Y128.505 E2.64980
G1 X31.624 Y128.288 E2.65687
G1 X31.959 Y128.138 E2.66392
G1 X32.317 Y128.061 E2.67097
G1 X32.683 Y128.061 E2.67802
G1 X33.041 Y128.138 E2.68507
G1 X33.376 Y128.288 E2.69212
