; generated by Slic3r 1.3.1-dev (Build (Unknown revision)) on 2020-06-30 at 09:50:22

; external perimeters extrusion width = 0.44mm (2.86mm^3/s)
; perimeters extrusion width = 0.56mm (4.14mm^3/s)
; infill extrusion width = 0.50mm (5.48mm^3/s)
; solid infill extrusion width = 0.56mm (3.10mm^3/s)
; top infill extrusion width = 0.45mm (2.44mm^3/s)

M107
G92 E0
;D3D:START:START
T0
M104 S215 T0

G21
G90
M107
T0
G28
G29
M109 T0 S215 T0
G0 F3000
M107
T0
G92 E0
G0 X0 Y149 Z0.1 F3600
G1 Y49 E6.5 F1200
G0 Z1
G92 E0
; Filament gcode

G21 ; set units to millimeters
G90 ; use absolute coordinates
M82 ; use absolute distances for extrusion
G92 E0
G1 Z0.200 F6000.000
G1 E-2.00000 F1200.00000
G92 E0
G1 X64.720 Y64.754 F6000.000
G1 E2.00000 F1200.00000
G1 F1800.000
G1 X65.193 Y64.300 E2.01260
G1 X65.730 Y63.832 E2.02632
G1 X65.940 Y63.661 E2.03152
G1 X66.505 Y63.275 E2.04470
G1 X69.092 Y61.781 E2.10215
G1 X69.710 Y61.484 E2.11534
G1 X70.682 Y61.143 E2.13518
G1 X71.709 Y60.864 E2.15564
G1 X72.824 Y60.650 E2.17749
G1 X73.507 Y60.598 E2.19066
G1 X76.493 Y60.598 E2.24811
G1 X77.176 Y60.650 E2.26129
G1 X77.846 Y60.768 E2.27437
G1 X78.485 Y60.910 E2.28697
G1 X79.173 Y61.099 E2.30069
G1 X79.795 Y61.301 E2.31328
G1 X80.290 Y61.484 E2.32344
G1 X80.908 Y61.781 E2.33663
G1 X83.495 Y63.275 E2.39408
G1 X84.060 Y63.661 E2.40726
G1 X84.233 Y63.802 E2.41155
G1 X84.730 Y64.230 E2.42416
G1 X85.246 Y64.720 E2.43787
G1 X85.700 Y65.193 E2.45047
G1 X86.168 Y65.730 E2.46419
G1 X86.339 Y65.940 E2.46939
G1 X86.726 Y66.506 E2.48258
G1 X88.220 Y69.094 E2.54007
G1 X88.516 Y69.712 E2.55325
G1 X88.857 Y70.682 E2.57304
G1 X89.136 Y71.709 E2.59350
G1 X89.350 Y72.822 E2.61531
G1 X89.402 Y73.505 E2.62850
G1 X89.402 Y76.495 E2.68601
G1 X89.350 Y77.178 E2.69919
G1 X89.231 Y77.851 E2.71233
G1 X89.088 Y78.490 E2.72493
G1 X88.900 Y79.177 E2.73865
G1 X88.697 Y79.800 E2.75125
G1 X88.516 Y80.288 E2.76126
G1 X88.220 Y80.906 E2.77444
G1 X86.726 Y83.494 E2.83194
G1 X86.338 Y84.062 E2.84516
G1 X86.195 Y84.237 E2.84952
G1 X85.767 Y84.733 E2.86213
G1 X85.276 Y85.250 E2.87583
G1 X84.803 Y85.703 E2.88843
G1 X84.266 Y86.171 E2.90215
G1 X84.060 Y86.339 E2.90725
G1 X83.495 Y86.725 E2.92043
G1 X80.908 Y88.219 E2.97789
G1 X80.288 Y88.516 E2.99112
G1 X79.313 Y88.859 E3.01100
G1 X78.286 Y89.137 E3.03147
G1 X77.176 Y89.350 E3.05321
G1 X76.493 Y89.402 E3.06640
G1 X73.507 Y89.402 E3.12384
G1 X72.822 Y89.350 E3.13706
G1 X72.149 Y89.231 E3.15020
G1 X71.510 Y89.088 E3.16280
G1 X70.822 Y88.900 E3.17652
G1 X70.200 Y88.697 E3.18911
G1 X69.710 Y88.516 E3.19917
G1 X69.092 Y88.219 E3.21236
G1 X66.505 Y86.725 E3.26982
G1 X65.938 Y86.338 E3.28304
G1 X65.763 Y86.195 E3.28739
G1 X65.267 Y85.767 E3.29999
G1 X64.750 Y85.276 E3.31370
G1 X64.297 Y84.803 E3.32630
G1 X63.828 Y84.266 E3.34001
G1 X63.661 Y84.060 E3.34513
G1 X63.274 Y83.494 E3.35831
G1 X61.780 Y80.906 E3.41580
G1 X61.483 Y80.286 E3.42902
G1 X61.141 Y79.313 E3.44887
G1 X60.863 Y78.286 E3.46933
G1 X60.650 Y77.178 E3.49105
G1 X60.598 Y76.495 E3.50423
G1 X60.598 Y73.505 E3.56174
G1 X60.650 Y72.822 E3.57492
G1 X60.768 Y72.154 E3.58797
G1 X60.910 Y71.515 E3.60057
G1 X61.099 Y70.827 E3.61428
G1 X61.301 Y70.205 E3.62688
G1 X61.484 Y69.712 E3.63700
G1 X61.780 Y69.094 E3.65017
G1 X63.274 Y66.506 E3.70767
G1 X63.661 Y65.940 E3.72085
G1 X63.802 Y65.767 E3.72515
G1 X64.230 Y65.270 E3.73776
G1 X64.678 Y64.796 E3.75031
G1 X64.903 Y64.935 F6000.000
G1 F1800.000
G1 X65.366 Y64.490 E3.76266
G1 X65.895 Y64.029 E3.77616
G1 X66.101 Y63.862 E3.78126
G1 X66.634 Y63.497 E3.79369
G1 X69.220 Y62.004 E3.85114
G1 X69.803 Y61.724 E3.86358
G1 X70.758 Y61.389 E3.88305
G1 X71.722 Y61.125 E3.90229
G1 X72.863 Y60.904 E3.92464
G1 X73.507 Y60.855 E3.93707
G1 X76.493 Y60.855 E3.99451
G1 X77.137 Y60.904 E4.00694
G1 X77.796 Y61.020 E4.01981
G1 X78.422 Y61.160 E4.03216
G1 X79.100 Y61.345 E4.04567
G1 X79.710 Y61.543 E4.05800
G1 X80.197 Y61.724 E4.06800
G1 X80.780 Y62.004 E4.08044
G1 X83.366 Y63.497 E4.13790
G1 X83.899 Y63.862 E4.15033
G1 X84.071 Y64.001 E4.15457
G1 X84.557 Y64.420 E4.16692
G1 X85.065 Y64.903 E4.18041
G1 X85.510 Y65.366 E4.19276
G1 X85.971 Y65.895 E4.20627
G1 X86.138 Y66.101 E4.21137
G1 X86.503 Y66.634 E4.22380
G1 X87.997 Y69.223 E4.28130
G1 X88.277 Y69.805 E4.29373
G1 X88.611 Y70.758 E4.31315
G1 X88.885 Y71.766 E4.33325
G1 X89.096 Y72.861 E4.35470
G1 X89.145 Y73.505 E4.36713
G1 X89.145 Y76.495 E4.42465
G1 X89.096 Y77.139 E4.43708
G1 X88.979 Y77.801 E4.45001
G1 X88.839 Y78.427 E4.46235
G1 X88.653 Y79.104 E4.47586
G1 X88.455 Y79.714 E4.48820
G1 X88.277 Y80.195 E4.49806
G1 X87.997 Y80.777 E4.51049
G1 X86.503 Y83.366 E4.56799
G1 X86.137 Y83.901 E4.58046
G1 X85.996 Y84.074 E4.58476
G1 X85.577 Y84.560 E4.59711
G1 X85.094 Y85.069 E4.61061
G1 X84.630 Y85.513 E4.62295
G1 X84.101 Y85.974 E4.63646
G1 X83.899 Y86.138 E4.64146
G1 X83.366 Y86.503 E4.65389
G1 X80.780 Y87.996 E4.71135
G1 X80.195 Y88.277 E4.72382
G1 X79.237 Y88.613 E4.74335
G1 X78.273 Y88.876 E4.76259
G1 X77.137 Y89.096 E4.78484
G1 X76.493 Y89.145 E4.79727
G1 X73.507 Y89.145 E4.85471
G1 X72.861 Y89.096 E4.86718
G1 X72.199 Y88.979 E4.88011
G1 X71.573 Y88.839 E4.89246
G1 X70.896 Y88.653 E4.90597
G1 X70.286 Y88.455 E4.91830
G1 X69.803 Y88.276 E4.92821
G1 X69.220 Y87.996 E4.94064
G1 X66.634 Y86.503 E4.99810
G1 X66.099 Y86.137 E5.01057
G1 X65.926 Y85.996 E5.01487
G1 X65.440 Y85.577 E5.02721
G1 X64.931 Y85.094 E5.04071
G1 X64.487 Y84.630 E5.05306
G1 X64.026 Y84.101 E5.06656
G1 X63.861 Y83.899 E5.07157
G1 X63.497 Y83.366 E5.08401
G1 X62.003 Y80.777 E5.14150
G1 X61.722 Y80.193 E5.15397
G1 X61.387 Y79.237 E5.17345
G1 X61.124 Y78.273 E5.19269
G1 X60.904 Y77.139 E5.21491
G1 X60.855 Y76.495 E5.22734
G1 X60.855 Y73.505 E5.28485
G1 X60.904 Y72.861 E5.29728
G1 X61.020 Y72.204 E5.31012
G1 X61.160 Y71.578 E5.32246
G1 X61.315 Y71.001 E5.33396
G1 X61.529 Y70.332 E5.34745
G1 X61.723 Y69.805 E5.35827
G1 X62.003 Y69.223 E5.37069
G1 X63.497 Y66.634 E5.42819
G1 X63.861 Y66.101 E5.44062
G1 X64.001 Y65.929 E5.44487
G1 X64.420 Y65.444 E5.45722
G1 X64.861 Y64.977 E5.46956
G1 E3.46956 F1200.00000
G92 E0
G1 X77.033 Y78.522 F6000.000
G1 E2.00000 F1200.00000
G1 F1800.000
G1 X72.967 Y78.522 E2.07824
G1 X70.933 Y75.000 E2.15648
G1 X72.967 Y71.478 E2.23472
G1 X77.033 Y71.478 E2.31297
G1 X79.067 Y75.000 E2.39121
G1 X77.063 Y78.470 E2.46830
G1 X76.885 Y78.265 F6000.000
G1 F1800.000
G1 X73.115 Y78.265 E2.54083
G1 X71.230 Y75.000 E2.61336
G1 X73.115 Y71.735 E2.68589
G1 X76.885 Y71.735 E2.75842
G1 X78.770 Y75.000 E2.83095
G1 X76.915 Y78.213 E2.90233
G1 X76.737 Y78.008 F6000.000
G1 F1800.000
G1 X73.263 Y78.008 E2.96914
G1 X71.527 Y75.000 E3.03596
G1 X73.263 Y71.992 E3.10278
G1 X76.737 Y71.992 E3.16960
G1 X78.473 Y75.000 E3.23642
G1 X76.767 Y77.956 E3.30209
G1 X76.737 Y78.408 F6000.000
G1 E1.30209 F1200.00000
G92 E0
G1 X77.859 Y83.886 F6000.000
G1 E2.00000 F1200.00000
G1 F1800.000
G1 X76.968 Y84.125 E2.01774
G1 X76.901 Y83.955 E2.02126
G1 X76.594 Y83.532 E2.03131
G1 X76.380 Y83.331 E2.03695
G1 X76.143 Y83.159 E2.04259
G1 X75.670 Y82.937 E2.05264
G1 X75.157 Y82.839 E2.06270
G1 X74.843 Y82.839 E2.06874
G1 X74.330 Y82.937 E2.07879
G1 X73.857 Y83.159 E2.08885
G1 X73.620 Y83.331 E2.09448
G1 X73.406 Y83.532 E2.10012
G1 X73.099 Y83.955 E2.11018
G1 X73.032 Y84.125 E2.11370
G1 X72.151 Y83.889 E2.13123
G1 X72.167 Y83.639 E2.13605
G1 X72.101 Y83.121 E2.14611
G1 X71.909 Y82.635 E2.15616
G1 X71.741 Y82.370 E2.16220
G1 X71.397 Y82.004 E2.17185
G1 X71.160 Y81.832 E2.17749
G1 X70.904 Y81.691 E2.18312
G1 X70.427 Y81.536 E2.19277
G1 X70.115 Y81.496 E2.19881
G1 X69.593 Y81.529 E2.20887
G1 X69.096 Y81.691 E2.21892
G1 X68.821 Y81.842 E2.22496
G1 X68.731 Y81.917 E2.22722
G1 X68.396 Y81.599 E2.23609
G1 X68.093 Y81.279 E2.24458
G1 X68.357 Y80.799 E2.25512
G1 X68.487 Y80.292 E2.26518
G1 X68.507 Y79.979 E2.27122
G1 X68.441 Y79.460 E2.28128
G1 X68.249 Y78.974 E2.29133
G1 X68.080 Y78.709 E2.29737
G1 X67.723 Y78.328 E2.30743
G1 X67.263 Y78.037 E2.31789
G1 X66.746 Y77.869 E2.32835
G1 X66.204 Y77.835 E2.33881
G1 X66.112 Y77.852 E2.34061
G1 X65.875 Y76.967 E2.35824
G1 X66.143 Y76.841 E2.36395
G1 X66.397 Y76.656 E2.36999
G1 X66.741 Y76.291 E2.37964
G1 X66.909 Y76.025 E2.38568
G1 X67.101 Y75.540 E2.39574
G1 X67.167 Y75.021 E2.40580
G1 X67.148 Y74.729 E2.41143
G1 X67.094 Y74.441 E2.41707
G1 X66.901 Y73.955 E2.42712
G1 X66.581 Y73.515 E2.43758
G1 X66.162 Y73.168 E2.44805
G1 X65.875 Y73.033 E2.45416
G1 X66.112 Y72.148 E2.47180
G1 X66.497 Y72.161 E2.47921
G1 X66.989 Y72.067 E2.48886
G1 X67.281 Y71.952 E2.49490
G1 X67.705 Y71.683 E2.50455
G1 X67.934 Y71.468 E2.51059
G1 X68.241 Y71.045 E2.52064
G1 X68.433 Y70.559 E2.53070
G1 X68.488 Y70.271 E2.53633
G1 X68.507 Y69.979 E2.54197
G1 X68.441 Y69.460 E2.55202
G1 X68.249 Y68.974 E2.56208
G1 X68.090 Y68.724 E2.56778
G1 X68.399 Y68.399 E2.57642
G1 X68.731 Y68.084 E2.58523
G1 X69.058 Y68.291 E2.59269
G1 X69.350 Y68.407 E2.59873
G1 X69.864 Y68.505 E2.60879
G1 X70.385 Y68.472 E2.61884
G1 X70.669 Y68.399 E2.62448
G1 X70.942 Y68.291 E2.63011
G1 X71.383 Y68.011 E2.64017
G1 X71.755 Y67.615 E2.65063
G1 X72.007 Y67.157 E2.66069
G1 X72.104 Y66.858 E2.66673
G1 X72.169 Y66.340 E2.67678
G1 X72.141 Y66.114 E2.68117
G1 X73.032 Y65.875 E2.69891
G1 X73.091 Y66.025 E2.70202
G1 X73.259 Y66.291 E2.70806
G1 X73.603 Y66.656 E2.71771
G1 X73.857 Y66.841 E2.72375
G1 X74.330 Y67.063 E2.73380
G1 X74.843 Y67.161 E2.74386
G1 X75.157 Y67.161 E2.74990
G1 X75.670 Y67.063 E2.75996
G1 X76.143 Y66.841 E2.77001
G1 X76.380 Y66.669 E2.77565
G1 X76.594 Y66.468 E2.78128
G1 X76.901 Y66.045 E2.79134
G1 X76.968 Y65.875 E2.79486
G1 X77.849 Y66.111 E2.81239
G1 X77.833 Y66.361 E2.81721
G1 X77.899 Y66.879 E2.82727
G1 X78.091 Y67.365 E2.83733
G1 X78.259 Y67.630 E2.84337
G1 X78.603 Y67.996 E2.85301
G1 X78.840 Y68.168 E2.85865
G1 X79.096 Y68.309 E2.86429
G1 X79.593 Y68.471 E2.87434
G1 X80.115 Y68.504 E2.88440
G1 X80.427 Y68.464 E2.89044
G1 X80.904 Y68.309 E2.90009
G1 X81.179 Y68.158 E2.90613
G1 X81.269 Y68.083 E2.90838
G1 X81.601 Y68.399 E2.91719
G1 X81.907 Y68.721 E2.92574
G1 X81.643 Y69.201 E2.93629
G1 X81.513 Y69.708 E2.94634
G1 X81.493 Y70.021 E2.95238
G1 X81.559 Y70.540 E2.96244
G1 X81.751 Y71.025 E2.97249
G1 X81.920 Y71.291 E2.97853
G1 X82.277 Y71.672 E2.98859
G1 X82.737 Y71.963 E2.99905
G1 X83.254 Y72.131 E3.00951
G1 X83.796 Y72.165 E3.01998
G1 X83.888 Y72.148 E3.02178
G1 X84.125 Y73.033 E3.03941
G1 X83.857 Y73.159 E3.04512
G1 X83.603 Y73.344 E3.05116
G1 X83.259 Y73.709 E3.06081
G1 X83.091 Y73.975 E3.06685
G1 X82.899 Y74.460 E3.07690
G1 X82.833 Y74.979 E3.08696
G1 X82.852 Y75.271 E3.09259
G1 X82.906 Y75.559 E3.09823
G1 X83.099 Y76.045 E3.10829
G1 X83.419 Y76.485 E3.11875
G1 X83.838 Y76.832 E3.12921
G1 X84.125 Y76.967 E3.13533
G1 X83.888 Y77.852 E3.15296
G1 X83.503 Y77.839 E3.16037
G1 X83.011 Y77.933 E3.17002
G1 X82.719 Y78.048 E3.17606
G1 X82.295 Y78.317 E3.18571
G1 X82.066 Y78.532 E3.19175
G1 X81.759 Y78.955 E3.20181
G1 X81.567 Y79.441 E3.21186
G1 X81.512 Y79.729 E3.21750
G1 X81.493 Y80.021 E3.22313
G1 X81.559 Y80.540 E3.23319
G1 X81.751 Y81.025 E3.24324
G1 X81.910 Y81.276 E3.24895
G1 X81.599 Y81.604 E3.25764
G1 X81.269 Y81.916 E3.26639
G1 X80.942 Y81.709 E3.27385
G1 X80.650 Y81.593 E3.27989
G1 X80.136 Y81.495 E3.28995
G1 X79.615 Y81.528 E3.30001
G1 X79.331 Y81.601 E3.30564
G1 X79.058 Y81.709 E3.31128
G1 X78.617 Y81.989 E3.32133
G1 X78.245 Y82.385 E3.33179
G1 X77.993 Y82.843 E3.34185
G1 X77.896 Y83.142 E3.34789
G1 X77.831 Y83.660 E3.35795
G1 X77.852 Y83.827 E3.36118
G1 X78.140 Y84.060 F6000.000
G1 F1800.000
G1 X77.480 Y84.267 E3.37449
G1 X76.808 Y84.417 E3.38774
G1 X76.674 Y84.080 E3.39472
G1 X76.400 Y83.703 E3.40368
G1 X76.216 Y83.530 E3.40854
G1 X76.012 Y83.382 E3.41340
G1 X75.590 Y83.183 E3.42236
G1 X75.133 Y83.096 E3.43133
G1 X74.867 Y83.096 E3.43643
G1 X74.410 Y83.183 E3.44539
G1 X73.988 Y83.382 E3.45436
G1 X73.784 Y83.530 E3.45921
G1 X73.600 Y83.703 E3.46407
G1 X73.326 Y84.080 E3.47303
G1 X73.192 Y84.418 E3.48003
G1 X72.514 Y84.265 E3.49340
G1 X71.862 Y84.061 E3.50654
G1 X71.893 Y83.899 E3.50971
G1 X71.909 Y83.647 E3.51457
G1 X71.850 Y83.185 E3.52353
G1 X71.679 Y82.752 E3.53249
G1 X71.537 Y82.528 E3.53760
G1 X71.227 Y82.198 E3.54631
G1 X71.022 Y82.049 E3.55117
G1 X70.801 Y81.928 E3.55603
G1 X70.370 Y81.788 E3.56474
G1 X70.107 Y81.755 E3.56985
G1 X69.642 Y81.784 E3.57881
G1 X69.199 Y81.928 E3.58777
G1 X68.966 Y82.056 E3.59288
G1 X68.728 Y82.253 E3.59884
G1 X68.215 Y81.781 E3.61225
G1 X67.753 Y81.279 E3.62537
G1 X67.891 Y81.112 E3.62956
G1 X68.116 Y80.703 E3.63852
G1 X68.232 Y80.252 E3.64748
G1 X68.248 Y79.987 E3.65259
G1 X68.190 Y79.525 E3.66155
G1 X68.019 Y79.092 E3.67051
G1 X67.876 Y78.868 E3.67562
G1 X67.557 Y78.528 E3.68458
G1 X67.153 Y78.271 E3.69379
G1 X66.698 Y78.124 E3.70301
G1 X66.220 Y78.093 E3.71222
G1 X65.942 Y78.146 E3.71766
G1 X65.875 Y77.960 E3.72146
G1 X65.733 Y77.480 E3.73111
G1 X65.585 Y76.819 E3.74413
G1 X66.012 Y76.618 E3.75320
G1 X66.227 Y76.462 E3.75831
G1 X66.537 Y76.132 E3.76702
G1 X66.679 Y75.908 E3.77213
G1 X66.850 Y75.475 E3.78109
G1 X66.909 Y75.013 E3.79005
G1 X66.893 Y74.761 E3.79491
G1 X66.846 Y74.513 E3.79977
G1 X66.674 Y74.080 E3.80873
G1 X66.393 Y73.692 E3.81794
G1 X66.024 Y73.387 E3.82715
G1 X65.584 Y73.180 E3.83649
G1 X65.734 Y72.517 E3.84957
G1 X65.942 Y71.854 E3.86295
G1 X66.207 Y71.904 E3.86814
G1 X66.472 Y71.904 E3.87325
G1 X66.917 Y71.819 E3.88196
G1 X67.164 Y71.722 E3.88707
G1 X67.546 Y71.479 E3.89578
G1 X67.740 Y71.297 E3.90089
G1 X68.014 Y70.920 E3.90985
G1 X68.185 Y70.487 E3.91881
G1 X68.233 Y70.239 E3.92367
G1 X68.248 Y69.987 E3.92853
G1 X68.190 Y69.525 E3.93749
G1 X68.019 Y69.092 E3.94645
G1 X67.883 Y68.879 E3.95131
G1 X67.753 Y68.721 E3.95525
G1 X68.217 Y68.217 E3.96843
G1 X68.722 Y67.752 E3.98164
G1 X68.793 Y67.819 E3.98352
G1 X69.176 Y68.061 E3.99223
G1 X69.422 Y68.159 E3.99734
G1 X69.880 Y68.246 E4.00630
G1 X70.345 Y68.217 E4.01526
G1 X70.590 Y68.154 E4.02012
G1 X70.824 Y68.061 E4.02498
G1 X71.218 Y67.812 E4.03394
G1 X71.545 Y67.463 E4.04315
G1 X71.770 Y67.054 E4.05212
G1 X71.852 Y66.802 E4.05722
G1 X71.910 Y66.340 E4.06618
G1 X71.860 Y65.940 E4.07394
G1 X72.036 Y65.877 E4.07755
G1 X72.517 Y65.734 E4.08720
G1 X73.192 Y65.583 E4.10051
G1 X73.321 Y65.908 E4.10724
G1 X73.463 Y66.132 E4.11234
G1 X73.773 Y66.462 E4.12106
G1 X73.988 Y66.618 E4.12616
G1 X74.410 Y66.817 E4.13513
G1 X74.867 Y66.904 E4.14409
G1 X75.133 Y66.904 E4.14919
G1 X75.590 Y66.817 E4.15816
G1 X76.012 Y66.618 E4.16712
G1 X76.216 Y66.470 E4.17198
G1 X76.400 Y66.297 E4.17683
G1 X76.674 Y65.920 E4.18580
G1 X76.808 Y65.582 E4.19279
G1 X77.483 Y65.734 E4.20610
G1 X78.138 Y65.939 E4.21931
G1 X78.107 Y66.101 E4.22247
G1 X78.091 Y66.353 E4.22733
G1 X78.150 Y66.815 E4.23629
G1 X78.321 Y67.248 E4.24526
G1 X78.463 Y67.472 E4.25036
G1 X78.773 Y67.802 E4.25908
G1 X78.978 Y67.951 E4.26393
G1 X79.199 Y68.072 E4.26879
G1 X79.642 Y68.216 E4.27775
G1 X80.107 Y68.245 E4.28672
G1 X80.370 Y68.212 E4.29182
G1 X80.801 Y68.072 E4.30054
G1 X81.034 Y67.944 E4.30564
G1 X81.272 Y67.747 E4.31160
G1 X81.783 Y68.217 E4.32495
G1 X82.247 Y68.721 E4.33814
G1 X82.109 Y68.888 E4.34232
G1 X81.884 Y69.297 E4.35128
G1 X81.768 Y69.748 E4.36025
G1 X81.752 Y70.013 E4.36535
G1 X81.810 Y70.475 E4.37432
G1 X81.981 Y70.908 E4.38328
G1 X82.124 Y71.132 E4.38838
G1 X82.443 Y71.472 E4.39735
G1 X82.847 Y71.729 E4.40656
G1 X83.302 Y71.876 E4.41577
G1 X83.780 Y71.907 E4.42498
G1 X84.058 Y71.854 E4.43042
G1 X84.123 Y72.036 E4.43416
G1 X84.266 Y72.517 E4.44381
G1 X84.415 Y73.181 E4.45689
G1 X83.988 Y73.382 E4.46597
G1 X83.773 Y73.538 E4.47107
G1 X83.463 Y73.868 E4.47978
G1 X83.321 Y74.092 E4.48489
G1 X83.150 Y74.525 E4.49385
G1 X83.091 Y74.987 E4.50282
G1 X83.107 Y75.239 E4.50767
G1 X83.154 Y75.487 E4.51253
G1 X83.326 Y75.920 E4.52149
G1 X83.607 Y76.308 E4.53071
G1 X83.976 Y76.613 E4.53992
G1 X84.416 Y76.820 E4.54925
G1 X84.265 Y77.486 E4.56240
G1 X84.058 Y78.146 E4.57571
G1 X83.793 Y78.096 E4.58091
G1 X83.528 Y78.096 E4.58601
G1 X83.083 Y78.181 E4.59473
G1 X82.836 Y78.278 E4.59983
G1 X82.454 Y78.521 E4.60854
G1 X82.260 Y78.703 E4.61365
G1 X81.986 Y79.080 E4.62261
G1 X81.815 Y79.513 E4.63158
G1 X81.767 Y79.761 E4.63643
G1 X81.752 Y80.013 E4.64129
G1 X81.810 Y80.475 E4.65025
G1 X81.981 Y80.908 E4.65922
