; generated by Slic3r 1.3.1-dev (Build (Unknown revision)) on 2021-02-09 at 21:27:36

; external perimeters extrusion width = 0.44mm (2.86mm^3/s)
; perimeters extrusion width = 0.56mm (4.14mm^3/s)
; infill extrusion width = 0.50mm (3.66mm^3/s)
; solid infill extrusion width = 0.56mm (3.10mm^3/s)
; top infill extrusion width = 0.45mm (2.44mm^3/s)

M107
G92 E0
;D3D:START:START
T0
M104 S215 T0

G21
G90
M107
T0
G28
G29
M109 T0 S215 T0
G0 F3000
M107
T0
G92 E0
G0 X0 Y149 Z0.1 F3600
G1 Y49 E6.5 F1200
G0 Z1
G92 E0
; Filament gcode

G21 ; set units to millimeters
G90 ; use absolute coordinates
M82 ; use absolute distances for extrusion
G92 E0
G1 Z0.300 F6000.000
G1 E-2.00000 F1200.00000
G92 E0
G1 Z0.800 F6000.000
G1 X41.628 Y37.320 F6000.000
G1 Z0.300 F6000.000
G1 E2.00000 F1200.00000
G1 F1800.000
G1 X41.972 Y36.995 E2.02113
G1 X46.926 Y32.639 E2.31624
G1 X47.293 Y32.339 E2.33741
G1 X52.548 Y28.332 E2.63298
G1 X52.934 Y28.058 E2.65419
G1 X58.465 Y24.424 E2.95021
G1 X58.871 Y24.178 E2.97144
G1 X64.651 Y20.935 E3.26790
G1 X65.074 Y20.717 E3.28916
G1 X71.076 Y17.884 E3.58606
G1 X71.513 Y17.696 E3.60735
G1 X78.018 Y15.177 E3.91934
G1 X106.450 Y5.684 E5.26011
G1 X108.587 Y5.335 E5.35697
G1 X117.931 Y5.325 E5.77493
G1 X120.216 Y5.720 E5.87865
G1 X122.168 Y6.809 E5.97865
G1 X147.168 Y26.809 E7.41071
G1 X148.704 Y28.547 E7.51443
G1 X149.564 Y30.700 E7.61815
G1 X149.709 Y32.166 E7.68402
G1 X149.577 Y45.172 E8.26583
G1 X149.157 Y47.453 E8.36955
G1 X147.778 Y49.700 E8.48750
G1 X61.528 Y142.981 E14.17021
G1 X59.685 Y144.389 E14.27393
G1 X56.563 Y145.156 E14.41774
G1 X29.549 Y145.182 E15.62606
G1 X27.264 Y144.788 E15.72978
G1 X25.312 Y143.699 E15.82974
G1 X0.312 Y123.699 E17.26180
G1 X-1.224 Y121.961 E17.36552
G1 X-2.083 Y119.808 E17.46924
G1 X-2.229 Y118.411 E17.53205
G1 X-2.229 Y112.258 E17.80728
G1 X-1.493 Y109.189 E17.94845
G1 X20.973 Y65.017 E20.16514
G1 X24.120 Y59.277 E20.45791
G1 X24.360 Y58.873 E20.47897
G1 X27.904 Y53.357 E20.77222
G1 X28.172 Y52.971 E20.79324
G1 X32.095 Y47.706 E21.08695
G1 X32.390 Y47.338 E21.10802
G1 X36.677 Y42.351 E21.40219
G1 X36.997 Y42.004 E21.42329
G1 X41.586 Y37.362 E21.71526
G1 X41.903 Y37.591 F6000.000
G1 F1800.000
G1 X42.227 Y37.285 E21.73519
G1 X47.181 Y32.928 E22.03030
G1 X47.526 Y32.645 E22.05026
G1 X52.781 Y28.639 E22.34583
G1 X53.146 Y28.381 E22.36583
G1 X58.677 Y24.746 E22.66185
G1 X59.059 Y24.514 E22.68187
G1 X64.840 Y21.271 E22.97833
G1 X65.238 Y21.066 E22.99838
G1 X71.241 Y18.233 E23.29528
G1 X71.653 Y18.055 E23.31536
G1 X78.140 Y15.542 E23.62652
G1 X106.572 Y6.049 E24.96729
G1 X108.587 Y5.721 E25.05863
G1 X117.931 Y5.711 E25.47659
G1 X120.148 Y6.105 E25.57729
G1 X121.927 Y7.110 E25.66870
G1 X146.927 Y27.111 E27.10076
G1 X148.410 Y28.805 E27.20147
G1 X149.212 Y30.908 E27.30217
G1 X149.323 Y32.162 E27.35845
G1 X149.191 Y45.168 E27.94026
G1 X148.772 Y47.380 E28.04096
G1 X147.495 Y49.439 E28.14932
G1 X61.245 Y142.720 E33.83202
G1 X59.449 Y144.077 E33.93272
G1 X56.562 Y144.770 E34.06550
G1 X29.549 Y144.797 E35.27381
G1 X27.332 Y144.402 E35.37451
G1 X25.553 Y143.398 E35.46589
G1 X0.553 Y123.398 E36.89795
G1 X-0.929 Y121.703 E36.99865
G1 X-1.732 Y119.600 E37.09935
G1 X-1.843 Y118.411 E37.15275
G1 X-1.843 Y112.258 E37.42797
G1 X-1.150 Y109.364 E37.56111
G1 X21.311 Y65.202 E39.77726
G1 X24.458 Y59.463 E40.07003
G1 X24.685 Y59.081 E40.08989
G1 X28.229 Y53.565 E40.38315
G1 X28.481 Y53.201 E40.40296
G1 X32.405 Y47.936 E40.69667
G1 X32.682 Y47.589 E40.71655
G1 X36.970 Y42.602 E41.01072
G1 X37.271 Y42.275 E41.03062
G1 X41.860 Y37.633 E41.32258
G1 E39.32258 F1200.00000
G92 E0
G1 Z0.800 F6000.000
G1 X48.120 Y100.386 F6000.000
G1 Z0.300 F6000.000
G1 E2.00000 F1200.00000
G1 F1800.000
G1 X48.629 Y100.571 E2.02424
G1 X48.406 Y101.213 E2.05465
G1 X47.894 Y101.047 E2.07875
G1 X48.099 Y100.442 E2.10732
G1 X48.254 Y100.009 F6000.000
G1 E0.10732 F1200.00000
G92 E0
G1 Z0.800 F6000.000
G1 X50.027 Y95.370 F6000.000
G1 Z0.300 F6000.000
G1 E2.00000 F1200.00000
G1 F1800.000
G1 X50.281 Y94.704 E2.03189
G1 X50.668 Y93.864 E2.07325
G1 X51.164 Y94.085 E2.09750
G1 X50.527 Y95.572 E2.16986
G1 X50.083 Y95.392 E2.19127
G1 X49.628 Y95.386 F6000.000
G1 E0.19127 F1200.00000
G92 E0
G1 Z0.800 F6000.000
G1 X52.712 Y89.436 F6000.000
G1 Z0.300 F6000.000
G1 E2.00000 F1200.00000
G1 F1800.000
G1 X52.984 Y88.847 E2.02902
G1 X53.401 Y88.088 E2.06776
G1 X53.880 Y88.342 E2.09203
G1 X53.196 Y89.672 E2.15891
G1 X52.766 Y89.463 E2.18030
G1 X52.313 Y89.421 F6000.000
G1 E0.18030 F1200.00000
G92 E0
G1 Z0.800 F6000.000
G1 X43.440 Y133.241 F6000.000
G1 Z0.300 F6000.000
G1 E2.00000 F1200.00000
G1 F1800.000
G1 X55.560 Y133.229 E2.54211
G1 X55.560 Y137.389 E2.72821
G1 X30.539 Y137.414 E3.84741
G1 X30.539 Y133.253 E4.03351
G1 X42.792 Y133.241 E4.58161
G1 X42.930 Y125.819 E4.91365
G1 X43.491 Y119.424 E5.20083
G1 X44.491 Y113.073 E5.48838
G1 X45.928 Y106.798 E5.77634
G1 X47.466 Y101.719 E6.01371
G1 X48.795 Y102.151 E6.07623
G1 X47.839 Y104.903 E6.20656
G1 X46.032 Y111.589 E6.51636
G1 X44.700 Y118.395 E6.82654
G1 X43.852 Y125.286 E7.13710
G1 X43.443 Y133.181 E7.49072
G1 E5.49072 F1200.00000
G92 E0
G1 Z0.800 F6000.000
G1 X49.517 Y100.073 F6000.000
G1 Z0.300 F6000.000
G1 E2.00000 F1200.00000
G1 F1800.000
G1 X48.191 Y99.591 E2.06314
G1 X49.552 Y96.010 E2.23451
G1 X50.889 Y96.550 E2.29903
G1 X50.109 Y98.370 E2.38758
G1 X49.537 Y100.017 E2.46557
G1 E0.46557 F1200.00000
G92 E0
G1 Z0.800 F6000.000
G1 X52.124 Y93.668 F6000.000
G1 Z0.300 F6000.000
G1 E2.00000 F1200.00000
G1 F1800.000
G1 X50.791 Y93.075 E2.06527
G1 X52.191 Y90.040 E2.21476
G1 X53.516 Y90.686 E2.28071
G1 X52.830 Y92.021 E2.34783
G1 X52.148 Y93.613 E2.42529
G1 E0.42529 F1200.00000
G92 E0
G1 Z0.800 F6000.000
G1 X54.894 Y88.008 F6000.000
G1 Z0.300 F6000.000
G1 E2.00000 F1200.00000
G1 F1800.000
G1 X53.575 Y87.307 E2.06680
G1 X55.915 Y83.042 E2.28439
G1 X59.420 Y77.584 E2.57454
G1 X63.303 Y72.375 E2.86515
G1 X67.545 Y67.440 E3.15622
G1 X72.127 Y62.805 E3.44776
G1 X77.030 Y58.495 E3.73976
G1 X82.229 Y54.531 E4.03221
G1 X87.701 Y50.935 E4.32511
G1 X93.421 Y47.726 E4.61844
G1 X99.360 Y44.923 E4.91220
G1 X100.179 Y44.605 E4.95149
G1 X100.268 Y44.806 E4.96135
G1 X94.386 Y47.779 E5.25616
G1 X88.534 Y51.266 E5.56086
G1 X82.929 Y55.156 E5.86604
G1 X77.599 Y59.433 E6.17171
G1 X72.572 Y64.077 E6.47786
G1 X67.873 Y69.069 E6.78450
G1 X63.527 Y74.384 E7.09161
G1 X59.557 Y80.000 E7.39920
G1 X55.985 Y85.888 E7.70726
G1 X54.922 Y87.955 E7.81123
G1 X54.397 Y88.180 F6000.000
G1 F1800.000
G1 X53.049 Y87.464 E7.87949
G1 X55.583 Y82.845 E8.11515
G1 X59.103 Y77.365 E8.40650
G1 X63.002 Y72.134 E8.69831
G1 X67.261 Y67.179 E8.99058
G1 X71.863 Y62.525 E9.28333
G1 X76.785 Y58.196 E9.57653
G1 X82.006 Y54.216 E9.87019
G1 X87.501 Y50.605 E10.16429
G1 X93.244 Y47.383 E10.45884
G1 X99.208 Y44.569 E10.75381
G1 X105.363 Y42.177 E11.04920
G1 X111.680 Y40.221 E11.34499
G1 X118.005 Y38.743 E11.63553
G1 X118.060 Y38.964 E11.64572
G1 X113.242 Y40.249 E11.86877
G1 X106.852 Y42.435 E12.17088
G1 X100.618 Y45.061 E12.47344
G1 X94.572 Y48.117 E12.77647
G1 X88.743 Y51.590 E13.07997
G1 X83.160 Y55.465 E13.38395
G1 X77.851 Y59.725 E13.68841
G1 X72.843 Y64.351 E13.99336
G1 X68.163 Y69.323 E14.29880
G1 X63.834 Y74.618 E14.60471
G1 X59.880 Y80.211 E14.91109
G1 X56.322 Y86.076 E15.21794
G1 X53.179 Y92.185 E15.52523
G1 X50.469 Y98.509 E15.83298
G1 X48.208 Y105.017 E16.14114
G1 X46.408 Y111.677 E16.44972
G1 X45.082 Y118.456 E16.75868
G1 X44.236 Y125.319 E17.06802
G1 X43.846 Y132.855 E17.40552
G1 X55.945 Y132.843 E17.94672
G1 X55.945 Y137.774 E18.16732
G1 X30.153 Y137.800 E19.32101
G1 X30.153 Y132.868 E19.54161
G1 X42.414 Y132.856 E20.09003
G1 X42.545 Y125.799 E20.40575
G1 X43.108 Y119.377 E20.69411
G1 X44.112 Y113.000 E20.98286
G1 X45.555 Y106.699 E21.27200
G1 X47.211 Y101.230 E21.52757
G1 X48.646 Y101.697 E21.59508
G1 X49.118 Y100.339 E21.65939
G1 X47.691 Y99.820 E21.72731
G1 X49.331 Y95.505 E21.93379
G1 X50.732 Y96.071 E22.00138
G1 X51.668 Y93.887 E22.10766
G1 X50.277 Y93.268 E22.17574
G1 X52.006 Y89.521 E22.36034
G1 X53.366 Y90.184 E22.42804
G1 X54.370 Y88.234 E22.52614
G1 E20.52614 F1200.00000
G92 E0
G1 Z0.800 F6000.000
G1 X44.252 Y132.469 F6000.000
G1 Z0.300 F6000.000
G1 E2.00000 F1200.00000
G1 F1800.000
G1 X56.331 Y132.457 E2.54028
G1 X56.331 Y138.160 E2.79537
G1 X29.767 Y138.186 E3.98356
G1 X29.767 Y132.483 E4.23866
G1 X42.035 Y132.471 E4.78739
G1 X42.160 Y125.778 E5.08679
G1 X42.725 Y119.330 E5.37635
G1 X43.733 Y112.927 E5.66628
G1 X45.182 Y106.600 E5.95662
G1 X47.066 Y100.379 E6.24737
G1 X49.379 Y94.293 E6.53857
G1 X52.111 Y88.373 E6.83020
G1 X55.251 Y82.648 E7.12228
G1 X58.786 Y77.145 E7.41483
G1 X62.700 Y71.893 E7.70784
G1 X66.977 Y66.917 E8.00132
G1 X71.598 Y62.244 E8.29526
G1 X76.541 Y57.898 E8.58967
G1 X81.783 Y53.901 E8.88453
G1 X87.301 Y50.275 E9.17985
G1 X93.067 Y47.040 E9.47561
G1 X99.055 Y44.214 E9.77179
G1 X105.236 Y41.812 E10.06840
G1 X111.579 Y39.849 E10.36540
G1 X118.053 Y38.336 E10.66280
G1 X124.626 Y37.282 E10.96055
G1 X131.265 Y36.696 E11.25865
G1 X132.176 Y36.680 E11.29939
G1 X132.191 Y36.899 E11.30921
G1 X126.430 Y37.610 E11.56882
G1 X119.845 Y38.887 E11.86887
G1 X113.354 Y40.618 E12.16935
G1 X106.989 Y42.796 E12.47026
G1 X100.780 Y45.412 E12.77163
G1 X94.758 Y48.455 E13.07346
G1 X88.952 Y51.915 E13.37577
G1 X83.391 Y55.774 E13.67855
G1 X78.103 Y60.017 E13.98181
G1 X73.115 Y64.626 E14.28556
G1 X68.453 Y69.578 E14.58979
G1 X64.141 Y74.852 E14.89450
G1 X60.203 Y80.423 E15.19967
G1 X56.658 Y86.265 E15.50531
G1 X53.528 Y92.350 E15.81139
G1 X50.829 Y98.649 E16.11792
G1 X48.577 Y105.131 E16.42487
G1 X46.784 Y111.764 E16.73223
G1 X45.463 Y118.516 E17.03997
G1 X44.621 Y125.353 E17.34809
G1 X44.255 Y132.409 E17.66412
G1 X44.241 Y132.868 F6000.000
G1 E15.66412 F1200.00000
G92 E0
G1 Z0.800 F6000.000
G1 X132.183 Y36.789 F6000.000
G1 Z0.300 F6000.000
G1 E2.00000 F1200.00000
G1 F1800.000
G1 X133.083 Y36.727 E2.05356
G1 F1800.000
G1 X133.712 Y36.704 E2.08723
G1 X134.085 Y36.197 E2.12097
G1 E0.12097 F1200.00000
G92 E0
G1 Z0.800 F6000.000
G1 X137.199 Y44.113 F6000.000
G1 Z0.300 F6000.000
G1 E2.00000 F1200.00000
G1 F1800.000
G1 X134.625 Y35.294 E2.41090
G1 X134.590 Y34.548 E2.44431
G1 X134.590 Y33.101 E2.50903
G1 X141.932 Y33.094 E2.83741
G1 X141.820 Y44.108 E3.33009
G1 X137.259 Y44.113 E3.53411
G1 X136.910 Y44.499 F6000.000
G1 F1800.000
G1 X134.250 Y35.384 E3.95879
G1 X134.205 Y34.556 E3.99591
G1 X134.205 Y32.716 E4.07820
G1 X142.321 Y32.708 E4.44125
G1 X142.202 Y44.493 E4.96843
G1 X136.970 Y44.499 E5.20246
G1 X136.621 Y44.884 F6000.000
G1 F1800.000
G1 X133.874 Y35.475 E5.64091
G1 X133.849 Y35.339 E5.64707
G1 X133.819 Y34.563 E5.68183
G1 X133.819 Y32.331 E5.78167
G1 X142.711 Y32.322 E6.17940
G1 X142.583 Y44.879 E6.74108
G1 X136.681 Y44.884 E7.00511
G1 X136.605 Y44.485 F6000.000
G1 E5.00511 F1200.00000
G92 E0
G1 Z0.800 F6000.000
G1 X141.124 Y44.036 F6000.000
G1 Z0.300 F6000.000
G1 E2.00000 F1200.00000
G1 F1800.000
G1 X141.752 Y43.409 E2.04050
G1 X141.757 Y42.847 E2.06617
G1 X140.567 Y44.037 E2.14302
G1 X140.010 Y44.038 E2.16845
G1 X141.763 Y42.285 E2.28164
G1 X141.769 Y41.722 E2.30731
G1 X139.453 Y44.038 E2.45684
G1 X138.896 Y44.039 E2.48227
G1 X141.775 Y41.160 E2.66814
G1 X141.780 Y40.598 E2.69381
G1 X138.339 Y44.039 E2.91602
G1 X137.781 Y44.040 E2.94146
G1 X141.786 Y40.035 E3.20001
G1 X141.792 Y39.473 E3.22568
G1 X137.224 Y44.040 E3.52057
G1 X137.174 Y44.040 E3.52286
G1 X137.060 Y43.648 E3.54151
G1 X141.797 Y38.911 E3.84739
G1 X141.803 Y38.348 E3.87306
G1 X136.934 Y43.217 E4.18743
G1 X136.808 Y42.786 E4.20792
G1 X141.809 Y37.786 E4.53077
G1 X141.815 Y37.224 E4.55645
G1 X136.683 Y42.356 E4.88779
G1 X136.557 Y41.925 E4.90828
G1 X141.820 Y36.661 E5.24811
G1 X141.826 Y36.099 E5.27378
G1 X136.431 Y41.494 E5.62210
G1 X136.305 Y41.063 E5.64259
G1 X141.832 Y35.537 E5.99940
G1 X141.837 Y34.974 E6.02507
G1 X136.180 Y40.632 E6.39036
G1 X136.054 Y40.201 E6.41085
G1 X141.843 Y34.412 E6.78463
G1 X141.849 Y33.850 E6.81030
G1 X135.928 Y39.770 E7.19257
G1 X135.802 Y39.340 E7.21306
G1 X141.854 Y33.287 E7.60381
G1 X141.856 Y33.166 E7.60933
G1 X141.418 Y33.167 E7.62930
G1 X135.677 Y38.909 E8.00001
G1 X135.551 Y38.478 E8.02050
G1 X140.861 Y33.167 E8.36335
G1 X140.304 Y33.168 E8.38879
G1 X135.425 Y38.047 E8.70379
G1 X135.299 Y37.616 E8.72428
G1 X139.747 Y33.169 E9.01143
G1 X139.190 Y33.169 E9.03686
G1 X135.174 Y37.185 E9.29616
G1 X135.048 Y36.754 E9.31665
G1 X138.633 Y33.170 E9.54809
G1 X138.075 Y33.170 E9.57352
G1 X134.922 Y36.323 E9.77711
G1 X134.796 Y35.893 E9.79760
G1 X137.518 Y33.171 E9.97333
G1 X136.961 Y33.171 E9.99877
G1 X134.690 Y35.442 E10.14541
G1 X134.665 Y34.911 E10.16971
G1 X136.404 Y33.172 E10.28198
G1 X135.847 Y33.172 E10.30741
G1 X134.662 Y34.357 E10.38389
G1 X134.662 Y33.800 E10.40930
G1 X135.290 Y33.173 E10.44980
G1 E8.44980 F1200.00000
G92 E0
G1 Z0.800 F6000.000
G1 X127.731 Y37.228 F6000.000
G1 Z0.300 F6000.000
G1 E2.00000 F1200.00000
G1 F1800.000
G1 X125.960 Y37.431 E2.00729
G1 F1800.000
G1 X125.098 Y37.552 E2.01996
G1 F1800.000
G1 X123.440 Y37.830 E2.06197
G1 F1800.000
G1 X120.987 Y38.265 E2.14783
G1 F1800.000
G1 X119.760 Y38.482 E2.20253
G1 X119.237 Y38.593 E2.22601
G1 F1800.000
G1 X118.221 Y38.809 E2.28213
G1 E0.28213 F1200.00000
G92 E0
G1 Z0.800 F6000.000
G1 X112.665 Y40.215 F6000.000
G1 Z0.300 F6000.000
G1 E2.00000 F1200.00000
G1 F1800.000
G1 X111.750 Y40.478 E2.00396
G1 F1800.000
G1 X109.242 Y41.295 E2.04098
G1 F1800.000
G1 X106.724 Y42.115 E2.10199
G1 F1800.000
G1 X105.907 Y42.413 E2.13037
G1 F1800.000
G1 X103.798 Y43.250 E2.22687
G1 F1800.000
G1 X100.400 Y44.627 E2.42444
G1 E0.42444 F1200.00000
G92 E0
G1 Z0.800 F6000.000
G1 X94.983 Y47.231 F6000.000
G1 Z0.300 F6000.000
G1 E2.00000 F1200.00000
G1 F1800.000
G1 X93.909 Y47.772 E2.00141
G1 F1800.000
G1 X92.246 Y48.717 E2.02134
G1 F1800.000
G1 X89.649 Y50.219 E2.07980
G1 F1800.000
G1 X88.118 Y51.115 E2.13044
G1 F1800.000
G1 X86.588 Y52.137 E2.19383
G1 F1800.000
G1 X83.972 Y53.904 E2.33184
G1 F1800.000
G1 X82.650 Y54.797 E2.41645
G1 X81.405 Y55.763 E2.49997
G1 F1800.000
G1 X80.313 Y56.617 E2.58641
G1 E0.58641 F1200.00000
G92 E0
G1 Z0.800 F6000.000
G1 X77.608 Y58.993 F6000.000
G1 Z0.300 F6000.000
G1 E2.00000 F1200.00000
G1 F1800.000
G1 X79.834 Y56.767 E2.14493
G1 X77.588 Y58.480 E2.27496
G1 X77.359 Y58.680 E2.28897
G1 X64.396 Y71.644 E3.13301
G1 X67.515 Y68.015 E3.35329
G1 X72.707 Y62.771 E3.69304
G1 E1.69304 F1200.00000
G92 E0
G1 Z0.800 F6000.000
G1 X66.983 Y69.617 F6000.000
G1 Z0.300 F6000.000
G1 E2.00000 F1200.00000
G1 F1800.000
G1 X62.176 Y74.425 E2.31299
G1 X60.534 Y76.628 E2.43951
G1 X64.468 Y72.694 E2.69565
G1 X63.534 Y73.837 E2.76363
G1 X62.682 Y75.041 E2.83151
G1 X59.097 Y78.626 E3.06493
G1 X58.089 Y80.196 E3.15082
G1 X61.328 Y76.957 E3.36171
G1 X59.974 Y78.872 E3.46972
G1 X57.081 Y81.765 E3.65808
G1 X56.073 Y83.335 E3.74397
G1 X58.954 Y80.453 E3.93160
G1 X58.089 Y81.880 E4.00845
G1 X55.345 Y84.623 E4.18706
G1 X54.664 Y85.866 E4.25233
G1 X57.223 Y83.307 E4.41894
G1 X56.357 Y84.735 E4.49579
G1 X53.982 Y87.109 E4.65042
G1 X53.788 Y87.464 E4.66902
G1 X54.050 Y87.603 E4.68268
G1 X55.639 Y86.014 E4.78612
G1 X55.044 Y87.170 E4.84597
G1 X54.416 Y87.798 E4.88682
G1 X54.816 Y88.185 F6000.000
G1 F1800.000
G1 X53.615 Y90.520 E4.97788
G1 X52.184 Y90.932 F6000.000
G1 F1800.000
G1 X52.063 Y90.873 E4.98515
G1 X51.907 Y91.209 E5.00504
G1 X52.812 Y90.305 E5.07368
G1 X53.252 Y90.520 E5.09995
G1 X51.347 Y92.425 E5.24454
G1 X50.991 Y93.195 E5.29007
G1 X51.157 Y93.269 E5.29982
G1 X52.728 Y91.698 E5.41907
G1 X52.237 Y92.843 E5.48594
G1 X51.610 Y93.470 E5.53356
G1 X52.072 Y93.856 F6000.000
G1 F1800.000
G1 X50.989 Y96.383 E5.61930
G1 X50.086 Y96.201 F6000.000
G1 F1800.000
G1 X49.459 Y96.829 E5.66608
G1 X49.065 Y97.866 E5.72458
G1 X50.544 Y96.386 E5.83489
G1 X50.693 Y96.447 E5.84338
G1 X50.368 Y97.205 E5.88688
G1 X48.670 Y98.903 E6.01347
G1 X48.377 Y99.676 E6.05710
G1 X48.496 Y99.720 E6.06382
G1 X49.937 Y98.278 E6.17128
G1 X49.595 Y99.264 E6.22628
G1 X48.968 Y99.891 E6.27306
G1 X49.499 Y100.272 F6000.000
G1 F1800.000
G1 X48.904 Y101.984 E6.32047
G1 X48.035 Y101.894 F6000.000
G1 F1800.000
G1 X47.408 Y102.521 E6.36068
G1 X47.167 Y103.314 E6.39821
G1 X48.452 Y102.029 E6.48052
