; generated by Slic3r 1.3.1-dev (Build (Unknown revision)) on 2020-10-28 at 23:46:49

; external perimeters extrusion width = 0.44mm (2.86mm^3/s)
; perimeters extrusion width = 0.56mm (4.14mm^3/s)
; infill extrusion width = 0.50mm (3.66mm^3/s)
; solid infill extrusion width = 0.56mm (3.10mm^3/s)
; top infill extrusion width = 0.45mm (2.44mm^3/s)

M107
G92 E0
;D3D:START:START
T0
M104 S215 T0

G21
G90
M107
T0
G28
G29
M109 T0 S215 T0
G0 F3000
M107
T0
G92 E0
G0 X0 Y149 Z0.1 F3600
G1 Y49 E6.5 F1200
G0 Z1
G92 E0
; Filament gcode

G21 ; set units to millimeters
G90 ; use absolute coordinates
M82 ; use absolute distances for extrusion
G92 E0
G1 Z0.300 F6000.000
G1 E-2.00000 F1200.00000
G92 E0
G1 Z0.800 F6000.000
G1 X54.271 Y55.699 F6000.000
G1 Z0.300 F6000.000
G1 E2.00000 F1200.00000
G1 F1800.000
G1 X56.029 Y54.187 E2.10372
G1 X58.194 Y53.356 E2.20744
G1 X59.501 Y53.229 E2.26617
G1 X87.528 Y53.229 E3.51982
G1 X89.812 Y53.626 E3.62354
G1 X91.829 Y54.770 E3.72726
G1 X93.341 Y56.528 E3.83098
G1 X94.172 Y58.693 E3.93470
G1 X94.299 Y60.000 E3.99343
G1 X94.299 Y90.000 E5.33532
G1 X93.902 Y92.285 E5.43905
G1 X92.758 Y94.301 E5.54277
G1 X91.000 Y95.813 E5.64649
G1 X88.835 Y96.644 E5.75021
G1 X87.528 Y96.771 E5.80893
G1 X59.501 Y96.771 E7.06259
G1 X57.216 Y96.374 E7.16631
G1 X55.199 Y95.230 E7.27003
G1 X53.687 Y93.472 E7.37375
G1 X52.857 Y91.307 E7.47747
G1 X52.729 Y90.000 E7.53620
G1 X52.729 Y60.000 E8.87809
G1 X53.127 Y57.715 E8.98181
G1 X54.241 Y55.751 E9.08285
G1 X54.653 Y55.843 F6000.000
G1 F1800.000
G1 X56.397 Y54.419 E9.18355
G1 X59.501 Y53.614 E9.32697
G1 X87.528 Y53.614 E10.58062
G1 X89.744 Y54.011 E10.68132
G1 X91.685 Y55.153 E10.78203
G1 X93.109 Y56.896 E10.88273
G1 X93.914 Y60.000 E11.02615
G1 X93.914 Y90.000 E12.36804
G1 X93.517 Y92.216 E12.46874
G1 X92.375 Y94.157 E12.56945
G1 X90.632 Y95.581 E12.67015
G1 X87.528 Y96.386 E12.81357
G1 X59.501 Y96.386 E14.06722
G1 X57.285 Y95.989 E14.16792
G1 X55.344 Y94.847 E14.26862
G1 X53.920 Y93.104 E14.36932
G1 X53.115 Y90.000 E14.51274
G1 X53.115 Y60.000 E15.85464
G1 X53.512 Y57.784 E15.95534
G1 X54.623 Y55.895 E16.05336
G1 E14.05336 F1200.00000
G92 E0
G1 Z0.800 F6000.000
G1 X64.972 Y88.611 F6000.000
G1 Z0.300 F6000.000
G1 E2.00000 F1200.00000
G1 F1800.000
G1 X86.917 Y88.611 E2.98163
G1 X86.917 Y89.389 E3.01646
G1 X60.111 Y89.389 E4.21549
G1 X60.111 Y88.111 E4.27269
G1 X63.111 Y88.111 E4.40687
G1 X63.111 Y83.889 E4.59569
G1 X60.111 Y83.889 E4.72988
G1 X60.111 Y82.461 E4.79379
G1 X64.972 Y82.461 E5.01119
G1 X64.972 Y88.551 E5.28359
G1 X65.357 Y88.225 F6000.000
G1 F1800.000
G1 X87.303 Y88.225 E6.26522
G1 X87.303 Y89.775 E6.33455
G1 X59.726 Y89.775 E7.56807
G1 X59.726 Y87.725 E7.65977
G1 X62.726 Y87.725 E7.79396
G1 X62.726 Y84.275 E7.94828
G1 X59.726 Y84.275 E8.08247
G1 X59.726 Y82.075 E8.18087
G1 X65.357 Y82.075 E8.43277
G1 X65.357 Y88.165 E8.70517
G1 X65.455 Y88.613 F6000.000
G1 E6.70517 F1200.00000
G92 E0
G1 Z0.800 F6000.000
G1 X63.111 Y61.889 F6000.000
G1 Z0.300 F6000.000
G1 E2.00000 F1200.00000
G1 F1800.000
G1 X60.111 Y61.889 E2.13419
G1 X60.111 Y60.611 E2.19139
G1 X86.917 Y60.611 E3.39041
G1 X86.917 Y61.389 E3.42525
G1 X64.972 Y61.389 E4.40687
G1 X64.972 Y66.239 E4.62381
G1 X63.111 Y66.239 E4.70702
G1 X63.111 Y61.949 E4.89892
G1 X62.726 Y62.275 F6000.000
G1 F1800.000
G1 X59.726 Y62.275 E5.03310
G1 X59.726 Y60.225 E5.12480
G1 X87.303 Y60.225 E6.35832
G1 X87.303 Y61.775 E6.42766
G1 X65.357 Y61.775 E7.40928
G1 X65.357 Y66.625 E7.62622
G1 X59.726 Y66.625 E7.87812
G1 X59.726 Y65.725 E7.91838
G1 X62.726 Y65.725 E8.05256
G1 X62.726 Y62.335 E8.20420
G1 X62.820 Y61.886 F6000.000
G1 E6.20420 F1200.00000
G92 E0
G1 Z0.800 F6000.000
G1 X64.779 Y61.000 F6000.000
G1 Z0.300 F6000.000
G1 E2.00000 F1200.00000
G1 F1800.000
G1 X86.724 Y61.000 E2.83689
G1 E0.83689 F1200.00000
G92 E0
G1 Z0.800 F6000.000
G1 X64.272 Y66.167 F6000.000
G1 Z0.300 F6000.000
G1 E2.00000 F1200.00000
G1 F1800.000
G1 X64.900 Y65.540 E2.04068
G1 X64.900 Y64.981 E2.06633
G1 X63.713 Y66.167 E2.14328
G1 X63.183 Y66.167 E2.16758
G1 X63.183 Y66.138 E2.16892
G1 X64.900 Y64.422 E2.28023
G1 X64.900 Y63.863 E2.30588
G1 X63.183 Y65.579 E2.41719
G1 X63.183 Y65.020 E2.44283
G1 X64.900 Y63.303 E2.55414
G1 X64.900 Y62.744 E2.57979
G1 X63.183 Y64.461 E2.69110
G1 X63.183 Y63.901 E2.71674
G1 X64.900 Y62.185 E2.82805
G1 X64.900 Y61.626 E2.85370
G1 X63.183 Y63.342 E2.96501
G1 X63.183 Y62.783 E2.99065
G1 X64.707 Y61.260 E3.08946
G1 X64.707 Y60.701 E3.11510
G1 X63.183 Y62.224 E3.21391
G1 X63.183 Y61.817 E3.23256
G1 X63.031 Y61.817 E3.23955
G1 X64.166 Y60.683 E3.31315
G1 X63.606 Y60.683 E3.33879
G1 X62.472 Y61.817 E3.41239
G1 X61.913 Y61.817 E3.43803
G1 X63.047 Y60.683 E3.51163
G1 X62.488 Y60.683 E3.53727
G1 X61.353 Y61.817 E3.61087
G1 X60.794 Y61.817 E3.63651
G1 X61.929 Y60.683 E3.71010
G1 X61.370 Y60.683 E3.73575
G1 X60.235 Y61.817 E3.80934
G1 X60.183 Y61.817 E3.81172
G1 X60.183 Y61.310 E3.83499
G1 X60.811 Y60.683 E3.87567
G1 E1.87567 F1200.00000
G92 E0
G1 Z0.800 F6000.000
G1 X59.919 Y66.175 F6000.000
G1 Z0.300 F6000.000
G1 E2.00000 F1200.00000
G1 F1800.000
G1 X62.918 Y66.175 E2.15659
G1 E0.15659 F1200.00000
G92 E0
G1 Z0.800 F6000.000
G1 X60.811 Y82.533 F6000.000
G1 Z0.300 F6000.000
G1 E2.00000 F1200.00000
G1 F1800.000
G1 X60.183 Y83.160 E2.04064
G1 X60.183 Y83.718 E2.06623
G1 X61.369 Y82.533 E2.14305
G1 X61.928 Y82.533 E2.16864
G1 X60.643 Y83.817 E2.25187
G1 X61.202 Y83.817 E2.27746
G1 X62.486 Y82.533 E2.36069
G1 X63.045 Y82.533 E2.38628
G1 X61.760 Y83.817 E2.46951
G1 X62.319 Y83.817 E2.49510
G1 X63.603 Y82.533 E2.57833
G1 X64.162 Y82.533 E2.60392
G1 X62.877 Y83.817 E2.68715
G1 X63.183 Y83.817 E2.70118
G1 X63.183 Y84.070 E2.71274
G1 X64.720 Y82.533 E2.81232
G1 X64.900 Y82.533 E2.82053
G1 X64.900 Y82.912 E2.83790
G1 X63.183 Y84.628 E2.94909
G1 X63.183 Y85.187 E2.97468
G1 X64.900 Y83.470 E3.08587
G1 X64.900 Y84.029 E3.11145
G1 X63.183 Y85.745 E3.22264
G1 X63.183 Y86.304 E3.24823
G1 X64.900 Y84.588 E3.35942
G1 X64.900 Y85.146 E3.38501
G1 X63.183 Y86.862 E3.49619
G1 X63.183 Y87.421 E3.52178
G1 X64.900 Y85.705 E3.63297
G1 X64.900 Y86.263 E3.65856
G1 X63.183 Y87.979 E3.76975
G1 X63.183 Y88.538 E3.79533
G1 X64.900 Y86.822 E3.90652
G1 X64.900 Y87.380 E3.93211
G1 X62.962 Y89.317 E4.05761
G1 X63.521 Y89.317 E4.08320
G1 X64.707 Y88.132 E4.16002
G1 X64.707 Y88.690 E4.18561
G1 X64.079 Y89.317 E4.22625
G1 X64.107 Y88.731 F6000.000
G1 F1800.000
G1 X64.900 Y87.939 E4.27760
G1 X64.900 Y87.380 E4.30319
G1 E2.30319 F1200.00000
G92 E0
G1 Z0.800 F6000.000
G1 X62.404 Y89.317 F6000.000
G1 Z0.300 F6000.000
G1 E2.00000 F1200.00000
G1 F1800.000
G1 X63.539 Y88.183 E2.07351
G1 X62.980 Y88.183 E2.09910
G1 X61.845 Y89.317 E2.17262
G1 X61.287 Y89.317 E2.19820
G1 X62.422 Y88.183 E2.27172
G1 X61.863 Y88.183 E2.29730
G1 X60.728 Y89.317 E2.37082
G1 X60.183 Y89.317 E2.39578
G1 X61.304 Y88.183 E2.46886
G1 E0.46886 F1200.00000
G92 E0
G1 Z0.800 F6000.000
G1 X64.779 Y89.000 F6000.000
G1 Z0.300 F6000.000
G1 E2.00000 F1200.00000
G1 F1800.000
G1 X86.724 Y89.000 E2.83689
G1 Z0.500 F6000.000
G1 E0.83689 F1200.00000
G92 E0
G1 Z1.000 F6000.000
G1 X63.178 Y83.823 F6000.000
G1 Z0.500 F6000.000
G1 E2.00000 F1200.00000
G1 F2400.000
G1 X60.178 Y83.823 E2.11996
G1 X60.178 Y82.527 E2.17177
G1 X65.040 Y82.527 E2.36618
G1 X65.040 Y88.677 E2.61209
G1 X86.896 Y88.677 E3.48602
G1 X86.896 Y89.323 E3.51184
G1 X60.178 Y89.323 E4.58017
G1 X60.178 Y88.177 E4.62599
G1 X63.178 Y88.177 E4.74595
G1 X63.178 Y83.883 E4.91765
G1 X62.721 Y84.280 F6000.000
G1 F2160.000
G1 X59.721 Y84.280 E5.00977
G1 X59.721 Y82.070 E5.07763
G1 X65.497 Y82.070 E5.25499
G1 X65.497 Y88.220 E5.44384
G1 X87.353 Y88.220 E6.11495
G1 X87.353 Y89.780 E6.16285
G1 X59.721 Y89.780 E7.01132
G1 X59.721 Y87.720 E7.07458
G1 X62.721 Y87.720 E7.16669
G1 X62.721 Y84.340 E7.27048
G1 X62.815 Y83.891 F6000.000
G1 E5.27048 F1200.00000
G92 E0
G1 Z1.000 F6000.000
G1 X65.609 Y82.070 F6000.000
G1 Z0.500 F6000.000
G1 E2.00000 F1200.00000
G1 F2160.000
G1 X65.609 Y66.630 E2.20679
G1 E0.20679 F1200.00000
G92 E0
G1 Z1.000 F6000.000
G1 X63.178 Y61.823 F6000.000
G1 Z0.500 F6000.000
G1 E2.00000 F1200.00000
G1 F2400.000
G1 X60.178 Y61.823 E2.11996
G1 X60.178 Y60.677 E2.16577
G1 X86.896 Y60.677 E3.23411
G1 X86.896 Y61.323 E3.25993
G1 X65.040 Y61.323 E4.13386
G1 X65.040 Y66.173 E4.32779
G1 X63.178 Y66.173 E4.40224
G1 X63.178 Y61.883 E4.57378
G1 X62.721 Y62.280 F6000.000
G1 F2160.000
G1 X59.721 Y62.280 E4.66590
G1 X59.721 Y60.220 E4.72915
G1 X87.353 Y60.220 E5.57762
G1 X87.353 Y61.780 E5.62552
G1 X65.497 Y61.780 E6.29663
G1 X65.497 Y66.630 E6.44556
G1 X59.721 Y66.630 E6.62292
G1 X59.721 Y65.720 E6.65086
G1 X62.721 Y65.720 E6.74298
G1 X62.721 Y62.340 E6.84677
G1 X62.815 Y61.891 F6000.000
G1 E4.84677 F1200.00000
G92 E0
G1 Z1.000 F6000.000
G1 X87.429 Y61.780 F6000.000
G1 Z0.500 F6000.000
G1 E2.00000 F1200.00000
G1 F2160.000
G1 X87.429 Y88.220 E2.50144
G1 X86.637 Y89.000 F6000.000
G1 F1200.000
G1 X64.781 Y89.000 E2.64653
G1 X64.778 Y88.839 F6000.000
G1 F1800.000
G1 X63.533 Y87.594 E2.72273
G1 X63.533 Y88.385 E2.75697
G1 X64.374 Y89.226 E2.80843
G1 X64.115 Y88.176 F6000.000
G1 F1800.000
G1 X64.115 Y88.339 E2.81547
G1 X64.278 Y88.339 E2.82251
G1 X63.274 Y87.335 E2.88393
G1 X63.274 Y86.544 E2.91817
G1 X64.943 Y88.213 E3.02029
G1 X64.943 Y87.421 E3.05454
G1 X63.274 Y85.753 E3.15666
G1 X63.274 Y84.961 E3.19090
G1 X64.943 Y86.630 E3.29302
G1 X64.943 Y85.839 E3.32726
G1 X63.274 Y84.170 E3.42938
G1 X63.274 Y83.661 E3.45141
G1 X63.533 Y83.661 E3.46260
G1 X63.533 Y83.637 E3.46363
G1 X64.943 Y85.047 E3.54993
G1 X64.943 Y84.256 E3.58417
G1 X63.533 Y82.846 E3.67047
G1 X63.533 Y82.624 E3.68008
G1 X64.102 Y82.624 E3.70471
G1 X64.943 Y83.465 E3.75618
G1 X63.436 Y83.175 F6000.000
G1 F1200.000
G1 X60.436 Y83.175 E3.92689
G1 E1.92689 F1200.00000
G92 E0
G1 Z1.000 F6000.000
G1 X60.436 Y88.750 F6000.000
G1 Z0.500 F6000.000
G1 E2.00000 F1200.00000
G1 F1200.000
G1 X63.436 Y88.750 E2.13591
G1 E0.13591 F1200.00000
G92 E0
G1 Z1.000 F6000.000
G1 X62.949 Y66.175 F6000.000
G1 Z0.500 F6000.000
G1 E2.00000 F1200.00000
G1 F1200.000
G1 X59.949 Y66.175 E2.09512
G1 E0.09512 F1200.00000
G92 E0
G1 Z1.000 F6000.000
G1 X63.274 Y65.235 F6000.000
G1 Z0.500 F6000.000
G1 E2.00000 F1200.00000
G1 F1800.000
G1 X64.115 Y66.076 E2.05454
G1 X64.943 Y66.076 E2.09248
G1 X63.274 Y64.397 E2.20103
G1 X63.274 Y63.558 E2.23947
G1 X64.943 Y65.227 E2.34768
G1 X64.943 Y64.389 E2.38612
G1 X63.274 Y62.720 E2.49432
G1 X63.274 Y61.881 E2.53276
G1 X64.943 Y63.550 E2.64096
G1 X64.943 Y62.712 E2.67940
G1 X63.533 Y61.301 E2.77084
G1 X63.533 Y60.774 E2.79504
G1 X63.844 Y60.774 E2.80928
G1 X64.685 Y61.615 E2.86381
G1 X64.781 Y61.000 F6000.000
G1 F1200.000
G1 X86.637 Y61.000 E3.00890
G1 E1.00890 F1200.00000
G92 E0
G1 Z1.000 F6000.000
G1 X63.436 Y61.250 F6000.000
G1 Z0.500 F6000.000
G1 E2.00000 F1200.00000
G1 F1200.000
G1 X60.436 Y61.250 E2.13591
G1 Z0.700 F6000.000
G1 E0.13591 F1200.00000
G92 E0
G1 Z1.200 F6000.000
G1 X63.178 Y83.823 F6000.000
G1 Z0.700 F6000.000
G1 E2.00000 F1200.00000
G1 F2400.000
G1 X60.178 Y83.823 E2.11996
G1 X60.178 Y82.527 E2.17177
G1 X65.147 Y82.527 E2.37049
G1 X65.147 Y88.677 E2.61640
G1 X86.932 Y88.677 E3.48745
G1 X86.932 Y89.323 E3.51328
G1 X60.178 Y89.323 E4.58304
G1 X60.178 Y88.177 E4.62886
G1 X63.178 Y88.177 E4.74882
G1 X63.178 Y83.883 E4.92052
G1 X62.721 Y84.280 F6000.000
G1 F2160.000
G1 X59.721 Y84.280 E5.01264
G1 X59.721 Y82.070 E5.08050
G1 X65.604 Y82.070 E5.26117
G1 X65.604 Y88.220 E5.45001
G1 X87.389 Y88.220 E6.11892
G1 X87.389 Y89.780 E6.16682
G1 X59.721 Y89.780 E7.01639
G1 X59.721 Y87.720 E7.07965
G1 X62.721 Y87.720 E7.17177
G1 X62.721 Y84.340 E7.27555
G1 X62.815 Y83.891 F6000.000
G1 E5.27555 F1200.00000
G92 E0
G1 Z1.200 F6000.000
G1 X65.663 Y82.070 F6000.000
G1 Z0.700 F6000.000
G1 E2.00000 F1200.00000
G1 F2160.000
G1 X65.663 Y66.630 E2.33532
G1 E0.33532 F1200.00000
G92 E0
G1 Z1.200 F6000.000
G1 X63.178 Y61.823 F6000.000
G1 Z0.700 F6000.000
G1 E2.00000 F1200.00000
G1 F2400.000
G1 X60.178 Y61.823 E2.11996
G1 X60.178 Y60.677 E2.16577
G1 X86.932 Y60.677 E3.23554
G1 X86.932 Y61.323 E3.26137
G1 X65.147 Y61.323 E4.13242
G1 X65.147 Y66.173 E4.32635
G1 X63.178 Y66.173 E4.40511
G1 X63.178 Y61.883 E4.57665
G1 X62.721 Y62.280 F6000.000
G1 F2160.000
G1 X59.721 Y62.280 E4.66876
G1 X59.721 Y60.220 E4.73202
G1 X87.389 Y60.220 E5.58159
G1 X87.389 Y61.780 E5.62949
G1 X65.604 Y61.780 E6.29840
G1 X65.604 Y66.630 E6.44732
G1 X59.721 Y66.630 E6.62799
G1 X59.721 Y65.720 E6.65593
G1 X62.721 Y65.720 E6.74805
G1 X62.721 Y62.340 E6.85184
G1 X62.815 Y61.891 F6000.000
G1 E4.85184 F1200.00000
G92 E0
G1 Z1.200 F6000.000
G1 X87.393 Y61.780 F6000.000
G1 Z0.700 F6000.000
G1 E2.00000 F1200.00000
G1 F2160.000
G1 X87.393 Y88.220 E2.79488
G1 X86.673 Y89.000 F6000.000
G1 F1200.000
G1 X64.889 Y89.000 E2.93949
G1 X63.951 Y89.226 F6000.000
G1 F1800.000
G1 X64.792 Y88.385 E2.98973
G1 X64.792 Y87.998 E3.00609
G1 X65.051 Y87.998 E3.01701
G1 X65.051 Y87.354 E3.04420
G1 X63.533 Y88.872 E3.13488
G1 X63.533 Y88.339 E3.15739
G1 X63.294 Y88.339 E3.16751
G1 X65.051 Y86.582 E3.27248
G1 X65.051 Y85.809 E3.30511
G1 X63.274 Y87.586 E3.41122
G1 X63.274 Y86.813 E3.44385
G1 X65.051 Y85.037 E3.54997
G1 X65.051 Y84.264 E3.58260
G1 X63.274 Y86.041 E3.68872
G1 X63.274 Y85.268 E3.72135
G1 X65.051 Y83.492 E3.82746
G1 X65.051 Y82.719 E3.86009
G1 X63.533 Y84.237 E3.95077
G1 X63.533 Y83.465 E3.98340
G1 X64.374 Y82.624 E4.03364
G1 X63.436 Y83.175 F6000.000
G1 F1200.000
G1 X60.436 Y83.175 E4.20435
G1 E2.20435 F1200.00000
G92 E0
G1 Z1.200 F6000.000
G1 X60.436 Y88.750 F6000.000
G1 Z0.700 F6000.000
G1 E2.00000 F1200.00000
G1 F1200.000
G1 X63.436 Y88.750 E2.13591
G1 E0.13591 F1200.00000
G92 E0
G1 Z1.200 F6000.000
G1 X62.949 Y66.175 F6000.000
G1 Z0.700 F6000.000
G1 E2.00000 F1200.00000
G1 F1200.000
G1 X59.949 Y66.175 E2.09512
G1 E0.09512 F1200.00000
G92 E0
G1 Z1.200 F6000.000
G1 X64.210 Y66.076 F6000.000
G1 Z0.700 F6000.000
G1 E2.00000 F1200.00000
G1 F1800.000
G1 X65.051 Y65.235 E2.04774
G1 X65.051 Y64.501 E2.07721
G1 X63.476 Y66.076 E2.16662
G1 X63.274 Y66.076 E2.17470
G1 X63.274 Y65.544 E2.19608
G1 X65.051 Y63.767 E2.29692
G1 X65.051 Y63.033 E2.32639
G1 X63.274 Y64.810 E2.42723
G1 X63.274 Y64.075 E2.45669
G1 X65.051 Y62.299 E2.55753
G1 X65.051 Y61.565 E2.58699
G1 X63.274 Y63.341 E2.68783
G1 X63.274 Y62.607 E2.71729
G1 X64.221 Y61.661 E2.77101
G1 X64.374 Y61.661 E2.77716
G1 X64.374 Y61.508 E2.78330
G1 X64.792 Y61.089 E2.80706
G1 X64.792 Y60.774 E2.81973
G1 X64.374 Y60.774 E2.83652
G1 X63.533 Y61.615 E2.88426
G1 X63.436 Y61.250 F6000.000
G1 F1200.000
G1 X60.436 Y61.250 E3.02017
G1 E1.02017 F1200.00000
G92 E0
G1 Z1.200 F6000.000
G1 X64.889 Y61.000 F6000.000
G1 Z0.700 F6000.000
G1 E2.00000 F1200.00000
G1 F1200.000
G1 X86.673 Y61.000 E2.14461
G1 Z0.900 F6000.000
G1 E0.14461 F1200.00000
G92 E0
G1 Z1.400 F6000.000
G1 X63.178 Y83.823 F6000.000
G1 Z0.900 F6000.000
G1 E2.00000 F1200.00000
G1 F2400.000
G1 X60.178 Y83.823 E2.11996
G1 X60.178 Y82.527 E2.17177
G1 X65.253 Y82.527 E2.37472
G1 X65.253 Y88.677 E2.62063
G1 X86.967 Y88.677 E3.48886
G1 X86.967 Y89.323 E3.51469
G1 X60.178 Y89.323 E4.58586
G1 X60.178 Y88.177 E4.63168
G1 X63.178 Y88.177 E4.75164
G1 X63.178 Y83.883 E4.92334
G1 X62.721 Y84.280 F6000.000
G1 F2160.000
G1 X59.721 Y84.280 E5.01546
G1 X59.721 Y82.070 E5.08332
G1 X65.710 Y82.070 E5.26724
G1 X65.710 Y88.220 E5.45608
G1 X87.424 Y88.220 E6.12282
G1 X87.424 Y89.780 E6.17072
G1 X59.721 Y89.780 E7.02138
G1 X59.721 Y87.720 E7.08463
G1 X62.721 Y87.720 E7.17675
G1 X62.721 Y84.340 E7.28054
G1 X62.815 Y83.891 F6000.000
G1 E5.28054 F1200.00000
G92 E0
G1 Z1.400 F6000.000
G1 X65.715 Y82.070 F6000.000
G1 Z0.900 F6000.000
G1 E2.00000 F1200.00000
G1 F2160.000
G1 X65.715 Y66.630 E2.46167
G1 E0.46167 F1200.00000
G92 E0
G1 Z1.400 F6000.000
G1 X87.358 Y61.780 F6000.000
G1 Z0.900 F6000.000
G1 E2.00000 F1200.00000
G1 F2160.000
G1 X87.358 Y88.220 E3.08335
G1 E1.08335 F1200.00000
G92 E0
G1 Z1.400 F6000.000
G1 X63.178 Y61.823 F6000.000
G1 Z0.900 F6000.000
G1 E2.00000 F1200.00000
G1 F2400.000
G1 X60.178 Y61.823 E2.11996
G1 X60.178 Y60.677 E2.16577
G1 X86.967 Y60.677 E3.23695
G1 X86.967 Y61.323 E3.26278
G1 X65.253 Y61.323 E4.13101
G1 X65.253 Y66.173 E4.32494
