; generated by Slic3r 1.3.1-dev (Build (Unknown revision)) on 2020-06-19 at 09:06:49

; external perimeters extrusion width = 0.44mm (2.86mm^3/s)
; perimeters extrusion width = 0.56mm (4.14mm^3/s)
; infill extrusion width = 0.50mm (5.48mm^3/s)
; solid infill extrusion width = 0.56mm (3.10mm^3/s)
; top infill extrusion width = 0.45mm (2.44mm^3/s)

M107
G92 E0
;D3D:START:START
T0
M104 S215 T0

G21
G90
M107
T0
G28
G29
M109 T0 S215 T0
G0 F3000
M107
T0
G92 E0
G0 X0 Y149 Z0.1 F3600
G1 Y49 E6.5 F1200
G0 Z1
G92 E0
; Filament gcode

G21 ; set units to millimeters
G90 ; use absolute coordinates
M82 ; use absolute distances for extrusion
G92 E0
G1 Z0.200 F6000.000
G1 E-2.00000 F1200.00000
G92 E0
G1 X56.299 Y44.628 F6000.000
G1 E2.00000 F1200.00000
G1 F1800.000
G1 X57.942 Y43.695 E2.03636
G1 X59.300 Y43.486 E2.06279
G1 X67.300 Y43.486 E2.21670
G1 X69.148 Y43.881 E2.25305
G1 X70.258 Y44.590 E2.27839
G1 X93.658 Y64.890 E2.87437
G1 X94.795 Y66.400 E2.91073
G1 X95.214 Y68.300 E2.94816
G1 X95.214 Y81.700 E3.20596
G1 X94.819 Y83.548 E3.24232
G1 X93.658 Y85.110 E3.27975
G1 X70.258 Y105.410 E3.87573
G1 X68.603 Y106.322 E3.91209
G1 X67.300 Y106.514 E3.93743
G1 X59.300 Y106.514 E4.09134
G1 X57.452 Y106.119 E4.12770
G1 X55.928 Y105.001 E4.16405
G1 X54.995 Y103.358 E4.20041
G1 X54.786 Y102.000 E4.22684
G1 X54.786 Y48.000 E5.26573
G1 X55.181 Y46.152 E5.30208
G1 X56.263 Y44.676 E5.33729
G1 X56.551 Y44.750 F6000.000
G1 F1800.000
G1 X58.174 Y43.895 E5.37258
G1 X59.300 Y43.743 E5.39444
G1 X67.300 Y43.743 E5.54835
G1 X69.091 Y44.138 E5.58365
G1 X70.090 Y44.784 E5.60652
G1 X93.490 Y65.084 E6.20250
G1 X94.584 Y66.557 E6.23780
G1 X94.957 Y68.300 E6.27209
G1 X94.957 Y81.700 E6.52989
G1 X94.562 Y83.491 E6.56518
G1 X93.490 Y84.916 E6.59948
G1 X70.090 Y105.216 E7.19546
G1 X68.477 Y106.091 E7.23075
G1 X67.300 Y106.257 E7.25363
G1 X59.300 Y106.257 E7.40754
G1 X57.509 Y105.862 E7.44283
G1 X56.050 Y104.749 E7.47813
G1 X55.195 Y103.126 E7.51342
G1 X55.043 Y102.000 E7.53528
G1 X55.043 Y48.000 E8.57417
G1 X55.438 Y46.209 E8.60946
G1 X56.514 Y44.797 E8.64361
G1 E6.64361 F1200.00000
G92 E0
G1 X89.057 Y77.768 F6000.000
G1 E2.00000 F1200.00000
G1 F1800.000
G1 X88.862 Y78.098 E2.00737
G1 X88.442 Y78.675 E2.02110
G1 X87.947 Y79.203 E2.03503
G1 X87.397 Y79.658 E2.04875
G1 X87.080 Y79.873 E2.05612
G1 X86.455 Y80.217 E2.06985
G1 X85.791 Y80.479 E2.08358
G1 X85.424 Y80.586 E2.09095
G1 X84.733 Y80.718 E2.10448
G1 X84.352 Y80.754 E2.11184
G1 X83.648 Y80.754 E2.12537
G1 X83.267 Y80.718 E2.13274
G1 X82.576 Y80.586 E2.14627
G1 X82.209 Y80.479 E2.15364
G1 X81.555 Y80.221 E2.16716
G1 X80.902 Y79.862 E2.18149
G1 X80.325 Y79.442 E2.19522
G1 X79.805 Y78.954 E2.20895
G1 X79.551 Y78.667 E2.21632
G1 X79.132 Y78.089 E2.23005
G1 X78.783 Y77.455 E2.24397
G1 X78.521 Y76.791 E2.25770
G1 X78.335 Y76.070 E2.27203
G1 X78.246 Y75.362 E2.28576
G1 X78.246 Y74.648 E2.29949
G1 X78.339 Y73.910 E2.31382
G1 X78.517 Y73.218 E2.32754
G1 X78.783 Y72.545 E2.34147
G1 X79.132 Y71.911 E2.35540
G1 X79.551 Y71.333 E2.36913
G1 X79.805 Y71.046 E2.37650
G1 X80.317 Y70.565 E2.39003
G1 X80.920 Y70.127 E2.40436
G1 X81.545 Y69.783 E2.41808
G1 X82.209 Y69.521 E2.43181
G1 X82.930 Y69.335 E2.44614
G1 X83.638 Y69.246 E2.45987
G1 X84.352 Y69.246 E2.47360
G1 X84.733 Y69.282 E2.48097
G1 X85.434 Y69.416 E2.49469
G1 X86.112 Y69.636 E2.50842
G1 X86.464 Y69.788 E2.51579
G1 X87.080 Y70.127 E2.52932
G1 X87.397 Y70.342 E2.53669
G1 X87.947 Y70.797 E2.55042
G1 X88.435 Y71.317 E2.56414
G1 X88.873 Y71.920 E2.57847
G1 X89.217 Y72.545 E2.59220
G1 X89.479 Y73.209 E2.60593
G1 X89.665 Y73.930 E2.62026
G1 X89.754 Y74.638 E2.63399
G1 X89.754 Y75.352 E2.64771
G1 X89.661 Y76.090 E2.66204
G1 X89.488 Y76.766 E2.67545
G1 X89.356 Y77.132 E2.68293
G1 X89.082 Y77.714 E2.69531
G1 X88.829 Y77.648 F6000.000
G1 F1800.000
G1 X88.647 Y77.956 E2.70221
G1 X88.244 Y78.511 E2.71540
G1 X87.770 Y79.015 E2.72870
G1 X87.242 Y79.452 E2.74189
G1 X86.946 Y79.654 E2.74879
G1 X86.345 Y79.984 E2.76197
G1 X85.708 Y80.236 E2.77516
G1 X85.363 Y80.336 E2.78206
G1 X84.697 Y80.463 E2.79512
G1 X84.339 Y80.497 E2.80202
G1 X83.661 Y80.497 E2.81508
G1 X83.303 Y80.463 E2.82199
G1 X82.637 Y80.336 E2.83505
G1 X82.292 Y80.236 E2.84195
G1 X81.661 Y79.986 E2.85501
G1 X81.044 Y79.647 E2.86856
G1 X80.489 Y79.244 E2.88174
G1 X79.990 Y78.775 E2.89493
G1 X79.752 Y78.506 E2.90183
G1 X79.350 Y77.951 E2.91501
G1 X79.016 Y77.345 E2.92832
G1 X78.764 Y76.708 E2.94151
G1 X78.589 Y76.026 E2.95506
G1 X78.503 Y75.346 E2.96824
G1 X78.503 Y74.661 E2.98143
G1 X78.591 Y73.962 E2.99498
G1 X78.762 Y73.298 E3.00816
G1 X79.016 Y72.655 E3.02147
G1 X79.350 Y72.049 E3.03477
G1 X79.752 Y71.494 E3.04796
G1 X79.990 Y71.225 E3.05486
G1 X80.484 Y70.760 E3.06792
G1 X81.054 Y70.346 E3.08147
G1 X81.655 Y70.016 E3.09466
G1 X82.292 Y69.764 E3.10784
G1 X82.974 Y69.589 E3.12139
G1 X83.654 Y69.503 E3.13458
G1 X84.339 Y69.503 E3.14776
G1 X84.697 Y69.537 E3.15466
G1 X85.370 Y69.665 E3.16785
G1 X86.021 Y69.877 E3.18103
G1 X86.351 Y70.019 E3.18793
G1 X86.946 Y70.346 E3.20099
G1 X87.242 Y70.548 E3.20790
G1 X87.770 Y70.985 E3.22108
G1 X88.240 Y71.484 E3.23426
G1 X88.654 Y72.054 E3.24781
G1 X88.984 Y72.655 E3.26100
G1 X89.236 Y73.292 E3.27418
G1 X89.411 Y73.974 E3.28773
G1 X89.497 Y74.654 E3.30092
G1 X89.497 Y75.339 E3.31410
G1 X89.409 Y76.038 E3.32765
G1 X89.242 Y76.690 E3.34060
G1 X89.118 Y77.033 E3.34761
G1 X88.855 Y77.593 E3.35952
G1 X88.602 Y77.527 F6000.000
G1 F1800.000
G1 X88.432 Y77.815 E3.36596
G1 X88.045 Y78.347 E3.37860
G1 X87.594 Y78.827 E3.39128
G1 X87.088 Y79.246 E3.40392
G1 X86.811 Y79.434 E3.41036
G1 X86.235 Y79.751 E3.42300
G1 X85.625 Y79.992 E3.43564
G1 X85.303 Y80.086 E3.44207
G1 X84.660 Y80.208 E3.45467
G1 X84.327 Y80.240 E3.46110
G1 X83.673 Y80.240 E3.47370
G1 X83.340 Y80.208 E3.48013
G1 X82.697 Y80.086 E3.49273
G1 X82.375 Y79.992 E3.49916
G1 X81.767 Y79.751 E3.51176
G1 X81.185 Y79.432 E3.52453
G1 X80.653 Y79.045 E3.53717
G1 X80.174 Y78.596 E3.54981
G1 X79.953 Y78.345 E3.55624
G1 X79.567 Y77.813 E3.56888
G1 X79.249 Y77.235 E3.58157
G1 X79.008 Y76.625 E3.59421
G1 X78.842 Y75.981 E3.60698
G1 X78.760 Y75.330 E3.61962
G1 X78.760 Y74.673 E3.63226
G1 X78.843 Y74.014 E3.64504
G1 X79.007 Y73.378 E3.65768
G1 X79.249 Y72.765 E3.67036
G1 X79.567 Y72.187 E3.68305
G1 X79.953 Y71.655 E3.69568
G1 X80.174 Y71.404 E3.70212
G1 X80.652 Y70.956 E3.71471
G1 X81.189 Y70.566 E3.72749
G1 X81.765 Y70.249 E3.74013
G1 X82.375 Y70.008 E3.75277
G1 X83.019 Y69.842 E3.76554
G1 X83.670 Y69.760 E3.77818
G1 X84.327 Y69.760 E3.79082
G1 X84.660 Y69.792 E3.79726
G1 X85.306 Y69.915 E3.80990
G1 X85.931 Y70.118 E3.82254
G1 X86.238 Y70.251 E3.82897
G1 X86.811 Y70.566 E3.84157
G1 X87.088 Y70.754 E3.84800
G1 X87.594 Y71.173 E3.86064
G1 X88.044 Y71.652 E3.87328
G1 X88.434 Y72.189 E3.88606
G1 X88.751 Y72.765 E3.89870
G1 X88.992 Y73.375 E3.91133
G1 X89.158 Y74.019 E3.92411
G1 X89.240 Y74.670 E3.93675
G1 X89.240 Y75.327 E3.94939
G1 X89.157 Y75.986 E3.96216
G1 X88.996 Y76.615 E3.97465
G1 X88.881 Y76.935 E3.98119
G1 X88.627 Y77.473 E3.99263
G1 X88.778 Y77.811 F6000.000
G1 E1.99263 F1200.00000
G92 E0
G1 X76.964 Y77.905 F6000.000
G1 E2.00000 F1200.00000
G1 F1800.000
G1 X76.964 Y72.095 E2.11179
G1 X74.964 Y72.095 E2.15027
G1 X74.964 Y68.343 E2.22245
G1 X59.964 Y51.744 E2.65286
G1 X59.964 Y48.664 E2.71212
G1 X67.020 Y48.664 E2.84786
G1 X86.790 Y68.964 E3.39301
G1 X90.036 Y68.964 E3.45545
G1 X90.036 Y81.036 E3.68770
G1 X86.790 Y81.036 E3.75014
G1 X67.020 Y101.336 E4.29530
G1 X59.964 Y101.336 E4.43103
G1 X59.964 Y98.256 E4.49029
G1 X74.964 Y81.657 E4.92070
G1 X74.964 Y77.905 E4.99288
G1 X76.904 Y77.905 E5.03020
G1 X76.707 Y77.648 F6000.000
G1 F1800.000
G1 X76.707 Y72.352 E5.13210
G1 X74.707 Y72.352 E5.17058
G1 X74.707 Y68.442 E5.24580
G1 X59.707 Y51.843 E5.67621
G1 X59.707 Y48.407 E5.74232
G1 X67.128 Y48.407 E5.88509
G1 X86.899 Y68.707 E6.43025
G1 X90.293 Y68.707 E6.49555
G1 X90.293 Y81.293 E6.73768
G1 X86.899 Y81.293 E6.80298
G1 X67.128 Y101.593 E7.34814
G1 X59.707 Y101.593 E7.49091
G1 X59.707 Y98.157 E7.55702
G1 X74.707 Y81.558 E7.98743
G1 X74.707 Y77.648 E8.06265
G1 X76.647 Y77.648 E8.09998
G1 X76.450 Y77.391 F6000.000
G1 F1800.000
G1 X76.450 Y72.609 E8.19198
G1 X74.450 Y72.609 E8.23046
G1 X74.450 Y68.541 E8.30873
G1 X59.450 Y51.942 E8.73913
G1 X59.450 Y48.150 E8.81209
G1 X67.237 Y48.150 E8.96190
G1 X87.007 Y68.450 E9.50705
G1 X90.550 Y68.450 E9.57521
G1 X90.550 Y81.550 E9.82724
G1 X87.007 Y81.550 E9.89540
G1 X67.237 Y101.850 E10.44055
G1 X59.450 Y101.850 E10.59036
G1 X59.450 Y98.058 E10.66332
G1 X74.450 Y81.459 E11.09372
G1 X74.450 Y77.391 E11.17199
G1 X76.390 Y77.391 E11.20931
G1 X76.823 Y77.246 F6000.000
G1 X75.688 Y78.053 F6000.000
G1 F1800.000
G1 X75.112 Y78.629 E11.22507
G1 X75.112 Y78.995 E11.23214
G1 X76.054 Y78.053 E11.25790
G1 X76.419 Y78.053 E11.26497
G1 X75.112 Y79.360 E11.30073
G1 X75.112 Y79.726 E11.30780
G1 X76.785 Y78.053 E11.35356
G1 X77.150 Y78.053 E11.36063
G1 X75.112 Y80.092 E11.41639
G1 E9.41639 F1200.00000
G92 E0
G1 X89.670 Y80.888 F6000.000
G1 E2.00000 F1200.00000
G1 F1800.000
G1 X89.888 Y80.670 E2.00597
G1 X89.888 Y80.304 E2.01304
G1 X89.304 Y80.888 E2.02902
G1 X88.938 Y80.888 E2.03609
G1 X89.888 Y79.938 E2.06206
G1 X89.888 Y79.573 E2.06913
G1 X88.573 Y80.888 E2.10511
G1 X88.207 Y80.888 E2.11218
G1 X89.888 Y79.207 E2.15815
G1 X89.888 Y78.842 E2.16522
G1 X87.842 Y80.888 E2.22120
G1 X87.476 Y80.888 E2.22827
G1 X89.888 Y78.476 E2.29425
G1 X89.888 Y78.111 E2.30132
G1 X87.111 Y80.888 E2.37730
G1 X86.745 Y80.888 E2.38437
G1 X89.888 Y77.745 E2.47034
G1 X89.888 Y77.379 E2.47742
G1 X89.038 Y78.229 E2.50066
G1 X89.175 Y77.998 E2.50587
G1 X89.416 Y77.486 E2.51681
G1 X89.801 Y77.101 E2.52735
G1 E0.52735 F1200.00000
G92 E0
G1 X89.597 Y72.918 F6000.000
G1 E2.00000 F1200.00000
G1 F1800.000
G1 X89.888 Y72.627 E2.00796
G1 X89.888 Y72.262 E2.01503
G1 X89.416 Y72.734 E2.02795
G1 X89.305 Y72.479 E2.03333
G1 X89.888 Y71.896 E2.04928
G1 X89.888 Y71.530 E2.05635
G1 X89.175 Y72.243 E2.07585
G1 X89.045 Y72.007 E2.08106
G1 X89.888 Y71.165 E2.10410
G1 X89.888 Y70.799 E2.11117
G1 X88.903 Y71.784 E2.13810
G1 X88.750 Y71.572 E2.14317
G1 X89.888 Y70.434 E2.17431
G1 X89.888 Y70.068 E2.18138
G1 X88.596 Y71.360 E2.21672
G1 X88.430 Y71.161 E2.22174
G1 X89.888 Y69.703 E2.26164
G1 X89.888 Y69.337 E2.26871
G1 X88.252 Y70.972 E2.31345
G1 X88.075 Y70.784 E2.31845
G1 X89.747 Y69.112 E2.36419
G1 X89.382 Y69.112 E2.37126
G1 X87.883 Y70.610 E2.41225
G1 X87.683 Y70.445 E2.41727
G1 X89.016 Y69.112 E2.45373
G1 X88.651 Y69.112 E2.46080
G1 X87.483 Y70.279 E2.49274
G1 X87.269 Y70.128 E2.49781
G1 X88.285 Y69.112 E2.52560
G1 X87.919 Y69.112 E2.53267
G1 X87.047 Y69.985 E2.55653
G1 X86.811 Y69.855 E2.56174
G1 X87.554 Y69.112 E2.58206
G1 X87.188 Y69.112 E2.58913
G1 X86.575 Y69.725 E2.60590
G1 X86.329 Y69.606 E2.61119
G1 X86.823 Y69.112 E2.62470
G1 X86.791 Y69.112 E2.62532
G1 X86.626 Y68.943 E2.62989
G1 X86.072 Y69.497 E2.64505
G1 X85.796 Y69.408 E2.65066
G1 X86.446 Y68.758 E2.66843
G1 X86.265 Y68.573 E2.67343
G1 X85.520 Y69.318 E2.69382
G1 X85.228 Y69.245 E2.69965
G1 X86.085 Y68.388 E2.72309
G1 X85.905 Y68.202 E2.72809
G1 X84.921 Y69.186 E2.75500
G1 X84.610 Y69.132 E2.76111
G1 X85.724 Y68.017 E2.79160
G1 X85.544 Y67.832 E2.79660
G1 X84.276 Y69.100 E2.83129
G1 X83.912 Y69.098 E2.83832
G1 X85.364 Y67.647 E2.87802
G1 X85.183 Y67.462 E2.88302
G1 X83.547 Y69.098 E2.92779
G1 X83.133 Y69.146 E2.93584
G1 X85.003 Y67.276 E2.98698
G1 X84.822 Y67.091 E2.99199
G1 X82.705 Y69.209 E3.04992
G1 X82.213 Y69.335 E3.05974
G1 X84.642 Y66.906 E3.12620
G1 X84.462 Y66.721 E3.13120
G1 X81.652 Y69.530 E3.20806
G1 X81.326 Y69.659 E3.21484
G1 X80.952 Y69.865 E3.22311
G1 X84.281 Y66.536 E3.31420
G1 X84.101 Y66.350 E3.31920
G1 E1.31920 F1200.00000
G92 E0
G1 X60.112 Y49.030 F6000.000
G1 E2.00000 F1200.00000
G1 F1800.000
G1 X60.330 Y48.812 E2.00597
G1 X60.696 Y48.812 E2.01304
G1 X60.112 Y49.396 E2.02901
G1 X60.112 Y49.762 E2.03608
G1 X61.062 Y48.812 E2.06206
G1 X61.427 Y48.812 E2.06913
G1 X60.112 Y50.127 E2.10511
G1 X60.112 Y50.493 E2.11218
G1 X61.793 Y48.812 E2.15815
G1 X62.158 Y48.812 E2.16523
G1 X60.112 Y50.858 E2.22120
G1 X60.112 Y51.224 E2.22827
G1 X62.524 Y48.812 E2.29425
G1 X62.889 Y48.812 E2.30132
G1 X60.112 Y51.589 E2.37730
G1 X60.112 Y51.754 E2.38049
G1 X60.207 Y51.860 E2.38324
G1 X63.255 Y48.812 E2.46662
G1 X63.621 Y48.812 E2.47369
G1 X60.381 Y52.052 E2.56232
G1 X60.554 Y52.244 E2.56732
G1 X63.986 Y48.812 E2.66120
G1 X64.352 Y48.812 E2.66828
G1 X60.728 Y52.436 E2.76741
G1 X60.901 Y52.628 E2.77242
G1 X64.717 Y48.812 E2.87681
G1 X65.083 Y48.812 E2.88388
G1 X61.075 Y52.820 E2.99352
G1 X61.249 Y53.012 E2.99853
G1 X65.448 Y48.812 E3.11342
G1 X65.814 Y48.812 E3.12049
G1 X61.422 Y53.204 E3.24064
G1 X61.596 Y53.396 E3.24565
G1 X66.180 Y48.812 E3.37105
G1 X66.545 Y48.812 E3.37812
G1 X61.769 Y53.588 E3.50878
G1 X61.943 Y53.780 E3.51378
G1 X66.911 Y48.812 E3.64969
G1 X67.020 Y48.812 E3.65181
G1 X67.147 Y48.942 E3.65531
G1 X62.116 Y53.972 E3.79293
G1 X62.290 Y54.164 E3.79794
G1 X67.327 Y49.127 E3.93574
G1 X67.507 Y49.312 E3.94074
G1 X62.463 Y54.356 E4.07873
G1 X62.637 Y54.548 E4.08374
G1 X67.688 Y49.497 E4.22191
G1 X67.868 Y49.683 E4.22691
G1 X62.810 Y54.740 E4.36528
G1 X62.984 Y54.932 E4.37028
G1 X68.048 Y49.868 E4.50883
G1 X68.229 Y50.053 E4.51383
G1 X63.157 Y55.124 E4.65257
G1 X63.331 Y55.316 E4.65758
G1 X68.409 Y50.238 E4.79650
G1 X68.590 Y50.423 E4.80150
G1 X63.505 Y55.508 E4.94061
G1 X63.678 Y55.700 E4.94562
G1 X68.770 Y50.609 E5.08492
G1 X68.950 Y50.794 E5.08992
G1 X63.852 Y55.892 E5.22940
G1 X64.025 Y56.084 E5.23441
G1 X69.131 Y50.979 E5.37408
G1 X69.311 Y51.164 E5.37908
G1 X64.199 Y56.276 E5.51894
G1 X64.372 Y56.468 E5.52395
G1 X69.491 Y51.349 E5.66399
G1 X69.672 Y51.535 E5.66899
G1 X64.546 Y56.661 E5.80922
G1 X64.719 Y56.853 E5.81423
G1 X69.852 Y51.720 E5.95465
G1 X70.032 Y51.905 E5.95965
G1 X64.893 Y57.045 E6.10026
G1 X65.066 Y57.237 E6.10526
G1 X70.213 Y52.090 E6.24605
G1 X70.393 Y52.275 E6.25106
G1 X65.240 Y57.429 E6.39203
G1 X65.413 Y57.621 E6.39704
G1 X70.574 Y52.461 E6.53821
G1 X70.754 Y52.646 E6.54321
G1 X65.587 Y57.813 E6.68456
G1 X65.760 Y58.005 E6.68957
G1 X70.934 Y52.831 E6.83111
G1 X71.115 Y53.016 E6.83611
G1 X65.934 Y58.197 E6.97783
G1 X66.108 Y58.389 E6.98284
G1 X71.295 Y53.201 E7.12475
G1 X71.475 Y53.387 E7.12976
G1 X66.281 Y58.581 E7.27186
G1 X66.455 Y58.773 E7.27686
G1 X71.656 Y53.572 E7.41915
G1 X71.836 Y53.757 E7.42415
G1 X66.628 Y58.965 E7.56662
G1 X66.802 Y59.157 E7.57163
G1 X72.016 Y53.942 E7.71429
G1 X72.197 Y54.127 E7.71929
G1 X66.975 Y59.349 E7.86214
G1 X67.149 Y59.541 E7.86715
G1 X72.377 Y54.313 E8.01018
G1 X72.558 Y54.498 E8.01518
G1 X67.322 Y59.733 E8.15840
G1 X67.496 Y59.925 E8.16341
G1 X72.738 Y54.683 E8.30682
G1 X72.918 Y54.868 E8.31182
G1 X67.669 Y60.117 E8.45541
G1 X67.843 Y60.309 E8.46042
G1 X73.099 Y55.053 E8.60420
G1 X73.279 Y55.238 E8.60920
G1 X68.016 Y60.501 E8.75317
G1 X68.190 Y60.693 E8.75818
G1 X73.459 Y55.424 E8.90234
G1 X73.640 Y55.609 E8.90734
G1 X68.364 Y60.885 E9.05168
G1 X68.537 Y61.077 E9.05669
G1 X73.820 Y55.794 E9.20121
G1 X74.001 Y55.979 E9.20622
G1 X68.711 Y61.269 E9.35093
G1 X68.884 Y61.461 E9.35594
G1 X74.181 Y56.164 E9.50084
G1 X74.361 Y56.350 E9.50584
G1 X69.058 Y61.653 E9.65093
G1 X69.231 Y61.845 E9.65594
G1 X74.542 Y56.535 E9.80122
G1 X74.722 Y56.720 E9.80622
G1 X69.405 Y62.037 E9.95168
G1 X69.578 Y62.229 E9.95669
G1 X74.902 Y56.905 E10.10234
G1 X75.083 Y57.090 E10.10734
G1 X69.752 Y62.421 E10.25318
G1 X69.925 Y62.613 E10.25818
G1 X75.263 Y57.276 E10.40421
G1 X75.443 Y57.461 E10.40921
G1 X70.099 Y62.805 E10.55542
G1 X70.272 Y62.997 E10.56043
G1 X75.624 Y57.646 E10.70682
G1 X75.804 Y57.831 E10.71182
G1 X70.446 Y63.189 E10.85841
G1 X70.620 Y63.381 E10.86342
G1 X75.985 Y58.016 E11.01019
G1 X76.165 Y58.202 E11.01519
G1 X70.793 Y63.574 E11.16215
G1 X70.967 Y63.766 E11.16715
G1 X76.345 Y58.387 E11.31430
G1 X76.526 Y58.572 E11.31930
G1 X71.140 Y63.958 E11.46663
G1 X71.314 Y64.150 E11.47164
G1 X76.706 Y58.757 E11.61916
G1 X76.886 Y58.942 E11.62416
G1 X71.487 Y64.342 E11.77186
G1 X71.661 Y64.534 E11.77687
G1 X77.067 Y59.128 E11.92476
G1 X77.247 Y59.313 E11.92976
G1 X71.834 Y64.726 E12.07784
G1 X72.008 Y64.918 E12.08285
