; generated by Slic3r 1.3.0 on 2021-03-05 at 22:57:34

; external perimeters extrusion width = 0.44mm (2.86mm^3/s)
; perimeters extrusion width = 0.56mm (4.14mm^3/s)
; infill extrusion width = 0.50mm (5.48mm^3/s)
; solid infill extrusion width = 0.56mm (3.10mm^3/s)
; top infill extrusion width = 0.45mm (2.44mm^3/s)

M107
;D3D:START:START
T0
M104 S215 T0

G21
G90
M107
T0
G28
G29
M109 T0 S215 T0
G0 F3000
M107
T0
G92 E0
G0 X0 Y149 Z0.1 F3600
G1 Y49 E6.5 F1200
G0 Z1
G92 E0
; Filament gcode

G21 ; set units to millimeters
G90 ; use absolute coordinates
M82 ; use absolute distances for extrusion
G92 E0
G1 Z0.200 F6000.000
G1 E-2.00000 F1200.00000
G92 E0
G1 X56.299 Y44.628 F6000.000
G1 E2.00000 F1200.00000
G1 F1800
G1 X57.942 Y43.695 E2.03636
G1 X59.300 Y43.486 E2.06279
G1 X67.300 Y43.486 E2.21670
G1 X69.148 Y43.881 E2.25305
G1 X70.258 Y44.590 E2.27839
G1 X93.658 Y64.890 E2.87437
G1 X94.795 Y66.400 E2.91073
G1 X95.214 Y68.300 E2.94816
G1 X95.214 Y81.700 E3.20596
G1 X94.819 Y83.548 E3.24232
G1 X93.658 Y85.110 E3.27975
G1 X70.258 Y105.410 E3.87573
G1 X68.603 Y106.322 E3.91209
G1 X67.300 Y106.514 E3.93743
G1 X59.300 Y106.514 E4.09134
G1 X57.452 Y106.119 E4.12770
G1 X55.928 Y105.001 E4.16405
G1 X54.995 Y103.358 E4.20041
G1 X54.786 Y102.000 E4.22684
G1 X54.786 Y48.000 E5.26573
G1 X55.181 Y46.152 E5.30208
G1 X56.263 Y44.676 E5.33729
G1 X56.551 Y44.750 F6000.000
G1 F1800
G1 X58.174 Y43.895 E5.37258
G1 X59.300 Y43.743 E5.39444
G1 X67.300 Y43.743 E5.54835
G1 X69.091 Y44.138 E5.58365
G1 X70.090 Y44.784 E5.60652
G1 X93.490 Y65.084 E6.20250
G1 X94.584 Y66.557 E6.23780
G1 X94.957 Y68.300 E6.27209
G1 X94.957 Y81.700 E6.52989
G1 X94.562 Y83.491 E6.56518
G1 X93.490 Y84.916 E6.59948
G1 X70.090 Y105.216 E7.19546
G1 X68.477 Y106.091 E7.23075
G1 X67.300 Y106.257 E7.25363
G1 X59.300 Y106.257 E7.40754
G1 X57.509 Y105.862 E7.44283
G1 X56.050 Y104.749 E7.47813
G1 X55.195 Y103.126 E7.51342
G1 X55.043 Y102.000 E7.53528
G1 X55.043 Y48.000 E8.57417
G1 X55.438 Y46.209 E8.60947
G1 X56.514 Y44.797 E8.64361
G1 E6.64361 F1200.00000
G92 E0
G1 X89.051 Y77.777 F6000.000
G1 E2.00000 F1200.00000
G1 F1800
G1 X88.862 Y78.098 E2.00717
G1 X88.442 Y78.675 E2.02090
G1 X87.947 Y79.203 E2.03483
G1 X87.397 Y79.658 E2.04855
G1 X87.080 Y79.873 E2.05592
G1 X86.455 Y80.217 E2.06965
G1 X85.791 Y80.479 E2.08338
G1 X85.424 Y80.586 E2.09075
G1 X84.733 Y80.718 E2.10427
G1 X84.352 Y80.754 E2.11164
G1 X83.648 Y80.754 E2.12517
G1 X82.907 Y80.660 E2.13954
G1 X82.218 Y80.483 E2.15323
G1 X81.555 Y80.221 E2.16696
G1 X81.214 Y80.047 E2.17432
G1 X80.620 Y79.670 E2.18785
G1 X80.316 Y79.434 E2.19526
G1 X79.797 Y78.947 E2.20895
G1 X79.342 Y78.397 E2.22268
G1 X79.127 Y78.080 E2.23005
G1 X78.783 Y77.455 E2.24377
G1 X78.521 Y76.791 E2.25750
G1 X78.334 Y76.062 E2.27198
G1 X78.246 Y75.362 E2.28556
G1 X78.246 Y74.648 E2.29929
G1 X78.342 Y73.899 E2.31381
G1 X78.517 Y73.218 E2.32735
G1 X78.783 Y72.545 E2.34127
G1 X79.132 Y71.911 E2.35520
G1 X79.551 Y71.333 E2.36893
G1 X79.805 Y71.046 E2.37630
G1 X80.317 Y70.565 E2.38982
G1 X80.920 Y70.127 E2.40415
G1 X81.545 Y69.783 E2.41788
G1 X82.209 Y69.521 E2.43161
G1 X82.576 Y69.414 E2.43898
G1 X83.267 Y69.282 E2.45251
G1 X83.651 Y69.246 E2.45992
G1 X84.349 Y69.246 E2.47336
G1 X84.733 Y69.282 E2.48077
G1 X85.434 Y69.416 E2.49450
G1 X86.110 Y69.635 E2.50818
G1 X86.464 Y69.788 E2.51559
G1 X87.080 Y70.127 E2.52912
G1 X87.397 Y70.342 E2.53649
G1 X87.937 Y70.789 E2.54997
G1 X88.209 Y71.061 E2.55738
G1 X88.658 Y71.603 E2.57091
G1 X88.873 Y71.920 E2.57828
G1 X89.217 Y72.545 E2.59201
G1 X89.479 Y73.209 E2.60574
G1 X89.665 Y73.930 E2.62007
G1 X89.754 Y74.638 E2.63379
G1 X89.755 Y75.337 E2.64725
G1 X89.661 Y76.090 E2.66185
G1 X89.483 Y76.782 E2.67558
G1 X89.221 Y77.445 E2.68931
G1 X89.079 Y77.724 E2.69532
G1 X88.826 Y77.653 F6000.000
G1 F1800
G1 X88.647 Y77.956 E2.70210
G1 X88.244 Y78.511 E2.71528
G1 X87.770 Y79.015 E2.72859
G1 X87.242 Y79.452 E2.74178
G1 X86.946 Y79.654 E2.74868
G1 X86.345 Y79.984 E2.76186
G1 X85.708 Y80.236 E2.77505
G1 X85.363 Y80.336 E2.78195
G1 X84.697 Y80.463 E2.79501
G1 X84.339 Y80.497 E2.80191
G1 X83.661 Y80.497 E2.81497
G1 X82.960 Y80.408 E2.82856
G1 X82.298 Y80.238 E2.84171
G1 X81.661 Y79.986 E2.85489
G1 X81.341 Y79.823 E2.86179
G1 X80.768 Y79.459 E2.87485
G1 X80.483 Y79.238 E2.88180
G1 X79.985 Y78.770 E2.89494
G1 X79.548 Y78.242 E2.90812
G1 X79.346 Y77.946 E2.91503
G1 X79.016 Y77.345 E2.92821
G1 X78.764 Y76.708 E2.94139
G1 X78.588 Y76.018 E2.95509
G1 X78.503 Y75.346 E2.96813
G1 X78.503 Y74.661 E2.98131
G1 X78.593 Y73.952 E2.99505
G1 X78.762 Y73.298 E3.00805
G1 X79.016 Y72.655 E3.02135
G1 X79.350 Y72.049 E3.03466
G1 X79.752 Y71.494 E3.04784
G1 X79.990 Y71.225 E3.05475
G1 X80.484 Y70.760 E3.06781
G1 X81.054 Y70.346 E3.08136
G1 X81.655 Y70.016 E3.09454
G1 X82.292 Y69.764 E3.10773
G1 X82.637 Y69.664 E3.11463
G1 X83.303 Y69.537 E3.12769
G1 X83.663 Y69.503 E3.13463
G1 X84.337 Y69.503 E3.14761
G1 X84.697 Y69.537 E3.15455
G1 X85.370 Y69.665 E3.16774
G1 X86.019 Y69.876 E3.18088
G1 X86.351 Y70.019 E3.18782
G1 X86.946 Y70.346 E3.20088
G1 X87.242 Y70.548 E3.20779
G1 X87.764 Y70.979 E3.22081
G1 X88.019 Y71.234 E3.22775
G1 X88.452 Y71.758 E3.24081
G1 X88.654 Y72.054 E3.24771
G1 X88.984 Y72.655 E3.26090
G1 X89.236 Y73.292 E3.27408
G1 X89.411 Y73.974 E3.28763
G1 X89.497 Y74.654 E3.30081
G1 X89.497 Y75.325 E3.31373
G1 X89.409 Y76.038 E3.32755
G1 X89.238 Y76.702 E3.34073
G1 X88.986 Y77.339 E3.35392
G1 X88.853 Y77.600 E3.35954
G1 X88.601 Y77.529 F6000.000
G1 F1800
G1 X88.432 Y77.815 E3.36593
G1 X88.045 Y78.347 E3.37857
G1 X87.594 Y78.827 E3.39126
G1 X87.088 Y79.246 E3.40390
G1 X86.811 Y79.434 E3.41033
G1 X86.235 Y79.751 E3.42297
G1 X85.625 Y79.992 E3.43561
G1 X85.303 Y80.086 E3.44205
G1 X84.660 Y80.208 E3.45464
G1 X84.327 Y80.240 E3.46108
G1 X83.673 Y80.240 E3.47367
G1 X83.012 Y80.156 E3.48649
G1 X82.378 Y79.993 E3.49909
G1 X81.767 Y79.751 E3.51172
G1 X81.469 Y79.600 E3.51816
G1 X80.916 Y79.249 E3.53075
G1 X80.650 Y79.042 E3.53723
G1 X80.173 Y78.594 E3.54983
G1 X79.754 Y78.088 E3.56247
G1 X79.566 Y77.811 E3.56890
G1 X79.249 Y77.235 E3.58154
G1 X79.008 Y76.625 E3.59418
G1 X78.841 Y75.974 E3.60710
G1 X78.760 Y75.330 E3.61960
G1 X78.760 Y74.673 E3.63224
G1 X78.845 Y74.004 E3.64520
G1 X79.007 Y73.378 E3.65765
G1 X79.249 Y72.765 E3.67033
G1 X79.567 Y72.187 E3.68302
G1 X79.953 Y71.655 E3.69566
G1 X80.174 Y71.404 E3.70209
G1 X80.652 Y70.956 E3.71469
G1 X81.189 Y70.566 E3.72746
G1 X81.765 Y70.249 E3.74010
G1 X82.375 Y70.008 E3.75274
G1 X82.697 Y69.914 E3.75918
G1 X83.340 Y69.792 E3.77177
G1 X83.675 Y69.760 E3.77825
G1 X84.325 Y69.760 E3.79076
G1 X84.660 Y69.792 E3.79724
G1 X85.306 Y69.915 E3.80988
G1 X85.929 Y70.117 E3.82248
G1 X86.238 Y70.251 E3.82895
G1 X86.811 Y70.566 E3.84155
G1 X87.088 Y70.754 E3.84798
G1 X87.591 Y71.170 E3.86054
G1 X87.829 Y71.408 E3.86701
G1 X88.246 Y71.912 E3.87961
G1 X88.434 Y72.189 E3.88604
G1 X88.751 Y72.765 E3.89868
G1 X88.992 Y73.375 E3.91132
G1 X89.158 Y74.019 E3.92410
G1 X89.240 Y74.670 E3.93673
G1 X89.240 Y75.314 E3.94911
G1 X89.157 Y75.986 E3.96215
G1 X88.993 Y76.622 E3.97479
G1 X88.751 Y77.233 E3.98743
G1 X88.628 Y77.476 E3.99266
G1 X88.776 Y77.812 F6000.000
G1 E1.99266 F1200.00000
G92 E0
G1 X76.964 Y77.905 F6000.000
G1 E2.00000 F1200.00000
G1 F1800
G1 X76.964 Y72.095 E2.11179
G1 X74.764 Y72.095 E2.15412
G1 X74.764 Y69.836 E2.19757
G1 X59.964 Y69.836 E2.48230
G1 X59.964 Y67.970 E2.51819
G1 X60.521 Y67.900 E2.52899
G1 X61.313 Y67.697 E2.54473
G1 X62.064 Y67.399 E2.56027
G1 X62.448 Y67.204 E2.56855
G1 X63.130 Y66.771 E2.58408
G1 X63.752 Y66.256 E2.59962
G1 X64.056 Y65.952 E2.60790
G1 X64.565 Y65.338 E2.62324
G1 X64.800 Y64.991 E2.63131
G1 X65.014 Y64.629 E2.63939
G1 X65.353 Y63.908 E2.65473
G1 X65.499 Y63.503 E2.66300
G1 X65.700 Y62.722 E2.67851
G1 X65.800 Y61.956 E2.69339
G1 X65.814 Y61.500 E2.70216
G1 X65.801 Y61.081 E2.71023
G1 X65.700 Y60.279 E2.72578
G1 X65.499 Y59.497 E2.74131
G1 X65.353 Y59.092 E2.74959
G1 X65.014 Y58.371 E2.76493
G1 X64.800 Y58.009 E2.77300
G1 X64.565 Y57.662 E2.78108
G1 X64.050 Y57.040 E2.79662
G1 X63.453 Y56.480 E2.81236
G1 X62.800 Y56.005 E2.82790
G1 X62.429 Y55.786 E2.83617
G1 X61.708 Y55.447 E2.85151
G1 X61.303 Y55.301 E2.85979
G1 X60.521 Y55.100 E2.87533
G1 X59.964 Y55.030 E2.88613
G1 X59.964 Y48.664 E3.00859
G1 X67.020 Y48.664 E3.14433
G1 X86.790 Y68.964 E3.68948
G1 X90.036 Y68.964 E3.75193
G1 X90.036 Y81.036 E3.98417
G1 X86.790 Y81.036 E4.04661
G1 X67.020 Y101.336 E4.59177
G1 X59.964 Y101.336 E4.72751
G1 X59.964 Y94.970 E4.84997
G1 X60.521 Y94.900 E4.86077
G1 X61.303 Y94.699 E4.87631
G1 X61.708 Y94.553 E4.88458
G1 X62.429 Y94.214 E4.89992
G1 X62.800 Y93.995 E4.90820
G1 X63.445 Y93.526 E4.92353
G1 X63.759 Y93.249 E4.93161
G1 X64.056 Y92.952 E4.93968
G1 X64.571 Y92.330 E4.95522
G1 X65.010 Y91.639 E4.97096
G1 X65.353 Y90.908 E4.98651
G1 X65.499 Y90.503 E4.99478
G1 X65.700 Y89.721 E5.01032
G1 X65.801 Y88.919 E5.02586
G1 X65.814 Y88.500 E5.03393
G1 X65.801 Y88.081 E5.04201
G1 X65.700 Y87.279 E5.05755
G1 X65.499 Y86.497 E5.07309
G1 X65.353 Y86.092 E5.08136
G1 X65.014 Y85.371 E5.09670
G1 X64.800 Y85.008 E5.10480
G1 X64.552 Y84.646 E5.11325
G1 X64.055 Y84.047 E5.12822
G1 X63.735 Y83.729 E5.13690
G1 X63.129 Y83.229 E5.15201
G1 X62.447 Y82.796 E5.16756
G1 X62.051 Y82.595 E5.17610
G1 X61.313 Y82.303 E5.19136
G1 X60.531 Y82.103 E5.20690
G1 X59.964 Y82.026 E5.21790
G1 X59.964 Y80.164 E5.25373
G1 X74.764 Y80.164 E5.53846
G1 X74.764 Y77.905 E5.58192
G1 X76.904 Y77.905 E5.62309
G1 X76.707 Y77.648 F6000.000
G1 F1800
G1 X76.707 Y72.352 E5.72499
G1 X74.507 Y72.352 E5.76731
G1 X74.507 Y70.093 E5.81077
G1 X59.707 Y70.093 E6.09550
G1 X59.707 Y67.744 E6.14070
G1 X60.473 Y67.647 E6.15554
G1 X61.234 Y67.452 E6.17066
G1 X61.959 Y67.165 E6.18565
G1 X62.320 Y66.980 E6.19346
G1 X62.978 Y66.563 E6.20846
G1 X63.579 Y66.066 E6.22345
G1 X63.866 Y65.779 E6.23126
G1 X64.359 Y65.183 E6.24614
G1 X64.583 Y64.853 E6.25382
G1 X64.787 Y64.509 E6.26151
G1 X65.116 Y63.809 E6.27638
G1 X65.253 Y63.428 E6.28419
G1 X65.447 Y62.674 E6.29917
G1 X65.544 Y61.935 E6.31350
G1 X65.557 Y61.500 E6.32187
G1 X65.545 Y61.101 E6.32955
G1 X65.447 Y60.327 E6.34455
G1 X65.253 Y59.572 E6.35955
G1 X65.116 Y59.191 E6.36736
G1 X64.787 Y58.491 E6.38223
G1 X64.583 Y58.147 E6.38991
G1 X64.359 Y57.817 E6.39760
G1 X63.862 Y57.216 E6.41260
G1 X63.289 Y56.678 E6.42772
G1 X62.658 Y56.220 E6.44271
G1 X62.309 Y56.013 E6.45052
G1 X61.609 Y55.684 E6.46539
G1 X61.228 Y55.547 E6.47320
G1 X60.473 Y55.353 E6.48820
G1 X59.707 Y55.256 E6.50304
G1 X59.707 Y48.407 E6.63481
G1 X67.128 Y48.407 E6.77758
G1 X86.899 Y68.707 E7.32274
G1 X90.293 Y68.707 E7.38804
G1 X90.293 Y81.293 E7.63017
G1 X86.899 Y81.293 E7.69547
G1 X67.128 Y101.593 E8.24063
G1 X59.707 Y101.593 E8.38340
G1 X59.707 Y94.744 E8.51517
G1 X60.473 Y94.647 E8.53002
G1 X61.228 Y94.453 E8.54501
G1 X61.609 Y94.316 E8.55282
G1 X62.309 Y93.987 E8.56769
G1 X62.658 Y93.780 E8.57550
G1 X63.284 Y93.326 E8.59037
G1 X63.583 Y93.061 E8.59806
G1 X63.866 Y92.779 E8.60575
G1 X64.363 Y92.178 E8.62074
G1 X64.784 Y91.515 E8.63586
G1 X65.116 Y90.809 E8.65086
G1 X65.253 Y90.428 E8.65867
G1 X65.447 Y89.673 E8.67366
G1 X65.545 Y88.899 E8.68866
G1 X65.557 Y88.500 E8.69634
G1 X65.545 Y88.101 E8.70403
G1 X65.447 Y87.327 E8.71903
G1 X65.253 Y86.572 E8.73402
G1 X65.116 Y86.191 E8.74183
G1 X64.787 Y85.491 E8.75670
G1 X64.583 Y85.147 E8.76440
G1 X64.346 Y84.801 E8.77246
G1 X63.865 Y84.220 E8.78696
G1 X63.562 Y83.920 E8.79517
G1 X62.978 Y83.437 E8.80975
G1 X62.320 Y83.019 E8.82475
G1 X61.945 Y82.830 E8.83283
G1 X61.234 Y82.548 E8.84755
G1 X60.479 Y82.355 E8.86255
G1 X60.078 Y82.291 E8.87035
G1 X59.707 Y82.268 E8.87750
G1 X59.707 Y79.907 E8.92292
G1 X74.507 Y79.907 E9.20765
G1 X74.507 Y77.648 E9.25111
G1 X76.647 Y77.648 E9.29228
G1 X76.450 Y77.391 F6000.000
G1 F1800
G1 X76.450 Y72.609 E9.38428
G1 X74.250 Y72.609 E9.42661
G1 X74.250 Y70.350 E9.47007
G1 X59.450 Y70.350 E9.75480
G1 X59.450 Y67.495 E9.80972
G1 X59.679 Y67.488 E9.81413
G1 X60.424 Y67.394 E9.82858
G1 X61.154 Y67.207 E9.84308
G1 X61.853 Y66.930 E9.85753
G1 X62.193 Y66.757 E9.86487
G1 X62.827 Y66.354 E9.87932
G1 X63.406 Y65.876 E9.89377
G1 X63.676 Y65.606 E9.90111
G1 X64.153 Y65.029 E9.91552
G1 X64.366 Y64.715 E9.92282
G1 X64.559 Y64.389 E9.93011
G1 X64.878 Y63.711 E9.94452
G1 X65.007 Y63.352 E9.95186
G1 X65.194 Y62.625 E9.96631
G1 X65.287 Y61.914 E9.98010
G1 X65.300 Y61.500 E9.98806
G1 X65.288 Y61.121 E9.99536
G1 X65.194 Y60.376 E10.00981
G1 X65.007 Y59.648 E10.02426
G1 X64.878 Y59.289 E10.03161
G1 X64.559 Y58.611 E10.04601
G1 X64.366 Y58.285 E10.05331
G1 X64.153 Y57.971 E10.06061
G1 X63.674 Y57.393 E10.07506
G1 X63.125 Y56.877 E10.08956
G1 X62.517 Y56.435 E10.10401
G1 X62.189 Y56.241 E10.11135
G1 X61.511 Y55.922 E10.12576
G1 X61.152 Y55.793 E10.13310
G1 X60.424 Y55.606 E10.14755
G1 X59.679 Y55.512 E10.16200
G1 X59.450 Y55.505 E10.16641
G1 X59.450 Y48.150 E10.30790
G1 X67.237 Y48.150 E10.45771
G1 X87.007 Y68.450 E11.00286
G1 X90.550 Y68.450 E11.07102
G1 X90.550 Y81.550 E11.32305
G1 X87.007 Y81.550 E11.39121
G1 X67.237 Y101.850 E11.93637
G1 X59.450 Y101.850 E12.08617
G1 X59.450 Y94.495 E12.22767
G1 X59.679 Y94.488 E12.23207
G1 X60.424 Y94.394 E12.24653
G1 X61.152 Y94.207 E12.26098
G1 X61.511 Y94.078 E12.26832
G1 X62.189 Y93.759 E12.28273
G1 X62.517 Y93.565 E12.29007
G1 X63.123 Y93.125 E12.30447
G1 X63.676 Y92.606 E12.31906
G1 X64.154 Y92.027 E12.33351
G1 X64.558 Y91.391 E12.34801
G1 X64.878 Y90.711 E12.36246
G1 X65.007 Y90.352 E12.36980
G1 X65.194 Y89.624 E12.38425
G1 X65.288 Y88.879 E12.39871
G1 X65.300 Y88.500 E12.40600
G1 X65.288 Y88.121 E12.41330
G1 X65.194 Y87.376 E12.42775
G1 X65.007 Y86.648 E12.44220
G1 X64.878 Y86.289 E12.44955
G1 X64.559 Y85.611 E12.46395
G1 X64.366 Y85.285 E12.47125
G1 X64.141 Y84.956 E12.47892
G1 X63.675 Y84.394 E12.49296
G1 X63.390 Y84.110 E12.50070
G1 X62.827 Y83.646 E12.51475
G1 X62.193 Y83.243 E12.52920
G1 X61.840 Y83.064 E12.53681
G1 X61.154 Y82.793 E12.55099
G1 X60.427 Y82.607 E12.56544
G1 X60.050 Y82.547 E12.57278
G1 X59.450 Y82.509 E12.58434
G1 X59.450 Y79.650 E12.63935
G1 X74.250 Y79.650 E12.92408
G1 X74.250 Y77.391 E12.96754
G1 X76.390 Y77.391 E13.00871
G1 X76.836 Y77.286 F6000.000
G1 E11.00871 F1200.00000
G92 E0
G1 X89.744 Y76.937 F6000.000
G1 E2.00000 F1200.00000
G1 F1800
G1 X89.795 Y76.534 E2.00749
G1 F1800
G1 X89.846 Y76.132 E2.01244
G1 F1800
G1 X89.877 Y75.742 E2.01476
G1 F1800
G1 X89.890 Y75.454 E2.01515
G1 X89.890 Y74.557 F6000.000
G1 F1800
G1 X89.849 Y73.895 E2.01680
G1 F1800
G1 X89.806 Y73.506 E2.02022
G1 F1800
G1 X89.743 Y73.064 E2.02701
G1 X89.597 Y72.918 F6000.000
G1 F1800
G1 X89.888 Y72.627 E2.03497
G1 X89.888 Y72.262 E2.04204
G1 X89.416 Y72.734 E2.05496
G1 X89.305 Y72.479 E2.06034
G1 X89.888 Y71.896 E2.07629
G1 X89.888 Y71.530 E2.08336
G1 X89.175 Y72.243 E2.10286
G1 X89.045 Y72.007 E2.10807
G1 X89.888 Y71.165 E2.13111
G1 X89.888 Y70.799 E2.13818
G1 X88.906 Y71.781 E2.16504
G1 X88.758 Y71.563 E2.17013
G1 X89.888 Y70.434 E2.20103
G1 X89.888 Y70.068 E2.20810
G1 X88.593 Y71.363 E2.24352
G1 X88.428 Y71.163 E2.24854
G1 X89.888 Y69.703 E2.28849
G1 X89.888 Y69.337 E2.29556
G1 X88.259 Y70.966 E2.34011
G1 X88.076 Y70.783 E2.34511
G1 X89.747 Y69.112 E2.39082
G1 X89.382 Y69.112 E2.39789
G1 X87.883 Y70.610 E2.43888
G1 X87.683 Y70.445 E2.44390
G1 X89.016 Y69.112 E2.48036
G1 X88.651 Y69.112 E2.48744
G1 X87.483 Y70.279 E2.51937
G1 X87.269 Y70.128 E2.52444
G1 X88.285 Y69.112 E2.55223
G1 X87.919 Y69.112 E2.55930
G1 X87.047 Y69.985 E2.58317
G1 X86.811 Y69.855 E2.58837
G1 X87.554 Y69.112 E2.60869
G1 X87.188 Y69.112 E2.61576
G1 X86.575 Y69.725 E2.63253
G1 X86.329 Y69.606 E2.63783
G1 X86.823 Y69.112 E2.65134
G1 X86.791 Y69.112 E2.65196
G1 X86.626 Y68.943 E2.65652
G1 X86.072 Y69.497 E2.67168
G1 X85.796 Y69.408 E2.67729
G1 X86.446 Y68.758 E2.69506
G1 X86.265 Y68.573 E2.70006
G1 X85.520 Y69.318 E2.72045
G1 X85.228 Y69.245 E2.72628
G1 X86.085 Y68.388 E2.74973
G1 X85.905 Y68.202 E2.75473
G1 X84.921 Y69.186 E2.78164
G1 X84.610 Y69.132 E2.78775
G1 X85.724 Y68.017 E2.81823
G1 X85.544 Y67.832 E2.82323
G1 X84.276 Y69.100 E2.85792
G1 X83.912 Y69.098 E2.86495
G1 X85.364 Y67.647 E2.90465
G1 X85.183 Y67.462 E2.90965
G1 X83.547 Y69.098 E2.95442
