; generated by Slic3r 1.3.0 on 2021-03-06 at 11:32:01

; external perimeters extrusion width = 0.44mm (2.86mm^3/s)
; perimeters extrusion width = 0.56mm (4.14mm^3/s)
; infill extrusion width = 0.50mm (5.48mm^3/s)
; solid infill extrusion width = 0.56mm (3.10mm^3/s)
; top infill extrusion width = 0.45mm (2.44mm^3/s)

M107
;D3D:START:START
T0
M104 S215 T0

G21
G90
M107
T0
G28
G29
M109 T0 S215 T0
G0 F3000
M107
T0
G92 E0
G0 X0 Y149 Z0.1 F3600
G1 Y49 E6.5 F1200
G0 Z1
G92 E0
; Filament gcode

G21 ; set units to millimeters
G90 ; use absolute coordinates
M82 ; use absolute distances for extrusion
G92 E0
G1 Z0.200 F6000.000
G1 E-2.00000 F1200.00000
G92 E0
G1 X41.774 Y70.879 F6000.000
G1 E2.00000 F1200.00000
G1 F1800
G1 X76.990 Y41.329 E2.88443
G1 X78.660 Y40.444 E2.92079
G1 X80.546 Y40.320 E2.95714
G1 X82.317 Y40.980 E2.99350
G1 X83.350 Y41.885 E3.01993
G1 X109.062 Y72.527 E3.78948
G1 X109.946 Y74.197 E3.82584
G1 X110.070 Y76.083 E3.86219
G1 X109.411 Y77.854 E3.89855
G1 X108.505 Y78.887 E3.92498
G1 X73.010 Y108.671 E4.81642
G1 X71.340 Y109.556 E4.85278
G1 X69.454 Y109.680 E4.88914
G1 X67.683 Y109.021 E4.92549
G1 X66.650 Y108.115 E4.95192
G1 X40.938 Y77.473 E5.72147
G1 X40.054 Y75.803 E5.75783
G1 X39.930 Y73.917 E5.79419
G1 X40.589 Y72.146 E5.83054
G1 X41.495 Y71.113 E5.85697
G1 X41.728 Y70.917 E5.86284
G1 X41.940 Y71.076 F6000.000
G1 F1800
G1 X77.156 Y41.526 E6.74727
G1 X78.782 Y40.677 E6.78256
G1 X80.615 Y40.592 E6.81786
G1 X82.313 Y41.285 E6.85315
G1 X83.153 Y42.050 E6.87501
G1 X108.865 Y72.692 E7.64456
G1 X109.713 Y74.319 E7.67986
G1 X109.799 Y76.152 E7.71515
G1 X109.105 Y77.850 E7.75045
G1 X108.340 Y78.690 E7.77230
G1 X72.844 Y108.474 E8.66375
G1 X71.218 Y109.323 E8.69905
G1 X69.385 Y109.408 E8.73434
G1 X67.687 Y108.715 E8.76963
G1 X66.847 Y107.950 E8.79150
G1 X41.135 Y77.308 E9.56104
G1 X40.287 Y75.681 E9.59634
G1 X40.201 Y73.849 E9.63163
G1 X40.895 Y72.150 E9.66693
G1 X41.660 Y71.310 E9.68879
G1 X41.894 Y71.114 E9.69465
G1 E7.69465 F1200.00000
G92 E0
G1 X71.154 Y98.675 F6000.000
G1 E2.00000 F1200.00000
G1 F1800
G1 X62.266 Y88.082 E2.26604
G1 X67.496 Y83.693 E2.39740
G1 X76.385 Y94.286 E2.66344
G1 X71.200 Y98.637 E2.79365
G1 X71.186 Y98.313 F6000.000
G1 F1800
G1 X62.628 Y88.114 E3.04980
G1 X67.465 Y84.055 E3.17128
G1 X76.023 Y94.254 E3.42742
G1 X71.232 Y98.274 E3.54774
G1 X71.218 Y97.951 F6000.000
G1 F1800
G1 X62.990 Y88.145 E3.79400
G1 X67.433 Y84.417 E3.90558
G1 X75.661 Y94.223 E4.15184
G1 X71.264 Y97.912 E4.26226
G1 X71.029 Y98.303 F6000.000
G1 E2.26226 F1200.00000
G92 E0
G1 X59.905 Y85.269 F6000.000
G1 E2.00000 F1200.00000
G1 F1800
G1 X51.017 Y74.676 E2.26604
G1 X56.248 Y70.287 E2.39741
G1 X65.136 Y80.880 E2.66344
G1 X59.951 Y85.231 E2.79366
G1 X59.937 Y84.907 F6000.000
G1 F1800
G1 X51.379 Y74.708 E3.04980
G1 X56.216 Y70.649 E3.17128
G1 X64.774 Y80.849 E3.42743
G1 X59.983 Y84.869 E3.54775
G1 X59.969 Y84.545 F6000.000
G1 F1800
G1 X51.741 Y74.740 E3.79400
G1 X56.184 Y71.011 E3.90559
G1 X64.412 Y80.817 E4.15184
G1 X60.015 Y84.506 E4.26227
G1 X59.780 Y84.898 F6000.000
G1 E2.26227 F1200.00000
G92 E0
G1 X67.936 Y74.615 F6000.000
G1 E2.00000 F1200.00000
G1 F1800
G1 X64.511 Y70.533 E2.10251
G1 X72.423 Y63.894 E2.30121
G1 X75.848 Y67.976 E2.40372
G1 X67.982 Y74.576 E2.60127
G1 X67.967 Y74.253 F6000.000
G1 F1800
G1 X64.873 Y70.565 E2.69389
G1 X72.391 Y64.256 E2.88270
G1 X75.485 Y67.944 E2.97532
G1 X68.013 Y74.214 E3.16298
G1 X67.999 Y73.891 F6000.000
G1 F1800
G1 X65.235 Y70.597 E3.24570
G1 X72.359 Y64.619 E3.42462
G1 X75.123 Y67.913 E3.50735
G1 X68.045 Y73.852 E3.68511
G1 X67.733 Y74.189 F6000.000
G1 E1.68511 F1200.00000
G92 E0
G1 X72.091 Y74.155 F6000.000
G1 E2.00000 F1200.00000
G1 F1800
G1 X72.157 Y73.685 E2.00912
G1 X72.319 Y73.240 E2.01824
G1 X72.570 Y72.838 E2.02736
G1 X72.899 Y72.497 E2.03648
G1 X73.293 Y72.232 E2.04561
G1 X73.732 Y72.054 E2.05473
G1 X74.183 Y71.974 E2.06354
G1 X74.670 Y71.988 E2.07291
G1 X75.133 Y72.103 E2.08208
G1 X75.559 Y72.311 E2.09121
G1 X75.933 Y72.603 E2.10033
G1 X76.237 Y72.966 E2.10945
G1 X76.460 Y73.384 E2.11857
G1 X76.591 Y73.840 E2.12769
G1 X76.624 Y74.313 E2.13681
G1 X76.558 Y74.783 E2.14593
G1 X76.396 Y75.228 E2.15505
G1 X76.144 Y75.630 E2.16417
G1 X75.815 Y75.971 E2.17330
G1 X75.422 Y76.236 E2.18242
G1 X74.982 Y76.414 E2.19154
G1 X74.515 Y76.496 E2.20066
G1 X74.042 Y76.480 E2.20978
G1 X73.579 Y76.364 E2.21895
G1 X73.143 Y76.147 E2.22833
G1 X72.782 Y75.865 E2.23714
G1 X72.477 Y75.502 E2.24626
G1 X72.255 Y75.083 E2.25538
G1 X72.124 Y74.628 E2.26450
G1 X72.095 Y74.215 E2.27247
G1 X72.349 Y74.164 F6000.000
G1 F1800
G1 X72.408 Y73.748 E2.28055
G1 X72.551 Y73.353 E2.28863
G1 X72.774 Y72.997 E2.29671
G1 X73.066 Y72.695 E2.30479
G1 X73.414 Y72.460 E2.31287
G1 X73.803 Y72.302 E2.32096
G1 X74.202 Y72.232 E2.32875
G1 X74.635 Y72.244 E2.33708
G1 X75.044 Y72.346 E2.34520
G1 X75.422 Y72.530 E2.35328
G1 X75.753 Y72.789 E2.36136
G1 X76.023 Y73.110 E2.36944
G1 X76.220 Y73.481 E2.37752
G1 X76.336 Y73.885 E2.38560
G1 X76.365 Y74.304 E2.39368
G1 X76.307 Y74.720 E2.40177
G1 X76.163 Y75.115 E2.40985
G1 X75.941 Y75.471 E2.41793
G1 X75.649 Y75.773 E2.42601
G1 X75.301 Y76.008 E2.43409
G1 X74.911 Y76.165 E2.44217
G1 X74.497 Y76.238 E2.45025
G1 X74.078 Y76.224 E2.45834
G1 X73.668 Y76.122 E2.46645
G1 X73.281 Y75.929 E2.47478
G1 X72.961 Y75.679 E2.48257
G1 X72.691 Y75.358 E2.49066
G1 X72.494 Y74.987 E2.49874
G1 X72.378 Y74.583 E2.50682
G1 X72.353 Y74.224 E2.51375
G1 X72.607 Y74.173 F6000.000
G1 F1800
G1 X72.658 Y73.810 E2.52079
G1 X72.784 Y73.466 E2.52783
G1 X72.978 Y73.156 E2.53487
G1 X73.232 Y72.893 E2.54191
G1 X73.535 Y72.688 E2.54895
G1 X73.875 Y72.551 E2.55600
G1 X74.221 Y72.490 E2.56277
G1 X74.600 Y72.500 E2.57006
G1 X74.956 Y72.589 E2.57712
G1 X75.285 Y72.749 E2.58416
G1 X75.573 Y72.975 E2.59120
G1 X75.809 Y73.255 E2.59824
G1 X75.981 Y73.578 E2.60528
G1 X76.081 Y73.930 E2.61232
G1 X76.107 Y74.295 E2.61937
G1 X76.056 Y74.658 E2.62641
G1 X75.931 Y75.001 E2.63345
G1 X75.737 Y75.312 E2.64049
G1 X75.483 Y75.575 E2.64753
G1 X75.179 Y75.780 E2.65458
G1 X74.840 Y75.917 E2.66162
G1 X74.479 Y75.981 E2.66866
G1 X74.114 Y75.968 E2.67570
G1 X73.758 Y75.879 E2.68275
G1 X73.418 Y75.710 E2.69005
G1 X73.141 Y75.493 E2.69682
G1 X72.906 Y75.213 E2.70386
G1 X72.734 Y74.890 E2.71090
G1 X72.633 Y74.538 E2.71795
G1 X72.612 Y74.233 E2.72383
G1 X72.297 Y73.979 F6000.000
G1 E0.72383 F1200.00000
G92 E0
G1 X84.864 Y69.120 F6000.000
G1 E2.00000 F1200.00000
G1 F1800
G1 X90.095 Y64.731 E2.13137
G1 X98.983 Y75.324 E2.39741
G1 X93.752 Y79.713 E2.52877
G1 X84.902 Y69.166 E2.79366
G1 X85.226 Y69.151 F6000.000
G1 F1800
G1 X90.063 Y65.093 E2.91513
G1 X98.621 Y75.292 E3.17128
G1 X93.784 Y79.351 E3.29276
G1 X85.265 Y69.197 E3.54775
G1 X85.588 Y69.183 F6000.000
G1 F1800
G1 X90.031 Y65.455 E3.65933
G1 X98.259 Y75.260 E3.90558
G1 X93.816 Y78.989 E4.01717
G1 X85.627 Y69.229 E4.26227
G1 X85.340 Y68.961 F6000.000
G1 E2.26227 F1200.00000
G92 E0
G1 X82.504 Y66.307 F6000.000
G1 E2.00000 F1200.00000
G1 F1800
G1 X73.615 Y55.714 E2.26604
G1 X78.846 Y51.325 E2.39740
G1 X87.734 Y61.918 E2.66344
G1 X82.550 Y66.269 E2.79365
G1 X82.535 Y65.945 F6000.000
G1 F1800
G1 X73.977 Y55.746 E3.04980
G1 X78.814 Y51.687 E3.17128
G1 X87.372 Y61.886 E3.42742
G1 X82.581 Y65.906 E3.54774
G1 X82.567 Y65.583 F6000.000
G1 F1800
G1 X74.339 Y55.777 E3.79400
G1 X78.782 Y52.049 E3.90558
G1 X87.010 Y61.855 E4.15183
G1 X82.613 Y65.544 E4.26226
G1 X82.379 Y65.936 F6000.000
G1 E2.26226 F1200.00000
G92 E0
G1 X79.810 Y45.723 F6000.000
G1 E2.00000 F1200.00000
G1 F1800
G1 X104.668 Y75.347 E2.74399
G1 X70.190 Y104.277 E3.60988
G1 X45.332 Y74.653 E4.35387
G1 X79.764 Y45.761 E5.21861
G1 X79.842 Y45.360 F6000.000
G1 F1800
G1 X105.030 Y75.379 E5.97249
G1 X70.158 Y104.640 E6.84828
G1 X44.970 Y74.621 E7.60216
G1 X79.796 Y45.399 E8.47679
G1 X79.874 Y44.998 F6000.000
G1 F1800
G1 X105.392 Y75.410 E9.24056
G1 X70.126 Y105.002 E10.12624
G1 X44.608 Y74.590 E10.89001
G1 X79.828 Y45.037 E11.77453
G1 X80.034 Y45.365 F6000.000
G1 E9.77453 F1200.00000
G92 E0
G1 X76.069 Y68.080 F6000.000
G1 E2.00000 F1200.00000
G1 F1800
G1 X80.303 Y63.846 E2.11587
G1 X80.136 Y63.647 E2.12089
G1 X75.903 Y67.881 E2.23676
G1 X75.736 Y67.682 E2.24178
G1 X79.970 Y63.448 E2.35765
G1 X79.803 Y63.249 E2.36267
G1 X75.569 Y67.483 E2.47854
G1 X75.402 Y67.284 E2.48356
G1 X79.636 Y63.050 E2.59943
G1 X79.469 Y62.852 E2.60445
G1 X75.235 Y67.085 E2.72032
G1 X75.068 Y66.887 E2.72534
G1 X79.302 Y62.653 E2.84120
G1 X79.135 Y62.454 E2.84623
G1 X74.901 Y66.688 E2.96209
G1 X74.735 Y66.489 E2.96712
G1 X78.969 Y62.255 E3.08298
G1 X78.802 Y62.056 E3.08801
G1 X74.568 Y66.290 E3.20387
G1 X74.401 Y66.091 E3.20890
G1 X78.635 Y61.857 E3.32476
G1 X78.468 Y61.658 E3.32979
G1 X74.234 Y65.892 E3.44565
G1 X74.067 Y65.694 E3.45068
G1 X78.301 Y61.460 E3.56654
G1 X78.134 Y61.261 E3.57156
G1 X73.900 Y65.495 E3.68743
G1 X73.734 Y65.296 E3.69245
G1 X77.967 Y61.062 E3.80832
G1 X77.801 Y60.863 E3.81334
G1 X73.567 Y65.097 E3.92921
G1 X73.400 Y64.898 E3.93423
G1 X77.634 Y60.664 E4.05010
G1 X77.467 Y60.465 E4.05512
G1 X73.233 Y64.699 E4.17099
G1 X73.066 Y64.500 E4.17601
G1 X77.300 Y60.267 E4.29188
G1 X77.133 Y60.068 E4.29690
G1 X72.899 Y64.302 E4.41277
G1 X72.732 Y64.103 E4.41779
G1 X76.966 Y59.869 E4.53366
G1 X76.800 Y59.670 E4.53868
G1 X72.566 Y63.904 E4.65455
G1 X72.399 Y63.705 E4.65957
G1 X76.633 Y59.471 E4.77543
G1 X76.466 Y59.272 E4.78046
G1 X70.803 Y64.936 E4.93544
G1 X68.530 Y66.843 E4.99285
G1 X76.299 Y59.074 E5.20547
G1 X76.132 Y58.875 E5.21049
G1 X66.257 Y68.750 E5.48073
G1 X64.039 Y70.611 E5.53675
G1 X64.202 Y70.805 E5.54165
G1 E3.54165 F1200.00000
G92 E0
G1 X57.350 Y71.440 F6000.000
G1 E2.00000 F1200.00000
G1 F1800
G1 X57.517 Y71.639 E2.00502
G1 X73.463 Y55.693 E2.44140
G1 X73.629 Y55.892 E2.44642
G1 X57.684 Y71.838 E2.88280
G1 X57.851 Y72.037 E2.88782
G1 X73.796 Y56.091 E3.32420
G1 X73.963 Y56.290 E3.32922
G1 X58.017 Y72.235 E3.76559
G1 X58.184 Y72.434 E3.77062
G1 X74.130 Y56.489 E4.20699
G1 X74.297 Y56.687 E4.21202
G1 X58.351 Y72.633 E4.64839
G1 X58.518 Y72.832 E4.65341
G1 X74.464 Y56.886 E5.08979
G1 X74.631 Y57.085 E5.09481
G1 X58.685 Y73.031 E5.53119
G1 X58.852 Y73.230 E5.53621
G1 X74.797 Y57.284 E5.97259
G1 X74.964 Y57.483 E5.97761
G1 X59.019 Y73.429 E6.41399
G1 X59.185 Y73.627 E6.41901
G1 X75.131 Y57.682 E6.85539
G1 X75.298 Y57.880 E6.86041
G1 X59.352 Y73.826 E7.29678
G1 X59.519 Y74.025 E7.30181
G1 X75.465 Y58.079 E7.73818
G1 X75.632 Y58.278 E7.74321
G1 X59.686 Y74.224 E8.17958
G1 X59.853 Y74.423 E8.18460
G1 X75.798 Y58.477 E8.62098
G1 X75.965 Y58.676 E8.62600
G1 X60.020 Y74.622 E9.06238
G1 X60.186 Y74.820 E9.06740
G1 X64.420 Y70.587 E9.18327
G1 X64.587 Y70.785 E9.18829
G1 X60.353 Y75.019 E9.30416
G1 X60.520 Y75.218 E9.30918
G1 X64.754 Y70.984 E9.42505
G1 X64.921 Y71.183 E9.43007
G1 X60.687 Y75.417 E9.54594
G1 X60.854 Y75.616 E9.55096
G1 X65.088 Y71.382 E9.66683
G1 X65.255 Y71.581 E9.67185
G1 X61.021 Y75.815 E9.78772
G1 X61.188 Y76.013 E9.79274
G1 X65.421 Y71.780 E9.90861
G1 X65.588 Y71.978 E9.91363
G1 X61.354 Y76.212 E10.02950
G1 X61.521 Y76.411 E10.03452
G1 X65.755 Y72.177 E10.15039
G1 X65.922 Y72.376 E10.15541
G1 X61.688 Y76.610 E10.27128
G1 X61.855 Y76.809 E10.27630
G1 X66.089 Y72.575 E10.39217
G1 X66.256 Y72.774 E10.39719
G1 X62.022 Y77.008 E10.51305
G1 X62.189 Y77.207 E10.51808
G1 X66.423 Y72.973 E10.63394
G1 X66.589 Y73.171 E10.63897
G1 X62.355 Y77.405 E10.75483
G1 X62.522 Y77.604 E10.75986
G1 X66.756 Y73.370 E10.87572
G1 X66.923 Y73.569 E10.88075
G1 X62.689 Y77.803 E10.99661
G1 X62.856 Y78.002 E11.00164
G1 X67.090 Y73.768 E11.11750
G1 X67.257 Y73.967 E11.12253
G1 X63.023 Y78.201 E11.23839
G1 X63.190 Y78.400 E11.24342
G1 X67.424 Y74.166 E11.35928
G1 X67.590 Y74.364 E11.36431
G1 X63.357 Y78.598 E11.48017
G1 X63.523 Y78.797 E11.48520
G1 X67.757 Y74.563 E11.60106
G1 X67.924 Y74.762 E11.60609
G1 X63.690 Y78.996 E11.72195
G1 X63.857 Y79.195 E11.72698
G1 X69.075 Y73.977 E11.86978
G1 X71.348 Y72.070 E11.92719
G1 X64.024 Y79.394 E12.12763
G1 X64.191 Y79.593 E12.13265
G1 X73.621 Y70.163 E12.39071
G1 X75.894 Y68.255 E12.44813
G1 X64.358 Y79.791 E12.76382
G1 X64.524 Y79.990 E12.76885
G1 X80.470 Y64.045 E13.20522
G1 X80.637 Y64.243 E13.21025
G1 X64.691 Y80.189 E13.64662
G1 E11.64662 F1200.00000
G92 E0
G1 X61.815 Y88.185 F6000.000
G1 E2.00000 F1200.00000
G1 F1800
G1 X61.794 Y88.159 E2.00064
G1 X62.082 Y87.918 E2.00791
G1 X73.534 Y76.466 E2.32131
G1 X73.814 Y76.552 E2.32697
G1 X64.355 Y86.011 E2.58583
G1 X66.628 Y84.104 E2.64325
G1 X74.107 Y76.625 E2.84792
G1 X74.459 Y76.639 E2.85473
G1 X67.528 Y83.569 E3.04440
G1 X67.695 Y83.768 E3.04942
G1 X74.855 Y76.607 E3.24539
G1 X75.163 Y76.553 E3.25143
G1 X75.351 Y76.477 E3.25537
G1 X67.861 Y83.967 E3.46034
G1 X68.028 Y84.166 E3.46537
G1 X91.901 Y60.293 E4.11868
G1 X92.068 Y60.492 E4.12371
G1 X68.195 Y84.365 E4.77702
G1 X68.362 Y84.564 E4.78205
G1 X92.235 Y60.691 E5.43536
G1 X92.402 Y60.889 E5.44038
G1 X68.529 Y84.762 E6.09370
G1 X68.696 Y84.961 E6.09872
G1 X84.423 Y69.234 E6.52913
G1 X84.393 Y69.197 E6.53005
G1 X84.810 Y68.847 E6.54059
G1 X92.569 Y61.088 E6.75292
G1 X92.735 Y61.287 E6.75794
G1 X87.083 Y66.940 E6.91264
G1 X89.356 Y65.033 E6.97005
G1 X92.902 Y61.486 E7.06711
G1 X93.069 Y61.685 E7.07213
G1 X90.135 Y64.619 E7.15242
G1 X90.302 Y64.817 E7.15744
G1 X93.236 Y61.884 E7.23773
G1 X93.403 Y62.083 E7.24275
G1 X90.469 Y65.016 E7.32303
G1 X90.636 Y65.215 E7.32806
G1 X93.570 Y62.281 E7.40834
G1 X93.737 Y62.480 E7.41336
G1 X90.803 Y65.414 E7.49365
G1 X90.970 Y65.613 E7.49867
G1 X93.903 Y62.679 E7.57895
G1 X94.070 Y62.878 E7.58398
G1 X91.137 Y65.812 E7.66426
G1 X91.303 Y66.010 E7.66928
G1 X94.237 Y63.077 E7.74957
G1 X94.404 Y63.276 E7.75459
G1 X91.470 Y66.209 E7.83488
G1 X91.637 Y66.408 E7.83990
G1 X94.571 Y63.474 E7.92018
G1 X94.738 Y63.673 E7.92521
G1 X91.804 Y66.607 E8.00549
G1 X91.971 Y66.806 E8.01051
G1 X94.904 Y63.872 E8.09080
G1 X95.071 Y64.071 E8.09582
G1 X92.138 Y67.005 E8.17610
G1 X92.304 Y67.203 E8.18113
G1 X95.238 Y64.270 E8.26141
G1 X95.405 Y64.469 E8.26643
G1 X92.471 Y67.402 E8.34672
G1 X92.638 Y67.601 E8.35174
G1 X95.572 Y64.667 E8.43203
G1 X95.739 Y64.866 E8.43705
G1 X92.805 Y67.800 E8.51733
G1 X92.972 Y67.999 E8.52236
G1 X95.906 Y65.065 E8.60264
G1 X96.072 Y65.264 E8.60766
G1 X93.139 Y68.198 E8.68795
G1 X93.306 Y68.396 E8.69297
G1 X96.239 Y65.463 E8.77325
G1 X96.406 Y65.662 E8.77828
G1 X93.472 Y68.595 E8.85856
G1 X93.639 Y68.794 E8.86358
G1 X96.573 Y65.860 E8.94387
G1 X96.740 Y66.059 E8.94889
G1 X93.806 Y68.993 E9.02917
G1 X93.973 Y69.192 E9.03420
G1 X96.907 Y66.258 E9.11448
G1 X97.073 Y66.457 E9.11950
G1 X94.140 Y69.391 E9.19979
G1 X94.307 Y69.590 E9.20481
G1 X97.240 Y66.656 E9.28509
G1 X97.407 Y66.855 E9.29012
G1 X94.473 Y69.788 E9.37040
G1 X94.640 Y69.987 E9.37542
G1 X97.574 Y67.054 E9.45571
G1 X97.741 Y67.252 E9.46073
G1 X94.807 Y70.186 E9.54101
G1 X94.974 Y70.385 E9.54604
G1 X97.908 Y67.451 E9.62632
G1 X98.075 Y67.650 E9.63134
G1 X95.141 Y70.584 E9.71163
G1 X95.308 Y70.783 E9.71665
G1 X98.241 Y67.849 E9.79693
G1 X98.408 Y68.048 E9.80196
G1 X95.475 Y70.981 E9.88224
G1 X95.641 Y71.180 E9.88726
G1 X98.575 Y68.247 E9.96755
G1 X98.742 Y68.445 E9.97257
G1 X95.808 Y71.379 E10.05285
G1 X95.975 Y71.578 E10.05788
G1 X98.909 Y68.644 E10.13816
G1 X99.076 Y68.843 E10.14318
G1 X96.142 Y71.777 E10.22347
G1 X96.309 Y71.976 E10.22849
G1 X99.242 Y69.042 E10.30877
G1 X99.409 Y69.241 E10.31380
G1 X96.476 Y72.174 E10.39408
G1 X96.643 Y72.373 E10.39910
G1 X99.576 Y69.440 E10.47939
G1 X99.743 Y69.638 E10.48441
G1 X96.809 Y72.572 E10.56469
G1 X96.976 Y72.771 E10.56972
G1 X99.910 Y69.837 E10.65000
G1 X100.077 Y70.036 E10.65502
G1 X97.143 Y72.970 E10.73531
G1 X97.310 Y73.169 E10.74033
G1 X100.244 Y70.235 E10.82061
G1 X100.410 Y70.434 E10.82564
G1 X97.477 Y73.367 E10.90592
G1 X97.644 Y73.566 E10.91094
G1 X100.577 Y70.633 E10.99123
G1 X100.744 Y70.831 E10.99625
G1 X97.810 Y73.765 E11.07653
G1 X97.977 Y73.964 E11.08155
G1 X100.911 Y71.030 E11.16184
G1 X101.078 Y71.229 E11.16686
G1 X98.144 Y74.163 E11.24714
G1 X98.311 Y74.362 E11.25217
G1 X101.245 Y71.428 E11.33245
G1 X101.411 Y71.627 E11.33747
G1 X98.478 Y74.561 E11.41776
G1 X98.645 Y74.759 E11.42278
G1 X101.578 Y71.826 E11.50306
