; generated by Slic3r 1.3.0 on 2020-07-23 at 21:51:34

; external perimeters extrusion width = 0.42mm (4.00mm^3/s)
; perimeters extrusion width = 0.40mm (5.03mm^3/s)
; infill extrusion width = 0.42mm (6.93mm^3/s)
; solid infill extrusion width = 0.42mm (2.13mm^3/s)
; top infill extrusion width = 0.42mm (1.60mm^3/s)

; external perimeters extrusion width = 0.42mm (4.00mm^3/s)
; perimeters extrusion width = 0.40mm (5.03mm^3/s)
; infill extrusion width = 0.42mm (6.93mm^3/s)
; solid infill extrusion width = 0.42mm (2.13mm^3/s)
; top infill extrusion width = 0.42mm (1.60mm^3/s)

;D3D:START:START
T0
M104 S215 T0

G21
G90
M107
T0
G28
G29
M109 T0 S215 T0
G0 F3000
M107
T0
G92 E0
G0 X0 Y149 Z0.1 F3600
G1 Y49 E6.5 F1200
G0 Z1
G92 E0
; Filament gcode

G21 ; set units to millimeters
G90 ; use absolute coordinates
M82 ; use absolute distances for extrusion
G92 E0
G1 Z0.300 F6000.000
G1 E-0.50000 F1200.00000
G92 E0
G1 X52.652 Y69.982 F6000.000
G1 E0.50000 F1200.00000
G1 F1080
G1 X53.256 Y69.554 E0.52002
G1 X54.276 Y69.013 E0.55122
G1 X55.234 Y68.655 E0.57888
G1 X55.834 Y68.477 E0.59580
G1 X57.128 Y68.191 E0.63164
G1 X57.505 Y68.124 E0.64199
G1 X59.369 Y67.885 E0.69278
G1 X61.446 Y67.733 E0.74910
G1 X63.604 Y67.659 E0.80749
G1 X66.117 Y67.643 E0.87543
G1 X68.844 Y67.682 E0.94916
G1 X74.460 Y67.863 E1.10108
G1 X77.438 Y67.995 E1.18167
G1 X80.468 Y68.155 E1.26371
G1 X86.314 Y68.510 E1.42205
G1 X95.314 Y69.115 E1.66595
G1 X97.121 Y69.639 E1.71680
G1 X98.552 Y70.859 E1.76765
G1 X99.354 Y72.560 E1.81849
G1 X99.471 Y73.575 E1.84612
G1 X99.471 Y75.552 E1.89955
G1 X99.076 Y77.390 E1.95040
G1 X97.959 Y78.904 E2.00125
G1 X95.747 Y79.960 E2.06754
G1 X92.165 Y80.534 E2.16560
G1 X89.488 Y80.915 E2.23872
G1 X86.641 Y81.279 E2.31631
G1 X83.667 Y81.612 E2.39723
G1 X80.696 Y81.891 E2.47791
G1 X77.512 Y82.128 E2.56423
G1 X74.534 Y82.283 E2.64484
G1 X71.476 Y82.356 E2.72756
G1 X68.495 Y82.318 E2.80815
G1 X65.661 Y82.166 E2.88488
G1 X63.016 Y81.903 E2.95675
G1 X60.595 Y81.537 E3.02295
G1 X58.424 Y81.075 E3.08297
G1 X56.513 Y80.522 E3.13676
G1 X56.090 Y80.374 E3.14886
G1 X54.844 Y79.865 E3.18525
G1 X54.239 Y79.562 E3.20356
G1 X53.353 Y79.031 E3.23149
G1 X52.420 Y78.287 E3.26375
G1 X51.906 Y77.749 E3.28385
G1 X50.804 Y75.766 E3.34520
G1 X50.668 Y75.232 E3.36008
G1 X50.596 Y73.353 E3.41093
G1 X50.970 Y72.189 E3.44399
G1 X51.209 Y71.692 E3.45891
G1 X52.613 Y70.028 E3.51778
G1 X52.788 Y70.174 F6000.000
G1 F1080
G1 X53.392 Y69.746 E3.53779
G1 X54.358 Y69.234 E3.56735
G1 X55.316 Y68.875 E3.59501
G1 X55.885 Y68.707 E3.61104
G1 X57.179 Y68.421 E3.64688
G1 X57.536 Y68.358 E3.65668
G1 X59.386 Y68.120 E3.70711
G1 X61.454 Y67.968 E3.76317
G1 X63.733 Y67.892 E3.82483
G1 X66.203 Y67.879 E3.89162
G1 X68.837 Y67.918 E3.96283
G1 X74.451 Y68.099 E4.11470
G1 X77.427 Y68.231 E4.19524
G1 X80.454 Y68.391 E4.27719
G1 X86.299 Y68.745 E4.43551
G1 X95.298 Y69.350 E4.67936
G1 X97.052 Y69.870 E4.72883
G1 X98.424 Y71.082 E4.77830
G1 X99.236 Y73.575 E4.84921
G1 X99.236 Y75.552 E4.90264
G1 X98.840 Y77.338 E4.95211
G1 X97.728 Y78.792 E5.00159
G1 X95.703 Y79.729 E5.06193
G1 X92.132 Y80.300 E5.15970
G1 X89.458 Y80.682 E5.23272
G1 X86.615 Y81.045 E5.31021
G1 X83.645 Y81.377 E5.39103
G1 X80.674 Y81.657 E5.47170
G1 X77.500 Y81.893 E5.55776
G1 X74.522 Y82.048 E5.63837
G1 X71.470 Y82.120 E5.72090
G1 X68.498 Y82.082 E5.80126
G1 X65.674 Y81.930 E5.87773
G1 X63.040 Y81.669 E5.94930
G1 X60.631 Y81.304 E6.01517
G1 X58.474 Y80.845 E6.07480
G1 X56.579 Y80.296 E6.12812
G1 X56.180 Y80.156 E6.13958
G1 X54.934 Y79.647 E6.17598
G1 X54.360 Y79.359 E6.19332
G1 X53.474 Y78.829 E6.22125
G1 X52.590 Y78.124 E6.25181
G1 X52.076 Y77.587 E6.27191
G1 X51.033 Y75.707 E6.33003
G1 X50.896 Y75.174 E6.34491
G1 X50.837 Y73.345 E6.39438
G1 X51.182 Y72.291 E6.42438
G1 X51.421 Y71.794 E6.43929
G1 X52.749 Y70.220 E6.49497
G1 E5.99497 F1200.00000
G92 E0
G1 X80.864 Y76.732 F6000.000
G1 E0.50000 F1200.00000
G1 F1080
G1 X80.864 Y73.309 E0.59255
G1 X81.425 Y73.342 E0.60775
G1 X81.425 Y76.679 E0.69798
G1 X80.924 Y76.726 E0.71159
G1 E0.21159 F1200.00000
G92 E0
G1 X70.465 Y75.973 F6000.000
G1 E0.50000 F1200.00000
G1 F1080
G1 X70.285 Y75.973 E0.50484
G1 X69.962 Y75.911 E0.51374
G1 X69.796 Y75.845 E0.51858
G1 X69.518 Y75.669 E0.52748
G1 X69.387 Y75.546 E0.53232
G1 X69.191 Y75.276 E0.54135
G1 X69.068 Y74.965 E0.55038
G1 X69.034 Y74.790 E0.55522
G1 X69.034 Y74.460 E0.56412
G1 X69.068 Y74.284 E0.56896
G1 X69.191 Y73.974 E0.57799
G1 X69.387 Y73.704 E0.58702
G1 X69.518 Y73.581 E0.59186
G1 X69.800 Y73.402 E0.60089
G1 X70.117 Y73.299 E0.60991
G1 X70.295 Y73.277 E0.61475
G1 X70.623 Y73.297 E0.62365
G1 X70.797 Y73.342 E0.62850
G1 X71.095 Y73.482 E0.63739
G1 X71.240 Y73.587 E0.64224
G1 X71.465 Y73.827 E0.65113
G1 X71.561 Y73.978 E0.65598
G1 X71.682 Y74.284 E0.66488
G1 X71.716 Y74.460 E0.66972
G1 X71.716 Y74.790 E0.67862
G1 X71.682 Y74.965 E0.68346
G1 X71.559 Y75.276 E0.69248
G1 X71.363 Y75.546 E0.70151
G1 X71.232 Y75.669 E0.70635
G1 X70.954 Y75.845 E0.71525
G1 X70.788 Y75.911 E0.72009
G1 X70.523 Y75.961 E0.72737
G1 E0.22737 F1200.00000
G92 E0
G1 X61.488 Y75.911 F6000.000
G1 E0.50000 F1200.00000
G1 F1080
G1 X61.165 Y75.973 E0.50890
G1 X60.985 Y75.973 E0.51374
G1 X60.662 Y75.911 E0.52264
G1 X60.496 Y75.845 E0.52748
G1 X60.214 Y75.666 E0.53651
G1 X59.985 Y75.423 E0.54554
G1 X59.889 Y75.271 E0.55038
G1 X59.768 Y74.965 E0.55928
G1 X59.734 Y74.790 E0.56412
G1 X59.734 Y74.460 E0.57302
G1 X59.768 Y74.284 E0.57786
G1 X59.889 Y73.978 E0.58676
G1 X59.985 Y73.827 E0.59160
G1 X60.214 Y73.584 E0.60063
G1 X60.500 Y73.402 E0.60978
G1 X60.817 Y73.299 E0.61881
G1 X60.995 Y73.277 E0.62365
G1 X61.323 Y73.297 E0.63255
G1 X61.497 Y73.342 E0.63739
G1 X61.795 Y73.482 E0.64629
G1 X61.940 Y73.587 E0.65113
G1 X62.165 Y73.827 E0.66003
G1 X62.261 Y73.978 E0.66488
G1 X62.382 Y74.284 E0.67377
G1 X62.416 Y74.460 E0.67862
G1 X62.416 Y74.790 E0.68751
G1 X62.382 Y74.965 E0.69236
G1 X62.259 Y75.276 E0.70138
G1 X62.063 Y75.546 E0.71041
G1 X61.932 Y75.669 E0.71525
G1 X61.654 Y75.845 E0.72415
G1 X61.544 Y75.889 E0.72737
G1 X58.588 Y75.611 F6000.000
G1 F1080
G1 X58.265 Y75.673 E0.73627
G1 X58.085 Y75.673 E0.74111
G1 X57.762 Y75.611 E0.75001
G1 X57.596 Y75.545 E0.75485
G1 X57.314 Y75.366 E0.76388
G1 X57.085 Y75.123 E0.77291
G1 X56.989 Y74.971 E0.77775
G1 X56.868 Y74.665 E0.78665
G1 X56.834 Y74.490 E0.79149
G1 X56.834 Y74.160 E0.80039
G1 X56.868 Y73.984 E0.80523
G1 X56.989 Y73.678 E0.81413
G1 X57.085 Y73.527 E0.81897
G1 X57.314 Y73.284 E0.82800
G1 X57.600 Y73.102 E0.83716
G1 X57.917 Y72.999 E0.84618
G1 X58.095 Y72.977 E0.85103
G1 X58.423 Y72.997 E0.85993
G1 X58.592 Y73.041 E0.86464
G1 X58.754 Y73.105 E0.86935
G1 X59.036 Y73.284 E0.87838
G1 X59.265 Y73.527 E0.88741
G1 X59.361 Y73.678 E0.89225
G1 X59.482 Y73.984 E0.90115
G1 X59.516 Y74.160 E0.90599
G1 X59.516 Y74.490 E0.91489
G1 X59.482 Y74.665 E0.91973
G1 X59.359 Y74.976 E0.92876
G1 X59.163 Y75.246 E0.93779
G1 X59.032 Y75.369 E0.94263
G1 X58.754 Y75.545 E0.95153
G1 X58.644 Y75.589 E0.95474
G1 E0.45474 F1200.00000
G92 E0
G1 X94.850 Y75.424 F6000.000
G1 E0.50000 F1200.00000
G1 F1080
G1 X91.510 Y75.959 E0.59145
G1 X88.900 Y76.332 E0.66274
G1 X86.126 Y76.687 E0.73835
G1 X83.232 Y77.011 E0.81708
G1 X80.264 Y77.290 E0.89769
G1 X77.269 Y77.513 E0.97888
G1 X74.296 Y77.668 E1.05937
G1 X71.372 Y77.736 E1.13846
G1 X68.563 Y77.697 E1.21441
G1 X65.918 Y77.551 E1.28601
G1 X63.484 Y77.306 E1.35215
G1 X61.302 Y76.970 E1.41186
G1 X59.407 Y76.560 E1.46427
G1 X57.832 Y76.094 E1.50868
G1 X56.604 Y75.591 E1.54456
G1 X55.745 Y75.077 E1.57163
G1 X55.272 Y74.583 E1.59012
G1 X55.159 Y74.141 E1.60246
G1 X55.357 Y73.729 E1.61481
G1 X55.913 Y73.335 E1.63324
G1 X56.842 Y72.987 E1.66006
G1 X58.119 Y72.705 E1.69543
G1 X59.717 Y72.493 E1.73902
G1 X61.608 Y72.351 E1.79027
G1 X63.759 Y72.277 E1.84848
G1 X66.874 Y72.275 E1.93268
G1 X68.715 Y72.302 E1.98246
G1 X71.444 Y72.379 E2.05629
G1 X77.232 Y72.612 E2.21289
G1 X80.198 Y72.769 E2.29319
G1 X86.025 Y73.122 E2.45103
G1 X94.850 Y73.716 E2.69017
G1 X94.850 Y75.364 E2.73473
G1 X94.614 Y75.223 F6000.000
G1 F1080
G1 X94.614 Y74.889 E2.74375
G1 X94.217 Y75.287 E2.75893
G1 X93.820 Y75.350 E2.76981
G1 X94.614 Y74.556 E2.80018
G1 X94.614 Y74.223 E2.80919
G1 X93.423 Y75.414 E2.85474
G1 X93.027 Y75.477 E2.86561
G1 X94.571 Y73.933 E2.92468
G1 X94.259 Y73.912 E2.93315
G1 X92.630 Y75.541 E2.99545
G1 X92.233 Y75.605 E3.00633
G1 X93.946 Y73.891 E3.07187
G1 X93.634 Y73.870 E3.08033
G1 X91.836 Y75.668 E3.14911
G1 X91.440 Y75.731 E3.15996
G1 X93.322 Y73.849 E3.23195
G1 X93.009 Y73.828 E3.24041
G1 X91.051 Y75.787 E3.31533
G1 X90.662 Y75.842 E3.32595
G1 X92.697 Y73.807 E3.40379
G1 X92.385 Y73.786 E3.41226
G1 X90.273 Y75.898 E3.49303
G1 X89.884 Y75.953 E3.50365
G1 X92.072 Y73.765 E3.58735
G1 X91.760 Y73.744 E3.59581
G1 X89.495 Y76.009 E3.68244
G1 X89.106 Y76.064 E3.69306
G1 X91.448 Y73.723 E3.78261
G1 X91.136 Y73.702 E3.79108
G1 X88.720 Y76.117 E3.88346
G1 X88.338 Y76.166 E3.89388
G1 X90.823 Y73.681 E3.98894
G1 X90.511 Y73.660 E3.99740
G1 X87.956 Y76.215 E4.09514
G1 X87.573 Y76.264 E4.10556
G1 X90.199 Y73.639 E4.20597
G1 X89.886 Y73.618 E4.21443
G1 X87.191 Y76.313 E4.31752
G1 X86.809 Y76.362 E4.32794
G1 X89.574 Y73.597 E4.43370
G1 X89.262 Y73.576 E4.44216
G1 X86.427 Y76.411 E4.55060
G1 X86.045 Y76.459 E4.56099
G1 X88.949 Y73.555 E4.67207
G1 X88.637 Y73.534 E4.68053
G1 X85.670 Y76.501 E4.79401
G1 X85.295 Y76.543 E4.80423
G1 X88.325 Y73.513 E4.92012
G1 X88.012 Y73.492 E4.92859
G1 X84.919 Y76.585 E5.04689
G1 X84.544 Y76.627 E5.05711
G1 X87.700 Y73.471 E5.17782
G1 X87.388 Y73.450 E5.18629
G1 X84.169 Y76.669 E5.30942
G1 X83.793 Y76.711 E5.31963
G1 X87.076 Y73.429 E5.44517
G1 X86.763 Y73.408 E5.45363
G1 X83.418 Y76.753 E5.58158
G1 X83.046 Y76.792 E5.59170
G1 X86.451 Y73.387 E5.72193
G1 X86.139 Y73.366 E5.73040
G1 X82.678 Y76.826 E5.86276
G1 X82.310 Y76.861 E5.87276
G1 X85.825 Y73.346 E6.00721
G1 X85.511 Y73.327 E6.01572
G1 X81.942 Y76.896 E6.15223
G1 X81.574 Y76.930 E6.16222
G1 X81.606 Y76.898 E6.16345
G1 X81.238 Y76.933 E6.17344
G1 X81.206 Y76.965 E6.17467
G1 X80.838 Y77.000 E6.18466
G1 X80.870 Y76.968 E6.18589
G1 X80.628 Y76.991 E6.19245
G1 X80.628 Y76.876 E6.19554
G1 X80.470 Y77.034 E6.20160
G1 X80.105 Y77.066 E6.21151
G1 X80.628 Y76.543 E6.23152
G1 X80.628 Y76.210 E6.24053
G1 X79.745 Y77.093 E6.27432
G1 X79.385 Y77.120 E6.28408
G1 X80.628 Y75.876 E6.33164
G1 X80.628 Y75.543 E6.34066
G1 X79.025 Y77.146 E6.40199
G1 X78.665 Y77.173 E6.41176
G1 X80.628 Y75.210 E6.48686
G1 X80.628 Y74.876 E6.49588
G1 X78.304 Y77.200 E6.58476
G1 X77.944 Y77.227 E6.59452
G1 X80.628 Y74.543 E6.69718
G1 X80.628 Y74.210 E6.70619
G1 X77.584 Y77.254 E6.82262
G1 X77.225 Y77.280 E6.83237
G1 X80.628 Y73.876 E6.96254
G1 X80.628 Y73.543 E6.97155
G1 X76.873 Y77.298 E7.11518
G1 X76.521 Y77.316 E7.12470
G1 X80.628 Y73.210 E7.28177
G1 E6.78177 F1200.00000
G92 E0
G1 X81.661 Y76.844 F6000.000
G1 E0.50000 F1200.00000
G1 F1080
G1 X85.197 Y73.308 E0.63525
G1 X84.882 Y73.289 E0.64376
G1 X81.661 Y76.511 E0.76699
G1 X81.661 Y76.177 E0.77600
G1 X84.568 Y73.270 E0.88721
G1 X84.254 Y73.251 E0.89573
G1 X81.661 Y75.844 E0.99492
G1 X81.661 Y75.511 E1.00393
G1 X83.940 Y73.231 E1.09110
G1 X83.625 Y73.212 E1.09961
G1 X81.661 Y75.177 E1.17476
G1 X81.661 Y74.844 E1.18378
G1 X83.311 Y73.193 E1.24690
G1 X82.997 Y73.174 E1.25542
G1 X81.661 Y74.511 E1.30653
G1 X81.661 Y74.177 E1.31554
G1 X82.683 Y73.155 E1.35463
G1 X82.368 Y73.136 E1.36315
G1 X81.661 Y73.844 E1.39021
G1 X81.661 Y73.511 E1.39923
G1 X82.054 Y73.117 E1.41428
G1 X81.740 Y73.098 E1.42279
G1 X81.661 Y73.177 E1.42582
G1 X81.661 Y73.119 E1.42739
G1 X81.400 Y73.104 E1.43443
G1 X81.425 Y73.079 E1.43539
G1 X81.111 Y73.060 E1.44391
G1 X81.086 Y73.086 E1.44488
G1 X80.771 Y73.067 E1.45341
G1 X80.797 Y73.041 E1.45441
G1 X80.483 Y73.022 E1.46293
G1 X76.170 Y77.335 E1.62788
G1 X75.818 Y77.353 E1.63741
G1 X80.168 Y73.003 E1.80379
G1 X79.852 Y72.986 E1.81236
G1 X75.467 Y77.371 E1.98008
G1 X75.115 Y77.390 E1.98960
G1 X79.535 Y72.970 E2.15866
G1 X79.219 Y72.953 E2.16724
G1 X74.763 Y77.408 E2.33764
G1 X74.412 Y77.426 E2.34716
G1 X78.902 Y72.936 E2.51890
G1 X78.585 Y72.919 E2.52748
G1 X74.067 Y77.438 E2.70030
G1 X73.725 Y77.446 E2.70954
G1 X78.269 Y72.903 E2.88330
G1 X77.952 Y72.886 E2.89188
G1 X73.384 Y77.454 E3.06659
G1 X73.043 Y77.462 E3.07582
G1 X77.636 Y72.869 E3.25147
G1 X77.319 Y72.852 E3.26004
G1 X72.702 Y77.470 E3.43664
G1 X72.361 Y77.477 E3.44587
G1 X77.000 Y72.838 E3.62330
G1 X76.679 Y72.825 E3.63198
G1 X72.019 Y77.485 E3.81021
G1 X71.678 Y77.493 E3.81944
G1 X76.359 Y72.812 E3.99847
G1 X76.039 Y72.800 E4.00714
G1 X71.338 Y77.500 E4.18691
G1 X71.009 Y77.495 E4.19581
G1 X75.718 Y72.787 E4.37590
G1 X75.398 Y72.774 E4.38457
G1 X70.681 Y77.491 E4.56499
G1 X70.352 Y77.486 E4.57388
G1 X75.077 Y72.761 E4.75461
G1 X74.757 Y72.748 E4.76329
G1 X70.023 Y77.482 E4.94434
G1 X69.695 Y77.477 E4.95323
G1 X71.209 Y75.962 E5.01117
G1 X71.062 Y76.056 E5.01589
G1 X70.854 Y76.138 E5.02194
G1 X70.664 Y76.174 E5.02717
G1 X69.366 Y77.472 E5.07682
G1 X69.037 Y77.468 E5.08571
G1 X70.297 Y76.208 E5.13389
G1 X70.011 Y76.160 E5.14171
G1 X68.708 Y77.463 E5.19155
G1 X68.571 Y77.461 E5.19528
G1 X68.387 Y77.451 E5.20025
G1 X69.756 Y76.083 E5.25260
G1 X69.542 Y75.963 E5.25922
G1 X68.071 Y77.434 E5.31548
G1 X67.755 Y77.416 E5.32404
G1 X69.343 Y75.828 E5.38479
G1 X69.179 Y75.660 E5.39117
G1 X67.439 Y77.399 E5.45770
G1 X67.123 Y77.382 E5.46625
G1 X69.038 Y75.467 E5.53950
G1 X68.983 Y75.390 E5.54205
G1 X68.926 Y75.246 E5.54625
G1 X66.993 Y77.179 E5.62018
G1 X66.993 Y76.846 E5.62920
G1 X68.835 Y75.003 E5.69967
G1 X68.799 Y74.812 E5.70493
G1 X68.799 Y74.706 E5.70779
G1 X66.993 Y76.512 E5.77687
G1 X66.993 Y76.179 E5.78588
G1 X68.814 Y74.357 E5.85555
G1 X68.841 Y74.218 E5.85938
G1 X68.994 Y73.845 E5.87030
G1 X66.993 Y75.846 E5.94683
G1 X66.993 Y75.512 E5.95585
G1 X69.933 Y72.572 E6.06831
G1 X69.609 Y72.563 E6.07709
G1 X66.993 Y75.179 E6.17715
G1 X66.993 Y74.846 E6.18617
G1 X69.285 Y72.553 E6.27384
G1 X68.961 Y72.544 E6.28261
G1 X66.993 Y74.512 E6.35788
G1 X66.993 Y74.179 E6.36689
G1 X68.636 Y72.536 E6.42973
G1 X68.307 Y72.531 E6.43861
G1 X66.993 Y73.846 E6.48888
G1 X66.993 Y73.512 E6.49789
G1 X67.979 Y72.527 E6.53560
G1 X67.650 Y72.522 E6.54448
G1 X66.993 Y73.179 E6.56962
G1 X66.993 Y72.846 E6.57864
G1 X67.322 Y72.517 E6.59121
G1 X66.993 Y72.512 E6.60010
G1 X68.994 Y73.845 F6000.000
G1 F1080
G1 X69.210 Y73.547 E6.61003
G1 X69.373 Y73.394 E6.61608
G1 X69.568 Y73.270 E6.62234
G1 X70.258 Y72.581 E6.64871
G1 X70.582 Y72.590 E6.65748
G1 X70.109 Y73.063 E6.67556
G1 X70.287 Y73.040 E6.68043
G1 X70.454 Y73.051 E6.68495
G1 X70.906 Y72.599 E6.70222
G1 X71.230 Y72.608 E6.71100
G1 X70.751 Y73.087 E6.72931
G1 X70.996 Y73.175 E6.73635
G1 X71.553 Y72.619 E6.75764
G1 X71.873 Y72.632 E6.76631
G1 X71.222 Y73.283 E6.79124
G1 X71.412 Y73.427 E6.79767
G1 X72.194 Y72.645 E6.82758
G1 X72.514 Y72.657 E6.83625
G1 X71.573 Y73.598 E6.87224
G1 X71.718 Y73.787 E6.87867
G1 X72.835 Y72.670 E6.92137
G1 X73.155 Y72.683 E6.93004
G1 X71.827 Y74.011 E6.98083
G1 X71.916 Y74.255 E6.98786
G1 X73.475 Y72.696 E7.04749
G1 X73.796 Y72.709 E7.05616
G1 X71.951 Y74.554 E7.12671
G1 X71.951 Y74.812 E7.13369
G1 X71.933 Y74.905 E7.13625
G1 X74.116 Y72.722 E7.21974
G1 X74.437 Y72.735 E7.22841
G1 X71.730 Y75.442 E7.33194
G1 E6.83194 F1200.00000
G92 E0
G1 X66.757 Y77.362 F6000.000
G1 E0.50000 F1200.00000
G1 F1080
G1 X66.757 Y77.024 E0.50933
G1 X66.437 Y77.344 E0.52183
G1 X66.116 Y77.326 E0.53068
G1 X66.757 Y76.686 E0.55568
G1 X66.757 Y76.348 E0.56501
G1 X65.802 Y77.303 E0.60228
G1 X65.495 Y77.272 E0.61079
G1 X66.757 Y76.010 E0.66003
G1 X66.757 Y75.672 E0.66936
G1 X65.188 Y77.241 E0.73058
G1 X64.881 Y77.210 E0.73909
G1 X66.757 Y75.334 E0.81229
G1 X66.757 Y74.996 E0.82161
G1 X64.574 Y77.179 E0.90678
G1 X64.267 Y77.148 E0.91529
G1 X66.757 Y74.658 E1.01244
G1 X66.757 Y74.320 E1.02177
G1 X63.960 Y77.117 E1.13089
G1 X63.653 Y77.086 E1.13940
G1 X66.757 Y73.982 E1.26050
G1 X66.757 Y73.644 E1.26983
G1 X63.354 Y77.047 E1.40260
G1 X63.061 Y77.002 E1.41078
G1 X66.757 Y73.306 E1.55498
G1 X66.757 Y72.968 E1.56431
G1 X62.768 Y76.957 E1.71994
G1 X62.475 Y76.912 E1.72812
G1 X66.757 Y72.630 E1.89518
G1 X66.757 Y72.510 E1.89848
