; generated by Slic3r 1.3.0 on 2020-08-31 at 22:55:50

; external perimeters extrusion width = 0.44mm (2.86mm^3/s)
; perimeters extrusion width = 0.56mm (4.14mm^3/s)
; infill extrusion width = 0.50mm (3.66mm^3/s)
; solid infill extrusion width = 0.56mm (3.10mm^3/s)
; top infill extrusion width = 0.45mm (2.44mm^3/s)

M107
;D3D:START:START
T0
M104 S215 T0

G21
G90
M107
T0
G28
G29
M109 T0 S215 T0
G0 F3000
M107
T0
G92 E0
G0 X0 Y149 Z0.1 F3600
G1 Y49 E6.5 F1200
G0 Z1
G92 E0
; Filament gcode

G21 ; set units to millimeters
G90 ; use absolute coordinates
M82 ; use absolute distances for extrusion
G92 E0
G1 Z0.300 F6000.000
G1 E-2.00000 F1200.00000
G92 E0
G1 Z0.800 F6000.000
G1 X20.249 Y105.436 F6000.000
G1 Z0.300 F6000.000
G1 E2.00000 F1200.00000
G1 F1800
G1 X110.271 Y22.415 E7.47758
G1 X111.386 Y21.581 E7.53988
G1 X112.222 Y21.148 E7.58200
G1 X113.200 Y20.809 E7.62831
G1 X114.325 Y20.612 E7.67938
G1 X115.564 Y20.615 E7.73481
G1 X116.107 Y20.688 E7.75928
G1 X125.894 Y22.414 E8.20382
G1 X128.075 Y23.202 E8.30754
G1 X129.862 Y24.679 E8.41126
G1 X131.046 Y26.673 E8.51498
G1 X131.488 Y28.949 E8.61870
G1 X131.397 Y30.195 E8.67460
G1 X129.815 Y39.169 E9.08217
G1 X128.958 Y41.469 E9.19195
G1 X110.200 Y72.827 E10.82639
G1 X106.342 Y78.566 E11.13571
G1 X106.064 Y78.948 E11.15685
G1 X102.033 Y84.107 E11.44972
G1 X101.729 Y84.469 E11.47084
G1 X97.348 Y89.335 E11.76371
G1 X97.020 Y89.675 E11.78485
G1 X92.310 Y94.223 E12.07772
G1 X91.959 Y94.540 E12.09886
G1 X86.943 Y98.748 E12.39172
G1 X86.571 Y99.039 E12.41286
G1 X81.274 Y102.888 E12.70572
G1 X80.883 Y103.151 E12.72682
G1 X75.152 Y106.728 E13.02899
G1 X34.401 Y130.492 E15.13909
G1 X32.227 Y131.300 E15.24281
G1 X30.989 Y131.414 E15.29839
G1 X24.839 Y131.414 E15.57348
G1 X22.555 Y131.017 E15.67720
G1 X20.538 Y129.873 E15.78092
G1 X19.026 Y128.115 E15.88465
G1 X18.196 Y125.950 E15.98837
G1 X18.068 Y124.643 E16.04709
G1 X18.068 Y110.413 E16.68360
G1 X18.465 Y108.129 E16.78732
G1 X20.216 Y105.486 E16.92912
G1 X20.510 Y105.719 F6000.000
G1 F1800
G1 X110.532 Y22.699 E22.40670
G1 X111.584 Y21.912 E22.46545
G1 X112.376 Y21.501 E22.50536
G1 X113.299 Y21.181 E22.54903
G1 X114.359 Y20.996 E22.59721
G1 X115.528 Y20.999 E22.64948
G1 X116.040 Y21.068 E22.67256
G1 X125.827 Y22.794 E23.11710
G1 X127.940 Y23.569 E23.21780
G1 X129.653 Y25.030 E23.31850
G1 X130.753 Y26.995 E23.41920
G1 X131.017 Y30.132 E23.56002
G1 X129.435 Y39.102 E23.96744
G1 X128.627 Y41.271 E24.07096
G1 X109.869 Y72.629 E25.70541
G1 X106.022 Y78.350 E26.01378
G1 X105.760 Y78.711 E26.03372
G1 X101.729 Y83.870 E26.32659
G1 X101.442 Y84.211 E26.34651
G1 X97.061 Y89.077 E26.63938
G1 X96.752 Y89.398 E26.65932
G1 X92.042 Y93.946 E26.95218
G1 X91.711 Y94.244 E26.97212
G1 X86.695 Y98.453 E27.26498
G1 X86.344 Y98.727 E27.28492
G1 X81.047 Y102.576 E27.57778
G1 X80.678 Y102.824 E27.59768
G1 X74.958 Y106.395 E27.89931
G1 X34.206 Y130.159 E30.00941
G1 X30.989 Y131.029 E30.15846
G1 X24.839 Y131.029 E30.43355
G1 X22.623 Y130.632 E30.53425
G1 X20.683 Y129.491 E30.63495
G1 X19.259 Y127.747 E30.73565
G1 X18.454 Y124.643 E30.87907
G1 X18.454 Y110.413 E31.51558
G1 X18.851 Y108.197 E31.61628
G1 X20.477 Y105.769 E31.74700
G1 E29.74700 F1200.00000
G92 E0
G1 Z0.800 F6000.000
G1 X29.993 Y112.259 F6000.000
G1 Z0.300 F6000.000
G1 E2.00000 F1200.00000
G1 F1800
G1 X29.993 Y123.647 E2.50938
G1 X25.836 Y123.647 E2.69534
G1 X25.836 Y111.409 E3.24272
G1 X29.993 Y111.409 E3.42869
G1 X29.993 Y112.000 E3.45510
G1 X34.513 Y111.684 E3.65777
G1 X40.910 Y110.785 E3.94671
G1 X47.229 Y109.442 E4.23566
G1 X52.989 Y107.790 E4.50370
G1 X53.438 Y107.661 E4.52460
G1 X59.509 Y105.452 E4.81355
G1 X65.410 Y102.824 E5.10250
G1 X71.113 Y99.792 E5.39143
G1 X76.591 Y96.369 E5.68037
G1 X81.818 Y92.572 E5.96932
G1 X86.766 Y88.420 E6.25826
G1 X91.413 Y83.932 E6.54720
G1 X95.735 Y79.132 E6.83615
G1 X99.712 Y74.041 E7.12509
G1 X103.322 Y68.690 E7.41384
G1 X106.554 Y63.092 E7.70297
G1 X109.386 Y57.286 E7.99192
G1 X111.806 Y51.296 E8.28086
G1 X113.802 Y45.153 E8.56981
G1 X115.365 Y38.885 E8.85875
G1 X115.926 Y35.700 E9.00338
G1 X116.181 Y35.745 E9.01495
G1 X115.618 Y38.939 E9.15999
G1 X114.051 Y45.224 E9.44974
G1 X112.049 Y51.385 E9.73949
G1 X109.622 Y57.391 E10.02924
G1 X106.783 Y63.213 E10.31899
G1 X103.544 Y68.823 E10.60874
G1 X99.921 Y74.193 E10.89849
G1 X95.933 Y79.298 E11.18824
G1 X91.599 Y84.112 E11.47799
G1 X86.939 Y88.612 E11.76774
G1 X81.977 Y92.775 E12.05749
G1 X76.736 Y96.583 E12.34724
G1 X71.243 Y100.016 E12.63699
G1 X65.523 Y103.057 E12.92674
G1 X59.605 Y105.692 E13.21649
G1 X53.518 Y107.907 E13.50624
G1 X47.291 Y109.693 E13.79599
G1 X40.955 Y111.039 E14.08574
G1 X34.540 Y111.941 E14.37549
G1 X30.053 Y112.255 E14.57670
G1 X30.379 Y112.619 F6000.000
G1 F1800
G1 X30.379 Y124.033 E15.08724
G1 X25.450 Y124.033 E15.30770
G1 X25.450 Y111.024 E15.88958
G1 X30.379 Y111.024 E16.11004
G1 X30.379 Y111.586 E16.13521
G1 X34.473 Y111.300 E16.31878
G1 X40.843 Y110.405 E16.60652
G1 X47.135 Y109.067 E16.89426
G1 X52.883 Y107.419 E17.16170
G1 X53.319 Y107.294 E17.18200
G1 X59.364 Y105.094 E17.46974
G1 X65.241 Y102.478 E17.75748
G1 X70.920 Y99.458 E18.04521
G1 X76.376 Y96.049 E18.33295
G1 X81.580 Y92.268 E18.62069
G1 X86.508 Y88.133 E18.90843
G1 X91.135 Y83.664 E19.19617
G1 X95.440 Y78.884 E19.48390
G1 X99.400 Y73.814 E19.77164
G1 X102.995 Y68.485 E20.05918
G1 X106.214 Y62.911 E20.34712
G1 X109.034 Y57.129 E20.63486
G1 X111.443 Y51.164 E20.92260
G1 X113.431 Y45.046 E21.21034
G1 X114.987 Y38.805 E21.49807
G1 X115.613 Y35.254 E21.65936
G1 X116.235 Y35.363 E21.68759
G1 X116.593 Y34.424 E21.73253
G1 X116.796 Y34.480 E21.74195
G1 X115.995 Y39.019 E21.94809
G1 X114.422 Y45.330 E22.23905
G1 X112.411 Y51.517 E22.53000
G1 X109.975 Y57.548 E22.82096
G1 X107.123 Y63.394 E23.11191
G1 X103.871 Y69.027 E23.40287
G1 X100.234 Y74.420 E23.69382
G1 X96.229 Y79.546 E23.98478
G1 X91.876 Y84.380 E24.27573
G1 X87.197 Y88.898 E24.56669
G1 X82.214 Y93.080 E24.85764
G1 X76.952 Y96.903 E25.14860
G1 X71.436 Y100.350 E25.43955
G1 X65.692 Y103.404 E25.73050
G1 X59.750 Y106.049 E26.02146
G1 X53.637 Y108.274 E26.31242
G1 X47.385 Y110.067 E26.60337
G1 X41.022 Y111.419 E26.89433
G1 X34.581 Y112.325 E27.18528
G1 X30.439 Y112.614 E27.37100
G1 E25.37100 F1200.00000
G92 E0
G1 Z0.800 F6000.000
G1 X114.914 Y32.834 F6000.000
G1 Z0.300 F6000.000
G1 E2.00000 F1200.00000
G1 F1800
G1 X115.678 Y28.500 E2.19684
G1 X123.564 Y29.890 E2.55501
G1 X122.339 Y36.836 E2.87047
G1 X121.008 Y36.597 E2.93096
G1 X114.965 Y32.865 E3.24866
G1 X114.488 Y33.024 F6000.000
G1 F1800
G1 X115.365 Y28.053 E3.47444
G1 X124.010 Y29.578 E3.86712
G1 X122.652 Y37.284 E4.21712
G1 X120.868 Y36.964 E4.29819
G1 X114.540 Y33.056 E4.63087
G1 E2.63087 F1200.00000
G92 E0
G1 Z0.800 F6000.000
G1 X116.150 Y34.503 F6000.000
G1 Z0.300 F6000.000
G1 E2.00000 F1200.00000
G1 F1800
G1 X114.063 Y33.215 E2.10969
G1 X115.052 Y27.606 E2.36443
G1 X124.457 Y29.265 E2.79160
G1 X122.964 Y37.731 E3.17616
G1 X120.727 Y37.330 E3.27780
G1 X117.082 Y35.079 E3.46947
G1 X116.373 Y39.099 E3.65207
G1 X114.792 Y45.437 E3.94423
G1 X112.774 Y51.649 E4.23639
G1 X110.327 Y57.705 E4.52855
G1 X107.464 Y63.575 E4.82071
G1 X104.198 Y69.232 E5.11287
G1 X100.546 Y74.647 E5.40503
G1 X96.524 Y79.794 E5.69719
G1 X92.154 Y84.648 E5.98935
G1 X87.455 Y89.185 E6.28151
G1 X86.849 Y89.694 E6.31690
G1 X82.452 Y93.384 E6.57367
G1 X77.168 Y97.223 E6.86583
G1 X71.629 Y100.684 E7.15799
G1 X65.861 Y103.750 E7.45014
G1 X59.894 Y106.407 E7.74231
G1 X59.075 Y106.705 E7.78129
G1 X53.757 Y108.641 E8.03446
G1 X47.478 Y110.442 E8.32663
G1 X41.089 Y111.799 E8.61878
G1 X34.621 Y112.708 E8.91094
G1 X30.764 Y112.978 E9.08387
G1 X30.764 Y124.418 E9.59557
G1 X25.064 Y124.418 E9.85053
G1 X25.064 Y110.638 E10.46691
G1 X30.764 Y110.638 E10.72187
G1 X30.764 Y111.173 E10.74578
G1 X34.433 Y110.916 E10.91026
G1 X40.776 Y110.025 E11.19679
G1 X47.042 Y108.693 E11.48332
G1 X52.777 Y107.049 E11.75016
G1 X53.200 Y106.927 E11.76986
G1 X59.219 Y104.736 E12.05640
G1 X65.072 Y102.131 E12.34293
G1 X70.727 Y99.123 E12.62946
G1 X76.160 Y95.729 E12.91599
G1 X81.342 Y91.964 E13.20253
G1 X86.250 Y87.846 E13.48906
G1 X90.858 Y83.396 E13.77560
G1 X95.144 Y78.636 E14.06213
G1 X99.088 Y73.588 E14.34866
G1 X102.667 Y68.281 E14.63500
G1 X105.873 Y62.729 E14.92173
G1 X108.681 Y56.972 E15.20827
G1 X111.081 Y51.032 E15.49480
G1 X113.060 Y44.940 E15.78133
G1 X114.610 Y38.724 E16.06786
G1 X115.301 Y34.807 E16.24580
G1 X115.988 Y34.928 E16.27702
G1 X116.129 Y34.560 E16.29466
G1 X116.431 Y34.219 F6000.000
G1 E14.29466 F1200.00000
G92 E0
G1 Z0.800 F6000.000
G1 X116.304 Y28.633 F6000.000
G1 Z0.300 F6000.000
G1 E2.00000 F1200.00000
G1 F1800
G1 X115.677 Y29.260 E2.04086
G1 X115.557 Y29.942 E2.07274
G1 X116.782 Y28.717 E2.15253
G1 X117.259 Y28.801 E2.17485
G1 X115.437 Y30.624 E2.29356
G1 X115.316 Y31.306 E2.32544
G1 X117.736 Y28.886 E2.48307
G1 X118.214 Y28.970 E2.50539
G1 X115.196 Y31.987 E2.70194
G1 X115.076 Y32.669 E2.73383
G1 X118.691 Y29.054 E2.96930
G1 X119.168 Y29.138 E2.99163
G1 X115.226 Y33.081 E3.24842
G1 X115.573 Y33.295 E3.26721
G1 X119.646 Y29.222 E3.53249
G1 X120.123 Y29.306 E3.55481
G1 X115.920 Y33.509 E3.82856
G1 X116.268 Y33.724 E3.84736
G1 X120.601 Y29.391 E4.12959
G1 X121.078 Y29.475 E4.15192
G1 X116.615 Y33.938 E4.44263
G1 X116.962 Y34.152 E4.46142
G1 X121.555 Y29.559 E4.76062
G1 X122.033 Y29.643 E4.78295
G1 X117.309 Y34.367 E5.09062
G1 X117.656 Y34.581 E5.10941
G1 X122.510 Y29.727 E5.42557
G1 X122.987 Y29.811 E5.44790
G1 X118.003 Y34.796 E5.77253
G1 X118.350 Y35.010 E5.79133
G1 X123.422 Y29.938 E6.12166
G1 X123.302 Y30.620 E6.15355
G1 X118.698 Y35.224 E6.45344
G1 X119.045 Y35.439 E6.47223
G1 X123.182 Y31.302 E6.74168
G1 X123.061 Y31.984 E6.77356
G1 X119.392 Y35.653 E7.01257
G1 X119.739 Y35.867 E7.03136
G1 X122.941 Y32.665 E7.23993
G1 X122.821 Y33.347 E7.27181
G1 X120.086 Y36.082 E7.44993
G1 X120.433 Y36.296 E7.46872
G1 X122.701 Y34.029 E7.61640
G1 X122.580 Y34.711 E7.64829
G1 X120.781 Y36.511 E7.76552
G1 X120.835 Y36.544 E7.76845
G1 X121.237 Y36.616 E7.78726
G1 X122.460 Y35.392 E7.86696
G1 X122.340 Y36.074 E7.89884
G1 X121.713 Y36.701 E7.93970
G1 E5.93970 F1200.00000
G92 E0
G1 Z0.800 F6000.000
G1 X25.908 Y112.109 F6000.000
G1 Z0.300 F6000.000
G1 E2.00000 F1200.00000
G1 F1800
G1 X26.535 Y111.481 E2.04002
G1 X27.085 Y111.481 E2.06484
G1 X25.908 Y112.659 E2.13996
G1 X25.908 Y113.209 E2.16478
G1 X27.635 Y111.481 E2.27501
G1 X28.185 Y111.481 E2.29983
G1 X25.908 Y113.759 E2.44515
G1 X25.908 Y114.309 E2.46997
G1 X28.735 Y111.481 E2.65040
G1 X29.286 Y111.481 E2.67522
G1 X25.908 Y114.859 E2.89074
G1 X25.908 Y115.409 E2.91556
G1 X29.836 Y111.481 E3.16619
G1 X29.921 Y111.481 E3.17005
G1 X29.921 Y111.946 E3.19100
G1 X25.908 Y115.959 E3.44709
G1 X25.908 Y116.509 E3.47191
G1 X29.921 Y112.496 E3.72800
G1 X29.921 Y113.046 E3.75282
G1 X25.908 Y117.060 E4.00891
G1 X25.908 Y117.610 E4.03373
G1 X29.921 Y113.596 E4.28982
G1 X29.921 Y114.146 E4.31463
G1 X25.908 Y118.160 E4.57072
G1 X25.908 Y118.710 E4.59554
G1 X29.921 Y114.696 E4.85163
G1 X29.921 Y115.246 E4.87645
G1 X25.908 Y119.260 E5.13254
G1 X25.908 Y119.810 E5.15736
G1 X29.921 Y115.796 E5.41344
G1 X29.921 Y116.347 E5.43826
G1 X25.908 Y120.360 E5.69435
G1 X25.908 Y120.910 E5.71917
G1 X29.921 Y116.897 E5.97526
G1 X29.921 Y117.447 E6.00008
G1 X25.908 Y121.460 E6.25617
G1 X25.908 Y122.010 E6.28099
G1 X29.921 Y117.997 E6.53707
G1 X29.921 Y118.547 E6.56189
G1 X25.908 Y122.560 E6.81798
G1 X25.908 Y123.110 E6.84280
G1 X29.921 Y119.097 E7.09889
G1 X29.921 Y119.647 E7.12371
G1 X25.993 Y123.575 E7.37433
G1 X26.544 Y123.575 E7.39915
G1 X29.921 Y120.197 E7.61467
G1 X29.921 Y120.747 E7.63949
G1 X27.094 Y123.575 E7.81992
G1 X27.644 Y123.575 E7.84473
G1 X29.921 Y121.297 E7.99006
G1 X29.921 Y121.847 E8.01488
G1 X28.194 Y123.575 E8.12510
G1 X28.744 Y123.575 E8.14992
G1 X29.921 Y122.398 E8.22505
G1 X29.921 Y122.948 E8.24987
G1 X29.294 Y123.575 E8.28989
G1 Z0.500 F6000.000
G1 E6.28989 F1200.00000
G92 E0
G1 Z1.000 F6000.000
G1 X29.795 Y111.607 F6000.000
G1 Z0.500 F6000.000
G1 E2.00000 F1200.00000
G1 F1800
G1 X29.795 Y123.449 E2.47350
G1 X26.034 Y123.449 E2.62391
G1 X26.034 Y111.607 E3.09741
G1 X29.735 Y111.607 E3.24542
G1 E1.24542 F1200.00000
G92 E0
G1 Z1.000 F6000.000
G1 X115.125 Y32.776 F6000.000
G1 Z0.500 F6000.000
G1 E2.00000 F1200.00000
G1 F1800
G1 X115.852 Y28.650 E2.16752
G1 X123.348 Y29.972 E2.47188
G1 X122.178 Y36.609 E2.74137
G1 X120.995 Y36.401 E2.78941
G1 X115.176 Y32.808 E3.06287
G1 E1.06287 F1200.00000
G92 E0
G1 Z1.000 F6000.000
G1 X116.603 Y34.297 F6000.000
G1 Z0.500 F6000.000
G1 E2.00000 F1200.00000
G1 F2400
G1 X114.555 Y33.032 E2.09629
G1 X115.433 Y28.051 E2.29851
G1 X123.947 Y29.553 E2.64422
G1 X122.597 Y37.208 E2.95506
G1 X120.788 Y36.881 E3.02857
G1 X116.905 Y34.484 E3.21106
G1 X116.101 Y39.041 E3.39612
G1 X114.526 Y45.360 E3.65652
G1 X112.513 Y51.554 E3.91691
G1 X110.074 Y57.592 E4.17731
G1 X107.219 Y63.445 E4.43771
G1 X103.963 Y69.085 E4.69811
G1 X100.321 Y74.484 E4.95851
G1 X96.312 Y79.616 E5.21891
G1 X91.954 Y84.455 E5.47931
G1 X87.270 Y88.979 E5.73970
G1 X82.281 Y93.165 E6.00010
G1 X77.013 Y96.993 E6.26050
G1 X71.490 Y100.444 E6.52090
G1 X65.740 Y103.501 E6.78130
G1 X59.791 Y106.150 E7.04170
G1 X53.671 Y108.377 E7.30210
G1 X47.411 Y110.172 E7.56249
G1 X41.041 Y111.526 E7.82289
G1 X34.592 Y112.433 E8.08329
G1 X30.312 Y112.732 E8.25483
G1 X30.312 Y123.966 E8.70403
G1 X25.517 Y123.966 E8.89580
G1 X25.517 Y111.090 E9.41065
G1 X30.312 Y111.090 E9.60241
G1 X30.312 Y111.827 E9.63187
G1 X34.498 Y111.534 E9.79962
G1 X40.884 Y110.637 E10.05749
G1 X47.192 Y109.296 E10.31538
G1 X53.392 Y107.518 E10.57326
G1 X59.452 Y105.312 E10.83113
G1 X65.344 Y102.689 E11.08902
G1 X71.038 Y99.662 E11.34689
G1 X76.507 Y96.244 E11.60476
G1 X81.725 Y92.453 E11.86264
G1 X86.665 Y88.308 E12.12052
G1 X91.305 Y83.828 E12.37840
G1 X95.620 Y79.035 E12.63628
G1 X99.590 Y73.953 E12.89415
G1 X103.194 Y68.610 E13.15186
G1 X106.421 Y63.021 E13.40991
G1 X109.249 Y57.224 E13.66779
G1 X111.665 Y51.245 E13.92566
G1 X113.656 Y45.115 E14.18337
G1 X115.218 Y38.854 E14.44141
G1 X115.834 Y35.360 E14.58326
G1 X116.176 Y35.420 E14.59715
G1 X116.582 Y34.353 E14.64281
G1 X116.042 Y34.488 F6000.000
G1 F2160
G1 X114.051 Y33.258 E14.71467
G1 X115.062 Y27.522 E14.89352
G1 X124.477 Y29.182 E15.18707
G1 X122.968 Y37.738 E15.45384
G1 X120.772 Y37.351 E15.52230
G1 X120.604 Y37.304 E15.52767
G1 X117.238 Y35.226 E15.64913
G1 X116.549 Y39.137 E15.77104
G1 X114.966 Y45.486 E15.97199
G1 X112.943 Y51.710 E16.17294
G1 X110.492 Y57.778 E16.37389
G1 X107.623 Y63.660 E16.57483
G1 X104.351 Y69.327 E16.77578
G1 X100.691 Y74.753 E16.97673
G1 X96.662 Y79.910 E17.17767
G1 X92.283 Y84.773 E17.37862
G1 X87.576 Y89.319 E17.57957
G1 X82.563 Y93.526 E17.78052
G1 X77.268 Y97.372 E17.98147
G1 X71.719 Y100.840 E18.18241
G1 X65.940 Y103.912 E18.38336
G1 X59.962 Y106.574 E18.58431
G1 X53.812 Y108.812 E18.78525
G1 X47.522 Y110.616 E18.98620
G1 X41.120 Y111.977 E19.18715
G1 X34.640 Y112.888 E19.38810
G1 X30.770 Y113.158 E19.50723
G1 X30.770 Y124.423 E19.85313
G1 X25.059 Y124.423 E20.02846
G1 X25.059 Y110.633 E20.45190
G1 X30.770 Y110.633 E20.62723
G1 X30.770 Y111.337 E20.64884
G1 X34.450 Y111.079 E20.76212
G1 X40.804 Y110.186 E20.95916
G1 X47.082 Y108.852 E21.15622
G1 X53.250 Y107.083 E21.35327
G1 X59.281 Y104.888 E21.55032
G1 X65.143 Y102.278 E21.74738
G1 X70.809 Y99.265 E21.94443
G1 X76.252 Y95.865 E22.14147
G1 X81.443 Y92.093 E22.33853
G1 X86.359 Y87.968 E22.53557
G1 X90.976 Y83.510 E22.73263
G1 X95.270 Y78.741 E22.92969
G1 X99.220 Y73.684 E23.12673
G1 X102.807 Y68.367 E23.32365
G1 X106.018 Y62.806 E23.52083
G1 X108.831 Y57.038 E23.71789
G1 X111.235 Y51.088 E23.91493
G1 X113.217 Y44.989 E24.11185
G1 X114.770 Y38.759 E24.30903
G1 X115.463 Y34.830 E24.43151
G1 X115.883 Y34.905 E24.44461
G1 X116.020 Y34.544 E24.45647
G1 X116.304 Y34.185 F6000.000
G1 X116.413 Y35.608 F6000.000
G1 F1200
G1 X116.381 Y35.727 E24.45686
G1 X116.157 Y36.006 E24.45800
G1 F1200
G1 X115.933 Y36.286 E24.46143
G1 X116.233 Y35.693 F6000.000
G1 F1200
G1 X115.659 Y38.947 E24.54906
G1 X114.092 Y45.236 E24.72092
G1 X112.089 Y51.399 E24.89277
G1 X109.661 Y57.408 E25.06462
G1 X106.820 Y63.233 E25.23647
