; generated by Slic3r 1.3.1-dev (Build (Unknown revision)) on 2020-12-03 at 02:22:24

; external perimeters extrusion width = 0.44mm (2.86mm^3/s)
; perimeters extrusion width = 0.56mm (4.14mm^3/s)
; infill extrusion width = 0.50mm (3.66mm^3/s)
; solid infill extrusion width = 0.56mm (3.10mm^3/s)
; top infill extrusion width = 0.45mm (2.44mm^3/s)

M107
G92 E0
;D3D:START:START
T0
M104 S215 T0

G21
G90
M107
T0
G28
G29
M109 T0 S215 T0
G0 F3000
M107
T0
G92 E0
G0 X0 Y149 Z0.1 F3600
G1 Y49 E6.5 F1200
G0 Z1
G92 E0
; Filament gcode

G21 ; set units to millimeters
G90 ; use absolute coordinates
M82 ; use absolute distances for extrusion
G92 E0
G1 Z0.300 F6000.000
G1 E-2.00000 F1200.00000
G92 E0
G1 Z0.800 F6000.000
G1 X2.500 Y33.229 F6000.000
G1 Z0.300 F6000.000
G1 E2.00000 F1200.00000
G1 F1800.000
G1 X147.500 Y33.229 E8.48582
G1 X149.785 Y33.626 E8.58955
G1 X151.801 Y34.770 E8.69327
G1 X153.313 Y36.528 E8.79699
G1 X154.144 Y38.693 E8.90071
G1 X154.271 Y40.000 E8.95943
G1 X154.271 Y110.000 E12.09052
G1 X153.874 Y112.285 E12.19424
G1 X152.730 Y114.301 E12.29796
G1 X150.972 Y115.813 E12.40168
G1 X148.807 Y116.644 E12.50541
G1 X147.500 Y116.771 E12.56413
G1 X2.500 Y116.771 E19.04996
G1 X0.215 Y116.374 E19.15368
G1 X-1.801 Y115.230 E19.25740
G1 X-3.313 Y113.472 E19.36112
G1 X-4.144 Y111.307 E19.46484
G1 X-4.271 Y110.000 E19.52357
G1 X-4.271 Y40.000 E22.65465
G1 X-3.874 Y37.715 E22.75837
G1 X-2.730 Y35.699 E22.86210
G1 X-0.972 Y34.187 E22.96582
G1 X1.193 Y33.356 E23.06954
G1 X2.440 Y33.235 E23.12558
G1 X2.500 Y33.614 F6000.000
G1 F1800.000
G1 X147.500 Y33.614 E29.61140
G1 X149.716 Y34.011 E29.71211
G1 X151.657 Y35.153 E29.81281
G1 X153.081 Y36.896 E29.91351
G1 X153.886 Y40.000 E30.05693
G1 X153.886 Y110.000 E33.18802
G1 X153.489 Y112.216 E33.28872
G1 X152.347 Y114.157 E33.38942
G1 X150.604 Y115.581 E33.49012
G1 X147.500 Y116.386 E33.63354
G1 X2.500 Y116.386 E40.11937
G1 X0.284 Y115.989 E40.22007
G1 X-1.657 Y114.847 E40.32077
G1 X-3.081 Y113.104 E40.42147
G1 X-3.886 Y110.000 E40.56489
G1 X-3.886 Y40.000 E43.69598
G1 X-3.489 Y37.784 E43.79668
G1 X-2.347 Y35.843 E43.89738
G1 X-0.604 Y34.419 E43.99808
G1 X2.442 Y33.629 E44.13882
G1 E42.13882 F1200.00000
G92 E0
G1 Z0.800 F6000.000
G1 X132.675 Y79.986 F6000.000
G1 Z0.300 F6000.000
G1 E2.00000 F1200.00000
G1 F1800.000
G1 X132.729 Y79.553 E2.01952
G1 X132.802 Y79.328 E2.03010
G1 X132.904 Y79.114 E2.04069
G1 X133.164 Y78.755 E2.06052
G1 X133.341 Y78.589 E2.07140
G1 X133.722 Y78.347 E2.09158
G1 X134.151 Y78.208 E2.11172
G1 X134.386 Y78.178 E2.12232
G1 X144.614 Y78.178 E2.57983
G1 X144.849 Y78.208 E2.59043
G1 X145.278 Y78.347 E2.61058
G1 X145.665 Y78.592 E2.63108
G1 X145.973 Y78.921 E2.65122
G1 X146.099 Y79.120 E2.66178
G1 X146.198 Y79.328 E2.67205
G1 X146.271 Y79.553 E2.68264
G1 X146.325 Y79.986 E2.70216
G1 X146.325 Y100.014 E3.59802
G1 X146.271 Y100.447 E3.61754
G1 X146.198 Y100.672 E3.62812
G1 X146.099 Y100.880 E3.63839
G1 X145.973 Y101.079 E3.64896
G1 X145.665 Y101.408 E3.66910
G1 X145.278 Y101.653 E3.68960
G1 X144.849 Y101.792 E3.70974
G1 X144.614 Y101.822 E3.72035
G1 X134.386 Y101.822 E4.17785
G1 X134.158 Y101.793 E4.18814
G1 X133.936 Y101.736 E4.19837
G1 X133.716 Y101.649 E4.20894
G1 X133.335 Y101.408 E4.22912
G1 X133.027 Y101.079 E4.24926
G1 X132.901 Y100.880 E4.25983
G1 X132.802 Y100.672 E4.27010
G1 X132.729 Y100.447 E4.28068
G1 X132.675 Y100.014 E4.30020
G1 X132.675 Y80.046 E5.19338
G1 X132.346 Y79.758 F6000.000
G1 E3.19338 F1200.00000
G92 E0
G1 Z0.800 F6000.000
G1 X134.151 Y71.792 F6000.000
G1 Z0.300 F6000.000
G1 E2.00000 F1200.00000
G1 F1800.000
G1 X133.722 Y71.653 E2.02014
G1 X133.335 Y71.408 E2.04064
G1 X133.027 Y71.079 E2.06078
G1 X132.901 Y70.880 E2.07135
G1 X132.802 Y70.672 E2.08162
G1 X132.729 Y70.447 E2.09221
G1 X132.675 Y70.014 E2.11173
G1 X132.675 Y49.986 E3.00758
G1 X132.729 Y49.553 E3.02710
G1 X132.802 Y49.328 E3.03769
G1 X132.904 Y49.114 E3.04827
G1 X133.164 Y48.755 E3.06810
G1 X133.341 Y48.589 E3.07898
G1 X133.722 Y48.347 E3.09916
G1 X134.151 Y48.208 E3.11931
G1 X134.386 Y48.178 E3.12991
G1 X144.614 Y48.178 E3.58741
G1 X144.842 Y48.207 E3.59770
G1 X145.064 Y48.264 E3.60793
G1 X145.284 Y48.351 E3.61850
G1 X145.665 Y48.592 E3.63868
G1 X145.973 Y48.921 E3.65882
G1 X146.099 Y49.120 E3.66939
G1 X146.198 Y49.328 E3.67966
G1 X146.271 Y49.553 E3.69025
G1 X146.325 Y49.986 E3.70977
G1 X146.325 Y70.014 E4.60562
G1 X146.271 Y70.447 E4.62514
G1 X146.198 Y70.672 E4.63573
G1 X146.096 Y70.886 E4.64631
G1 X145.836 Y71.245 E4.66614
G1 X145.659 Y71.411 E4.67702
G1 X145.278 Y71.653 E4.69720
G1 X144.849 Y71.792 E4.71734
G1 X144.614 Y71.822 E4.72795
G1 X134.386 Y71.822 E5.18545
G1 X134.210 Y71.800 E5.19337
G1 X133.883 Y72.089 F6000.000
G1 E3.19337 F1200.00000
G92 E0
G1 Z0.800 F6000.000
G1 X126.278 Y78.684 F6000.000
G1 Z0.300 F6000.000
G1 E2.00000 F1200.00000
G1 F1800.000
G1 X126.438 Y78.934 E2.01325
G1 X126.557 Y79.185 E2.02571
G1 X126.649 Y79.469 E2.03904
G1 X126.711 Y79.962 E2.06127
G1 X126.711 Y100.038 E2.95928
G1 X126.649 Y100.531 E2.98152
G1 X126.557 Y100.815 E2.99484
G1 X126.438 Y101.066 E3.00730
G1 X126.279 Y101.316 E3.02055
G1 X125.912 Y101.707 E3.04450
G1 X125.443 Y102.005 E3.06936
G1 X124.934 Y102.170 E3.09331
G1 X124.638 Y102.207 E3.10664
G1 X114.362 Y102.207 E3.56630
G1 X114.085 Y102.173 E3.57876
G1 X113.817 Y102.103 E3.59117
G1 X113.541 Y101.994 E3.60444
G1 X113.088 Y101.707 E3.62844
G1 X112.721 Y101.316 E3.65239
G1 X112.562 Y101.066 E3.66564
G1 X112.443 Y100.815 E3.67810
G1 X112.351 Y100.531 E3.69142
G1 X112.289 Y100.038 E3.71366
G1 X112.289 Y79.962 E4.61167
G1 X112.351 Y79.469 E4.63390
G1 X112.443 Y79.185 E4.64723
G1 X112.571 Y78.916 E4.66054
G1 X112.874 Y78.499 E4.68360
G1 X113.104 Y78.283 E4.69773
G1 X113.557 Y77.995 E4.72173
G1 X114.066 Y77.830 E4.74569
G1 X114.362 Y77.793 E4.75901
G1 X124.638 Y77.793 E5.21868
G1 X124.934 Y77.830 E5.23200
G1 X125.443 Y77.995 E5.25595
G1 X125.912 Y78.293 E5.28082
G1 X126.237 Y78.640 E5.30207
G1 X125.973 Y78.921 F6000.000
G1 F1800.000
G1 X126.099 Y79.120 E5.31264
G1 X126.198 Y79.328 E5.32291
G1 X126.271 Y79.553 E5.33350
G1 X126.325 Y79.986 E5.35302
G1 X126.325 Y100.014 E6.24887
G1 X126.271 Y100.447 E6.26839
G1 X126.198 Y100.672 E6.27898
G1 X126.099 Y100.880 E6.28925
G1 X125.973 Y101.079 E6.29981
G1 X125.665 Y101.408 E6.31995
G1 X125.278 Y101.653 E6.34045
G1 X124.849 Y101.792 E6.36060
G1 X124.614 Y101.822 E6.37120
G1 X114.386 Y101.822 E6.82870
G1 X114.158 Y101.793 E6.83899
G1 X113.936 Y101.736 E6.84922
G1 X113.716 Y101.649 E6.85980
G1 X113.335 Y101.408 E6.87998
G1 X113.027 Y101.079 E6.90012
G1 X112.901 Y100.880 E6.91068
G1 X112.802 Y100.672 E6.92095
G1 X112.729 Y100.447 E6.93154
G1 X112.675 Y100.014 E6.95106
G1 X112.675 Y79.986 E7.84692
G1 X112.729 Y79.553 E7.86644
G1 X112.802 Y79.328 E7.87702
G1 X112.904 Y79.114 E7.88761
G1 X113.164 Y78.755 E7.90744
G1 X113.341 Y78.589 E7.91831
G1 X113.722 Y78.347 E7.93849
G1 X114.151 Y78.208 E7.95864
G1 X114.386 Y78.178 E7.96924
G1 X124.614 Y78.178 E8.42675
G1 X124.849 Y78.208 E8.43735
G1 X125.278 Y78.347 E8.45749
G1 X125.665 Y78.592 E8.47799
G1 X125.931 Y78.877 E8.49545
G1 X126.206 Y78.886 F6000.000
G1 E6.49545 F1200.00000
G92 E0
G1 Z0.800 F6000.000
G1 X111.557 Y84.185 F6000.000
G1 Z0.300 F6000.000
G1 E2.00000 F1200.00000
G1 F1800.000
G1 X111.649 Y84.469 E2.01332
G1 X111.715 Y85.000 E2.03728
G1 X111.649 Y85.531 E2.06123
G1 X111.557 Y85.815 E2.07456
G1 X111.429 Y86.084 E2.08787
G1 X111.126 Y86.501 E2.11093
G1 X110.896 Y86.717 E2.12506
G1 X110.443 Y87.005 E2.14906
G1 X109.934 Y87.170 E2.17302
G1 X109.638 Y87.207 E2.18634
G1 X109.362 Y87.207 E2.19870
G1 X109.085 Y87.173 E2.21117
G1 X108.817 Y87.103 E2.22358
G1 X108.541 Y86.994 E2.23685
G1 X108.088 Y86.707 E2.26085
G1 X107.721 Y86.316 E2.28480
G1 X107.562 Y86.066 E2.29805
G1 X107.443 Y85.815 E2.31051
G1 X107.351 Y85.531 E2.32383
G1 X107.285 Y85.000 E2.34779
G1 X107.351 Y84.469 E2.37174
G1 X107.443 Y84.185 E2.38507
G1 X107.571 Y83.916 E2.39838
G1 X107.874 Y83.499 E2.42144
G1 X108.104 Y83.283 E2.43557
G1 X108.557 Y82.995 E2.45957
G1 X109.066 Y82.830 E2.48353
G1 X109.362 Y82.793 E2.49685
G1 X109.638 Y82.793 E2.50922
G1 X109.915 Y82.827 E2.52168
G1 X110.183 Y82.896 E2.53408
G1 X110.459 Y83.006 E2.54736
G1 X110.912 Y83.293 E2.57136
G1 X111.278 Y83.684 E2.59531
G1 X111.438 Y83.934 E2.60856
G1 X111.531 Y84.131 E2.61834
G1 X111.198 Y84.328 F6000.000
G1 F1800.000
G1 X111.271 Y84.553 E2.62892
G1 X111.327 Y85.000 E2.64908
G1 X111.271 Y85.447 E2.66923
G1 X111.198 Y85.672 E2.67981
G1 X111.096 Y85.886 E2.69040
G1 X110.836 Y86.245 E2.71023
G1 X110.659 Y86.411 E2.72111
G1 X110.278 Y86.653 E2.74129
G1 X109.849 Y86.792 E2.76143
G1 X109.614 Y86.822 E2.77204
G1 X109.386 Y86.822 E2.78224
G1 X109.158 Y86.793 E2.79253
G1 X108.936 Y86.736 E2.80276
G1 X108.716 Y86.649 E2.81333
G1 X108.335 Y86.408 E2.83351
G1 X108.027 Y86.079 E2.85365
G1 X107.901 Y85.880 E2.86422
G1 X107.802 Y85.672 E2.87449
G1 X107.729 Y85.447 E2.88508
G1 X107.673 Y85.000 E2.90523
G1 X107.729 Y84.553 E2.92539
G1 X107.802 Y84.328 E2.93597
G1 X107.904 Y84.114 E2.94656
G1 X108.164 Y83.755 E2.96639
G1 X108.341 Y83.589 E2.97726
G1 X108.722 Y83.347 E2.99744
G1 X109.151 Y83.208 E3.01759
G1 X109.386 Y83.178 E3.02819
G1 X109.614 Y83.178 E3.03840
G1 X109.842 Y83.207 E3.04868
G1 X110.064 Y83.264 E3.05891
G1 X110.284 Y83.351 E3.06949
G1 X110.665 Y83.592 E3.08967
G1 X110.973 Y83.921 E3.10981
G1 X111.172 Y84.274 E3.12793
G1 X111.432 Y84.362 F6000.000
G1 E1.12793 F1200.00000
G92 E0
G1 Z0.800 F6000.000
G1 X106.711 Y79.962 F6000.000
G1 Z0.300 F6000.000
G1 E2.00000 F1200.00000
G1 F1800.000
G1 X106.711 Y100.038 E2.89802
G1 X106.649 Y100.531 E2.92025
G1 X106.557 Y100.815 E2.93357
G1 X106.438 Y101.066 E2.94603
G1 X106.279 Y101.316 E2.95928
G1 X105.912 Y101.707 E2.98323
G1 X105.443 Y102.005 E3.00809
G1 X104.934 Y102.170 E3.03205
G1 X104.638 Y102.207 E3.04537
G1 X94.361 Y102.207 E3.50506
G1 X94.086 Y102.173 E3.51748
G1 X93.816 Y102.104 E3.52991
G1 X93.558 Y102.001 E3.54233
G1 X93.315 Y101.868 E3.55475
G1 X93.090 Y101.704 E3.56718
G1 X92.888 Y101.514 E3.57960
G1 X92.711 Y101.300 E3.59203
G1 X92.562 Y101.065 E3.60446
G1 X92.444 Y100.814 E3.61688
G1 X92.358 Y100.550 E3.62930
G1 X92.306 Y100.277 E3.64173
G1 X92.289 Y100.019 E3.65329
G1 X92.289 Y79.981 E4.54960
G1 X92.306 Y79.723 E4.56117
G1 X92.358 Y79.450 E4.57360
G1 X92.444 Y79.186 E4.58601
G1 X92.562 Y78.934 E4.59844
G1 X92.711 Y78.700 E4.61086
G1 X92.888 Y78.486 E4.62329
G1 X93.090 Y78.296 E4.63572
G1 X93.315 Y78.132 E4.64814
G1 X93.558 Y77.999 E4.66056
G1 X93.817 Y77.896 E4.67299
G1 X94.086 Y77.827 E4.68541
G1 X94.361 Y77.793 E4.69783
G1 X104.638 Y77.793 E5.15753
G1 X104.934 Y77.830 E5.17085
G1 X105.443 Y77.995 E5.19480
G1 X105.912 Y78.293 E5.21967
G1 X106.278 Y78.684 E5.24361
G1 X106.438 Y78.934 E5.25686
G1 X106.557 Y79.185 E5.26932
G1 X106.649 Y79.469 E5.28265
G1 X106.703 Y79.902 E5.30219
G1 X106.325 Y79.986 F6000.000
G1 F1800.000
G1 X106.325 Y100.014 E6.19805
G1 X106.271 Y100.447 E6.21757
G1 X106.198 Y100.672 E6.22816
G1 X106.099 Y100.880 E6.23843
G1 X105.973 Y101.079 E6.24899
G1 X105.665 Y101.408 E6.26913
G1 X105.278 Y101.653 E6.28963
G1 X104.849 Y101.792 E6.30978
G1 X104.614 Y101.822 E6.32038
G1 X94.385 Y101.822 E6.77791
G1 X94.158 Y101.793 E6.78816
G1 X93.936 Y101.736 E6.79842
G1 X93.723 Y101.652 E6.80867
G1 X93.522 Y101.541 E6.81892
G1 X93.336 Y101.407 E6.82918
G1 X93.169 Y101.250 E6.83943
G1 X93.023 Y101.073 E6.84968
G1 X92.900 Y100.879 E6.85994
G1 X92.803 Y100.672 E6.87019
G1 X92.732 Y100.454 E6.88045
G1 X92.689 Y100.229 E6.89070
G1 X92.675 Y100.007 E6.90064
G1 X92.675 Y79.993 E7.79587
G1 X92.689 Y79.771 E7.80580
G1 X92.732 Y79.546 E7.81606
G1 X92.803 Y79.328 E7.82631
G1 X92.900 Y79.121 E7.83657
G1 X93.023 Y78.927 E7.84682
G1 X93.169 Y78.750 E7.85707
G1 X93.336 Y78.593 E7.86733
G1 X93.522 Y78.459 E7.87758
G1 X93.723 Y78.348 E7.88784
G1 X93.936 Y78.264 E7.89809
G1 X94.158 Y78.207 E7.90834
G1 X94.385 Y78.178 E7.91859
G1 X104.614 Y78.178 E8.37613
G1 X104.849 Y78.208 E8.38673
G1 X105.278 Y78.347 E8.40687
G1 X105.665 Y78.592 E8.42737
G1 X105.973 Y78.921 E8.44751
G1 X106.099 Y79.120 E8.45808
G1 X106.198 Y79.328 E8.46835
G1 X106.271 Y79.553 E8.47893
G1 X106.318 Y79.926 E8.49577
G1 X106.683 Y80.163 F6000.000
G1 E6.49577 F1200.00000
G92 E0
G1 Z0.800 F6000.000
G1 X91.642 Y84.450 F6000.000
G1 Z0.300 F6000.000
G1 E2.00000 F1200.00000
G1 F1800.000
G1 X91.694 Y84.723 E2.01243
G1 X91.712 Y85.000 E2.02485
G1 X91.694 Y85.277 E2.03728
G1 X91.642 Y85.550 E2.04971
G1 X91.556 Y85.814 E2.06212
G1 X91.438 Y86.065 E2.07455
G1 X91.289 Y86.300 E2.08698
G1 X91.112 Y86.514 E2.09940
G1 X90.910 Y86.704 E2.11182
G1 X90.685 Y86.868 E2.12425
G1 X90.442 Y87.001 E2.13667
G1 X90.184 Y87.104 E2.14909
G1 X89.914 Y87.173 E2.16152
G1 X89.639 Y87.207 E2.17395
G1 X89.361 Y87.207 E2.18636
G1 X89.086 Y87.173 E2.19879
G1 X88.816 Y87.104 E2.21122
G1 X88.558 Y87.001 E2.22364
G1 X88.315 Y86.868 E2.23606
G1 X88.090 Y86.704 E2.24848
G1 X87.888 Y86.514 E2.26091
G1 X87.711 Y86.300 E2.27334
G1 X87.562 Y86.065 E2.28577
G1 X87.444 Y85.814 E2.29819
G1 X87.358 Y85.550 E2.31061
G1 X87.306 Y85.277 E2.32303
G1 X87.288 Y85.000 E2.33546
G1 X87.306 Y84.723 E2.34789
G1 X87.358 Y84.450 E2.36031
G1 X87.444 Y84.186 E2.37273
G1 X87.562 Y83.934 E2.38515
G1 X87.711 Y83.700 E2.39758
G1 X87.888 Y83.486 E2.41000
G1 X88.090 Y83.296 E2.42243
G1 X88.315 Y83.132 E2.43486
G1 X88.558 Y82.999 E2.44728
G1 X88.817 Y82.896 E2.45970
G1 X89.086 Y82.827 E2.47213
G1 X89.361 Y82.793 E2.48455
G1 X89.639 Y82.793 E2.49698
G1 X89.914 Y82.827 E2.50940
G1 X90.183 Y82.896 E2.52182
G1 X90.442 Y82.999 E2.53425
G1 X90.685 Y83.132 E2.54667
G1 X90.910 Y83.296 E2.55910
G1 X91.112 Y83.486 E2.57152
G1 X91.289 Y83.700 E2.58394
G1 X91.438 Y83.934 E2.59637
G1 X91.556 Y84.186 E2.60879
G1 X91.624 Y84.393 E2.61853
G1 X91.268 Y84.546 F6000.000
G1 F1800.000
G1 X91.311 Y84.771 E2.62878
G1 X91.325 Y85.000 E2.63904
G1 X91.311 Y85.229 E2.64929
G1 X91.268 Y85.454 E2.65955
G1 X91.197 Y85.672 E2.66980
G1 X91.100 Y85.879 E2.68005
G1 X90.977 Y86.073 E2.69031
G1 X90.831 Y86.250 E2.70056
G1 X90.664 Y86.407 E2.71081
G1 X90.478 Y86.541 E2.72107
G1 X90.277 Y86.652 E2.73132
G1 X90.064 Y86.736 E2.74158
G1 X89.842 Y86.793 E2.75183
G1 X89.615 Y86.822 E2.76208
G1 X89.385 Y86.822 E2.77234
G1 X89.158 Y86.793 E2.78259
G1 X88.936 Y86.736 E2.79285
G1 X88.723 Y86.652 E2.80310
G1 X88.522 Y86.541 E2.81335
G1 X88.336 Y86.407 E2.82361
G1 X88.169 Y86.250 E2.83386
G1 X88.023 Y86.073 E2.84411
G1 X87.900 Y85.879 E2.85437
G1 X87.803 Y85.672 E2.86462
G1 X87.732 Y85.454 E2.87488
G1 X87.689 Y85.229 E2.88513
G1 X87.675 Y85.000 E2.89539
G1 X87.689 Y84.771 E2.90564
G1 X87.732 Y84.546 E2.91589
G1 X87.803 Y84.328 E2.92615
G1 X87.900 Y84.121 E2.93640
G1 X88.023 Y83.927 E2.94665
G1 X88.169 Y83.750 E2.95691
G1 X88.336 Y83.593 E2.96716
G1 X88.522 Y83.459 E2.97742
G1 X88.723 Y83.348 E2.98767
G1 X88.936 Y83.264 E2.99792
G1 X89.158 Y83.207 E3.00818
G1 X89.385 Y83.178 E3.01843
G1 X89.615 Y83.178 E3.02869
G1 X89.842 Y83.207 E3.03894
G1 X90.064 Y83.264 E3.04919
G1 X90.277 Y83.348 E3.05945
G1 X90.478 Y83.459 E3.06970
G1 X90.664 Y83.593 E3.07996
G1 X90.831 Y83.750 E3.09021
G1 X90.977 Y83.927 E3.10046
G1 X91.100 Y84.121 E3.11072
G1 X91.250 Y84.489 E3.12850
G1 X91.489 Y84.608 F6000.000
G1 E1.12850 F1200.00000
G92 E0
G1 Z0.800 F6000.000
G1 X86.711 Y79.981 F6000.000
G1 Z0.300 F6000.000
G1 E2.00000 F1200.00000
G1 F1800.000
G1 X86.711 Y100.019 E2.89631
G1 X86.694 Y100.277 E2.90788
G1 X86.642 Y100.550 E2.92030
G1 X86.556 Y100.814 E2.93272
G1 X86.438 Y101.065 E2.94515
G1 X86.289 Y101.300 E2.95758
G1 X86.112 Y101.514 E2.97000
G1 X85.910 Y101.704 E2.98242
G1 X85.685 Y101.868 E2.99485
G1 X85.442 Y102.001 E3.00727
G1 X85.184 Y102.104 E3.01969
G1 X84.914 Y102.173 E3.03212
G1 X84.639 Y102.207 E3.04455
G1 X74.361 Y102.207 E3.50426
G1 X74.086 Y102.173 E3.51669
G1 X73.816 Y102.104 E3.52912
G1 X73.558 Y102.001 E3.54154
G1 X73.315 Y101.868 E3.55396
G1 X73.090 Y101.704 E3.56638
G1 X72.888 Y101.514 E3.57881
G1 X72.711 Y101.300 E3.59124
G1 X72.562 Y101.065 E3.60366
G1 X72.444 Y100.814 E3.61609
G1 X72.358 Y100.550 E3.62850
G1 X72.306 Y100.277 E3.64093
G1 X72.289 Y100.019 E3.65250
G1 X72.289 Y79.981 E4.54881
G1 X72.306 Y79.723 E4.56038
