<<<<<<< Updated upstream
; generated by Slic3r 1.3.0 on 2020-04-24 at 11:32:17
=======
; generated by Slic3r 1.3.0 on 2020-04-25 at 12:25:00
>>>>>>> Stashed changes

; external perimeters extrusion width = 0.44mm (2.86mm^3/s)
; perimeters extrusion width = 0.56mm (4.14mm^3/s)
; infill extrusion width = 0.50mm (5.48mm^3/s)
; solid infill extrusion width = 0.56mm (3.10mm^3/s)
; top infill extrusion width = 0.45mm (2.44mm^3/s)

M107
;D3D:START:START
T0
M104 S215 T0

G21
G90
M107
T0
G28
G29
M109 T0 S215 T0
G0 F3000
M107
T0
G92 E0
G0 X0 Y149 Z0.1 F3600
G1 Y49 E6.5 F1200
G0 Z1
G92 E0
; Filament gcode

G21 ; set units to millimeters
G90 ; use absolute coordinates
M82 ; use absolute distances for extrusion
G92 E0
G1 Z0.200 F6000.000
G1 E-2.00000 F1200.00000
G92 E0
G1 X21.350 Y16.642 F6000.000
G1 E2.00000 F1200.00000
G1 F1800
G1 X22.998 Y15.717 E2.03636
G1 X24.333 Y15.515 E2.06233
G1 X74.942 Y15.515 E3.03597
G1 X75.508 Y15.551 E3.04688
G1 X77.377 Y15.787 E3.08312
G1 X77.933 Y15.893 E3.09403
G1 X79.758 Y16.362 E3.13027
G1 X80.197 Y16.499 E3.13911
G1 X103.416 Y25.058 E3.61519
G1 X104.216 Y25.374 E3.63175
G1 X104.729 Y25.615 E3.64266
G1 X105.390 Y25.978 E3.65716
G1 X105.869 Y26.282 E3.66807
G1 X106.478 Y26.725 E3.68257
G1 X106.915 Y27.086 E3.69346
G1 X120.280 Y39.658 E4.04648
G1 X120.664 Y40.068 E4.05728
G1 X120.905 Y40.358 E4.06453
G1 X121.239 Y40.818 E4.07548
G1 X121.441 Y41.137 E4.08273
G1 X121.713 Y41.633 E4.09362
G1 X122.032 Y42.353 E4.10877
G1 X130.031 Y64.353 E4.55913
G1 X130.197 Y64.853 E4.56926
G1 X130.342 Y65.415 E4.58043
G1 X130.412 Y65.785 E4.58767
G1 X130.481 Y66.336 E4.59836
G1 X130.514 Y67.024 E4.61160
G1 X130.181 Y129.994 E5.82309
G1 X129.776 Y131.840 E5.85944
G1 X128.650 Y133.358 E5.89580
G1 X127.002 Y134.283 E5.93216
G1 X125.667 Y134.485 E5.95813
G1 X75.058 Y134.485 E6.93178
G1 X74.492 Y134.449 E6.94269
G1 X72.623 Y134.213 E6.97893
G1 X72.067 Y134.107 E6.98983
G1 X70.242 Y133.638 E7.02607
G1 X69.803 Y133.501 E7.03492
G1 X46.584 Y124.942 E7.51100
G1 X45.784 Y124.626 E7.52755
G1 X45.271 Y124.385 E7.53847
G1 X44.610 Y124.022 E7.55297
G1 X44.111 Y123.703 E7.56436
G1 X43.522 Y123.275 E7.57837
G1 X43.086 Y122.914 E7.58927
G1 X29.720 Y110.342 E7.94229
G1 X29.336 Y109.932 E7.95308
G1 X29.095 Y109.642 E7.96034
G1 X28.762 Y109.182 E7.97127
G1 X28.559 Y108.863 E7.97853
G1 X28.287 Y108.367 E7.98942
G1 X27.968 Y107.647 E8.00457
G1 X19.968 Y85.647 E8.45494
G1 X19.801 Y85.141 E8.46519
G1 X19.660 Y84.592 E8.47609
G1 X19.589 Y84.222 E8.48335
G1 X19.518 Y83.660 E8.49424
G1 X19.486 Y82.976 E8.50741
G1 X19.819 Y20.006 E9.71889
G1 X20.225 Y18.160 E9.75525
G1 X21.314 Y16.690 E9.79045
G1 X21.601 Y16.765 F6000.000
G1 F1800
G1 X23.229 Y15.918 E9.82575
G1 X24.333 Y15.773 E9.84718
G1 X74.942 Y15.773 E10.82082
G1 X75.475 Y15.806 E10.83111
G1 X77.344 Y16.042 E10.86735
G1 X77.869 Y16.142 E10.87763
G1 X79.694 Y16.611 E10.91387
G1 X80.108 Y16.740 E10.92221
G1 X103.327 Y25.299 E11.39829
G1 X104.121 Y25.613 E11.41473
G1 X104.606 Y25.840 E11.42502
G1 X105.266 Y26.204 E11.43952
G1 X105.718 Y26.490 E11.44981
G1 X106.327 Y26.933 E11.46431
G1 X106.739 Y27.274 E11.47458
G1 X120.104 Y39.846 E11.82760
G1 X120.466 Y40.232 E11.83779
G1 X120.706 Y40.522 E11.84503
G1 X121.022 Y40.956 E11.85536
G1 X121.224 Y41.274 E11.86260
G1 X121.481 Y41.742 E11.87288
G1 X121.790 Y42.441 E11.88757
G1 X129.790 Y64.441 E12.33794
G1 X129.953 Y64.932 E12.34790
G1 X130.089 Y65.463 E12.35843
G1 X130.159 Y65.833 E12.36568
G1 X130.224 Y66.353 E12.37576
G1 X130.257 Y67.023 E12.38866
G1 X129.924 Y129.993 E13.60014
G1 X129.519 Y131.782 E13.63544
G1 X128.399 Y133.235 E13.67073
G1 X126.771 Y134.082 E13.70603
G1 X125.667 Y134.227 E13.72746
G1 X75.058 Y134.227 E14.70111
G1 X74.525 Y134.194 E14.71139
G1 X72.656 Y133.958 E14.74763
G1 X72.131 Y133.858 E14.75792
G1 X70.306 Y133.389 E14.79416
G1 X69.892 Y133.260 E14.80250
G1 X46.673 Y124.701 E15.27858
G1 X45.879 Y124.387 E15.29502
G1 X45.394 Y124.160 E15.30531
G1 X44.734 Y123.797 E15.31981
G1 X44.262 Y123.495 E15.33058
G1 X43.673 Y123.067 E15.34459
G1 X43.262 Y122.727 E15.35487
G1 X29.896 Y110.154 E15.70788
G1 X29.534 Y109.768 E15.71806
G1 X29.293 Y109.478 E15.72532
G1 X28.979 Y109.045 E15.73562
G1 X28.776 Y108.726 E15.74289
G1 X28.519 Y108.258 E15.75316
G1 X28.210 Y107.559 E15.76786
G1 X20.210 Y85.559 E16.21822
G1 X20.046 Y85.062 E16.22830
G1 X19.913 Y84.544 E16.23859
G1 X19.842 Y84.174 E16.24584
G1 X19.775 Y83.644 E16.25611
G1 X19.743 Y82.977 E16.26895
G1 X20.076 Y20.007 E17.48043
G1 X20.481 Y18.218 E17.51572
G1 X21.565 Y16.812 E17.54986
G1 E15.54986 F1200.00000
G92 E0
G1 X118.362 Y123.433 F6000.000
G1 E2.00000 F1200.00000
G1 F1800
G1 X118.761 Y123.102 E2.00998
G1 X119.052 Y122.941 E2.01639
G1 X119.547 Y122.779 E2.02639
G1 X119.856 Y122.739 E2.03240
G1 X120.142 Y122.739 E2.03789
G1 X120.425 Y122.775 E2.04338
G1 X120.700 Y122.845 E2.04884
G1 X120.984 Y122.958 E2.05472
G1 X121.447 Y123.251 E2.06527
G1 X121.821 Y123.651 E2.07579
G1 X121.985 Y123.908 E2.08165
G1 X122.107 Y124.165 E2.08714
G1 X122.201 Y124.457 E2.09304
G1 X122.269 Y125.000 E2.10357
G1 X122.201 Y125.543 E2.11410
G1 X122.107 Y125.834 E2.11999
G1 X121.976 Y126.111 E2.12588
G1 X121.667 Y126.536 E2.13599
G1 X121.429 Y126.760 E2.14226
G1 X120.966 Y127.053 E2.15281
G1 X120.445 Y127.223 E2.16335
G1 X120.142 Y127.261 E2.16924
G1 X119.858 Y127.261 E2.17470
G1 X119.574 Y127.225 E2.18020
G1 X119.272 Y127.146 E2.18621
G1 X118.803 Y126.925 E2.19619
G1 X118.556 Y126.746 E2.20206
G1 X118.348 Y126.551 E2.20753
G1 X118.167 Y126.332 E2.21301
G1 X118.015 Y126.091 E2.21848
G1 X117.894 Y125.834 E2.22395
G1 X117.806 Y125.563 E2.22942
G1 X117.752 Y125.284 E2.23490
G1 X117.735 Y125.000 E2.24037
G1 X117.752 Y124.716 E2.24585
G1 X117.806 Y124.437 E2.25132
G1 X117.894 Y124.166 E2.25679
G1 X118.015 Y123.909 E2.26226
G1 X118.167 Y123.668 E2.26774
G1 X118.323 Y123.479 E2.27245
G1 X118.544 Y123.616 F6000.000
G1 F1800
G1 X118.907 Y123.315 E2.28151
G1 X119.155 Y123.177 E2.28698
G1 X119.604 Y123.031 E2.29605
G1 X119.873 Y122.996 E2.30128
G1 X120.125 Y122.996 E2.30613
G1 X120.376 Y123.028 E2.31100
G1 X120.620 Y123.090 E2.31584
G1 X120.867 Y123.188 E2.32094
G1 X121.282 Y123.451 E2.33040
G1 X121.617 Y123.809 E2.33983
G1 X121.759 Y124.032 E2.34492
G1 X121.867 Y124.261 E2.34978
G1 X121.949 Y124.513 E2.35489
G1 X122.010 Y125.000 E2.36433
G1 X121.949 Y125.487 E2.37377
G1 X121.867 Y125.739 E2.37888
G1 X121.754 Y125.979 E2.38399
G1 X121.473 Y126.366 E2.39317
G1 X121.271 Y126.556 E2.39851
G1 X120.856 Y126.819 E2.40797
G1 X120.389 Y126.971 E2.41741
G1 X120.125 Y127.004 E2.42252
G1 X119.874 Y127.004 E2.42736
G1 X119.623 Y126.972 E2.43222
G1 X119.360 Y126.904 E2.43746
G1 X118.934 Y126.703 E2.44651
G1 X118.720 Y126.547 E2.45160
G1 X118.536 Y126.375 E2.45645
G1 X118.376 Y126.180 E2.46131
G1 X118.240 Y125.967 E2.46616
G1 X118.133 Y125.739 E2.47101
G1 X118.055 Y125.499 E2.47586
G1 X118.008 Y125.252 E2.48071
G1 X117.992 Y125.000 E2.48556
G1 X118.008 Y124.748 E2.49041
G1 X118.055 Y124.501 E2.49526
G1 X118.133 Y124.261 E2.50011
G1 X118.240 Y124.033 E2.50496
G1 X118.376 Y123.820 E2.50982
G1 X118.506 Y123.662 E2.51376
G1 X118.727 Y123.798 F6000.000
G1 F1800
G1 X119.052 Y123.529 E2.52188
G1 X119.259 Y123.414 E2.52642
G1 X119.660 Y123.283 E2.53456
G1 X119.890 Y123.253 E2.53900
G1 X120.109 Y123.253 E2.54323
G1 X120.328 Y123.281 E2.54747
G1 X120.540 Y123.335 E2.55169
G1 X120.749 Y123.418 E2.55601
G1 X121.116 Y123.651 E2.56437
G1 X121.413 Y123.967 E2.57272
G1 X121.534 Y124.157 E2.57704
G1 X121.628 Y124.356 E2.58127
G1 X121.697 Y124.569 E2.58559
G1 X121.751 Y125.000 E2.59394
G1 X121.697 Y125.431 E2.60230
G1 X121.628 Y125.644 E2.60662
G1 X121.532 Y125.848 E2.61094
G1 X121.279 Y126.195 E2.61920
G1 X121.112 Y126.352 E2.62361
G1 X120.745 Y126.584 E2.63197
G1 X120.333 Y126.719 E2.64031
G1 X120.109 Y126.747 E2.64465
G1 X119.890 Y126.747 E2.64887
G1 X119.672 Y126.719 E2.65310
G1 X119.448 Y126.661 E2.65755
G1 X119.066 Y126.481 E2.66568
G1 X118.884 Y126.349 E2.67000
G1 X118.724 Y126.198 E2.67422
G1 X118.584 Y126.029 E2.67845
G1 X118.466 Y125.843 E2.68268
G1 X118.373 Y125.644 E2.68691
G1 X118.305 Y125.435 E2.69114
G1 X118.263 Y125.219 E2.69537
G1 X118.250 Y125.000 E2.69960
G1 X118.263 Y124.781 E2.70382
G1 X118.305 Y124.565 E2.70805
G1 X118.373 Y124.356 E2.71228
G1 X118.466 Y124.157 E2.71651
G1 X118.689 Y123.844 E2.72389
G1 X118.627 Y123.411 F6000.000
G1 E0.72389 F1200.00000
G92 E0
G1 X111.214 Y111.913 F6000.000
G1 E2.00000 F1200.00000
G1 F1800
G1 X110.965 Y112.050 E2.00547
G1 X110.700 Y112.155 E2.01094
G1 X110.424 Y112.225 E2.01642
G1 X110.142 Y112.261 E2.02189
G1 X109.858 Y112.261 E2.02736
G1 X109.576 Y112.225 E2.03284
G1 X109.300 Y112.155 E2.03831
G1 X109.035 Y112.050 E2.04379
G1 X108.786 Y111.913 E2.04926
G1 X108.556 Y111.746 E2.05473
G1 X108.348 Y111.551 E2.06021
G1 X108.167 Y111.332 E2.06568
G1 X108.015 Y111.091 E2.07115
G1 X107.894 Y110.834 E2.07663
G1 X107.805 Y110.562 E2.08212
G1 X107.748 Y110.255 E2.08814
G1 X107.749 Y109.736 E2.09811
G1 X107.806 Y109.437 E2.10399
G1 X107.894 Y109.166 E2.10946
G1 X108.015 Y108.909 E2.11493
G1 X108.167 Y108.668 E2.12040
G1 X108.362 Y108.433 E2.12627
G1 X108.761 Y108.102 E2.13625
G1 X109.052 Y107.941 E2.14266
G1 X109.547 Y107.779 E2.15267
G1 X109.877 Y107.736 E2.15907
G1 X110.396 Y107.768 E2.16908
G1 X110.699 Y107.845 E2.17509
G1 X110.965 Y107.950 E2.18059
G1 X111.214 Y108.087 E2.18606
G1 X111.444 Y108.254 E2.19153
G1 X111.651 Y108.449 E2.19701
G1 X111.833 Y108.668 E2.20248
G1 X111.985 Y108.909 E2.20796
G1 X112.106 Y109.166 E2.21343
G1 X112.194 Y109.437 E2.21890
G1 X112.248 Y109.716 E2.22437
G1 X112.265 Y110.000 E2.22985
G1 X112.248 Y110.284 E2.23532
G1 X112.194 Y110.563 E2.24080
G1 X112.106 Y110.834 E2.24627
G1 X111.985 Y111.091 E2.25174
G1 X111.833 Y111.332 E2.25722
G1 X111.651 Y111.551 E2.26269
G1 X111.444 Y111.746 E2.26816
G1 X111.262 Y111.878 E2.27248
G1 X111.076 Y111.695 F6000.000
G1 F1800
G1 X110.855 Y111.817 E2.27733
G1 X110.621 Y111.910 E2.28218
G1 X110.376 Y111.972 E2.28704
G1 X110.126 Y112.004 E2.29189
G1 X109.874 Y112.004 E2.29674
G1 X109.624 Y111.972 E2.30159
G1 X109.379 Y111.910 E2.30644
G1 X109.145 Y111.817 E2.31129
G1 X108.924 Y111.695 E2.31614
G1 X108.720 Y111.547 E2.32099
G1 X108.536 Y111.375 E2.32584
G1 X108.376 Y111.180 E2.33069
G1 X108.240 Y110.967 E2.33555
G1 X108.133 Y110.739 E2.34040
G1 X108.055 Y110.499 E2.34526
G1 X108.005 Y110.231 E2.35049
G1 X108.006 Y109.761 E2.35955
G1 X108.055 Y109.501 E2.36464
G1 X108.133 Y109.261 E2.36949
G1 X108.240 Y109.033 E2.37434
G1 X108.376 Y108.820 E2.37919
G1 X108.544 Y108.616 E2.38429
G1 X108.907 Y108.315 E2.39334
G1 X109.155 Y108.177 E2.39881
G1 X109.604 Y108.031 E2.40788
G1 X109.886 Y107.994 E2.41336
G1 X110.356 Y108.023 E2.42242
G1 X110.620 Y108.090 E2.42765
G1 X110.855 Y108.183 E2.43252
G1 X111.076 Y108.305 E2.43737
G1 X111.280 Y108.453 E2.44222
G1 X111.464 Y108.625 E2.44707
G1 X111.624 Y108.820 E2.45192
G1 X111.760 Y109.033 E2.45678
G1 X111.867 Y109.261 E2.46163
G1 X111.945 Y109.501 E2.46648
G1 X111.992 Y109.748 E2.47133
G1 X112.008 Y110.000 E2.47618
G1 X111.992 Y110.252 E2.48103
G1 X111.945 Y110.499 E2.48588
G1 X111.867 Y110.739 E2.49073
G1 X111.760 Y110.967 E2.49558
G1 X111.624 Y111.180 E2.50044
G1 X111.464 Y111.375 E2.50529
G1 X111.280 Y111.547 E2.51014
G1 X111.124 Y111.660 E2.51384
G1 X110.938 Y111.478 F6000.000
G1 F1800
G1 X110.745 Y111.584 E2.51806
G1 X110.541 Y111.665 E2.52229
G1 X110.328 Y111.719 E2.52652
G1 X110.110 Y111.747 E2.53075
G1 X109.890 Y111.747 E2.53498
G1 X109.672 Y111.719 E2.53921
G1 X109.459 Y111.665 E2.54344
G1 X109.255 Y111.584 E2.54766
G1 X109.062 Y111.478 E2.55189
G1 X108.884 Y111.349 E2.55612
G1 X108.724 Y111.198 E2.56035
G1 X108.584 Y111.029 E2.56458
G1 X108.466 Y110.843 E2.56881
G1 X108.373 Y110.644 E2.57304
G1 X108.305 Y110.435 E2.57727
G1 X108.262 Y110.208 E2.58172
G1 X108.263 Y109.785 E2.58985
G1 X108.305 Y109.565 E2.59417
G1 X108.373 Y109.356 E2.59839
G1 X108.466 Y109.157 E2.60262
G1 X108.584 Y108.971 E2.60685
G1 X108.727 Y108.798 E2.61117
G1 X109.052 Y108.529 E2.61930
G1 X109.259 Y108.414 E2.62384
G1 X109.660 Y108.283 E2.63197
G1 X109.894 Y108.253 E2.63651
G1 X110.316 Y108.279 E2.64464
G1 X110.541 Y108.335 E2.64909
G1 X110.745 Y108.416 E2.65333
G1 X110.938 Y108.522 E2.65755
G1 X111.116 Y108.651 E2.66178
G1 X111.276 Y108.802 E2.66601
G1 X111.416 Y108.971 E2.67024
G1 X111.534 Y109.157 E2.67447
G1 X111.627 Y109.356 E2.67870
G1 X111.695 Y109.565 E2.68293
G1 X111.737 Y109.781 E2.68716
G1 X111.750 Y110.000 E2.69138
G1 X111.737 Y110.219 E2.69561
G1 X111.695 Y110.435 E2.69984
G1 X111.627 Y110.644 E2.70407
G1 X111.534 Y110.843 E2.70830
G1 X111.416 Y111.029 E2.71253
G1 X111.276 Y111.198 E2.71676
G1 X110.986 Y111.443 E2.72405
G1 X110.947 Y111.697 F6000.000
G1 E0.72405 F1200.00000
G92 E0
G1 X110.384 Y122.636 F6000.000
G1 E2.00000 F1200.00000
G1 F1800
G1 X110.376 Y122.763 E2.00246
G1 X110.699 Y122.845 E2.00886
G1 X110.965 Y122.950 E2.01436
G1 X111.214 Y123.087 E2.01983
G1 X111.444 Y123.254 E2.02531
G1 X111.651 Y123.449 E2.03078
G1 X111.833 Y123.668 E2.03625
G1 X111.985 Y123.909 E2.04173
G1 X112.106 Y124.166 E2.04720
G1 X112.194 Y124.437 E2.05267
G1 X112.248 Y124.716 E2.05814
G1 X112.265 Y125.000 E2.06362
G1 X112.248 Y125.284 E2.06909
G1 X112.194 Y125.563 E2.07457
G1 X112.106 Y125.834 E2.08004
G1 X111.985 Y126.091 E2.08551
G1 X111.833 Y126.332 E2.09099
G1 X111.651 Y126.551 E2.09646
G1 X111.444 Y126.746 E2.10193
G1 X111.214 Y126.913 E2.10741
G1 X110.965 Y127.050 E2.11288
G1 X110.700 Y127.155 E2.11835
G1 X110.424 Y127.225 E2.12383
G1 X110.142 Y127.261 E2.12930
G1 X109.858 Y127.261 E2.13477
G1 X109.576 Y127.225 E2.14024
G1 X109.300 Y127.155 E2.14572
G1 X109.035 Y127.050 E2.15119
G1 X108.786 Y126.913 E2.15666
G1 X108.556 Y126.746 E2.16214
G1 X108.348 Y126.551 E2.16761
G1 X108.167 Y126.332 E2.17309
G1 X108.015 Y126.091 E2.17856
G1 X107.894 Y125.834 E2.18403
G1 X107.805 Y125.562 E2.18953
G1 X107.748 Y125.255 E2.19554
G1 X107.749 Y124.736 E2.20552
G1 X107.806 Y124.437 E2.21139
G1 X107.894 Y124.166 E2.21686
G1 X108.015 Y123.909 E2.22234
G1 X108.167 Y123.668 E2.22781
G1 X108.362 Y123.433 E2.23368
G1 X108.761 Y123.102 E2.24366
G1 X109.052 Y122.941 E2.25007
G1 X109.516 Y122.789 E2.25946
G1 X109.495 Y122.659 E2.26199
G1 X100.516 Y122.659 E2.43474
G1 X100.499 Y122.794 E2.43736
G1 X100.699 Y122.845 E2.44133
G1 X100.965 Y122.950 E2.44683
G1 X101.214 Y123.087 E2.45230
G1 X101.444 Y123.254 E2.45777
G1 X101.651 Y123.449 E2.46325
G1 X101.833 Y123.668 E2.46872
G1 X101.985 Y123.909 E2.47419
G1 X102.106 Y124.166 E2.47967
G1 X102.194 Y124.437 E2.48514
G1 X102.248 Y124.716 E2.49061
G1 X102.265 Y125.000 E2.49609
G1 X102.248 Y125.284 E2.50156
G1 X102.194 Y125.563 E2.50704
G1 X102.106 Y125.834 E2.51251
G1 X101.985 Y126.091 E2.51798
G1 X101.833 Y126.332 E2.52346
G1 X101.651 Y126.551 E2.52893
G1 X101.444 Y126.746 E2.53440
G1 X101.214 Y126.913 E2.53988
G1 X100.965 Y127.050 E2.54535
G1 X100.700 Y127.155 E2.55082
G1 X100.424 Y127.225 E2.55630
G1 X100.142 Y127.261 E2.56177
G1 X99.858 Y127.261 E2.56724
G1 X99.576 Y127.225 E2.57271
G1 X99.300 Y127.155 E2.57819
G1 X99.035 Y127.050 E2.58366
G1 X98.786 Y126.913 E2.58913
G1 X98.556 Y126.746 E2.59461
G1 X98.348 Y126.551 E2.60008
G1 X98.167 Y126.332 E2.60556
G1 X98.015 Y126.091 E2.61103
G1 X97.894 Y125.834 E2.61650
G1 X97.805 Y125.562 E2.62200
G1 X97.748 Y125.255 E2.62801
G1 X97.749 Y124.736 E2.63799
G1 X97.806 Y124.437 E2.64386
G1 X97.894 Y124.166 E2.64933
G1 X98.015 Y123.909 E2.65481
G1 X98.167 Y123.668 E2.66028
G1 X98.362 Y123.433 E2.66615
G1 X98.761 Y123.102 E2.67613
G1 X99.052 Y122.941 E2.68254
G1 X99.516 Y122.789 E2.69193
G1 X99.495 Y122.659 E2.69446
G1 X91.801 Y122.659 E2.84249
G1 X91.407 Y122.609 E2.85014
G1 X91.022 Y122.510 E2.85778
G1 X90.652 Y122.364 E2.86543
G1 X90.304 Y122.173 E2.87308
G1 X89.982 Y121.939 E2.88072
G1 X89.692 Y121.667 E2.88837
G1 X89.439 Y121.361 E2.89602
G1 X89.226 Y121.025 E2.90367
G1 X89.057 Y120.665 E2.91131
G1 X88.934 Y120.287 E2.91896
G1 X88.859 Y119.897 E2.92661
G1 X88.836 Y119.521 E2.93386
G1 X88.836 Y116.479 E2.99237
G1 X88.859 Y116.103 E2.99962
G1 X88.934 Y115.713 E3.00727
G1 X89.057 Y115.335 E3.01492
G1 X89.226 Y114.975 E3.02256
