; generated by Slic3r 1.3.0 on 2020-04-24 at 13:35:55

; external perimeters extrusion width = 0.44mm (3.57mm^3/s)
; perimeters extrusion width = 0.56mm (5.17mm^3/s)
; infill extrusion width = 0.50mm (5.48mm^3/s)
; solid infill extrusion width = 0.56mm (3.62mm^3/s)
; top infill extrusion width = 0.56mm (2.07mm^3/s)

M107
;D3D:START:START
T0
M104 S215 T0

G21
G90
M107
T0
G28
G29
M109 T0 S215 T0
G0 F3000
M107
T0
G92 E0
G0 X0 Y149 Z0.1 F3600
G1 Y49 E6.5 F1200
G0 Z1
G92 E0
; Filament gcode

G21 ; set units to millimeters
G90 ; use absolute coordinates
M82 ; use absolute distances for extrusion
G92 E0
G1 E-1.00000 F1200.00000
G92 E0
G1 Z0.200 F6000.000
G1 X8.100 Y66.628 F6000.000
G1 E1.00000 F1200.00000
G1 F1800
G1 X10.673 Y66.286 E1.05104
G1 X13.459 Y65.992 E1.10615
G1 X16.886 Y65.707 E1.17376
G1 X20.512 Y65.470 E1.24524
G1 X24.384 Y65.274 E1.32148
G1 X28.654 Y65.112 E1.40551
G1 X33.266 Y64.986 E1.49624
G1 X38.063 Y64.902 E1.59060
G1 X43.040 Y64.857 E1.68847
G1 X48.311 Y64.847 E1.79214
G1 X53.661 Y64.874 E1.89737
G1 X59.190 Y64.933 E2.00610
G1 X64.848 Y65.023 E2.11739
G1 X76.262 Y65.282 E2.34190
G1 X87.646 Y65.624 E2.56589
G1 X98.781 Y66.023 E2.78502
G1 X109.340 Y66.454 E2.99285
G1 X123.564 Y67.106 E3.27286
G1 X135.188 Y67.702 E3.50176
G1 X145.540 Y68.285 E3.70567
G1 X147.113 Y68.378 E3.73666
G1 X149.324 Y68.910 E3.78138
G1 X151.217 Y70.170 E3.82611
G1 X152.561 Y72.004 E3.87083
G1 X153.230 Y74.880 E3.92888
G1 X153.230 Y75.120 E3.93362
G1 X152.833 Y77.359 E3.97834
G1 X151.691 Y79.326 E4.02306
G1 X149.942 Y80.779 E4.06778
G1 X147.113 Y81.622 E4.12584
G1 X138.367 Y82.124 E4.29812
G1 X127.775 Y82.685 E4.50672
G1 X119.072 Y83.109 E4.67807
G1 X109.327 Y83.547 E4.86992
G1 X98.765 Y83.977 E5.07779
G1 X87.665 Y84.376 E5.29624
G1 X76.262 Y84.718 E5.52060
G1 X70.539 Y84.859 E5.63318
G1 X64.848 Y84.977 E5.74512
G1 X59.224 Y85.067 E5.85574
G1 X53.700 Y85.126 E5.96438
G1 X48.311 Y85.153 E6.07036
G1 X43.040 Y85.143 E6.17403
G1 X38.063 Y85.098 E6.27190
G1 X33.266 Y85.014 E6.36626
G1 X28.725 Y84.891 E6.45560
G1 X24.466 Y84.729 E6.53942
G1 X20.417 Y84.524 E6.61915
G1 X16.771 Y84.285 E6.69100
G1 X13.602 Y84.021 E6.75354
G1 X10.673 Y83.714 E6.81146
G1 X7.846 Y83.332 E6.86756
G1 X5.493 Y82.910 E6.91457
G1 X3.945 Y82.543 E6.94586
G1 X3.314 Y82.360 E6.95878
G1 X2.201 Y81.975 E6.98194
G1 X0.982 Y81.406 E7.00839
G1 X0.312 Y81.004 E7.02376
G1 X-1.404 Y79.512 E7.06848
G1 X-2.078 Y78.499 E7.09241
G1 X-2.302 Y78.082 E7.10172
G1 X-3.011 Y75.921 E7.14644
G1 X-2.935 Y73.648 E7.19116
G1 X-2.302 Y71.918 E7.22739
G1 X-2.078 Y71.501 E7.23670
G1 X-0.669 Y69.716 E7.28142
G1 X0.312 Y68.996 E7.30535
G1 X0.982 Y68.594 E7.32072
G1 X2.201 Y68.025 E7.34717
G1 X3.314 Y67.640 E7.37033
G1 X3.945 Y67.457 E7.38325
G1 X5.872 Y67.013 E7.42214
G1 X8.041 Y66.638 E7.46543
G1 X8.134 Y66.883 F6000.000
G1 F1800
G1 X10.699 Y66.541 E7.51633
G1 X13.350 Y66.262 E7.56874
G1 X16.792 Y65.971 E7.63667
G1 X20.525 Y65.727 E7.71025
G1 X24.475 Y65.528 E7.78803
G1 X28.732 Y65.366 E7.87180
G1 X33.270 Y65.243 E7.96109
G1 X38.013 Y65.160 E8.05437
G1 X43.089 Y65.113 E8.15419
G1 X48.310 Y65.104 E8.25687
G1 X53.697 Y65.131 E8.36282
G1 X59.220 Y65.190 E8.47144
G1 X64.843 Y65.280 E8.58204
G1 X70.532 Y65.398 E8.69395
G1 X81.953 Y65.701 E8.91864
G1 X93.267 Y66.075 E9.14125
G1 X104.136 Y66.493 E9.35517
G1 X119.060 Y67.148 E9.64895
G1 X131.634 Y67.771 E9.89652
G1 X141.156 Y68.289 E10.08406
G1 X147.097 Y68.634 E10.20111
G1 X149.262 Y69.164 E10.24493
G1 X151.103 Y70.419 E10.28876
G1 X152.389 Y72.239 E10.33258
G1 X152.973 Y74.880 E10.38577
G1 X152.973 Y75.120 E10.39050
G1 X152.576 Y77.313 E10.43432
G1 X151.436 Y79.228 E10.47815
G1 X149.697 Y80.621 E10.52197
G1 X147.097 Y81.366 E10.57516
G1 X138.353 Y81.868 E10.74741
G1 X127.762 Y82.428 E10.95599
G1 X119.060 Y82.852 E11.12732
G1 X109.316 Y83.290 E11.31915
G1 X98.756 Y83.721 E11.52699
G1 X87.656 Y84.119 E11.74543
G1 X76.254 Y84.461 E11.96976
G1 X70.532 Y84.602 E12.08232
G1 X64.843 Y84.720 E12.19423
G1 X59.220 Y84.810 E12.30483
G1 X53.697 Y84.869 E12.41345
G1 X48.310 Y84.896 E12.51940
G1 X43.042 Y84.886 E12.62300
G1 X38.065 Y84.841 E12.72087
G1 X33.270 Y84.757 E12.81518
G1 X28.732 Y84.634 E12.90447
G1 X24.475 Y84.472 E12.98824
G1 X20.525 Y84.273 E13.06602
G1 X16.792 Y84.029 E13.13960
G1 X13.623 Y83.765 E13.20213
G1 X10.699 Y83.459 E13.25994
G1 X7.890 Y83.079 E13.31570
G1 X5.552 Y82.659 E13.36241
G1 X4.004 Y82.293 E13.39370
G1 X3.398 Y82.117 E13.40611
G1 X2.285 Y81.732 E13.42927
G1 X1.114 Y81.186 E13.45467
G1 X0.444 Y80.784 E13.47005
G1 X-1.233 Y79.316 E13.51387
G1 X-1.851 Y78.377 E13.53598
G1 X-2.075 Y77.960 E13.54529
G1 X-2.763 Y75.840 E13.58911
G1 X-2.664 Y73.614 E13.63293
G1 X-2.075 Y72.040 E13.66599
G1 X-1.851 Y71.623 E13.67530
G1 X-0.464 Y69.879 E13.71912
G1 X0.444 Y69.217 E13.74123
G1 X1.114 Y68.814 E13.75660
G1 X2.285 Y68.268 E13.78201
G1 X3.398 Y67.883 E13.80516
G1 X4.004 Y67.707 E13.81758
G1 X5.916 Y67.266 E13.85617
G1 X8.075 Y66.892 E13.89925
G1 E12.89925 F1200.00000
G92 E0
G1 X88.716 Y76.402 F6000.000
G1 E1.00000 F1200.00000
G1 F1800
G1 X88.283 Y76.333 E1.00862
G1 X87.892 Y76.134 E1.01726
G1 X87.582 Y75.824 E1.02587
G1 X87.383 Y75.433 E1.03450
G1 X87.314 Y75.000 E1.04313
G1 X87.383 Y74.567 E1.05175
G1 X87.582 Y74.176 E1.06038
G1 X87.892 Y73.866 E1.06900
G1 X88.283 Y73.667 E1.07764
G1 X88.716 Y73.598 E1.08626
G1 X89.149 Y73.667 E1.09488
G1 X89.540 Y73.866 E1.10351
G1 X89.850 Y74.176 E1.11213
G1 X90.049 Y74.567 E1.12076
G1 X90.118 Y75.000 E1.12938
G1 X90.049 Y75.433 E1.13801
G1 X89.850 Y75.824 E1.14664
G1 X89.540 Y76.134 E1.15526
G1 X89.149 Y76.333 E1.16389
G1 X88.775 Y76.392 E1.17133
G1 E0.17133 F1200.00000
G92 E0
G1 X144.913 Y75.074 F6000.000
G1 E1.00000 F1200.00000
G1 F1800
G1 X131.305 Y75.830 E1.26804
G1 X118.766 Y76.452 E1.51494
G1 X103.868 Y77.106 E1.80820
G1 X93.029 Y77.522 E2.02153
G1 X81.771 Y77.895 E2.24304
G1 X70.374 Y78.197 E2.46725
G1 X64.711 Y78.314 E2.57865
G1 X59.118 Y78.403 E2.68866
G1 X53.628 Y78.462 E2.79662
G1 X48.279 Y78.489 E2.90183
G1 X43.100 Y78.480 E3.00367
G1 X38.125 Y78.434 E3.10152
G1 X33.384 Y78.350 E3.19477
G1 X28.906 Y78.229 E3.28286
G1 X24.720 Y78.070 E3.36526
G1 X20.850 Y77.874 E3.44145
G1 X17.322 Y77.643 E3.51100
G1 X14.156 Y77.380 E3.57347
G1 X11.373 Y77.087 E3.62851
G1 X8.990 Y76.767 E3.67579
G1 X7.023 Y76.424 E3.71505
G1 X5.487 Y76.060 E3.74610
G1 X4.396 Y75.682 E3.76881
G1 X3.774 Y75.310 E3.78306
G1 X3.608 Y75.000 E3.78997
G1 X3.774 Y74.690 E3.79688
G1 X4.396 Y74.318 E3.81114
G1 X5.487 Y73.940 E3.83384
G1 X7.023 Y73.576 E3.86489
G1 X8.990 Y73.233 E3.90416
G1 X11.373 Y72.913 E3.95144
G1 X14.156 Y72.620 E4.00647
G1 X17.322 Y72.357 E4.06895
G1 X20.850 Y72.126 E4.13849
G1 X24.720 Y71.930 E4.21469
G1 X28.906 Y71.771 E4.29708
G1 X33.384 Y71.650 E4.38517
G1 X38.125 Y71.566 E4.47842
G1 X43.100 Y71.520 E4.57627
G1 X48.541 Y71.513 E4.68327
G1 X53.628 Y71.538 E4.78332
G1 X59.118 Y71.597 E4.89128
G1 X64.711 Y71.686 E5.00129
G1 X70.374 Y71.803 E5.11269
G1 X81.771 Y72.105 E5.33691
G1 X87.435 Y72.285 E5.44834
G1 X98.517 Y72.682 E5.66643
G1 X109.048 Y73.111 E5.87369
G1 X118.766 Y73.548 E6.06500
G1 X127.433 Y73.971 E6.23566
G1 X134.835 Y74.357 E6.38142
G1 X144.913 Y74.928 E6.57994
G1 X144.913 Y75.014 E6.58163
G1 X145.063 Y75.001 F6000.000
G1 F1800
G1 X145.890 Y75.000 E6.60216
G1 F1800
G1 X146.716 Y75.000 E6.61793
G1 E5.61793 F1200.00000
G92 E0
G1 X141.624 Y75.153 F6000.000
G1 E1.00000 F1200.00000
G1 F1800
G1 X141.624 Y74.845 E1.00608
G1 X141.366 Y74.830 E1.01115
G1 X141.366 Y75.168 E1.01780
G1 X141.109 Y75.182 E1.02287
G1 X141.109 Y74.816 E1.03009
G1 X140.851 Y74.801 E1.03517
G1 X140.851 Y75.196 E1.04295
G1 X140.594 Y75.210 E1.04803
G1 X140.594 Y74.786 E1.05638
G1 X140.337 Y74.772 E1.06145
G1 X140.337 Y75.225 E1.07037
G1 X140.079 Y75.239 E1.07545
G1 X140.079 Y74.757 E1.08494
G1 X139.822 Y74.743 E1.09002
G1 X139.822 Y75.253 E1.10008
G1 X139.564 Y75.268 E1.10516
G1 X139.564 Y74.728 E1.11578
G1 X139.307 Y74.714 E1.12086
G1 X139.307 Y75.282 E1.13206
G1 X139.049 Y75.296 E1.13713
G1 X139.049 Y74.699 E1.14890
G1 X138.792 Y74.684 E1.15398
G1 X138.792 Y75.311 E1.16631
G1 X138.535 Y75.325 E1.17139
G1 X138.535 Y74.670 E1.18429
G1 X138.277 Y74.655 E1.18937
G1 X138.277 Y75.339 E1.20284
G1 X138.020 Y75.354 E1.20792
G1 X138.020 Y74.641 E1.22196
G1 X137.762 Y74.626 E1.22704
G1 X137.762 Y75.368 E1.24165
G1 X137.505 Y75.382 E1.24673
G1 X137.505 Y74.611 E1.26191
G1 X137.247 Y74.597 E1.26698
G1 X137.247 Y75.397 E1.28273
G1 X136.990 Y75.411 E1.28781
G1 X136.990 Y74.582 E1.30413
G1 X136.733 Y74.568 E1.30921
G1 X136.733 Y75.425 E1.32609
G1 X136.475 Y75.440 E1.33117
G1 X136.475 Y74.553 E1.34863
G1 X136.218 Y74.539 E1.35370
G1 X136.218 Y75.454 E1.37173
G1 X135.960 Y75.468 E1.37681
G1 X135.960 Y74.524 E1.39540
G1 X135.703 Y74.509 E1.40048
G1 X135.703 Y75.482 E1.41964
G1 X135.445 Y75.497 E1.42472
G1 X135.445 Y74.495 E1.44445
G1 X135.188 Y74.480 E1.44953
G1 X135.188 Y75.511 E1.46983
G1 X134.931 Y75.525 E1.47490
G1 X134.931 Y74.466 E1.49577
G1 X134.673 Y74.452 E1.50085
G1 X134.673 Y75.540 E1.52228
G1 X134.416 Y75.554 E1.52735
G1 X134.416 Y74.438 E1.54933
G1 X134.158 Y74.425 E1.55440
G1 X134.158 Y75.568 E1.57692
G1 X133.901 Y75.583 E1.58200
G1 X133.901 Y74.411 E1.60506
G1 X133.643 Y74.398 E1.61014
G1 X133.643 Y75.597 E1.63375
G1 X133.386 Y75.611 E1.63883
G1 X133.386 Y74.385 E1.66299
G1 X133.129 Y74.371 E1.66806
G1 X133.129 Y75.626 E1.69277
G1 X132.871 Y75.640 E1.69785
G1 X132.871 Y74.358 E1.72310
G1 X132.614 Y74.344 E1.72817
G1 X132.614 Y75.654 E1.75397
G1 X132.356 Y75.669 E1.75905
G1 X132.356 Y74.331 E1.78539
G1 X132.099 Y74.317 E1.79047
G1 X132.099 Y75.683 E1.81736
G1 X131.841 Y75.697 E1.82243
G1 X131.841 Y74.304 E1.84987
G1 X131.584 Y74.291 E1.85495
G1 X131.584 Y75.711 E1.88293
G1 X131.327 Y75.726 E1.88801
G1 X131.327 Y74.277 E1.91653
G1 X131.069 Y74.264 E1.92161
G1 X131.069 Y75.739 E1.95066
G1 X130.812 Y75.752 E1.95574
G1 X130.812 Y74.250 E1.98530
G1 X130.554 Y74.237 E1.99038
G1 X130.554 Y75.764 E2.02046
G1 X130.297 Y75.777 E2.02553
G1 X130.297 Y74.223 E2.05613
G1 X130.039 Y74.210 E2.06121
G1 X130.039 Y75.790 E2.09232
G1 X129.782 Y75.803 E2.09739
G1 X129.782 Y74.197 E2.12902
G1 X129.525 Y74.183 E2.13410
G1 X129.525 Y75.815 E2.16624
G1 X129.267 Y75.828 E2.17132
G1 X129.267 Y74.170 E2.20398
G1 X129.010 Y74.156 E2.20905
G1 X129.010 Y75.841 E2.24223
G1 X128.752 Y75.854 E2.24730
G1 X128.752 Y74.143 E2.28099
G1 X128.495 Y74.129 E2.28607
G1 X128.495 Y75.866 E2.32028
G1 X128.237 Y75.879 E2.32535
G1 X128.237 Y74.116 E2.36007
G1 X127.980 Y74.102 E2.36515
G1 X127.980 Y75.892 E2.40039
G1 X127.723 Y75.905 E2.40546
G1 X127.723 Y74.089 E2.44122
G1 X127.465 Y74.076 E2.44629
G1 X127.465 Y75.917 E2.48256
G1 X127.208 Y75.930 E2.48764
G1 X127.208 Y74.063 E2.52441
G1 X126.950 Y74.050 E2.52949
G1 X126.950 Y75.943 E2.56676
G1 X126.693 Y75.956 E2.57183
G1 X126.693 Y74.038 E2.60960
G1 X126.435 Y74.025 E2.61467
G1 X126.435 Y75.968 E2.65294
G1 X126.178 Y75.981 E2.65802
G1 X126.178 Y74.013 E2.69678
G1 X125.921 Y74.000 E2.70186
G1 X125.921 Y75.994 E2.74112
G1 X125.663 Y76.007 E2.74619
G1 X125.663 Y73.988 E2.78596
G1 X125.406 Y73.975 E2.79103
G1 X125.406 Y76.019 E2.83129
G1 X125.148 Y76.032 E2.83637
G1 X125.148 Y73.963 E2.87712
G1 X124.891 Y73.950 E2.88220
G1 X124.891 Y76.045 E2.92346
G1 X124.633 Y76.058 E2.92853
G1 X124.633 Y73.937 E2.97029
G1 X124.376 Y73.925 E2.97536
G1 X124.376 Y76.071 E3.01762
G1 X124.119 Y76.083 E3.02269
G1 X124.119 Y73.912 E3.06544
G1 X123.861 Y73.900 E3.07052
G1 X123.861 Y76.096 E3.11377
G1 X123.604 Y76.109 E3.11884
G1 X123.604 Y73.887 E3.16259
G1 X123.346 Y73.875 E3.16767
G1 X123.346 Y76.122 E3.21191
G1 X123.089 Y76.134 E3.21699
G1 X123.089 Y73.862 E3.26174
G1 X122.831 Y73.850 E3.26681
G1 X122.831 Y76.147 E3.31205
G1 X122.574 Y76.160 E3.31713
G1 X122.574 Y73.837 E3.36287
G1 X122.317 Y73.825 E3.36795
G1 X122.317 Y76.173 E3.41419
G1 X122.059 Y76.185 E3.41926
G1 X122.059 Y73.812 E3.46600
G1 X121.802 Y73.799 E3.47108
G1 X121.802 Y76.198 E3.51831
G1 X121.544 Y76.211 E3.52339
G1 X121.544 Y73.787 E3.57112
G1 X121.287 Y73.774 E3.57620
G1 X121.287 Y76.224 E3.62443
G1 X121.029 Y76.236 E3.62951
G1 X121.029 Y73.762 E3.67824
G1 X120.772 Y73.749 E3.68332
G1 X120.772 Y76.249 E3.73255
G1 X120.515 Y76.262 E3.73762
G1 X120.515 Y73.737 E3.78735
G1 X120.257 Y73.724 E3.79243
G1 X120.257 Y76.275 E3.84265
G1 X120.000 Y76.287 E3.84773
G1 X120.000 Y73.712 E3.89846
G1 X119.742 Y73.699 E3.90353
G1 X119.742 Y76.300 E3.95476
G1 X119.485 Y76.313 E3.95983
G1 X119.485 Y73.686 E4.01155
G1 X119.227 Y73.674 E4.01663
G1 X119.227 Y76.326 E4.06885
G1 X118.970 Y76.338 E4.07393
G1 X118.970 Y73.661 E4.12664
G1 X118.713 Y73.649 E4.13172
G1 X118.713 Y76.351 E4.18493
G1 X118.455 Y76.362 E4.19000
G1 X118.455 Y73.637 E4.24366
G1 X118.198 Y73.626 E4.24874
G1 X118.198 Y76.374 E4.30285
G1 X117.940 Y76.385 E4.30792
G1 X117.940 Y73.614 E4.36249
G1 X117.683 Y73.603 E4.36756
G1 X117.683 Y76.396 E4.42257
G1 X117.425 Y76.407 E4.42765
G1 X117.425 Y73.591 E4.48311
G1 X117.168 Y73.580 E4.48818
G1 X117.168 Y76.419 E4.54410
G1 X116.911 Y76.430 E4.54917
G1 X116.911 Y73.568 E4.60553
G1 X116.653 Y73.556 E4.61061
G1 X116.653 Y76.441 E4.66742
G1 X116.396 Y76.453 E4.67250
G1 X116.396 Y73.545 E4.72976
G1 X116.138 Y73.533 E4.73484
G1 X116.138 Y76.464 E4.79255
G1 X115.881 Y76.475 E4.79763
G1 X115.881 Y73.522 E4.85579
G1 X115.623 Y73.510 E4.86087
G1 X115.623 Y76.487 E4.91948
G1 X115.366 Y76.498 E4.92456
G1 X115.366 Y73.498 E4.98362
G1 X115.109 Y73.487 E4.98870
G1 X115.109 Y76.509 E5.04822
G1 X114.851 Y76.520 E5.05329
G1 X114.851 Y73.475 E5.11326
G1 X114.594 Y73.464 E5.11833
G1 X114.594 Y76.532 E5.17875
G1 X114.336 Y76.543 E5.18383
G1 X114.336 Y73.452 E5.24469
G1 X114.079 Y73.441 E5.24977
G1 X114.079 Y76.554 E5.31109
G1 X113.821 Y76.566 E5.31616
G1 X113.821 Y73.429 E5.37793
G1 X113.564 Y73.417 E5.38301
G1 X113.564 Y76.577 E5.44523
G1 X113.307 Y76.588 E5.45030
G1 X113.307 Y73.406 E5.51297
G1 X113.049 Y73.394 E5.51805
G1 X113.049 Y76.600 E5.58117
G1 X112.792 Y76.611 E5.58624
G1 X112.792 Y73.383 E5.64982
G1 X112.534 Y73.371 E5.65489
G1 X112.534 Y76.622 E5.71891
G1 X112.277 Y76.634 E5.72399
G1 X112.277 Y73.360 E5.78846
G1 X112.019 Y73.348 E5.79354
G1 X112.019 Y76.645 E5.85846
G1 X111.762 Y76.656 E5.86354
G1 X111.762 Y73.336 E5.92891
G1 X111.505 Y73.325 E5.93398
G1 X111.505 Y76.667 E5.99981
G1 X111.247 Y76.679 E6.00488
G1 X111.247 Y73.313 E6.07116
G1 X110.990 Y73.302 E6.07623
G1 X110.990 Y76.690 E6.14296
G1 X110.732 Y76.701 E6.14803
G1 X110.732 Y73.290 E6.21521
G1 X110.475 Y73.279 E6.22029
G1 X110.475 Y76.713 E6.28791
G1 X110.217 Y76.724 E6.29299
G1 X110.217 Y73.267 E6.36106
G1 X109.960 Y73.255 E6.36614
G1 X109.960 Y76.735 E6.43467
G1 X109.703 Y76.747 E6.43974
G1 X109.703 Y73.244 E6.50872
G1 X109.445 Y73.232 E6.51380
G1 X109.445 Y76.758 E6.58322
G1 X109.188 Y76.769 E6.58830
G1 X109.188 Y73.221 E6.65818
G1 X108.930 Y73.210 E6.66325
G1 X108.930 Y76.780 E6.73357
G1 X108.673 Y76.792 E6.73865
G1 X108.673 Y73.199 E6.80940
G1 X108.415 Y73.189 E6.81447
G1 X108.415 Y76.803 E6.88565
G1 X108.158 Y76.814 E6.89073
G1 X108.158 Y73.178 E6.96234
G1 X107.901 Y73.168 E6.96741
G1 X107.901 Y76.826 E7.03945
G1 X107.643 Y76.837 E7.04452
G1 X107.643 Y73.157 E7.11699
G1 X107.386 Y73.147 E7.12206
G1 X107.386 Y76.848 E7.19496
G1 X107.128 Y76.860 E7.20003
G1 X107.128 Y73.136 E7.27336
G1 X106.871 Y73.126 E7.27843
G1 X106.871 Y76.871 E7.35219
G1 X106.613 Y76.882 E7.35726
G1 X106.613 Y73.115 E7.43145
G1 X106.356 Y73.105 E7.43652
G1 X106.356 Y76.893 E7.51113
G1 X106.099 Y76.905 E7.51621
G1 X106.099 Y73.094 E7.59125
G1 X105.841 Y73.084 E7.59633
G1 X105.841 Y76.916 E7.67180
G1 X105.584 Y76.927 E7.67687
G1 X105.584 Y73.073 E7.75277
G1 X105.326 Y73.063 E7.75785
G1 X105.326 Y76.939 E7.83418
G1 X105.069 Y76.950 E7.83925
G1 X105.069 Y73.052 E7.91601
G1 X104.811 Y73.042 E7.92108
G1 X104.811 Y76.961 E7.99827
G1 X104.554 Y76.973 E8.00335
G1 X104.554 Y73.031 E8.08096
G1 X104.297 Y73.021 E8.08604
G1 X104.297 Y76.984 E8.16408
G1 X104.039 Y76.995 E8.16916
G1 X104.039 Y73.010 E8.24763
G1 X103.782 Y73.000 E8.25271
G1 X103.782 Y77.006 E8.33160
G1 X103.524 Y77.016 E8.33668
G1 X103.524 Y72.989 E8.41597
G1 X103.267 Y72.979 E8.42105
