; generated by Slic3r 1.3.0 on 2020-09-03 at 21:02:17

; external perimeters extrusion width = 0.45mm (4.34mm^3/s)
; perimeters extrusion width = 0.45mm (5.78mm^3/s)
; infill extrusion width = 0.45mm (7.52mm^3/s)
; solid infill extrusion width = 0.45mm (2.31mm^3/s)
; top infill extrusion width = 0.45mm (1.74mm^3/s)

; external perimeters extrusion width = 0.45mm (4.34mm^3/s)
; perimeters extrusion width = 0.45mm (5.78mm^3/s)
; infill extrusion width = 0.45mm (7.52mm^3/s)
; solid infill extrusion width = 0.45mm (2.31mm^3/s)
; top infill extrusion width = 0.45mm (1.74mm^3/s)

;D3D:START:START
T0
M104 S215 T0

G21
G90
M107
T0
G28
G29
M109 T0 S215 T0
G0 F3000
M107
T0
G92 E0
G0 X0 Y149 Z0.1 F3600
G1 Y49 E6.5 F1200
G0 Z1
G92 E0
; Filament gcode

G21 ; set units to millimeters
G90 ; use absolute coordinates
M82 ; use absolute distances for extrusion
G92 E0
G1 Z0.300 F6000.000
G1 E-0.50000 F1200.00000
G92 E0
G1 X52.745 Y69.882 F6000.000
G1 E0.52000 F1200.00000
G1 F1080
G1 X53.069 Y69.652 E0.53075
G1 X53.519 Y69.376 E0.54504
G1 X53.957 Y69.148 E0.55838
G1 X54.612 Y68.864 E0.57769
G1 X55.064 Y68.702 E0.59065
G1 X55.644 Y68.525 E0.60706
G1 X56.832 Y68.244 E0.64006
G1 X58.234 Y68.015 E0.67846
G1 X59.791 Y67.845 E0.72082
G1 X61.387 Y67.736 E0.76406
G1 X63.690 Y67.657 E0.82636
G1 X66.156 Y67.644 E0.89303
G1 X68.826 Y67.683 E0.96524
G1 X72.311 Y67.785 E1.05951
G1 X76.704 Y67.961 E1.17838
G1 X80.454 Y68.155 E1.27990
G1 X84.160 Y68.375 E1.38027
G1 X95.332 Y69.117 E1.68300
G1 X97.137 Y69.648 E1.73384
G1 X98.563 Y70.873 E1.78469
G1 X99.359 Y72.577 E1.83554
G1 X99.472 Y73.576 E1.86271
G1 X99.472 Y75.556 E1.91623
G1 X99.076 Y77.394 E1.96708
G1 X97.960 Y78.908 E2.01793
G1 X95.740 Y79.965 E2.08441
G1 X93.450 Y80.338 E2.14714
G1 X90.875 Y80.723 E2.21753
G1 X88.127 Y81.096 E2.29251
G1 X85.955 Y81.361 E2.35167
G1 X83.698 Y81.609 E2.41306
G1 X81.413 Y81.830 E2.47514
G1 X79.100 Y82.020 E2.53788
G1 X76.803 Y82.172 E2.60012
G1 X74.495 Y82.286 E2.66260
G1 X72.913 Y82.336 E2.70539
G1 X70.658 Y82.358 E2.76634
G1 X69.164 Y82.338 E2.80675
G1 X67.704 Y82.289 E2.84626
G1 X66.234 Y82.208 E2.88605
G1 X64.853 Y82.101 E2.92350
G1 X62.934 Y81.895 E2.97569
G1 X61.086 Y81.625 E3.02617
G1 X59.303 Y81.283 E3.07525
G1 X58.310 Y81.050 E3.10283
G1 X57.309 Y80.777 E3.13088
G1 X55.919 Y80.317 E3.17046
G1 X55.359 Y80.097 E3.18674
G1 X54.645 Y79.778 E3.20787
G1 X54.073 Y79.483 E3.22528
G1 X53.444 Y79.106 E3.24511
G1 X53.049 Y78.832 E3.25810
G1 X52.653 Y78.520 E3.27174
G1 X52.255 Y78.157 E3.28632
G1 X51.856 Y77.726 E3.30218
G1 X51.464 Y77.209 E3.31972
G1 X51.169 Y76.720 E3.33515
G1 X50.793 Y75.845 E3.36093
G1 X50.589 Y74.994 E3.38457
G1 X50.528 Y74.211 E3.40580
G1 X50.608 Y73.289 E3.43083
G1 X50.848 Y72.402 E3.45568
G1 X51.289 Y71.483 E3.48324
G1 X51.751 Y70.832 E3.50482
G1 X52.245 Y70.305 E3.52434
G1 X52.698 Y69.919 E3.54042
G1 X52.890 Y70.068 F6000.000
G1 F1080
G1 X53.365 Y69.741 E3.55600
G1 X53.817 Y69.482 E3.57010
G1 X54.265 Y69.264 E3.58357
G1 X54.704 Y69.082 E3.59642
G1 X55.141 Y68.925 E3.60897
G1 X55.705 Y68.752 E3.62492
G1 X56.880 Y68.475 E3.65756
G1 X58.267 Y68.248 E3.69555
G1 X59.810 Y68.080 E3.73753
G1 X61.398 Y67.972 E3.78056
G1 X63.693 Y67.893 E3.84266
G1 X66.155 Y67.879 E3.90921
G1 X68.820 Y67.918 E3.98128
G1 X72.303 Y68.020 E4.07548
G1 X76.693 Y68.196 E4.19428
G1 X80.441 Y68.390 E4.29574
G1 X84.141 Y68.610 E4.39596
G1 X95.315 Y69.352 E4.69872
G1 X97.067 Y69.879 E4.74819
G1 X98.434 Y71.095 E4.79767
G1 X99.236 Y73.576 E4.86815
G1 X99.236 Y75.556 E4.92168
G1 X98.841 Y77.342 E4.97115
G1 X97.729 Y78.795 E5.02063
G1 X95.701 Y79.733 E5.08103
G1 X93.414 Y80.105 E5.14368
G1 X90.857 Y80.488 E5.21359
G1 X86.643 Y81.043 E5.32851
G1 X84.426 Y81.296 E5.38883
G1 X82.158 Y81.525 E5.45047
G1 X79.854 Y81.725 E5.51298
G1 X77.537 Y81.892 E5.57580
G1 X75.250 Y82.018 E5.63771
G1 X73.680 Y82.080 E5.68019
G1 X71.414 Y82.122 E5.74147
G1 X69.909 Y82.116 E5.78215
G1 X68.394 Y82.080 E5.82313
G1 X66.954 Y82.016 E5.86210
G1 X64.925 Y81.870 E5.91711
G1 X63.552 Y81.731 E5.95443
G1 X61.663 Y81.479 E6.00593
G1 X60.541 Y81.290 E6.03671
G1 X59.422 Y81.067 E6.06756
G1 X57.786 Y80.668 E6.11309
G1 X56.344 Y80.220 E6.15390
G1 X55.569 Y79.928 E6.17629
G1 X55.027 Y79.696 E6.19225
G1 X54.347 Y79.363 E6.21272
G1 X53.956 Y79.146 E6.22479
G1 X53.373 Y78.774 E6.24349
G1 X52.967 Y78.473 E6.25717
G1 X52.558 Y78.121 E6.27176
G1 X52.153 Y77.709 E6.28737
G1 X51.658 Y77.075 E6.30913
G1 X51.309 Y76.478 E6.32782
G1 X51.062 Y75.902 E6.34478
G1 X50.821 Y74.955 E6.37118
G1 X50.766 Y74.062 E6.39538
G1 X50.868 Y73.187 E6.41918
G1 X51.068 Y72.486 E6.43891
G1 X51.415 Y71.735 E6.46126
G1 X51.935 Y70.979 E6.48607
G1 X52.409 Y70.474 E6.50479
G1 X52.842 Y70.105 E6.52019
G1 E6.02019 F1200.00000
G92 E0
G1 X80.865 Y77.034 F6000.000
G1 E0.52000 F1200.00000
G1 F1080
G1 X80.865 Y73.009 E0.62882
G1 X81.269 Y73.033 E0.63977
G1 X81.269 Y76.996 E0.74692
G1 X80.924 Y77.028 E0.75628
G1 E0.25628 F1200.00000
G92 E0
G1 X70.461 Y75.898 F6000.000
G1 E0.52000 F1200.00000
G1 F1080
G1 X70.291 Y75.898 E0.52459
G1 X69.981 Y75.839 E0.53311
G1 X69.696 Y75.705 E0.54163
G1 X69.559 Y75.606 E0.54621
G1 X69.347 Y75.379 E0.55460
G1 X69.256 Y75.236 E0.55919
G1 X69.141 Y74.948 E0.56758
G1 X69.110 Y74.781 E0.57217
G1 X69.110 Y74.471 E0.58056
G1 X69.141 Y74.304 E0.58515
G1 X69.257 Y74.011 E0.59367
G1 X69.445 Y73.752 E0.60231
G1 X69.688 Y73.551 E0.61083
G1 X69.837 Y73.470 E0.61542
G1 X70.132 Y73.374 E0.62381
G1 X70.300 Y73.352 E0.62840
G1 X70.610 Y73.372 E0.63679
G1 X70.774 Y73.414 E0.64138
G1 X71.055 Y73.546 E0.64977
G1 X71.189 Y73.643 E0.65422
G1 X71.309 Y73.756 E0.65868
G1 X71.494 Y74.011 E0.66720
G1 X71.610 Y74.304 E0.67572
G1 X71.642 Y74.471 E0.68031
G1 X71.642 Y74.781 E0.68870
G1 X71.611 Y74.943 E0.69316
G1 X71.560 Y75.100 E0.69762
G1 X71.408 Y75.376 E0.70614
G1 X71.192 Y75.606 E0.71466
G1 X71.055 Y75.705 E0.71924
G1 X70.770 Y75.839 E0.72776
G1 X70.519 Y75.887 E0.73466
G1 E0.23466 F1200.00000
G92 E0
G1 X61.324 Y75.902 F6000.000
G1 E0.52000 F1200.00000
G1 F1080
G1 X61.153 Y75.924 E0.52467
G1 X60.837 Y75.904 E0.53323
G1 X60.518 Y75.801 E0.54230
G1 X60.246 Y75.628 E0.55099
G1 X60.026 Y75.394 E0.55968
G1 X59.934 Y75.248 E0.56435
G1 X59.815 Y74.949 E0.57304
G1 X59.775 Y74.626 E0.58186
G1 X59.815 Y74.307 E0.59055
G1 X59.868 Y74.143 E0.59522
G1 X60.021 Y73.865 E0.60378
G1 X60.250 Y73.621 E0.61285
G1 X60.522 Y73.448 E0.62154
G1 X60.827 Y73.349 E0.63023
G1 X60.999 Y73.327 E0.63490
G1 X61.315 Y73.347 E0.64346
G1 X61.634 Y73.451 E0.65253
G1 X61.905 Y73.623 E0.66122
G1 X62.125 Y73.857 E0.66990
G1 X62.218 Y74.003 E0.67458
G1 X62.336 Y74.302 E0.68327
G1 X62.377 Y74.626 E0.69208
G1 X62.337 Y74.945 E0.70077
G1 X62.213 Y75.256 E0.70984
G1 X62.024 Y75.516 E0.71853
G1 X61.777 Y75.721 E0.72722
G1 X61.625 Y75.805 E0.73189
G1 X61.381 Y75.884 E0.73883
G1 X58.393 Y75.685 F6000.000
G1 F1080
G1 X58.065 Y75.748 E0.74786
G1 X57.886 Y75.748 E0.75270
G1 X57.563 Y75.686 E0.76160
G1 X57.396 Y75.620 E0.76644
G1 X57.114 Y75.441 E0.77547
G1 X56.886 Y75.198 E0.78450
G1 X56.790 Y75.046 E0.78934
G1 X56.667 Y74.736 E0.79837
G1 X56.625 Y74.400 E0.80752
G1 X56.666 Y74.069 E0.81655
G1 X56.720 Y73.903 E0.82126
G1 X56.794 Y73.745 E0.82598
G1 X56.988 Y73.479 E0.83488
G1 X57.118 Y73.356 E0.83972
G1 X57.400 Y73.177 E0.84874
G1 X57.718 Y73.074 E0.85777
G1 X57.896 Y73.052 E0.86261
G1 X58.224 Y73.072 E0.87151
G1 X58.398 Y73.117 E0.87635
G1 X58.695 Y73.257 E0.88525
G1 X58.840 Y73.362 E0.89009
G1 X59.066 Y73.602 E0.89899
G1 X59.162 Y73.753 E0.90384
G1 X59.283 Y74.059 E0.91273
G1 X59.316 Y74.235 E0.91758
G1 X59.316 Y74.565 E0.92647
G1 X59.283 Y74.740 E0.93132
G1 X59.162 Y75.046 E0.94022
G1 X59.066 Y75.198 E0.94506
G1 X58.840 Y75.438 E0.95396
G1 X58.695 Y75.543 E0.95880
G1 X58.448 Y75.659 E0.96620
G1 E0.46620 F1200.00000
G92 E0
G1 X94.851 Y75.428 F6000.000
G1 E0.52000 F1200.00000
G1 F1080
G1 X91.511 Y75.960 E0.61143
G1 X87.531 Y76.513 E0.72007
G1 X83.965 Y76.934 E0.81716
G1 X80.265 Y77.291 E0.91767
G1 X76.522 Y77.560 E1.01911
G1 X73.558 Y77.696 E1.09933
G1 X72.095 Y77.730 E1.13891
G1 X70.657 Y77.737 E1.17777
G1 X68.563 Y77.698 E1.23441
G1 X67.218 Y77.638 E1.27082
G1 X65.919 Y77.552 E1.30600
G1 X64.673 Y77.441 E1.33982
G1 X63.485 Y77.306 E1.37215
G1 X62.360 Y77.149 E1.40287
G1 X61.302 Y76.971 E1.43186
G1 X60.317 Y76.774 E1.45904
G1 X59.407 Y76.561 E1.48429
G1 X58.578 Y76.333 E1.50754
G1 X57.832 Y76.094 E1.52872
G1 X57.174 Y75.847 E1.54772
G1 X56.352 Y75.463 E1.57227
G1 X55.922 Y75.205 E1.58580
G1 X55.588 Y74.950 E1.59719
G1 X55.350 Y74.701 E1.60649
G1 X55.204 Y74.461 E1.61409
G1 X55.170 Y74.361 E1.61695
G1 X55.152 Y74.141 E1.62291
G1 X55.211 Y73.934 E1.62872
G1 X55.352 Y73.731 E1.63541
G1 X55.584 Y73.529 E1.64372
G1 X55.911 Y73.336 E1.65399
G1 X56.331 Y73.154 E1.66637
G1 X56.841 Y72.988 E1.68085
G1 X57.770 Y72.769 E1.70667
G1 X58.490 Y72.646 E1.72643
G1 X59.289 Y72.540 E1.74821
G1 X61.110 Y72.381 E1.79764
G1 X63.199 Y72.291 E1.85418
G1 X66.140 Y72.265 E1.93368
G1 X68.716 Y72.303 E2.00333
G1 X71.445 Y72.379 E2.07716
G1 X75.023 Y72.512 E2.17394
G1 X77.973 Y72.650 E2.25380
G1 X85.314 Y73.077 E2.45262
G1 X94.851 Y73.716 E2.71103
G1 X94.851 Y75.368 E2.75569
G1 X94.615 Y75.227 F6000.000
G1 F1080
G1 X94.615 Y74.888 E2.76500
G1 X94.212 Y75.291 E2.78068
G1 X93.809 Y75.355 E2.79189
G1 X94.615 Y74.549 E2.82323
G1 X94.615 Y74.210 E2.83255
G1 X93.406 Y75.419 E2.87955
G1 X93.003 Y75.483 E2.89077
G1 X94.554 Y73.932 E2.95107
G1 X94.237 Y73.911 E2.95982
G1 X92.600 Y75.548 E3.02344
G1 X92.197 Y75.612 E3.03466
G1 X93.919 Y73.890 E3.10161
G1 X93.601 Y73.869 E3.11036
G1 X91.794 Y75.676 E3.18062
G1 X91.393 Y75.738 E3.19178
G1 X93.284 Y73.847 E3.26529
G1 X92.966 Y73.826 E3.27404
G1 X90.999 Y75.793 E3.35051
G1 X90.606 Y75.848 E3.36143
G1 X92.649 Y73.805 E3.44085
G1 X92.331 Y73.783 E3.44960
G1 X90.212 Y75.902 E3.53198
G1 X89.819 Y75.957 E3.54290
G1 X92.014 Y73.762 E3.62823
G1 X91.696 Y73.741 E3.63698
G1 X89.425 Y76.012 E3.72526
G1 X89.032 Y76.067 E3.73618
G1 X91.379 Y73.720 E3.82742
G1 X91.061 Y73.698 E3.83617
G1 X88.638 Y76.121 E3.93036
G1 X88.245 Y76.176 E3.94128
G1 X90.744 Y73.677 E4.03843
G1 X90.426 Y73.656 E4.04717
G1 X87.851 Y76.231 E4.14728
G1 X87.459 Y76.284 E4.15816
G1 X90.109 Y73.635 E4.26118
G1 X89.791 Y73.613 E4.26993
G1 X87.075 Y76.330 E4.37553
G1 X86.691 Y76.375 E4.38616
G1 X89.474 Y73.592 E4.49436
G1 X89.156 Y73.571 E4.50311
G1 X86.306 Y76.421 E4.61389
G1 X85.922 Y76.466 E4.62453
G1 X88.839 Y73.550 E4.73790
G1 X88.521 Y73.528 E4.74665
G1 X85.538 Y76.511 E4.86261
G1 X85.154 Y76.557 E4.87325
G1 X88.204 Y73.507 E4.99180
G1 X87.886 Y73.486 E5.00055
G1 X84.770 Y76.602 E5.12170
G1 X84.386 Y76.647 E5.13233
G1 X87.569 Y73.464 E5.25607
G1 X87.251 Y73.443 E5.26482
G1 X84.002 Y76.693 E5.39114
G1 X83.625 Y76.730 E5.40154
G1 X86.934 Y73.422 E5.53016
G1 X86.616 Y73.401 E5.53891
G1 X83.250 Y76.767 E5.66976
G1 X82.875 Y76.803 E5.68011
G1 X86.299 Y73.379 E5.81320
G1 X85.981 Y73.358 E5.82194
G1 X82.500 Y76.839 E5.95726
G1 X82.125 Y76.875 E5.96761
G1 X85.664 Y73.337 E6.10516
G1 X85.346 Y73.316 E6.11391
G1 X81.750 Y76.911 E6.25369
G1 X81.505 Y76.935 E6.26048
G1 X81.505 Y76.818 E6.26369
G1 X85.026 Y73.297 E6.40060
G1 X84.706 Y73.278 E6.40941
G1 X81.505 Y76.479 E6.53387
G1 X81.505 Y76.141 E6.54319
G1 X84.386 Y73.259 E6.65520
G1 X84.066 Y73.241 E6.66402
G1 X81.505 Y75.802 E6.76359
G1 X81.505 Y75.463 E6.77290
G1 X83.746 Y73.222 E6.86002
G1 X83.426 Y73.203 E6.86884
G1 X81.505 Y75.124 E6.94352
G1 X81.505 Y74.786 E6.95283
G1 X83.105 Y73.185 E7.01506
G1 X82.785 Y73.166 E7.02388
G1 X81.505 Y74.447 E7.07367
G1 X81.505 Y74.108 E7.08298
G1 X82.465 Y73.147 E7.12032
G1 X82.145 Y73.129 E7.12914
G1 X81.505 Y73.769 E7.15404
G1 X81.505 Y73.430 E7.16335
G1 X81.825 Y73.110 E7.17580
G1 X81.505 Y73.091 E7.18462
G1 E6.68462 F1200.00000
G92 E0
G1 X80.629 Y77.019 F6000.000
G1 E0.52000 F1200.00000
G1 F1080
G1 X80.629 Y76.683 E0.52916
G1 X80.257 Y77.055 E0.54350
G1 X79.895 Y77.082 E0.55340
G1 X80.629 Y76.347 E0.58171
G1 X80.629 Y76.011 E0.59086
G1 X79.533 Y77.108 E0.63312
G1 X79.171 Y77.133 E0.64301
G1 X80.629 Y75.675 E0.69922
G1 X80.629 Y75.339 E0.70838
G1 X78.809 Y77.159 E0.77854
G1 X78.447 Y77.185 E0.78843
G1 X80.629 Y75.004 E0.87254
G1 X80.629 Y74.668 E0.88169
G1 X78.085 Y77.211 E0.97976
G1 X77.723 Y77.237 E0.98965
G1 X80.629 Y74.332 E1.10166
G1 X80.629 Y73.996 E1.11082
G1 X77.361 Y77.263 E1.23679
G1 X76.999 Y77.289 E1.24668
G1 X80.629 Y73.660 E1.38660
G1 X80.629 Y73.324 E1.39575
G1 X76.638 Y77.315 E1.54962
G1 X76.282 Y77.335 E1.55933
G1 X80.579 Y73.038 E1.72499
G1 X80.262 Y73.019 E1.73366
G1 X75.930 Y77.351 E1.90066
G1 X75.578 Y77.367 E1.91027
G1 X79.944 Y73.001 E2.07860
G1 X79.627 Y72.982 E2.08727
G1 X75.226 Y77.383 E2.25694
G1 X74.873 Y77.400 E2.26655
G1 X79.309 Y72.964 E2.43756
G1 X78.992 Y72.945 E2.44623
G1 X74.521 Y77.416 E2.61857
G1 X74.169 Y77.432 E2.62818
G1 X78.674 Y72.927 E2.80186
G1 X78.357 Y72.908 E2.81053
G1 X73.817 Y77.448 E2.98554
G1 X73.467 Y77.462 E2.99510
G1 X78.039 Y72.890 E3.17137
G1 X77.719 Y72.874 E3.18011
G1 X73.123 Y77.470 E3.35730
G1 X72.779 Y77.478 E3.36668
G1 X77.398 Y72.859 E3.54476
G1 X77.078 Y72.844 E3.55352
G1 X72.435 Y77.486 E3.73249
G1 X72.091 Y77.494 E3.74187
G1 X76.757 Y72.829 E3.92172
G1 X76.436 Y72.814 E3.93048
G1 X71.753 Y77.496 E4.11098
G1 X71.416 Y77.498 E4.12018
G1 X76.115 Y72.799 E4.30133
G1 X75.794 Y72.784 E4.31009
G1 X71.078 Y77.499 E4.49188
G1 X70.740 Y77.501 E4.50108
G1 X75.473 Y72.769 E4.68352
G1 X75.152 Y72.754 E4.69228
G1 X70.409 Y77.497 E4.87512
G1 X70.079 Y77.491 E4.88411
G1 X74.829 Y72.740 E5.06724
G1 X74.505 Y72.728 E5.07607
G1 X69.749 Y77.484 E5.25942
G1 X69.419 Y77.478 E5.26841
G1 X70.830 Y76.068 E5.32277
G1 X70.428 Y76.134 E5.33388
G1 X69.090 Y77.472 E5.38545
G1 X68.760 Y77.466 E5.39444
G1 X70.120 Y76.106 E5.44687
G1 X69.851 Y76.039 E5.45442
G1 X68.434 Y77.456 E5.50907
G1 X68.112 Y77.442 E5.51784
G1 X69.623 Y75.931 E5.57608
G1 X69.421 Y75.797 E5.58269
G1 X67.790 Y77.428 E5.64556
G1 X67.469 Y77.413 E5.65434
G1 X69.255 Y75.626 E5.72322
G1 X69.106 Y75.440 E5.72973
G1 X67.149 Y77.397 E5.80519
G1 X66.993 Y77.387 E5.80943
G1 X66.993 Y77.216 E5.81408
G1 X68.994 Y75.216 E5.89121
G1 X68.906 Y74.968 E5.89837
G1 X66.993 Y76.881 E5.97207
G1 X66.993 Y76.545 E5.98123
G1 X68.874 Y74.664 E6.05373
G1 X68.874 Y74.448 E6.05961
G1 X68.902 Y74.300 E6.06373
G1 X66.993 Y76.209 E6.13731
G1 X66.993 Y75.873 E6.14647
G1 X69.261 Y73.605 E6.23388
G1 X66.994 Y72.513 F6000.000
G1 F1080
G1 X66.993 Y72.849 E6.24304
G1 X67.325 Y72.518 E6.25581
G1 X67.656 Y72.523 E6.26484
G1 X66.993 Y73.185 E6.29038
G1 X66.993 Y73.521 E6.29953
G1 X67.987 Y72.527 E6.33783
G1 X68.318 Y72.532 E6.34686
G1 X66.993 Y73.857 E6.39792
G1 X66.993 Y74.193 E6.40708
G1 X68.649 Y72.537 E6.47091
G1 X68.977 Y72.546 E6.47984
G1 X66.993 Y74.529 E6.55630
G1 X66.993 Y74.865 E6.56545
G1 X69.304 Y72.555 E6.65451
G1 X69.630 Y72.564 E6.66342
G1 X66.993 Y75.201 E6.76507
G1 X66.993 Y75.537 E6.77422
G1 X69.957 Y72.573 E6.88847
G1 X70.284 Y72.582 E6.89738
G1 X69.297 Y73.569 E6.93542
G1 X69.555 Y73.356 E6.94455
G1 X69.743 Y73.252 E6.95039
G1 X70.049 Y73.153 E6.95917
G1 X70.611 Y72.592 E6.98081
G1 X70.937 Y72.601 E6.98972
G1 X70.415 Y73.123 E7.00987
G1 X70.718 Y73.156 E7.01818
G1 X71.264 Y72.610 E7.03924
G1 X71.590 Y72.620 E7.04812
G1 X70.966 Y73.244 E7.07216
G1 X71.192 Y73.354 E7.07901
G1 X71.914 Y72.632 E7.10681
G1 X72.237 Y72.644 E7.11565
G1 X71.376 Y73.506 E7.14886
G1 X71.482 Y73.593 E7.15261
G1 X71.542 Y73.676 E7.15539
G1 X72.561 Y72.656 E7.19469
G1 X72.885 Y72.668 E7.20353
G1 X71.683 Y73.871 E7.24987
G1 X71.785 Y74.105 E7.25684
G1 X73.209 Y72.680 E7.31176
G1 X73.533 Y72.692 E7.32060
G1 X71.861 Y74.364 E7.38505
G1 X71.877 Y74.684 E7.39378
G1 X73.857 Y72.704 E7.47011
G1 X74.181 Y72.716 E7.47894
G1 X71.805 Y75.093 E7.57055
G1 E7.07055 F1200.00000
G92 E0
G1 X66.758 Y77.372 F6000.000
G1 E0.52000 F1200.00000
G1 F1080
G1 X66.758 Y77.035 E0.52918
G1 X66.442 Y77.351 E0.54136
G1 X66.127 Y77.330 E0.54998
G1 X66.758 Y76.699 E0.57433
G1 X66.758 Y76.363 E0.58351
G1 X65.814 Y77.306 E0.61993
G1 X65.505 Y77.279 E0.62839
G1 X66.758 Y76.026 E0.67673
G1 X66.758 Y75.690 E0.68590
G1 X65.196 Y77.251 E0.74616
G1 X64.888 Y77.224 E0.75461
G1 X66.758 Y75.354 E0.82678
