; generated by Slic3r 1.3.0 on 2020-11-19 at 15:16:41

; external perimeters extrusion width = 0.44mm (2.86mm^3/s)
; perimeters extrusion width = 0.56mm (4.14mm^3/s)
; infill extrusion width = 0.50mm (3.66mm^3/s)
; solid infill extrusion width = 0.56mm (3.10mm^3/s)
; top infill extrusion width = 0.45mm (2.44mm^3/s)

M107
;D3D:START:START
T0
M104 S215 T0

G21
G90
M107
T0
G28
G29
M109 T0 S215 T0
G0 F3000
M107
T0
G92 E0
G0 X0 Y149 Z0.1 F3600
G1 Y49 E6.5 F1200
G0 Z1
G92 E0
; Filament gcode

G21 ; set units to millimeters
G90 ; use absolute coordinates
M82 ; use absolute distances for extrusion
G92 E0
G1 Z0.300 F6000.000
G1 E-2.00000 F1200.00000
G92 E0
G1 Z0.800 F6000.000
G1 X44.770 Y35.699 F6000.000
G1 Z0.300 F6000.000
G1 E2.00000 F1200.00000
G1 F1800
G1 X46.528 Y34.187 E2.10372
G1 X48.693 Y33.356 E2.20744
G1 X50.000 Y33.229 E2.26617
G1 X100.000 Y33.229 E4.50266
G1 X102.285 Y33.626 E4.60638
G1 X104.301 Y34.770 E4.71010
G1 X105.813 Y36.528 E4.81382
G1 X106.644 Y38.693 E4.91754
G1 X106.771 Y40.000 E4.97627
G1 X106.771 Y110.000 E8.10736
G1 X106.374 Y112.285 E8.21108
G1 X105.230 Y114.301 E8.31480
G1 X103.472 Y115.813 E8.41852
G1 X101.307 Y116.644 E8.52224
G1 X100.000 Y116.771 E8.58097
G1 X50.000 Y116.771 E10.81746
G1 X47.715 Y116.374 E10.92118
G1 X45.699 Y115.230 E11.02490
G1 X44.187 Y113.472 E11.12862
G1 X43.356 Y111.307 E11.23234
G1 X43.229 Y110.000 E11.29107
G1 X43.229 Y40.000 E14.42216
G1 X43.626 Y37.715 E14.52588
G1 X44.741 Y35.751 E14.62691
G1 X45.153 Y35.843 F6000.000
G1 F1800
G1 X46.896 Y34.419 E14.72762
G1 X50.000 Y33.614 E14.87104
G1 X100.000 Y33.614 E17.10753
G1 X102.216 Y34.011 E17.20823
G1 X104.157 Y35.153 E17.30893
G1 X105.581 Y36.896 E17.40963
G1 X106.386 Y40.000 E17.55305
G1 X106.386 Y110.000 E20.68414
G1 X105.989 Y112.216 E20.78484
G1 X104.847 Y114.157 E20.88554
G1 X103.104 Y115.581 E20.98624
G1 X100.000 Y116.386 E21.12966
G1 X50.000 Y116.386 E23.36615
G1 X47.784 Y115.989 E23.46686
G1 X45.843 Y114.847 E23.56756
G1 X44.419 Y113.104 E23.66826
G1 X43.614 Y110.000 E23.81168
G1 X43.614 Y40.000 E26.94277
G1 X44.011 Y37.784 E27.04347
G1 X45.122 Y35.895 E27.14149
G1 E25.14149 F1200.00000
G92 E0
G1 Z0.800 F6000.000
G1 X75.000 Y107.622 F6000.000
G1 Z0.300 F6000.000
G1 E2.00000 F1200.00000
G1 F1800
G1 X52.791 Y85.413 E3.40491
G1 X52.791 Y64.587 E4.33643
G1 X75.000 Y42.378 E5.74134
G1 X97.209 Y64.587 E7.14625
G1 X97.209 Y85.413 E8.07777
G1 X75.042 Y107.580 E9.48000
G1 X75.000 Y107.077 F6000.000
G1 F1800
G1 X53.176 Y85.253 E10.86052
G1 X53.176 Y64.747 E11.77774
G1 X75.000 Y42.923 E13.15826
G1 X96.824 Y64.747 E14.53878
G1 X96.824 Y85.253 E15.45601
G1 X75.042 Y107.034 E16.83384
G1 X75.000 Y106.531 F6000.000
G1 F1800
G1 X53.562 Y85.093 E18.18997
G1 X53.562 Y64.907 E19.09290
G1 X75.000 Y43.469 E20.44903
G1 X96.438 Y64.907 E21.80516
G1 X96.438 Y85.093 E22.70809
G1 X75.042 Y106.489 E24.06154
G1 X74.748 Y106.842 F6000.000
G1 E22.06154 F1200.00000
G92 E0
G1 Z0.800 F6000.000
G1 X55.803 Y57.471 F6000.000
G1 Z0.300 F6000.000
G1 E2.00000 F1200.00000
G1 F1800
G1 X55.487 Y57.552 E2.01461
G1 X55.163 Y57.593 E2.02921
G1 X54.837 Y57.593 E2.04378
G1 X54.513 Y57.552 E2.05838
G1 X54.197 Y57.471 E2.07299
G1 X53.894 Y57.351 E2.08758
G1 X53.608 Y57.194 E2.10217
G1 X53.344 Y57.002 E2.11676
G1 X53.106 Y56.779 E2.13135
G1 X52.898 Y56.527 E2.14595
G1 X52.723 Y56.252 E2.16055
G1 X52.584 Y55.956 E2.17514
G1 X52.483 Y55.646 E2.18974
G1 X52.422 Y55.326 E2.20433
G1 X52.402 Y55.000 E2.21893
G1 X52.422 Y54.674 E2.23352
G1 X52.483 Y54.354 E2.24812
G1 X52.584 Y54.044 E2.26271
G1 X52.723 Y53.748 E2.27730
G1 X52.898 Y53.473 E2.29190
G1 X53.106 Y53.221 E2.30650
G1 X53.344 Y52.998 E2.32109
G1 X53.608 Y52.806 E2.33568
G1 X53.894 Y52.649 E2.35027
G1 X54.197 Y52.529 E2.36487
G1 X54.513 Y52.448 E2.37947
G1 X54.837 Y52.407 E2.39407
G1 X55.163 Y52.407 E2.40865
G1 X55.487 Y52.448 E2.42325
G1 X55.803 Y52.529 E2.43785
G1 X56.106 Y52.649 E2.45245
G1 X56.392 Y52.806 E2.46704
G1 X56.656 Y52.998 E2.48163
G1 X56.894 Y53.221 E2.49622
G1 X57.102 Y53.473 E2.51082
G1 X57.277 Y53.748 E2.52542
G1 X57.416 Y54.044 E2.54001
G1 X57.517 Y54.354 E2.55461
G1 X57.578 Y54.674 E2.56920
G1 X57.598 Y55.000 E2.58379
G1 X57.578 Y55.326 E2.59839
G1 X57.517 Y55.646 E2.61298
G1 X57.416 Y55.956 E2.62758
G1 X57.277 Y56.252 E2.64217
G1 X57.102 Y56.527 E2.65677
G1 X56.894 Y56.779 E2.67137
G1 X56.656 Y57.002 E2.68596
G1 X56.392 Y57.194 E2.70055
G1 X56.106 Y57.351 E2.71514
G1 X55.859 Y57.449 E2.72705
G1 X55.684 Y57.104 F6000.000
G1 F1800
G1 X55.414 Y57.173 E2.73948
G1 X55.139 Y57.207 E2.75191
G1 X54.861 Y57.207 E2.76432
G1 X54.586 Y57.173 E2.77675
G1 X54.316 Y57.104 E2.78918
G1 X54.058 Y57.001 E2.80160
G1 X53.815 Y56.867 E2.81402
G1 X53.590 Y56.704 E2.82645
G1 X53.388 Y56.514 E2.83887
G1 X53.211 Y56.300 E2.85130
G1 X53.062 Y56.066 E2.86372
G1 X52.943 Y55.814 E2.87615
G1 X52.858 Y55.550 E2.88857
G1 X52.806 Y55.277 E2.90100
G1 X52.788 Y55.000 E2.91342
G1 X52.806 Y54.723 E2.92584
G1 X52.858 Y54.450 E2.93827
G1 X52.943 Y54.186 E2.95069
G1 X53.062 Y53.934 E2.96311
G1 X53.211 Y53.700 E2.97554
G1 X53.388 Y53.486 E2.98797
G1 X53.590 Y53.296 E3.00039
G1 X53.815 Y53.133 E3.01281
G1 X54.058 Y52.999 E3.02523
G1 X54.316 Y52.896 E3.03766
G1 X54.586 Y52.827 E3.05009
G1 X54.861 Y52.793 E3.06252
G1 X55.139 Y52.793 E3.07493
G1 X55.414 Y52.827 E3.08736
G1 X55.684 Y52.896 E3.09979
G1 X55.942 Y52.999 E3.11221
G1 X56.185 Y53.133 E3.12463
G1 X56.410 Y53.296 E3.13705
G1 X56.612 Y53.486 E3.14948
G1 X56.789 Y53.700 E3.16190
G1 X56.938 Y53.934 E3.17433
G1 X57.056 Y54.186 E3.18675
G1 X57.142 Y54.450 E3.19918
G1 X57.194 Y54.723 E3.21160
G1 X57.212 Y55.000 E3.22403
G1 X57.194 Y55.277 E3.23645
G1 X57.142 Y55.550 E3.24887
G1 X57.056 Y55.814 E3.26130
G1 X56.938 Y56.066 E3.27372
G1 X56.789 Y56.300 E3.28615
G1 X56.612 Y56.514 E3.29858
G1 X56.410 Y56.704 E3.31100
G1 X56.185 Y56.867 E3.32342
G1 X55.942 Y57.001 E3.33584
G1 X55.739 Y57.081 E3.34558
G1 X55.564 Y56.736 F6000.000
G1 F1800
G1 X55.342 Y56.793 E3.35584
G1 X55.115 Y56.822 E3.36609
G1 X54.885 Y56.822 E3.37634
G1 X54.658 Y56.793 E3.38660
G1 X54.436 Y56.736 E3.39685
G1 X54.223 Y56.652 E3.40711
G1 X54.022 Y56.541 E3.41736
G1 X53.836 Y56.407 E3.42761
G1 X53.669 Y56.250 E3.43787
G1 X53.523 Y56.073 E3.44812
G1 X53.400 Y55.879 E3.45838
G1 X53.303 Y55.672 E3.46863
G1 X53.232 Y55.454 E3.47888
G1 X53.189 Y55.229 E3.48914
G1 X53.175 Y55.000 E3.49939
G1 X53.189 Y54.771 E3.50964
G1 X53.232 Y54.546 E3.51990
G1 X53.303 Y54.328 E3.53015
G1 X53.400 Y54.121 E3.54041
G1 X53.523 Y53.927 E3.55066
G1 X53.669 Y53.750 E3.56092
G1 X53.836 Y53.593 E3.57117
G1 X54.022 Y53.459 E3.58142
G1 X54.223 Y53.348 E3.59168
G1 X54.436 Y53.264 E3.60193
G1 X54.658 Y53.207 E3.61219
G1 X54.885 Y53.178 E3.62244
G1 X55.115 Y53.178 E3.63269
G1 X55.342 Y53.207 E3.64294
G1 X55.564 Y53.264 E3.65320
G1 X55.777 Y53.348 E3.66346
G1 X55.978 Y53.459 E3.67371
G1 X56.164 Y53.593 E3.68396
G1 X56.331 Y53.750 E3.69421
G1 X56.477 Y53.927 E3.70447
G1 X56.600 Y54.121 E3.71473
G1 X56.697 Y54.328 E3.72498
G1 X56.768 Y54.546 E3.73523
G1 X56.811 Y54.771 E3.74549
G1 X56.825 Y55.000 E3.75574
G1 X56.811 Y55.229 E3.76599
G1 X56.768 Y55.454 E3.77625
G1 X56.697 Y55.672 E3.78650
G1 X56.600 Y55.879 E3.79675
G1 X56.477 Y56.073 E3.80701
G1 X56.331 Y56.250 E3.81727
G1 X56.164 Y56.407 E3.82752
G1 X55.978 Y56.541 E3.83777
G1 X55.620 Y56.714 E3.85556
G1 X55.516 Y56.960 F6000.000
G1 E1.85556 F1200.00000
G92 E0
G1 Z0.800 F6000.000
G1 X92.402 Y55.000 F6000.000
G1 Z0.300 F6000.000
G1 E2.00000 F1200.00000
G1 F1800
G1 X92.422 Y54.674 E2.01460
G1 X92.483 Y54.354 E2.02920
G1 X92.584 Y54.044 E2.04378
G1 X92.723 Y53.748 E2.05837
G1 X92.898 Y53.473 E2.07297
G1 X93.106 Y53.221 E2.08757
G1 X93.344 Y52.998 E2.10217
G1 X93.608 Y52.806 E2.11676
G1 X93.894 Y52.649 E2.13135
G1 X94.197 Y52.529 E2.14594
G1 X94.513 Y52.448 E2.16055
G1 X94.837 Y52.407 E2.17514
G1 X95.163 Y52.407 E2.18972
G1 X95.487 Y52.448 E2.20432
G1 X95.803 Y52.529 E2.21893
G1 X96.106 Y52.649 E2.23352
G1 X96.392 Y52.806 E2.24810
G1 X96.656 Y52.998 E2.26270
G1 X96.894 Y53.221 E2.27729
G1 X97.102 Y53.473 E2.29189
G1 X97.277 Y53.748 E2.30649
G1 X97.416 Y54.044 E2.32109
G1 X97.517 Y54.354 E2.33567
G1 X97.578 Y54.674 E2.35027
G1 X97.598 Y55.000 E2.36487
G1 X97.578 Y55.326 E2.37946
G1 X97.517 Y55.646 E2.39406
G1 X97.416 Y55.956 E2.40865
G1 X97.277 Y56.252 E2.42324
G1 X97.102 Y56.527 E2.43785
G1 X96.894 Y56.779 E2.45244
G1 X96.656 Y57.002 E2.46703
G1 X96.392 Y57.194 E2.48163
G1 X96.106 Y57.351 E2.49622
G1 X95.803 Y57.471 E2.51081
G1 X95.487 Y57.552 E2.52541
G1 X95.163 Y57.593 E2.54001
G1 X94.837 Y57.593 E2.55459
G1 X94.513 Y57.552 E2.56919
G1 X94.197 Y57.471 E2.58379
G1 X93.894 Y57.351 E2.59838
G1 X93.608 Y57.194 E2.61297
G1 X93.344 Y57.002 E2.62756
G1 X93.106 Y56.779 E2.64216
G1 X92.898 Y56.527 E2.65676
G1 X92.723 Y56.252 E2.67136
G1 X92.584 Y55.956 E2.68595
G1 X92.483 Y55.646 E2.70054
G1 X92.422 Y55.326 E2.71514
G1 X92.406 Y55.060 E2.72705
G1 X92.788 Y55.000 F6000.000
G1 F1800
G1 X92.806 Y54.723 E2.73947
G1 X92.858 Y54.450 E2.75190
G1 X92.944 Y54.186 E2.76432
G1 X93.062 Y53.934 E2.77674
G1 X93.211 Y53.700 E2.78917
G1 X93.388 Y53.486 E2.80159
G1 X93.590 Y53.296 E2.81402
G1 X93.815 Y53.132 E2.82645
G1 X94.058 Y52.999 E2.83887
G1 X94.316 Y52.896 E2.85129
G1 X94.586 Y52.827 E2.86372
G1 X94.861 Y52.793 E2.87614
G1 X95.139 Y52.793 E2.88856
G1 X95.414 Y52.827 E2.90098
G1 X95.684 Y52.896 E2.91342
G1 X95.942 Y52.999 E2.92584
G1 X96.185 Y53.132 E2.93826
G1 X96.410 Y53.296 E2.95069
G1 X96.612 Y53.486 E2.96311
G1 X96.789 Y53.700 E2.97553
G1 X96.938 Y53.934 E2.98796
G1 X97.056 Y54.186 E3.00038
G1 X97.142 Y54.450 E3.01280
G1 X97.194 Y54.723 E3.02523
G1 X97.212 Y55.000 E3.03766
G1 X97.194 Y55.277 E3.05008
G1 X97.142 Y55.550 E3.06251
G1 X97.056 Y55.814 E3.07493
G1 X96.938 Y56.065 E3.08735
G1 X96.789 Y56.300 E3.09978
G1 X96.612 Y56.514 E3.11220
G1 X96.410 Y56.704 E3.12462
G1 X96.185 Y56.868 E3.13705
G1 X95.942 Y57.001 E3.14947
G1 X95.684 Y57.104 E3.16189
G1 X95.414 Y57.173 E3.17433
G1 X95.139 Y57.207 E3.18675
G1 X94.861 Y57.207 E3.19917
G1 X94.586 Y57.173 E3.21159
G1 X94.316 Y57.104 E3.22402
G1 X94.058 Y57.001 E3.23644
G1 X93.815 Y56.868 E3.24886
G1 X93.590 Y56.704 E3.26129
G1 X93.388 Y56.514 E3.27372
G1 X93.211 Y56.300 E3.28614
G1 X93.062 Y56.065 E3.29857
G1 X92.944 Y55.814 E3.31099
G1 X92.858 Y55.550 E3.32341
G1 X92.806 Y55.277 E3.33584
G1 X92.792 Y55.060 E3.34558
G1 X93.175 Y55.000 F6000.000
G1 F1800
G1 X93.189 Y54.771 E3.35583
G1 X93.232 Y54.546 E3.36609
G1 X93.303 Y54.328 E3.37634
G1 X93.400 Y54.121 E3.38659
G1 X93.523 Y53.927 E3.39685
G1 X93.669 Y53.750 E3.40710
G1 X93.836 Y53.593 E3.41736
G1 X94.022 Y53.459 E3.42761
G1 X94.223 Y53.348 E3.43786
G1 X94.436 Y53.264 E3.44812
G1 X94.658 Y53.207 E3.45837
G1 X94.885 Y53.178 E3.46862
G1 X95.115 Y53.178 E3.47888
G1 X95.342 Y53.207 E3.48913
G1 X95.564 Y53.264 E3.49939
G1 X95.777 Y53.348 E3.50964
G1 X95.978 Y53.459 E3.51989
G1 X96.164 Y53.593 E3.53015
G1 X96.331 Y53.750 E3.54040
G1 X96.477 Y53.927 E3.55065
G1 X96.600 Y54.121 E3.56091
G1 X96.697 Y54.328 E3.57116
G1 X96.768 Y54.546 E3.58142
G1 X96.811 Y54.771 E3.59167
G1 X96.825 Y55.000 E3.60192
G1 X96.811 Y55.229 E3.61218
G1 X96.768 Y55.454 E3.62243
G1 X96.697 Y55.672 E3.63269
G1 X96.600 Y55.879 E3.64294
G1 X96.477 Y56.073 E3.65320
G1 X96.331 Y56.250 E3.66345
G1 X96.164 Y56.407 E3.67370
G1 X95.978 Y56.541 E3.68396
G1 X95.777 Y56.652 E3.69421
G1 X95.564 Y56.736 E3.70446
G1 X95.342 Y56.793 E3.71472
G1 X95.115 Y56.822 E3.72497
G1 X94.885 Y56.822 E3.73522
G1 X94.658 Y56.793 E3.74548
G1 X94.436 Y56.736 E3.75573
G1 X94.223 Y56.652 E3.76599
G1 X94.022 Y56.541 E3.77624
G1 X93.836 Y56.407 E3.78649
G1 X93.669 Y56.250 E3.79675
G1 X93.523 Y56.073 E3.80700
G1 X93.400 Y55.879 E3.81726
G1 X93.303 Y55.672 E3.82751
G1 X93.232 Y55.454 E3.83776
G1 X93.178 Y55.060 E3.85555
G1 X92.976 Y54.885 F6000.000
G1 E1.85555 F1200.00000
G92 E0
G1 Z0.800 F6000.000
G1 X94.837 Y92.407 F6000.000
G1 Z0.300 F6000.000
G1 E2.00000 F1200.00000
G1 F1800
G1 X95.163 Y92.407 E2.01458
G1 X95.487 Y92.448 E2.02918
G1 X95.832 Y92.536 E2.04511
G1 X96.340 Y92.773 E2.07017
G1 X96.652 Y92.994 E2.08726
G1 X96.894 Y93.221 E2.10214
G1 X97.191 Y93.580 E2.12298
G1 X97.414 Y94.037 E2.14570
G1 X97.517 Y94.354 E2.16060
G1 X97.578 Y94.674 E2.17520
G1 X97.598 Y95.000 E2.18979
G1 X97.578 Y95.326 E2.20439
G1 X97.517 Y95.646 E2.21899
G1 X97.414 Y95.963 E2.23389
G1 X97.191 Y96.420 E2.25661
G1 X96.894 Y96.779 E2.27745
G1 X96.656 Y97.002 E2.29204
G1 X96.392 Y97.194 E2.30664
G1 X96.106 Y97.351 E2.32123
G1 X95.803 Y97.471 E2.33582
G1 X95.487 Y97.552 E2.35043
G1 X95.163 Y97.593 E2.36502
G1 X94.837 Y97.593 E2.37960
G1 X94.513 Y97.552 E2.39420
G1 X94.197 Y97.471 E2.40881
G1 X93.894 Y97.351 E2.42340
G1 X93.608 Y97.194 E2.43798
G1 X93.344 Y97.002 E2.45258
G1 X93.106 Y96.779 E2.46718
G1 X92.898 Y96.527 E2.48178
G1 X92.723 Y96.252 E2.49637
G1 X92.584 Y95.956 E2.51097
G1 X92.483 Y95.646 E2.52555
G1 X92.422 Y95.326 E2.54015
G1 X92.402 Y95.000 E2.55475
G1 X92.422 Y94.674 E2.56934
G1 X92.483 Y94.354 E2.58394
G1 X92.584 Y94.044 E2.59853
G1 X92.723 Y93.748 E2.61312
G1 X92.898 Y93.473 E2.62772
G1 X93.106 Y93.221 E2.64231
G1 X93.344 Y92.998 E2.65692
G1 X93.608 Y92.806 E2.67151
G1 X93.894 Y92.649 E2.68610
G1 X94.197 Y92.529 E2.70069
G1 X94.513 Y92.448 E2.71529
G1 X94.777 Y92.414 E2.72721
G1 X94.861 Y92.793 F6000.000
G1 F1800
G1 X95.139 Y92.793 E2.73962
G1 X95.414 Y92.827 E2.75205
G1 X95.701 Y92.901 E2.76529
G1 X96.145 Y93.108 E2.78720
G1 X96.407 Y93.293 E2.80155
G1 X96.612 Y93.486 E2.81414
G1 X96.865 Y93.791 E2.83184
G1 X97.055 Y94.182 E2.85130
G1 X97.142 Y94.450 E2.86391
G1 X97.194 Y94.723 E2.87634
G1 X97.212 Y95.000 E2.88876
G1 X97.194 Y95.277 E2.90119
G1 X97.142 Y95.550 E2.91362
G1 X97.055 Y95.818 E2.92623
G1 X96.865 Y96.209 E2.94569
G1 X96.612 Y96.514 E2.96338
G1 X96.410 Y96.704 E2.97580
G1 X96.185 Y96.868 E2.98823
G1 X95.942 Y97.001 E3.00065
G1 X95.684 Y97.104 E3.01307
G1 X95.414 Y97.173 E3.02550
G1 X95.139 Y97.207 E3.03793
G1 X94.861 Y97.207 E3.05035
G1 X94.586 Y97.173 E3.06277
G1 X94.316 Y97.104 E3.07520
G1 X94.058 Y97.001 E3.08762
G1 X93.815 Y96.868 E3.10004
G1 X93.590 Y96.704 E3.11247
G1 X93.388 Y96.514 E3.12490
G1 X93.211 Y96.300 E3.13732
G1 X93.062 Y96.065 E3.14975
G1 X92.944 Y95.814 E3.16217
G1 X92.858 Y95.550 E3.17459
G1 X92.806 Y95.277 E3.18702
G1 X92.788 Y95.000 E3.19944
G1 X92.806 Y94.723 E3.21187
G1 X92.858 Y94.450 E3.22429
G1 X92.944 Y94.186 E3.23671
G1 X93.062 Y93.935 E3.24913
G1 X93.211 Y93.700 E3.26156
G1 X93.388 Y93.486 E3.27399
G1 X93.590 Y93.296 E3.28642
G1 X93.815 Y93.132 E3.29884
G1 X94.058 Y92.999 E3.31126
G1 X94.316 Y92.896 E3.32368
G1 X94.586 Y92.827 E3.33611
G1 X94.802 Y92.800 E3.34585
G1 X94.885 Y93.178 F6000.000
G1 F1800
G1 X95.115 Y93.178 E3.35611
G1 X95.342 Y93.207 E3.36636
G1 X95.571 Y93.266 E3.37691
G1 X95.951 Y93.443 E3.39568
G1 X96.163 Y93.593 E3.40728
G1 X96.331 Y93.750 E3.41759
G1 X96.538 Y94.001 E3.43215
G1 X96.697 Y94.327 E3.44834
G1 X96.768 Y94.546 E3.45866
G1 X96.811 Y94.771 E3.46892
G1 X96.825 Y95.000 E3.47917
G1 X96.811 Y95.229 E3.48943
G1 X96.768 Y95.454 E3.49968
G1 X96.697 Y95.673 E3.51001
G1 X96.538 Y95.999 E3.52620
G1 X96.331 Y96.250 E3.54076
G1 X96.164 Y96.407 E3.55101
G1 X95.978 Y96.541 E3.56126
G1 X95.777 Y96.652 E3.57152
G1 X95.564 Y96.736 E3.58177
G1 X95.342 Y96.793 E3.59202
G1 X95.115 Y96.822 E3.60228
G1 X94.885 Y96.822 E3.61253
G1 X94.658 Y96.793 E3.62278
G1 X94.436 Y96.736 E3.63304
G1 X94.223 Y96.652 E3.64329
G1 X94.022 Y96.541 E3.65354
G1 X93.836 Y96.407 E3.66380
G1 X93.669 Y96.250 E3.67405
G1 X93.523 Y96.073 E3.68431
G1 X93.400 Y95.879 E3.69456
G1 X93.303 Y95.672 E3.70482
G1 X93.232 Y95.454 E3.71507
G1 X93.189 Y95.229 E3.72532
G1 X93.175 Y95.000 E3.73558
G1 X93.189 Y94.771 E3.74583
G1 X93.232 Y94.546 E3.75609
G1 X93.303 Y94.328 E3.76634
G1 X93.400 Y94.121 E3.77659
G1 X93.523 Y93.927 E3.78685
G1 X93.669 Y93.750 E3.79710
G1 X93.836 Y93.593 E3.80735
G1 X94.022 Y93.459 E3.81761
G1 X94.223 Y93.348 E3.82786
G1 X94.436 Y93.264 E3.83811
G1 X94.826 Y93.186 E3.85591
G1 X94.987 Y92.973 F6000.000
G1 E1.85591 F1200.00000
G92 E0
G1 Z0.800 F6000.000
G1 X57.598 Y95.000 F6000.000
G1 Z0.300 F6000.000
G1 E2.00000 F1200.00000
G1 F1800
