; generated by Slic3r 1.3.0 on 2020-07-23 at 21:54:28

; external perimeters extrusion width = 0.44mm (1.51mm^3/s)
; perimeters extrusion width = 0.56mm (2.15mm^3/s)
; infill extrusion width = 0.50mm (2.87mm^3/s)
; solid infill extrusion width = 0.56mm (1.62mm^3/s)
; top infill extrusion width = 0.45mm (1.29mm^3/s)

M107
;D3D:START:START
T0
M104 S215 T0

G21
G90
M107
T0
G28
G29
M109 T0 S215 T0
G0 F3000
M107
T0
G92 E0
G0 X0 Y149 Z0.1 F3600
G1 Y49 E6.5 F1200
G0 Z1
G92 E0
; Filament gcode

G21 ; set units to millimeters
G90 ; use absolute coordinates
M82 ; use absolute distances for extrusion
G92 E0
G1 Z0.300 F6000.000
G1 E-2.00000 F1200.00000
G92 E0
G1 X56.309 Y51.522 F6000.000
G1 E2.00000 F1200.00000
G1 F1800
G1 X57.971 Y50.514 E2.08413
G1 X59.256 Y50.251 E2.14090
G1 X85.516 Y48.556 E3.28002
G1 X87.441 Y48.829 E3.36415
G1 X89.097 Y49.846 E3.44827
G1 X90.489 Y52.316 E3.57100
G1 X95.076 Y73.680 E4.51687
G1 X95.182 Y74.682 E4.56047
G1 X95.182 Y96.682 E5.51279
G1 X94.786 Y98.585 E5.59691
G1 X93.664 Y100.172 E5.68104
G1 X92.003 Y101.180 E5.76516
G1 X89.999 Y101.435 E5.85259
G1 X59.151 Y98.765 E7.19290
G1 X57.290 Y98.207 E7.27703
G1 X55.805 Y96.953 E7.36115
G1 X54.944 Y95.210 E7.44528
G1 X54.792 Y94.012 E7.49757
G1 X54.792 Y55.012 E9.18576
G1 X55.187 Y53.109 E9.26989
G1 X56.274 Y51.571 E9.35141
G1 X56.688 Y51.700 F6000.000
G1 F1800
G1 X58.321 Y50.806 E9.43203
G1 X59.280 Y50.635 E9.47421
G1 X85.541 Y48.941 E10.61332
G1 X87.383 Y49.218 E10.69394
G1 X88.943 Y50.235 E10.77456
G1 X90.112 Y52.397 E10.88092
G1 X94.699 Y73.761 E11.82680
G1 X94.796 Y74.682 E11.86688
G1 X94.796 Y96.682 E12.81919
G1 X94.401 Y98.502 E12.89981
G1 X93.286 Y99.994 E12.98042
G1 X91.652 Y100.888 E13.06104
G1 X90.033 Y101.051 E13.13151
G1 X59.185 Y98.381 E14.47182
G1 X57.406 Y97.830 E14.55244
G1 X56.016 Y96.591 E14.63305
G1 X55.177 Y94.012 E14.75044
G1 X55.177 Y55.012 E16.43863
G1 X55.573 Y53.192 E16.51924
G1 X56.652 Y51.748 E16.59726
G1 E14.59726 F1200.00000
G92 E0
G1 X81.438 Y87.045 F6000.000
G1 E2.00000 F1200.00000
G1 F1800
G1 X80.861 Y87.622 E2.03533
G1 X80.134 Y87.993 E2.07066
G1 X79.328 Y88.121 E2.10599
G1 X78.522 Y87.993 E2.14132
G1 X77.794 Y87.622 E2.17665
G1 X77.217 Y87.045 E2.21198
G1 X76.847 Y86.318 E2.24730
G1 X76.719 Y85.512 E2.28264
G1 X76.847 Y84.706 E2.31797
G1 X77.217 Y83.979 E2.35329
G1 X77.794 Y83.402 E2.38862
G1 X78.522 Y83.031 E2.42396
G1 X79.279 Y82.911 E2.45717
G1 X80.124 Y83.026 E2.49406
G1 X80.861 Y83.402 E2.52987
G1 X81.438 Y83.979 E2.56520
G1 X81.809 Y84.706 E2.60053
G1 X81.936 Y85.512 E2.63586
G1 X81.809 Y86.318 E2.67119
G1 X81.465 Y86.992 E2.70392
G1 X81.122 Y86.816 F6000.000
G1 F1800
G1 X80.632 Y87.307 E2.73396
G1 X80.013 Y87.622 E2.76401
G1 X79.328 Y87.730 E2.79405
G1 X78.642 Y87.622 E2.82408
G1 X78.024 Y87.307 E2.85413
G1 X77.533 Y86.816 E2.88417
G1 X77.218 Y86.197 E2.91421
G1 X77.110 Y85.512 E2.94425
G1 X77.218 Y84.827 E2.97430
G1 X77.533 Y84.208 E3.00434
G1 X78.024 Y83.717 E3.03438
G1 X78.642 Y83.402 E3.06442
G1 X79.284 Y83.301 E3.09253
G1 X80.007 Y83.399 E3.12414
G1 X80.632 Y83.717 E3.15448
G1 X81.122 Y84.208 E3.18452
G1 X81.437 Y84.827 E3.21456
G1 X81.546 Y85.512 E3.24460
G1 X81.437 Y86.197 E3.27464
G1 X81.150 Y86.762 E3.30209
G1 X80.806 Y86.586 F6000.000
G1 F1800
G1 X80.402 Y86.991 E3.32684
G1 X79.893 Y87.250 E3.35160
G1 X79.328 Y87.340 E3.37635
G1 X78.763 Y87.250 E3.40110
G1 X78.253 Y86.991 E3.42586
G1 X77.849 Y86.586 E3.45061
G1 X77.589 Y86.077 E3.47537
G1 X77.500 Y85.512 E3.50012
G1 X77.589 Y84.947 E3.52487
G1 X77.849 Y84.438 E3.54963
G1 X78.253 Y84.033 E3.57438
G1 X78.763 Y83.774 E3.59914
G1 X79.288 Y83.690 E3.62215
G1 X79.890 Y83.773 E3.64846
G1 X80.402 Y84.033 E3.67333
G1 X80.806 Y84.438 E3.69808
G1 X81.066 Y84.947 E3.72283
G1 X81.156 Y85.512 E3.74759
G1 X81.066 Y86.077 E3.77234
G1 X80.834 Y86.533 E3.79450
G1 X80.969 Y86.952 F6000.000
G1 E1.79450 F1200.00000
G92 E0
G1 X67.771 Y85.512 F6000.000
G1 E2.00000 F1200.00000
G1 F1800
G1 X67.644 Y86.318 E2.03533
G1 X67.273 Y87.045 E2.07066
G1 X66.696 Y87.622 E2.10599
G1 X65.969 Y87.993 E2.14132
G1 X65.163 Y88.121 E2.17665
G1 X64.346 Y87.991 E2.21245
G1 X63.595 Y87.588 E2.24933
G1 X63.052 Y87.045 E2.28257
G1 X62.682 Y86.318 E2.31789
G1 X62.554 Y85.512 E2.35322
G1 X62.682 Y84.706 E2.38855
G1 X63.052 Y83.979 E2.42388
G1 X63.629 Y83.402 E2.45921
G1 X64.357 Y83.031 E2.49454
G1 X65.114 Y82.911 E2.52775
G1 X65.959 Y83.026 E2.56465
G1 X66.696 Y83.402 E2.60046
G1 X67.273 Y83.979 E2.63579
G1 X67.644 Y84.706 E2.67112
G1 X67.762 Y85.453 E2.70385
G1 X67.381 Y85.512 F6000.000
G1 F1800
G1 X67.272 Y86.197 E2.73389
G1 X66.957 Y86.816 E2.76393
G1 X66.467 Y87.307 E2.79397
G1 X65.848 Y87.622 E2.82402
G1 X65.163 Y87.730 E2.85406
G1 X64.471 Y87.621 E2.88439
G1 X63.828 Y87.275 E2.91598
G1 X63.368 Y86.816 E2.94411
G1 X63.053 Y86.197 E2.97415
G1 X62.945 Y85.512 E3.00420
G1 X63.053 Y84.827 E3.03424
G1 X63.368 Y84.208 E3.06428
G1 X63.859 Y83.717 E3.09432
G1 X64.477 Y83.402 E3.12436
G1 X65.119 Y83.301 E3.15247
G1 X65.842 Y83.399 E3.18408
G1 X66.467 Y83.717 E3.21442
G1 X66.957 Y84.208 E3.24446
G1 X67.272 Y84.827 E3.27450
G1 X67.372 Y85.453 E3.30194
G1 X66.991 Y85.512 F6000.000
G1 F1800
G1 X66.901 Y86.077 E3.32670
G1 X66.641 Y86.586 E3.35145
G1 X66.237 Y86.991 E3.37621
G1 X65.728 Y87.250 E3.40096
G1 X65.163 Y87.340 E3.42572
G1 X64.595 Y87.250 E3.45058
G1 X64.060 Y86.963 E3.47688
G1 X63.684 Y86.586 E3.49991
G1 X63.424 Y86.077 E3.52466
G1 X63.335 Y85.512 E3.54941
G1 X63.424 Y84.947 E3.57417
G1 X63.684 Y84.438 E3.59892
G1 X64.088 Y84.033 E3.62368
G1 X64.598 Y83.774 E3.64843
G1 X65.123 Y83.690 E3.67144
G1 X65.725 Y83.773 E3.69776
G1 X66.237 Y84.033 E3.72262
G1 X66.641 Y84.438 E3.74737
G1 X66.901 Y84.947 E3.77213
G1 X66.981 Y85.453 E3.79429
G1 X67.337 Y85.712 F6000.000
G1 E1.79429 F1200.00000
G92 E0
G1 X60.559 Y78.008 F6000.000
G1 E2.00000 F1200.00000
G1 F1800
G1 X77.961 Y78.008 E2.75329
G1 X85.058 Y76.499 E3.06737
G1 X89.114 Y95.388 E3.90364
G1 X77.961 Y93.016 E4.39720
G1 X60.559 Y93.016 E5.15049
G1 X60.559 Y78.068 E5.79752
G1 X60.173 Y77.623 F6000.000
G1 F1800
G1 X77.921 Y77.623 E6.56575
G1 X85.355 Y76.042 E6.89474
G1 X89.616 Y95.889 E7.77343
G1 X77.921 Y93.401 E8.29100
G1 X60.173 Y93.401 E9.05923
G1 X60.173 Y77.683 E9.73965
G1 X59.788 Y77.237 F6000.000
G1 F1800
G1 X77.880 Y77.237 E10.52281
G1 X85.651 Y75.584 E10.86670
G1 X90.118 Y96.390 E11.78782
G1 X77.880 Y93.787 E12.32940
G1 X59.788 Y93.787 E13.11256
G1 X59.788 Y77.297 E13.82637
G1 X60.176 Y77.335 F6000.000
G1 X61.108 Y78.230 F6000.000
G1 F1800
G1 X60.781 Y78.558 E13.84666
G1 X60.781 Y79.110 E13.87084
G1 X61.660 Y78.230 E13.92533
G1 X62.212 Y78.230 E13.94952
G1 X60.781 Y79.662 E14.03822
G1 X60.781 Y80.214 E14.06240
G1 X62.764 Y78.230 E14.18530
G1 X63.316 Y78.230 E14.20949
G1 X60.781 Y80.766 E14.36659
G1 X60.781 Y81.318 E14.39078
G1 X63.868 Y78.230 E14.58209
G1 X64.420 Y78.230 E14.60627
G1 X60.781 Y81.870 E14.83178
G1 X60.781 Y82.422 E14.85597
G1 X64.972 Y78.230 E15.11568
G1 X65.524 Y78.230 E15.13987
G1 X60.781 Y82.974 E15.43379
G1 X60.781 Y83.526 E15.45797
G1 X66.076 Y78.230 E15.78610
G1 X66.628 Y78.230 E15.81028
G1 X60.781 Y84.078 E16.17261
G1 X60.781 Y84.630 E16.19679
G1 X67.180 Y78.230 E16.59332
G1 X67.732 Y78.230 E16.61751
G1 X60.781 Y85.182 E17.04824
G1 X60.781 Y85.734 E17.07243
G1 X62.870 Y83.645 E17.20187
G1 X62.474 Y84.422 E17.24007
G1 X62.442 Y84.625 E17.24908
G1 X60.781 Y86.286 E17.35200
G1 X60.781 Y86.838 E17.37618
G1 X62.338 Y85.281 E17.47266
G1 X62.327 Y85.348 E17.47567
G1 X62.395 Y85.776 E17.49462
G1 X60.781 Y87.390 E17.59463
G1 X60.781 Y87.942 E17.61882
G1 X62.470 Y86.252 E17.72350
G1 X62.651 Y86.623 E17.74159
G1 X60.781 Y88.494 E17.85749
G1 X60.781 Y89.046 E17.88167
G1 X62.838 Y86.989 E18.00911
G1 X62.900 Y87.111 E18.01513
G1 X63.084 Y87.295 E18.02651
G1 X60.781 Y89.598 E18.16920
G1 X60.781 Y90.150 E18.19338
G1 X63.360 Y87.571 E18.35317
G1 X63.526 Y87.737 E18.36349
G1 X63.669 Y87.814 E18.37057
G1 X60.781 Y90.702 E18.54951
G1 X60.781 Y91.254 E18.57369
G1 X64.028 Y88.007 E18.77488
G1 X64.388 Y88.199 E18.79275
G1 X60.781 Y91.806 E19.01624
G1 X60.781 Y92.358 E19.04043
G1 X64.864 Y88.274 E19.29344
G1 X65.346 Y88.344 E19.31478
G1 X60.897 Y92.794 E19.59049
G1 X61.449 Y92.794 E19.61467
G1 X66.002 Y88.240 E19.89681
G1 X66.253 Y88.201 E19.90795
G1 X66.948 Y87.847 E19.94212
G1 X62.001 Y92.794 E20.24866
G1 X62.553 Y92.794 E20.27284
G1 X77.116 Y78.230 E21.17525
G1 X77.668 Y78.230 E21.19943
G1 X63.105 Y92.794 E22.10184
G1 X63.657 Y92.794 E22.12602
G1 X78.235 Y78.215 E23.02935
G1 X78.936 Y78.066 E23.06075
G1 X64.209 Y92.794 E23.97332
G1 X64.761 Y92.794 E23.99750
G1 X79.637 Y77.917 E24.91931
G1 X80.338 Y77.768 E24.95071
G1 X65.313 Y92.794 E25.88175
G1 X65.865 Y92.794 E25.90594
G1 X81.040 Y77.619 E26.84622
G1 X81.741 Y77.470 E26.87762
G1 X66.417 Y92.794 E27.82715
G1 X66.969 Y92.794 E27.85133
G1 X82.442 Y77.321 E28.81009
G1 X83.143 Y77.172 E28.84150
G1 X67.521 Y92.794 E29.80949
G1 X68.073 Y92.794 E29.83368
G1 X76.514 Y84.353 E30.35670
G1 X76.738 Y83.913 E30.37834
G1 X77.401 Y83.249 E30.41945
G1 X77.842 Y83.025 E30.44110
G1 X83.844 Y77.023 E30.81304
G1 X84.545 Y76.873 E30.84444
G1 X78.663 Y82.756 E31.20894
G1 X79.112 Y82.685 E31.22886
G1 X79.265 Y82.706 E31.23564
G1 X84.970 Y77.000 E31.58917
G1 X85.068 Y77.455 E31.60953
G1 X79.751 Y82.772 E31.93901
G1 X80.077 Y82.816 E31.95344
G1 X80.197 Y82.877 E31.95934
G1 X85.165 Y77.909 E32.26720
G1 X85.263 Y78.364 E32.28756
G1 X80.563 Y83.064 E32.57880
G1 X80.928 Y83.250 E32.59678
G1 X85.361 Y78.818 E32.87143
G1 X85.458 Y79.272 E32.89179
G1 X81.204 Y83.526 E33.15539
G1 X81.480 Y83.802 E33.17249
G1 X85.556 Y79.727 E33.42503
G1 X85.653 Y80.181 E33.44540
G1 X81.702 Y84.132 E33.69022
G1 X81.889 Y84.498 E33.70820
G1 X85.751 Y80.636 E33.94752
G1 X85.848 Y81.090 E33.96788
G1 X82.040 Y84.898 E34.20386
G1 X82.116 Y85.375 E34.22500
G1 X85.946 Y81.545 E34.46234
G1 X86.044 Y81.999 E34.48271
G1 X82.125 Y85.918 E34.72553
G1 X82.021 Y86.574 E34.75462
G1 X86.141 Y82.453 E35.00992
G1 X86.239 Y82.908 E35.03028
G1 X76.353 Y92.794 E35.64285
G1 X76.905 Y92.794 E35.66704
G1 X86.336 Y83.362 E36.25145
G1 X86.434 Y83.817 E36.27181
G1 X77.457 Y92.794 E36.82806
G1 X77.838 Y92.794 E36.84478
G1 X77.979 Y92.824 E36.85107
G1 X86.531 Y84.271 E37.38102
G1 X86.629 Y84.726 E37.40139
G1 X78.434 Y92.920 E37.90917
G1 X78.889 Y93.017 E37.92956
G1 X86.727 Y85.180 E38.41519
G1 X86.824 Y85.634 E38.43555
G1 X79.344 Y93.114 E38.89902
G1 X79.800 Y93.211 E38.91941
G1 X86.922 Y86.089 E39.36072
G1 X87.019 Y86.543 E39.38109
G1 X80.255 Y93.308 E39.80024
G1 X80.710 Y93.405 E39.82063
G1 X87.117 Y86.998 E40.21762
G1 X87.214 Y87.452 E40.23798
G1 X81.165 Y93.501 E40.61281
G1 X81.620 Y93.598 E40.63320
G1 X87.312 Y87.907 E40.98587
G1 X87.410 Y88.361 E41.00624
G1 X82.076 Y93.695 E41.33675
G1 X82.531 Y93.792 E41.35714
G1 X87.507 Y88.815 E41.66549
G1 X87.605 Y89.270 E41.68586
G1 X82.986 Y93.889 E41.97205
G1 X83.441 Y93.985 E41.99244
G1 X87.702 Y89.724 E42.25647
G1 X87.800 Y90.179 E42.27684
G1 X83.896 Y94.082 E42.51871
G1 X84.352 Y94.179 E42.53910
G1 X87.897 Y90.633 E42.75882
G1 X87.995 Y91.088 E42.77918
G1 X84.807 Y94.276 E42.97674
G1 X85.262 Y94.373 E42.99713
G1 X88.093 Y91.542 E43.17252
G1 X88.190 Y91.996 E43.19289
G1 X85.717 Y94.469 E43.34612
G1 X86.172 Y94.566 E43.36651
G1 X88.288 Y92.451 E43.49759
G1 X88.385 Y92.905 E43.51796
G1 X86.627 Y94.663 E43.62687
G1 X87.083 Y94.760 E43.64726
G1 X88.483 Y93.360 E43.73402
G1 X88.580 Y93.814 E43.75439
G1 X87.538 Y94.857 E43.81899
G1 X87.993 Y94.953 E43.83938
G1 X88.678 Y94.269 E43.88182
G1 X88.776 Y94.723 E43.90218
G1 X88.448 Y95.050 E43.92246
G1 E41.92246 F1200.00000
G92 E0
G1 X75.801 Y92.794 F6000.000
G1 E2.00000 F1200.00000
G1 F1800
G1 X80.389 Y88.205 E2.28432
G1 X79.733 Y88.309 E2.31342
G1 X75.249 Y92.794 E2.59130
G1 X74.697 Y92.794 E2.61548
G1 X79.191 Y88.300 E2.89394
G1 X78.714 Y88.224 E2.91508
G1 X74.145 Y92.794 E3.19822
G1 X73.593 Y92.794 E3.22240
G1 X78.314 Y88.073 E3.51493
G1 X77.948 Y87.887 E3.53291
G1 X73.041 Y92.794 E3.83698
G1 X72.489 Y92.794 E3.86117
G1 X77.618 Y87.664 E4.17900
G1 X77.342 Y87.388 E4.19610
G1 X71.937 Y92.794 E4.53104
G1 X71.385 Y92.794 E4.55523
G1 X77.066 Y87.112 E4.90727
G1 X76.880 Y86.747 E4.92524
G1 X70.833 Y92.794 E5.29992
G1 X70.281 Y92.794 E5.32411
G1 X76.693 Y86.381 E5.72144
G1 X76.639 Y86.275 E5.72666
G1 X76.586 Y85.937 E5.74166
G1 X69.729 Y92.794 E6.16653
G1 X69.177 Y92.794 E6.19071
G1 X76.510 Y85.461 E6.64511
G1 X76.492 Y85.348 E6.65008
G1 X76.572 Y84.847 E6.67233
G1 X68.625 Y92.794 E7.16475
G1 X68.073 Y92.794 E7.18893
G1 E5.18893 F1200.00000
G92 E0
G1 X67.497 Y87.297 F6000.000
G1 E2.00000 F1200.00000
G1 F1800
G1 X76.564 Y78.230 E2.56182
G1 X76.012 Y78.230 E2.58601
G1 X67.891 Y86.351 E3.08922
G1 X67.995 Y85.696 E3.11832
G1 X75.460 Y78.230 E3.58089
G1 X74.908 Y78.230 E3.60508
G1 X67.925 Y85.214 E4.03779
G1 X67.847 Y84.740 E4.05883
G1 X74.356 Y78.230 E4.46218
G1 X73.804 Y78.230 E4.48637
G1 X67.660 Y84.374 E4.86706
G1 X67.474 Y84.008 E4.88505
G1 X73.252 Y78.230 E5.24308
G1 X72.700 Y78.230 E5.26727
G1 X67.222 Y83.709 E5.60675
G1 X66.946 Y83.433 E5.62385
G1 X72.148 Y78.230 E5.94623
G1 X71.596 Y78.230 E5.97042
G1 X66.640 Y83.187 E6.27755
G1 X66.274 Y83.001 E6.29554
G1 X71.044 Y78.230 E6.59113
G1 X70.492 Y78.230 E6.61531
G1 X65.907 Y82.816 E6.89944
G1 X65.421 Y82.749 E6.92092
G1 X69.940 Y78.230 E7.20095
G1 X69.388 Y78.230 E7.22514
G1 X64.931 Y82.687 E7.50131
G1 X64.275 Y82.791 E7.53040
G1 X68.836 Y78.230 E7.81301
G1 X68.284 Y78.230 E7.83720
G1 X63.295 Y83.219 E8.14633
G1 X63.236 Y83.249 E8.14924
G1 X62.573 Y83.913 E8.19035
G1 X62.543 Y83.972 E8.19326
G1 E6.19326 F1200.00000
G92 E0
G1 X65.704 Y66.680 F6000.000
G1 E2.00000 F1200.00000
G1 F1800
G1 X63.629 Y65.622 E2.10078
G1 X63.052 Y65.045 E2.13611
G1 X62.682 Y64.318 E2.17144
G1 X62.554 Y63.512 E2.20677
G1 X62.682 Y62.706 E2.24210
G1 X63.052 Y61.979 E2.27743
G1 X63.629 Y61.402 E2.31276
G1 X64.357 Y61.031 E2.34809
G1 X65.114 Y60.911 E2.38130
G1 X65.959 Y61.026 E2.41820
G1 X66.696 Y61.402 E2.45401
G1 X67.273 Y61.979 E2.48933
G1 X67.644 Y62.706 E2.52467
G1 X67.771 Y63.512 E2.55999
G1 X67.644 Y64.318 E2.59532
G1 X67.273 Y65.045 E2.63065
G1 X66.696 Y65.622 E2.66598
G1 X65.969 Y65.993 E2.70131
G1 X65.704 Y66.035 E2.71293
G1 X65.704 Y66.620 E2.73823
G1 X65.318 Y66.050 F6000.000
G1 F1800
G1 X63.859 Y65.307 E2.80913
G1 X63.368 Y64.816 E2.83917
G1 X63.053 Y64.197 E2.86922
G1 X62.945 Y63.512 E2.89926
G1 X63.053 Y62.827 E2.92930
G1 X63.368 Y62.208 E2.95934
G1 X63.859 Y61.717 E2.98938
G1 X64.477 Y61.402 E3.01942
G1 X65.119 Y61.301 E3.04753
G1 X65.842 Y61.399 E3.07914
G1 X66.467 Y61.717 E3.10948
G1 X66.957 Y62.208 E3.13952
G1 X67.272 Y62.827 E3.16956
G1 X67.381 Y63.512 E3.19960
G1 X67.272 Y64.197 E3.22964
G1 X66.957 Y64.816 E3.25969
G1 X66.467 Y65.307 E3.28973
G1 X65.848 Y65.622 E3.31977
G1 X65.318 Y65.706 E3.34300
G1 X65.318 Y65.990 E3.35532
G1 X65.163 Y65.340 F6000.000
G1 F1800
G1 X64.933 Y65.303 E3.36540
G1 X64.933 Y65.421 E3.37049
G1 X64.088 Y64.991 E3.41151
G1 X63.684 Y64.586 E3.43626
G1 X63.424 Y64.077 E3.46102
G1 X63.335 Y63.512 E3.48577
G1 X63.424 Y62.947 E3.51052
G1 X63.684 Y62.438 E3.53528
G1 X64.088 Y62.033 E3.56003
G1 X64.598 Y61.774 E3.58479
G1 X65.123 Y61.690 E3.60780
G1 X65.725 Y61.773 E3.63411
G1 X66.237 Y62.033 E3.65898
G1 X66.641 Y62.438 E3.68373
G1 X66.901 Y62.947 E3.70848
G1 X66.991 Y63.512 E3.73324
G1 X66.901 Y64.077 E3.75799
G1 X66.641 Y64.586 E3.78275
G1 X66.237 Y64.991 E3.80750
G1 X65.728 Y65.250 E3.83225
G1 X65.222 Y65.330 E3.85441
G1 X65.046 Y65.542 F6000.000
G1 E1.85441 F1200.00000
G92 E0
G1 X76.719 Y63.512 F6000.000
G1 E2.00000 F1200.00000
G1 F1800
G1 X76.847 Y62.706 E2.03533
G1 X77.217 Y61.979 E2.07066
G1 X77.794 Y61.402 E2.10599
G1 X78.522 Y61.031 E2.14132
G1 X79.279 Y60.911 E2.17453
G1 X80.124 Y61.026 E2.21142
G1 X80.861 Y61.402 E2.24724
G1 X81.438 Y61.979 E2.28256
G1 X81.809 Y62.706 E2.31789
G1 X81.936 Y63.512 E2.35322
G1 X81.809 Y64.318 E2.38855
G1 X81.438 Y65.045 E2.42388
G1 X80.861 Y65.622 E2.45921
G1 X80.134 Y65.993 E2.49454
G1 X79.328 Y66.121 E2.52987
G1 X78.511 Y65.991 E2.56567
G1 X77.760 Y65.588 E2.60255
G1 X77.217 Y65.045 E2.63579
G1 X76.847 Y64.318 E2.67112
G1 X76.728 Y63.571 E2.70385
