; generated by Slic3r 1.3.1-dev (Build (Unknown revision)) on 2020-10-28 at 13:27:50

; external perimeters extrusion width = 0.44mm (2.86mm^3/s)
; perimeters extrusion width = 0.56mm (4.14mm^3/s)
; infill extrusion width = 0.50mm (3.66mm^3/s)
; solid infill extrusion width = 0.56mm (3.10mm^3/s)
; top infill extrusion width = 0.45mm (2.44mm^3/s)

M107
G92 E0
;D3D:START:START
T0
M104 S215 T0

G21
G90
M107
T0
G28
G29
M109 T0 S215 T0
G0 F3000
M107
T0
G92 E0
G0 X0 Y149 Z0.1 F3600
G1 Y49 E6.5 F1200
G0 Z1
G92 E0
; Filament gcode

G21 ; set units to millimeters
G90 ; use absolute coordinates
M82 ; use absolute distances for extrusion
G92 E0
G1 Z0.300 F6000.000
G1 E-2.00000 F1200.00000
G92 E0
G1 Z0.800 F6000.000
G1 X50.020 Y55.699 F6000.000
G1 Z0.300 F6000.000
G1 E2.00000 F1200.00000
G1 F1800.000
G1 X51.778 Y54.187 E2.10372
G1 X53.943 Y53.356 E2.20744
G1 X55.250 Y53.229 E2.26617
G1 X94.750 Y53.229 E4.03300
G1 X97.035 Y53.626 E4.13672
G1 X99.051 Y54.770 E4.24044
G1 X100.563 Y56.528 E4.34416
G1 X101.394 Y58.693 E4.44788
G1 X101.521 Y60.000 E4.50661
G1 X101.521 Y90.000 E5.84850
G1 X101.124 Y92.285 E5.95222
G1 X99.980 Y94.301 E6.05594
G1 X98.222 Y95.813 E6.15966
G1 X96.057 Y96.644 E6.26338
G1 X94.750 Y96.771 E6.32211
G1 X55.250 Y96.771 E8.08894
G1 X52.965 Y96.374 E8.19266
G1 X50.949 Y95.230 E8.29638
G1 X49.437 Y93.472 E8.40010
G1 X48.606 Y91.307 E8.50382
G1 X48.479 Y90.000 E8.56255
G1 X48.479 Y60.000 E9.90444
G1 X48.876 Y57.715 E10.00816
G1 X49.991 Y55.751 E10.10920
G1 X50.403 Y55.843 F6000.000
G1 F1800.000
G1 X52.146 Y54.419 E10.20990
G1 X55.250 Y53.614 E10.35332
G1 X94.750 Y53.614 E12.12015
G1 X96.966 Y54.011 E12.22085
G1 X98.907 Y55.153 E12.32155
G1 X100.331 Y56.896 E12.42226
G1 X101.136 Y60.000 E12.56568
G1 X101.136 Y90.000 E13.90757
G1 X100.739 Y92.216 E14.00827
G1 X99.597 Y94.157 E14.10897
G1 X97.854 Y95.581 E14.20968
G1 X94.750 Y96.386 E14.35310
G1 X55.250 Y96.386 E16.11992
G1 X53.034 Y95.989 E16.22062
G1 X51.093 Y94.847 E16.32133
G1 X49.669 Y93.104 E16.42203
G1 X48.864 Y90.000 E16.56545
G1 X48.864 Y60.000 E17.90734
G1 X49.261 Y57.784 E18.00804
G1 X50.372 Y55.895 E18.10606
G1 E16.10606 F1200.00000
G92 E0
G1 Z0.800 F6000.000
G1 X71.602 Y83.402 F6000.000
G1 Z0.300 F6000.000
G1 E2.00000 F1200.00000
G1 F1800.000
G1 X73.238 Y84.347 E2.08451
G1 X73.782 Y85.095 E2.12588
G1 X73.974 Y86.000 E2.16725
G1 X73.782 Y86.905 E2.20862
G1 X73.238 Y87.653 E2.24999
G1 X72.437 Y88.115 E2.29136
G1 X71.518 Y88.212 E2.33273
G1 X70.638 Y87.926 E2.37410
G1 X69.951 Y87.307 E2.41547
G1 X69.574 Y86.462 E2.45684
G1 X69.574 Y85.538 E2.49821
G1 X69.951 Y84.693 E2.53958
G1 X70.638 Y84.074 E2.58095
G1 X71.602 Y83.760 E2.62630
G1 X71.602 Y83.462 E2.63963
G1 X71.988 Y84.070 F6000.000
G1 F1800.000
G1 X72.975 Y84.640 E2.69060
G1 X73.422 Y85.256 E2.72464
G1 X73.580 Y86.000 E2.75867
G1 X73.422 Y86.744 E2.79271
G1 X72.975 Y87.360 E2.82675
G1 X72.315 Y87.740 E2.86079
G1 X71.559 Y87.820 E2.89482
G1 X70.835 Y87.585 E2.92886
G1 X70.270 Y87.076 E2.96290
G1 X69.960 Y86.381 E2.99694
G1 X69.960 Y85.619 E3.03098
G1 X70.270 Y84.924 E3.06502
G1 X70.835 Y84.415 E3.09905
G1 X71.559 Y84.180 E3.13309
G1 X71.988 Y84.225 E3.15239
G1 X71.988 Y84.130 E3.15663
G1 X72.272 Y83.789 F6000.000
G1 E1.15663 F1200.00000
G92 E0
G1 Z0.800 F6000.000
G1 X71.518 Y66.212 F6000.000
G1 Z0.300 F6000.000
G1 E2.00000 F1200.00000
G1 F1800.000
G1 X70.638 Y65.926 E2.04137
G1 X69.951 Y65.307 E2.08274
G1 X69.574 Y64.462 E2.12411
G1 X69.574 Y63.538 E2.16549
G1 X69.951 Y62.693 E2.20686
G1 X70.638 Y62.074 E2.24822
G1 X71.518 Y61.788 E2.28960
G1 X72.437 Y61.885 E2.33096
G1 X73.238 Y62.347 E2.37233
G1 X73.782 Y63.095 E2.41370
G1 X73.974 Y64.000 E2.45508
G1 X73.782 Y64.905 E2.49645
G1 X73.238 Y65.653 E2.53782
G1 X72.437 Y66.115 E2.57919
G1 X71.577 Y66.206 E2.61787
G1 X71.559 Y65.820 F6000.000
G1 F1800.000
G1 X70.835 Y65.585 E2.65191
G1 X70.270 Y65.076 E2.68595
G1 X69.960 Y64.381 E2.71999
G1 X69.960 Y63.619 E2.75403
G1 X70.270 Y62.924 E2.78807
G1 X70.835 Y62.415 E2.82210
G1 X71.559 Y62.180 E2.85614
G1 X72.315 Y62.260 E2.89018
G1 X72.975 Y62.640 E2.92421
G1 X73.422 Y63.256 E2.95825
G1 X73.580 Y64.000 E2.99229
G1 X73.422 Y64.744 E3.02633
G1 X72.975 Y65.360 E3.06037
G1 X72.315 Y65.740 E3.09441
G1 X71.618 Y65.814 E3.12576
G1 X71.324 Y66.144 F6000.000
G1 E1.12576 F1200.00000
G92 E0
G1 Z0.800 F6000.000
G1 X55.861 Y60.611 F6000.000
G1 Z0.300 F6000.000
G1 E2.00000 F1200.00000
G1 F1800.000
G1 X94.139 Y60.611 E3.71220
G1 X94.139 Y89.389 E4.99947
G1 X55.861 Y89.389 E6.71167
G1 X55.861 Y60.671 E7.99626
G1 X55.475 Y60.225 F6000.000
G1 F1800.000
G1 X94.525 Y60.225 E9.74296
G1 X94.525 Y89.775 E11.06472
G1 X55.475 Y89.775 E12.81142
G1 X55.475 Y60.285 E14.13051
G1 X55.866 Y60.311 F6000.000
G1 X56.560 Y60.683 F6000.000
G1 F1800.000
G1 X55.933 Y61.310 E14.17024
G1 X55.933 Y61.856 E14.19469
G1 X57.106 Y60.683 E14.26900
G1 X57.652 Y60.683 E14.29345
G1 X55.933 Y62.402 E14.40233
G1 X55.933 Y62.948 E14.42678
G1 X58.198 Y60.683 E14.57024
G1 X58.744 Y60.683 E14.59468
G1 X55.933 Y63.494 E14.77272
G1 X55.933 Y64.040 E14.79716
G1 X59.290 Y60.683 E15.00977
G1 X59.836 Y60.683 E15.03422
G1 X55.933 Y64.586 E15.28140
G1 X55.933 Y65.132 E15.30585
G1 X60.382 Y60.683 E15.58760
G1 X60.928 Y60.683 E15.61205
G1 X55.933 Y65.678 E15.92838
G1 X55.933 Y66.224 E15.95283
G1 X61.474 Y60.683 E16.30373
G1 X62.020 Y60.683 E16.32818
G1 X55.933 Y66.770 E16.71366
G1 X55.933 Y67.316 E16.73810
G1 X62.566 Y60.683 E17.15816
G1 X63.112 Y60.683 E17.18260
G1 X55.933 Y67.862 E17.63723
G1 X55.933 Y68.408 E17.66168
G1 X63.658 Y60.683 E18.15088
G1 X64.203 Y60.683 E18.17533
G1 X55.933 Y68.953 E18.69910
G1 X55.933 Y69.499 E18.72355
G1 X64.749 Y60.683 E19.28190
G1 X65.295 Y60.683 E19.30635
G1 X55.933 Y70.045 E19.89927
G1 X55.933 Y70.591 E19.92372
G1 X65.841 Y60.683 E20.55121
G1 X66.387 Y60.683 E20.57566
G1 X55.933 Y71.137 E21.23773
G1 X55.933 Y71.683 E21.26218
G1 X66.933 Y60.683 E21.95883
G1 X67.479 Y60.683 E21.98328
G1 X55.933 Y72.229 E22.71450
G1 X55.933 Y72.775 E22.73894
G1 X68.025 Y60.683 E23.50474
G1 X68.571 Y60.683 E23.52919
G1 X55.933 Y73.321 E24.32956
G1 X55.933 Y73.867 E24.35400
G1 X69.117 Y60.683 E25.18895
G1 X69.663 Y60.683 E25.21340
G1 X55.933 Y74.413 E26.08291
G1 X55.933 Y74.959 E26.10736
G1 X70.209 Y60.683 E27.01145
G1 X70.755 Y60.683 E27.03590
G1 X55.933 Y75.505 E27.97457
G1 X55.933 Y76.051 E27.99902
G1 X71.301 Y60.683 E28.97226
G1 X71.847 Y60.683 E28.99670
G1 X70.655 Y61.874 E29.07218
G1 X71.163 Y61.709 E29.09608
G1 X71.347 Y61.729 E29.10436
G1 X72.393 Y60.683 E29.17061
G1 X72.939 Y60.683 E29.19506
G1 X71.841 Y61.781 E29.26460
G1 X72.246 Y61.823 E29.28283
G1 X72.308 Y61.859 E29.28606
G1 X73.485 Y60.683 E29.36058
G1 X74.031 Y60.683 E29.38502
G1 X72.654 Y62.059 E29.47220
G1 X73.000 Y62.259 E29.49009
G1 X74.577 Y60.683 E29.58992
G1 X75.123 Y60.683 E29.61437
G1 X73.293 Y62.512 E29.73021
G1 X73.523 Y62.828 E29.74772
G1 X75.669 Y60.683 E29.88359
G1 X76.215 Y60.683 E29.90803
G1 X73.753 Y63.144 E30.06393
G1 X73.829 Y63.248 E30.06969
G1 X73.893 Y63.550 E30.08351
G1 X76.760 Y60.683 E30.26512
G1 X77.306 Y60.683 E30.28957
G1 X73.988 Y64.001 E30.49969
G1 X74.055 Y64.314 E30.51402
G1 X74.010 Y64.525 E30.52370
G1 X77.852 Y60.683 E30.76704
G1 X78.398 Y60.683 E30.79148
G1 X73.863 Y65.218 E31.07872
G1 E29.07872 F1200.00000
G92 E0
G1 Z0.800 F6000.000
G1 X69.595 Y62.935 F6000.000
G1 Z0.300 F6000.000
G1 E2.00000 F1200.00000
G1 F1800.000
G1 X55.933 Y76.597 E2.86518
G1 X55.933 Y77.143 E2.88963
G1 X69.502 Y63.573 E3.74897
G1 X69.502 Y64.119 E3.77342
G1 X55.933 Y77.689 E4.63276
G1 X55.933 Y78.235 E4.65721
G1 X69.636 Y64.531 E5.52502
G1 X69.804 Y64.909 E5.54354
G1 X55.933 Y78.781 E6.42200
G1 X55.933 Y79.327 E6.44645
G1 X69.992 Y65.267 E7.33678
G1 X70.279 Y65.526 E7.35409
G1 X55.933 Y79.873 E8.26262
G1 X55.933 Y80.419 E8.28707
G1 X70.566 Y65.785 E9.21380
G1 X70.754 Y65.954 E9.22512
G1 X70.897 Y66.000 E9.23183
G1 X55.933 Y80.964 E10.17948
G1 X55.933 Y81.510 E10.20393
G1 X71.309 Y66.134 E11.17767
G1 X71.721 Y66.268 E11.19707
G1 X55.933 Y82.056 E12.19691
G1 X55.933 Y82.602 E12.22136
G1 X72.298 Y66.237 E13.25773
G1 X72.873 Y66.177 E13.28362
G1 X72.947 Y66.134 E13.28748
G1 X55.933 Y83.148 E14.36498
G1 X55.933 Y83.694 E14.38943
G1 X78.944 Y60.683 E15.84671
G1 X79.490 Y60.683 E15.87116
G1 X55.933 Y84.240 E17.36301
G1 X55.933 Y84.786 E17.38746
G1 X80.036 Y60.683 E18.91389
G1 X80.582 Y60.683 E18.93834
G1 X55.933 Y85.332 E20.49934
G1 X55.933 Y85.878 E20.52379
G1 X81.128 Y60.683 E22.11936
G1 X81.674 Y60.683 E22.14381
G1 X55.933 Y86.424 E23.77396
G1 X55.933 Y86.970 E23.79841
G1 X82.220 Y60.683 E25.46314
G1 X82.766 Y60.683 E25.48759
G1 X55.933 Y87.516 E27.18689
G1 X55.933 Y88.062 E27.21133
G1 X83.312 Y60.683 E28.94521
G1 X83.858 Y60.683 E28.96966
G1 X55.933 Y88.608 E30.73810
G1 X55.933 Y89.154 E30.76255
G1 X84.404 Y60.683 E32.56558
G1 X84.950 Y60.683 E32.59002
G1 X56.315 Y89.317 E34.40340
G1 X56.861 Y89.317 E34.42785
G1 X85.496 Y60.683 E36.24123
G1 X86.042 Y60.683 E36.26568
G1 X57.407 Y89.317 E38.07906
G1 X57.953 Y89.317 E38.10350
G1 X86.588 Y60.683 E39.91688
G1 X87.134 Y60.683 E39.94133
G1 X58.499 Y89.317 E41.75471
G1 X59.045 Y89.317 E41.77916
G1 X87.680 Y60.683 E43.59254
G1 X88.226 Y60.683 E43.61698
G1 X59.591 Y89.317 E45.43036
G1 X60.137 Y89.317 E45.45481
G1 X88.771 Y60.683 E47.26819
G1 X89.317 Y60.683 E47.29264
G1 X60.683 Y89.317 E49.10602
G1 X61.229 Y89.317 E49.13047
G1 X89.863 Y60.683 E50.94384
G1 X90.409 Y60.683 E50.96829
G1 X61.775 Y89.317 E52.78167
G1 X62.321 Y89.317 E52.80612
G1 X90.955 Y60.683 E54.61950
G1 X91.501 Y60.683 E54.64395
G1 X62.867 Y89.317 E56.45732
G1 X63.412 Y89.317 E56.48177
G1 X92.047 Y60.683 E58.29515
G1 X92.593 Y60.683 E58.31960
G1 X63.958 Y89.317 E60.13298
G1 X64.504 Y89.317 E60.15743
G1 X93.139 Y60.683 E61.97081
G1 X93.685 Y60.683 E61.99525
G1 X71.167 Y83.201 E63.42127
G1 X71.513 Y83.400 E63.43917
G1 X94.067 Y60.846 E64.86748
G1 X94.067 Y61.392 E64.89192
G1 X71.859 Y83.600 E66.29831
G1 X72.205 Y83.800 E66.31621
G1 X94.067 Y61.938 E67.70068
G1 X94.067 Y62.484 E67.72513
G1 X72.552 Y84.000 E69.08768
G1 X72.898 Y84.200 E69.10557
G1 X94.067 Y63.030 E70.44620
G1 X94.067 Y63.576 E70.47065
G1 X73.225 Y84.418 E71.79054
G1 X73.455 Y84.734 E71.80804
G1 X94.067 Y64.122 E73.11338
G1 X94.067 Y64.668 E73.13783
G1 X73.685 Y85.051 E74.42862
G1 X73.829 Y85.249 E74.43957
G1 X73.864 Y85.417 E74.44728
G1 X94.067 Y65.214 E75.72670
G1 X94.067 Y65.760 E75.75115
G1 X73.960 Y85.867 E77.02450
G1 X74.054 Y86.320 E77.04519
G1 X94.067 Y66.306 E78.31262
G1 X94.067 Y66.852 E78.33707
G1 X73.906 Y87.013 E79.61383
G1 E77.61383 F1200.00000
G92 E0
G1 Z0.800 F6000.000
G1 X70.415 Y83.952 F6000.000
G1 Z0.300 F6000.000
G1 E2.00000 F1200.00000
G1 F1800.000
G1 X71.530 Y82.838 E2.07059
G1 X71.530 Y83.167 E2.08532
G1 X71.043 Y83.325 E2.10828
G1 X69.724 Y84.643 F6000.000
G1 F1800.000
G1 X65.050 Y89.317 E2.40427
G1 X65.596 Y89.317 E2.42872
G1 X69.502 Y85.411 E2.67608
G1 X69.502 Y85.957 E2.70053
G1 X66.142 Y89.317 E2.91331
G1 X66.688 Y89.317 E2.93776
G1 X69.586 Y86.419 E3.12129
G1 X69.754 Y86.797 E3.13981
G1 X67.234 Y89.317 E3.29941
G1 X67.780 Y89.317 E3.32386
G1 X69.923 Y87.175 E3.45954
G1 X69.945 Y87.226 E3.46202
G1 X70.194 Y87.450 E3.47701
G1 X68.326 Y89.317 E3.59530
G1 X68.872 Y89.317 E3.61974
G1 X70.481 Y87.708 E3.72165
G1 X70.775 Y87.961 E3.73899
G1 X69.418 Y89.317 E3.82490
G1 X69.964 Y89.317 E3.84935
G1 X71.187 Y88.095 E3.92679
G1 X71.599 Y88.228 E3.94619
G1 X70.510 Y89.317 E4.01515
G1 X71.056 Y89.317 E4.03960
G1 X72.117 Y88.256 E4.10680
G1 X72.727 Y88.192 E4.13427
G1 X71.602 Y89.317 E4.20553
G1 X72.148 Y89.317 E4.22998
G1 X94.067 Y67.398 E5.61810
G1 X94.067 Y67.944 E5.64255
G1 X72.694 Y89.317 E6.99610
G1 X73.240 Y89.317 E7.02055
G1 X94.067 Y68.490 E8.33952
G1 X94.067 Y69.036 E8.36397
G1 X73.786 Y89.317 E9.64837
G1 X74.332 Y89.317 E9.67281
G1 X94.067 Y69.582 E10.92264
G1 X94.067 Y70.128 E10.94709
G1 X74.878 Y89.317 E12.16234
G1 X75.424 Y89.317 E12.18678
G1 X94.067 Y70.674 E13.36746
G1 X94.067 Y71.219 E13.39191
G1 X75.969 Y89.317 E14.53801
G1 X76.515 Y89.317 E14.56246
G1 X94.067 Y71.765 E15.67399
G1 X94.067 Y72.311 E15.69843
G1 X77.061 Y89.317 E16.77539
G1 X77.607 Y89.317 E16.79983
G1 X94.067 Y72.857 E17.84221
G1 X94.067 Y73.403 E17.86666
G1 X78.153 Y89.317 E18.87447
G1 X78.699 Y89.317 E18.89891
G1 X94.067 Y73.949 E19.87214
G1 X94.067 Y74.495 E19.89659
G1 X79.245 Y89.317 E20.83525
G1 X79.791 Y89.317 E20.85970
G1 X94.067 Y75.041 E21.76378
G1 X94.067 Y75.587 E21.78823
G1 X80.337 Y89.317 E22.65773
G1 X80.883 Y89.317 E22.68218
G1 X94.067 Y76.133 E23.51711
G1 X94.067 Y76.679 E23.54156
G1 X81.429 Y89.317 E24.34192
G1 X81.975 Y89.317 E24.36637
G1 X94.067 Y77.225 E25.13215
G1 X94.067 Y77.771 E25.15660
G1 X82.521 Y89.317 E25.88781
G1 X83.067 Y89.317 E25.91226
G1 X94.067 Y78.317 E26.60890
G1 X94.067 Y78.863 E26.63334
G1 X83.613 Y89.317 E27.29541
G1 X84.159 Y89.317 E27.31985
G1 X94.067 Y79.409 E27.94734
G1 X94.067 Y79.955 E27.97179
G1 X84.705 Y89.317 E28.56470
G1 X85.251 Y89.317 E28.58915
G1 X94.067 Y80.501 E29.14749
G1 X94.067 Y81.047 E29.17194
G1 X85.797 Y89.317 E29.69570
G1 X86.343 Y89.317 E29.72015
G1 X94.067 Y81.593 E30.20934
G1 X94.067 Y82.139 E30.23379
G1 X86.889 Y89.317 E30.68840
G1 X87.435 Y89.317 E30.71285
G1 X94.067 Y82.685 E31.13289
G1 X94.067 Y83.231 E31.15734
G1 X87.981 Y89.317 E31.54281
G1 X88.526 Y89.317 E31.56726
G1 X94.067 Y83.776 E31.91815
G1 X94.067 Y84.322 E31.94260
G1 X89.072 Y89.317 E32.25892
G1 X89.618 Y89.317 E32.28337
G1 X94.067 Y84.868 E32.56511
G1 X94.067 Y85.414 E32.58956
G1 X90.164 Y89.317 E32.83673
G1 X90.710 Y89.317 E32.86118
G1 X94.067 Y85.960 E33.07377
G1 X94.067 Y86.506 E33.09822
G1 X91.256 Y89.317 E33.27624
G1 X91.802 Y89.317 E33.30069
G1 X94.067 Y87.052 E33.44414
G1 X94.067 Y87.598 E33.46859
G1 X92.348 Y89.317 E33.57746
G1 X92.894 Y89.317 E33.60191
G1 X94.067 Y88.144 E33.67621
G1 X94.067 Y88.690 E33.70065
G1 X93.440 Y89.317 E33.74038
G1 Z0.500 F6000.000
G1 E31.74038 F1200.00000
G92 E0
G1 Z1.000 F6000.000
G1 X70.604 Y84.015 F6000.000
G1 Z0.500 F6000.000
G1 E2.00000 F1200.00000
G1 F1800.000
G1 X71.510 Y83.720 E2.03811
G1 X72.458 Y83.820 E2.07622
G1 X73.284 Y84.297 E2.11434
G1 X73.844 Y85.068 E2.15245
G1 X74.042 Y86.000 E2.19056
G1 X73.844 Y86.932 E2.22868
G1 X73.284 Y87.703 E2.26679
G1 X72.458 Y88.180 E2.30490
G1 X71.510 Y88.280 E2.34301
G1 X70.604 Y87.985 E2.38112
G1 X69.896 Y87.347 E2.41923
G1 X69.508 Y86.477 E2.45735
G1 X69.508 Y85.523 E2.49546
G1 X69.896 Y84.653 E2.53357
G1 X70.559 Y84.055 E2.56929
G1 X70.838 Y84.420 F6000.000
G1 F1800.000
G1 X71.559 Y84.185 E2.59259
G1 X72.314 Y84.264 E2.61589
G1 X72.971 Y84.644 E2.63919
G1 X73.417 Y85.258 E2.66249
G1 X73.575 Y86.000 E2.68579
G1 X73.417 Y86.742 E2.70909
G1 X72.971 Y87.356 E2.73239
G1 X72.314 Y87.736 E2.75570
G1 X71.559 Y87.815 E2.77899
G1 X70.838 Y87.580 E2.80230
G1 X70.274 Y87.073 E2.82559
G1 X69.965 Y86.379 E2.84890
G1 X69.965 Y85.621 E2.87220
G1 X70.274 Y84.927 E2.89550
G1 X70.793 Y84.460 E2.91696
G1 X70.838 Y84.020 F6000.000
G1 E0.91696 F1200.00000
G92 E0
G1 Z1.000 F6000.000
G1 X71.510 Y66.280 F6000.000
G1 Z0.500 F6000.000
G1 E2.00000 F1200.00000
G1 F1800.000
G1 X70.604 Y65.985 E2.03811
G1 X69.896 Y65.347 E2.07622
G1 X69.508 Y64.477 E2.11434
G1 X69.508 Y63.523 E2.15245
G1 X69.896 Y62.653 E2.19057
G1 X70.604 Y62.015 E2.22868
G1 X71.510 Y61.720 E2.26679
G1 X72.458 Y61.820 E2.30490
G1 X73.284 Y62.297 E2.34301
G1 X73.844 Y63.068 E2.38112
G1 X74.042 Y64.000 E2.41924
G1 X73.844 Y64.932 E2.45735
G1 X73.284 Y65.703 E2.49546
G1 X72.458 Y66.180 E2.53358
G1 X71.570 Y66.273 E2.56929
G1 X71.559 Y65.815 F6000.000
G1 F1800.000
G1 X70.838 Y65.580 E2.59259
G1 X70.274 Y65.073 E2.61589
G1 X69.965 Y64.379 E2.63919
G1 X69.965 Y63.621 E2.66249
G1 X70.274 Y62.927 E2.68579
G1 X70.838 Y62.420 E2.70909
G1 X71.559 Y62.185 E2.73239
G1 X72.314 Y62.264 E2.75569
G1 X72.971 Y62.644 E2.77900
G1 X73.417 Y63.258 E2.80230
G1 X73.575 Y64.000 E2.82560
G1 X73.417 Y64.742 E2.84890
G1 X72.971 Y65.356 E2.87220
G1 X72.314 Y65.736 E2.89550
G1 X71.619 Y65.809 E2.91696
G1 X71.324 Y66.139 F6000.000
G1 E0.91696 F1200.00000
G92 E0
G1 Z1.000 F6000.000
G1 X55.927 Y60.677 F6000.000
G1 Z0.500 F6000.000
G1 E2.00000 F1200.00000
G1 F2400.000
