; generated by Slic3r 1.3.1-dev (Build (Unknown revision)) on 2020-07-26 at 09:04:40

; external perimeters extrusion width = 0.44mm (2.86mm^3/s)
; perimeters extrusion width = 0.56mm (4.14mm^3/s)
; infill extrusion width = 0.50mm (5.48mm^3/s)
; solid infill extrusion width = 0.56mm (3.10mm^3/s)
; top infill extrusion width = 0.45mm (2.44mm^3/s)

M107
G92 E0
;D3D:START:START
T0
M104 S215 T0

G21
G90
M107
T0
G28
G29
M109 T0 S215 T0
G0 F3000
M107
T0
G92 E0
G0 X0 Y149 Z0.1 F3600
G1 Y49 E6.5 F1200
G0 Z1
G92 E0
; Filament gcode

G21 ; set units to millimeters
G90 ; use absolute coordinates
M82 ; use absolute distances for extrusion
G92 E0
G1 Z0.300 F6000.000
G1 E-2.00000 F1200.00000
G92 E0
G1 X55.982 Y50.985 F6000.000
G1 E2.00000 F1200.00000
G1 F1800.000
G1 X57.643 Y49.977 E2.08693
G1 X58.811 Y49.722 E2.14039
G1 X90.340 Y46.907 E3.55631
G1 X92.271 Y47.132 E3.64324
G1 X93.951 Y48.109 E3.73017
G1 X95.103 Y49.674 E3.81710
G1 X95.536 Y51.660 E3.90801
G1 X95.536 Y76.660 E5.02625
G1 X95.438 Y77.622 E5.06951
G1 X90.974 Y99.302 E6.05962
G1 X90.203 Y101.086 E6.14655
G1 X88.784 Y102.414 E6.23348
G1 X86.954 Y103.067 E6.32041
G1 X85.973 Y103.100 E6.36429
G1 X58.907 Y101.235 E7.57782
G1 X57.036 Y100.709 E7.66475
G1 X55.530 Y99.481 E7.75168
G1 X54.639 Y97.754 E7.83861
G1 X54.464 Y96.475 E7.89635
G1 X54.464 Y54.475 E9.77500
G1 X54.860 Y52.572 E9.86193
G1 X55.947 Y51.034 E9.94618
G1 X56.360 Y51.163 F6000.000
G1 F1800.000
G1 X58.845 Y50.106 E10.06697
G1 X90.375 Y47.292 E11.48289
G1 X92.223 Y47.524 E11.56619
G1 X93.808 Y48.501 E11.64950
G1 X94.844 Y50.049 E11.73280
G1 X95.150 Y51.660 E11.80614
G1 X95.150 Y76.660 E12.92439
G1 X95.060 Y77.544 E12.96415
G1 X90.597 Y99.225 E13.95425
G1 X89.842 Y100.927 E14.03756
G1 X88.449 Y102.164 E14.12086
G1 X86.000 Y102.715 E14.23319
G1 X58.934 Y100.850 E15.44672
G1 X57.145 Y100.330 E15.53002
G1 X55.734 Y99.115 E15.61333
G1 X54.954 Y97.424 E15.69663
G1 X54.850 Y96.475 E15.73936
G1 X54.850 Y54.475 E17.61801
G1 X55.245 Y52.655 E17.70131
G1 X56.324 Y51.211 E17.78193
G1 E15.78193 F1200.00000
G92 E0
G1 X81.481 Y88.781 F6000.000
G1 E2.00000 F1200.00000
G1 F1800.000
G1 X81.111 Y89.508 E2.03651
G1 X80.534 Y90.085 E2.07301
G1 X79.806 Y90.456 E2.10952
G1 X79.000 Y90.583 E2.14603
G1 X78.194 Y90.456 E2.18254
G1 X77.467 Y90.085 E2.21905
G1 X76.890 Y89.508 E2.25555
G1 X76.519 Y88.781 E2.29206
G1 X76.392 Y87.975 E2.32856
G1 X76.519 Y87.169 E2.36507
G1 X76.890 Y86.441 E2.40158
G1 X77.467 Y85.864 E2.43808
G1 X78.194 Y85.494 E2.47459
G1 X79.000 Y85.366 E2.51110
G1 X79.806 Y85.494 E2.54761
G1 X80.534 Y85.864 E2.58412
G1 X81.111 Y86.441 E2.62062
G1 X81.481 Y87.169 E2.65713
G1 X81.609 Y87.975 E2.69364
G1 X81.491 Y88.721 E2.72746
G1 X81.110 Y88.660 F6000.000
G1 F1800.000
G1 X80.795 Y89.279 E2.75850
G1 X80.304 Y89.769 E2.78954
G1 X79.686 Y90.084 E2.82059
G1 X79.000 Y90.193 E2.85163
G1 X78.315 Y90.084 E2.88267
G1 X77.696 Y89.769 E2.91372
G1 X77.206 Y89.279 E2.94476
G1 X76.891 Y88.660 E2.97581
G1 X76.782 Y87.975 E3.00685
G1 X76.891 Y87.289 E3.03789
G1 X77.206 Y86.671 E3.06894
G1 X77.696 Y86.180 E3.09997
G1 X78.315 Y85.865 E3.13102
G1 X79.000 Y85.756 E3.16206
G1 X79.686 Y85.865 E3.19311
G1 X80.304 Y86.180 E3.22415
G1 X80.795 Y86.671 E3.25519
G1 X81.110 Y87.289 E3.28624
G1 X81.218 Y87.975 E3.31728
G1 X81.119 Y88.601 E3.34564
G1 X80.739 Y88.539 F6000.000
G1 F1800.000
G1 X80.479 Y89.049 E3.37122
G1 X80.075 Y89.453 E3.39680
G1 X79.565 Y89.713 E3.42238
G1 X79.000 Y89.802 E3.44796
G1 X78.435 Y89.713 E3.47353
G1 X77.926 Y89.453 E3.49912
G1 X77.522 Y89.049 E3.52469
G1 X77.262 Y88.539 E3.55028
G1 X77.172 Y87.975 E3.57585
G1 X77.262 Y87.410 E3.60143
G1 X77.522 Y86.900 E3.62701
G1 X77.926 Y86.496 E3.65259
G1 X78.435 Y86.236 E3.67817
G1 X79.000 Y86.147 E3.70375
G1 X79.565 Y86.236 E3.72933
G1 X80.075 Y86.496 E3.75491
G1 X80.479 Y86.900 E3.78049
G1 X80.739 Y87.410 E3.80607
G1 X80.828 Y87.975 E3.83165
G1 X80.748 Y88.480 E3.85454
G1 X81.006 Y88.837 F6000.000
G1 E1.85454 F1200.00000
G92 E0
G1 X67.444 Y87.975 F6000.000
G1 E2.00000 F1200.00000
G1 F1800.000
G1 X67.316 Y88.781 E2.03650
G1 X66.946 Y89.508 E2.07302
G1 X66.369 Y90.085 E2.10952
G1 X65.641 Y90.456 E2.14603
G1 X64.835 Y90.583 E2.18254
G1 X64.029 Y90.456 E2.21904
G1 X63.302 Y90.085 E2.25555
G1 X62.725 Y89.508 E2.29205
G1 X62.354 Y88.781 E2.32857
G1 X62.227 Y87.975 E2.36507
G1 X62.354 Y87.169 E2.40157
G1 X62.725 Y86.441 E2.43809
G1 X63.302 Y85.864 E2.47459
G1 X64.029 Y85.494 E2.51110
G1 X64.835 Y85.366 E2.54761
G1 X65.641 Y85.494 E2.58411
G1 X66.369 Y85.864 E2.62062
G1 X66.946 Y86.441 E2.65712
G1 X67.316 Y87.169 E2.69364
G1 X67.435 Y87.915 E2.72746
G1 X67.053 Y87.975 F6000.000
G1 F1800.000
G1 X66.945 Y88.660 E2.75850
G1 X66.630 Y89.279 E2.78955
G1 X66.139 Y89.769 E2.82059
G1 X65.521 Y90.084 E2.85163
G1 X64.835 Y90.193 E2.88267
G1 X64.150 Y90.084 E2.91372
G1 X63.531 Y89.769 E2.94476
G1 X63.041 Y89.279 E2.97580
G1 X62.726 Y88.660 E3.00685
G1 X62.617 Y87.975 E3.03789
G1 X62.726 Y87.289 E3.06893
G1 X63.041 Y86.671 E3.09998
G1 X63.531 Y86.180 E3.13102
G1 X64.150 Y85.865 E3.16206
G1 X64.835 Y85.756 E3.19311
G1 X65.521 Y85.865 E3.22415
G1 X66.139 Y86.180 E3.25519
G1 X66.630 Y86.671 E3.28623
G1 X66.945 Y87.289 E3.31728
G1 X67.044 Y87.915 E3.34564
G1 X66.663 Y87.975 F6000.000
G1 F1800.000
G1 X66.574 Y88.539 E3.37122
G1 X66.314 Y89.049 E3.39680
G1 X65.910 Y89.453 E3.42237
G1 X65.400 Y89.713 E3.44795
G1 X64.835 Y89.802 E3.47353
G1 X64.270 Y89.713 E3.49911
G1 X63.761 Y89.453 E3.52469
G1 X63.357 Y89.049 E3.55027
G1 X63.097 Y88.539 E3.57585
G1 X63.007 Y87.975 E3.60143
G1 X63.097 Y87.410 E3.62701
G1 X63.357 Y86.900 E3.65259
G1 X63.761 Y86.496 E3.67817
G1 X64.270 Y86.236 E3.70375
G1 X64.835 Y86.147 E3.72933
G1 X65.400 Y86.236 E3.75491
G1 X65.910 Y86.496 E3.78049
G1 X66.314 Y86.900 E3.80606
G1 X66.574 Y87.410 E3.83165
G1 X66.654 Y87.915 E3.85454
G1 X67.009 Y88.175 F6000.000
G1 E1.85454 F1200.00000
G92 E0
G1 X60.231 Y80.471 F6000.000
G1 E2.00000 F1200.00000
G1 F1800.000
G1 X77.634 Y80.471 E2.77840
G1 X89.482 Y77.951 E3.32021
G1 X85.528 Y97.157 E4.19731
G1 X77.634 Y95.478 E4.55830
G1 X60.231 Y95.478 E5.33670
G1 X60.231 Y80.531 E6.00530
G1 X59.846 Y80.085 F6000.000
G1 F1800.000
G1 X77.593 Y80.085 E6.79914
G1 X89.978 Y77.451 E7.36551
G1 X85.827 Y97.615 E8.28635
G1 X77.593 Y95.864 E8.66289
G1 X59.846 Y95.864 E9.45672
G1 X59.846 Y80.145 E10.15982
G1 X59.460 Y79.700 F6000.000
G1 F1800.000
G1 X77.553 Y79.700 E10.96909
G1 X90.475 Y76.951 E11.56003
G1 X86.126 Y98.073 E12.52461
G1 X77.553 Y96.250 E12.91669
G1 X59.460 Y96.250 E13.72597
G1 X59.460 Y79.760 E14.46356
G1 X59.848 Y79.797 F6000.000
G1 X60.944 Y80.529 F6000.000
G1 F1800.000
G1 X60.290 Y81.184 E14.50507
G1 X60.290 Y81.731 E14.52958
G1 X61.491 Y80.529 E14.60575
G1 X62.038 Y80.529 E14.63027
G1 X60.290 Y82.277 E14.74110
G1 X60.290 Y82.824 E14.76562
G1 X62.584 Y80.529 E14.91112
G1 X63.131 Y80.529 E14.93563
G1 X60.290 Y83.371 E15.11580
G1 X60.290 Y83.917 E15.14031
G1 X63.678 Y80.529 E15.35514
G1 X64.225 Y80.529 E15.37966
G1 X60.290 Y84.464 E15.62915
G1 X60.290 Y85.011 E15.65367
G1 X64.771 Y80.529 E15.93783
G1 X65.318 Y80.529 E15.96234
G1 X60.290 Y85.557 E16.28117
G1 X60.290 Y86.104 E16.30568
G1 X65.865 Y80.529 E16.65917
G1 X66.411 Y80.529 E16.68368
G1 X60.290 Y86.651 E17.07184
G1 X60.290 Y87.197 E17.09635
G1 X66.958 Y80.529 E17.51917
G1 X67.505 Y80.529 E17.54368
G1 X60.290 Y87.744 E18.00117
G1 X60.290 Y88.291 E18.02568
G1 X68.051 Y80.529 E18.51783
G1 X68.598 Y80.529 E18.54235
G1 X63.696 Y85.431 E18.85320
G1 X64.345 Y85.329 E18.88268
G1 X69.145 Y80.529 E19.18701
G1 X69.691 Y80.529 E19.21152
G1 X64.862 Y85.359 E19.51777
G1 X65.334 Y85.434 E19.53919
G1 X70.238 Y80.529 E19.85017
G1 X70.785 Y80.529 E19.87469
G1 X65.719 Y85.595 E20.19588
G1 X66.081 Y85.779 E20.21410
G1 X71.331 Y80.529 E20.54700
G1 X71.878 Y80.529 E20.57151
G1 X66.401 Y86.006 E20.91879
G1 X66.675 Y86.279 E20.93612
G1 X72.425 Y80.529 E21.30073
G1 X72.971 Y80.529 E21.32524
G1 X66.944 Y86.557 E21.70747
G1 X67.128 Y86.919 E21.72569
G1 X73.518 Y80.529 E22.13088
G1 X74.065 Y80.529 E22.15539
G1 X67.313 Y87.281 E22.58354
G1 X67.360 Y87.375 E22.58827
G1 X67.416 Y87.725 E22.60414
G1 X74.611 Y80.529 E23.06041
G1 X75.158 Y80.529 E23.08492
G1 X67.490 Y88.197 E23.57112
G1 X67.507 Y88.302 E23.57590
G1 X67.427 Y88.807 E23.59882
G1 X75.705 Y80.529 E24.12369
G1 X76.251 Y80.529 E24.14821
G1 X67.161 Y89.619 E24.72461
G1 E22.72461 F1200.00000
G92 E0
G1 X62.292 Y86.835 F6000.000
G1 E2.00000 F1200.00000
G1 F1800.000
G1 X60.290 Y88.837 E2.12696
G1 X60.290 Y89.384 E2.15147
G1 X62.189 Y87.485 E2.27191
G1 X62.163 Y87.647 E2.27930
G1 X62.219 Y88.001 E2.29535
G1 X60.290 Y89.931 E2.41771
G1 X60.290 Y90.477 E2.44222
G1 X62.294 Y88.473 E2.56931
G1 X62.310 Y88.574 E2.57390
G1 X62.455 Y88.859 E2.58822
G1 X60.290 Y91.024 E2.72552
G1 X60.290 Y91.571 E2.75003
G1 X62.640 Y89.221 E2.89904
G1 X62.736 Y89.410 E2.90857
G1 X62.867 Y89.541 E2.91683
G1 X60.290 Y92.117 E3.08022
G1 X60.290 Y92.664 E3.10473
G1 X63.140 Y89.814 E3.28545
G1 X63.418 Y90.083 E3.30279
G1 X60.290 Y93.211 E3.50112
G1 X60.290 Y93.757 E3.52563
G1 X63.780 Y90.267 E3.74693
G1 X64.142 Y90.452 E3.76515
G1 X60.290 Y94.304 E4.00941
G1 X60.290 Y94.851 E4.03393
G1 X64.585 Y90.555 E4.30631
G1 X65.057 Y90.630 E4.32773
G1 X60.290 Y95.397 E4.63004
G1 X60.290 Y95.420 E4.63106
G1 X60.814 Y95.420 E4.65455
G1 X65.667 Y90.567 E4.96232
G1 X66.089 Y90.500 E4.98147
G1 X66.480 Y90.301 E5.00113
G1 X61.360 Y95.420 E5.32575
G1 X61.907 Y95.420 E5.35026
G1 X76.798 Y80.529 E6.29450
G1 X77.345 Y80.529 E6.31901
G1 X62.454 Y95.420 E7.26324
G1 X63.000 Y95.420 E7.28775
G1 X77.891 Y80.529 E8.23199
G1 X78.002 Y80.529 E8.23693
G1 X78.556 Y80.411 E8.26234
G1 X63.547 Y95.420 E9.21405
G1 X64.094 Y95.420 E9.23856
G1 X79.250 Y80.264 E10.19963
G1 X79.944 Y80.116 E10.23146
G1 X64.641 Y95.420 E11.20190
G1 X65.187 Y95.420 E11.22641
G1 X80.639 Y79.968 E12.20621
G1 X81.333 Y79.821 E12.23804
G1 X65.734 Y95.420 E13.22720
G1 X66.281 Y95.420 E13.25172
G1 X82.027 Y79.673 E14.25024
G1 X82.722 Y79.525 E14.28207
G1 X66.827 Y95.420 E15.28996
G1 X67.374 Y95.420 E15.31448
G1 X76.893 Y85.901 E15.91808
G1 X76.475 Y86.721 E15.95932
G1 X76.448 Y86.893 E15.96713
G1 X67.921 Y95.420 E16.50786
G1 X68.467 Y95.420 E16.53237
G1 X76.345 Y87.542 E17.03191
G1 X76.328 Y87.647 E17.03669
G1 X76.391 Y88.043 E17.05464
G1 X69.014 Y95.420 E17.52243
G1 X69.561 Y95.420 E17.54694
G1 X76.466 Y88.515 E17.98481
G1 X76.475 Y88.574 E17.98751
G1 X76.636 Y88.891 E18.00344
G1 X70.107 Y95.420 E18.41746
G1 X70.654 Y95.420 E18.44198
G1 X76.821 Y89.253 E18.83304
G1 X76.901 Y89.410 E18.84096
G1 X77.056 Y89.565 E18.85076
G1 X71.201 Y95.420 E19.22204
G1 X71.747 Y95.420 E19.24655
G1 X77.329 Y89.838 E19.60050
G1 X77.565 Y90.074 E19.61544
G1 X77.615 Y90.099 E19.61796
G1 X72.294 Y95.420 E19.95535
G1 X72.841 Y95.420 E19.97987
G1 X77.977 Y90.284 E20.30556
G1 X78.339 Y90.468 E20.32379
G1 X73.387 Y95.420 E20.63778
G1 X73.934 Y95.420 E20.66229
G1 X78.792 Y90.562 E20.97036
G1 X79.264 Y90.636 E20.99179
G1 X74.481 Y95.420 E21.29511
G1 X75.027 Y95.420 E21.31963
G1 X79.890 Y90.557 E21.62797
G1 X80.254 Y90.500 E21.64451
G1 X80.744 Y90.250 E21.66913
G1 X75.574 Y95.420 E21.99695
G1 X76.121 Y95.420 E22.02146
G1 X88.248 Y83.292 E22.79048
G1 X88.107 Y83.981 E22.82200
G1 X76.667 Y95.420 E23.54737
G1 X77.214 Y95.420 E23.57188
G1 X87.965 Y84.669 E24.25360
G1 X87.823 Y85.358 E24.28512
G1 X77.688 Y95.493 E24.92778
G1 X78.139 Y95.588 E24.94845
G1 X87.681 Y86.046 E25.55354
G1 X87.540 Y86.734 E25.58506
G1 X78.590 Y95.684 E26.15258
G1 X79.040 Y95.780 E26.17324
G1 X87.398 Y87.423 E26.70319
G1 X87.256 Y88.111 E26.73471
G1 X79.491 Y95.876 E27.22708
G1 X79.942 Y95.972 E27.24775
G1 X87.114 Y88.800 E27.70255
G1 X86.973 Y89.488 E27.73407
G1 X80.393 Y96.068 E28.15130
G1 X80.844 Y96.164 E28.17196
G1 X86.831 Y90.176 E28.55162
G1 X86.689 Y90.865 E28.58314
G1 X81.294 Y96.260 E28.92522
G1 X81.745 Y96.355 E28.94589
G1 X86.548 Y91.553 E29.25040
G1 X86.406 Y92.242 E29.28192
G1 X82.196 Y96.451 E29.54886
G1 X82.647 Y96.547 E29.56953
G1 X86.264 Y92.930 E29.79889
G1 X86.122 Y93.618 E29.83041
G1 X83.098 Y96.643 E30.02221
G1 X83.548 Y96.739 E30.04287
G1 X85.981 Y94.307 E30.19709
G1 X85.839 Y94.995 E30.22861
G1 X83.999 Y96.835 E30.34526
G1 X84.450 Y96.931 E30.36593
G1 X85.697 Y95.684 E30.44500
G1 X85.555 Y96.372 E30.47652
G1 X84.901 Y97.026 E30.51803
G1 E28.51803 F1200.00000
G92 E0
G1 X81.276 Y89.718 F6000.000
G1 E2.00000 F1200.00000
G1 F1800.000
G1 X88.390 Y82.604 E2.45110
G1 X88.532 Y81.916 E2.48262
G1 X81.583 Y88.864 E2.92324
G1 X81.672 Y88.302 E2.94877
G1 X81.662 Y88.239 E2.95164
G1 X88.673 Y81.227 E3.39624
G1 X88.815 Y80.539 E3.42775
G1 X81.587 Y87.767 E3.88608
G1 X81.525 Y87.375 E3.90385
G1 X81.494 Y87.313 E3.90696
G1 X88.957 Y79.850 E4.38019
G1 X89.099 Y79.162 E4.41170
G1 X81.309 Y86.951 E4.90563
G1 X81.125 Y86.589 E4.92385
G1 X89.240 Y78.474 E5.43846
G1 X89.312 Y78.124 E5.45448
G1 X88.971 Y78.196 E5.47013
G1 X80.864 Y86.303 E5.98421
G1 X80.590 Y86.030 E6.00154
G1 X88.277 Y78.344 E6.48892
G1 X87.582 Y78.492 E6.52075
G1 X80.279 Y85.795 E6.98389
G1 X79.916 Y85.611 E7.00211
G1 X86.888 Y78.639 E7.44418
G1 X86.194 Y78.787 E7.47601
G1 X79.540 Y85.440 E7.89789
G1 X79.068 Y85.365 E7.91931
G1 X85.499 Y78.935 E8.32709
G1 X84.805 Y79.082 E8.35892
G1 X78.568 Y85.319 E8.75441
G1 X77.918 Y85.422 E8.78390
G1 X84.110 Y79.230 E9.17656
G1 X83.416 Y79.378 E9.20839
G1 X76.238 Y86.556 E9.66354
G1 E7.66354 F1200.00000
G92 E0
G1 X76.890 Y64.508 F6000.000
G1 E2.00000 F1200.00000
G1 F1800.000
G1 X76.519 Y63.781 E2.03651
G1 X76.392 Y62.975 E2.07301
G1 X76.519 Y62.169 E2.10952
G1 X76.890 Y61.441 E2.14603
G1 X77.467 Y60.864 E2.18253
G1 X78.194 Y60.494 E2.21904
G1 X79.000 Y60.366 E2.25555
G1 X79.806 Y60.494 E2.29205
G1 X80.534 Y60.864 E2.32857
G1 X81.111 Y61.441 E2.36507
G1 X81.481 Y62.169 E2.40158
G1 X81.609 Y62.975 E2.43808
G1 X81.481 Y63.781 E2.47459
G1 X81.111 Y64.508 E2.51110
G1 X80.534 Y65.085 E2.54760
G1 X79.806 Y65.456 E2.58412
G1 X79.000 Y65.583 E2.62062
G1 X78.194 Y65.456 E2.65712
G1 X77.467 Y65.085 E2.69364
G1 X76.932 Y64.550 E2.72746
G1 X77.206 Y64.278 F6000.000
G1 F1800.000
G1 X76.891 Y63.660 E2.75850
G1 X76.782 Y62.975 E2.78954
G1 X76.891 Y62.289 E2.82059
G1 X77.206 Y61.671 E2.85163
G1 X77.696 Y61.180 E2.88267
G1 X78.315 Y60.865 E2.91372
G1 X79.000 Y60.756 E2.94476
G1 X79.686 Y60.865 E2.97580
G1 X80.304 Y61.180 E3.00685
G1 X80.795 Y61.671 E3.03789
G1 X81.110 Y62.289 E3.06893
G1 X81.218 Y62.975 E3.09998
G1 X81.110 Y63.660 E3.13102
G1 X80.795 Y64.278 E3.16206
G1 X80.304 Y64.769 E3.19310
G1 X79.686 Y65.084 E3.22415
G1 X79.000 Y65.193 E3.25519
G1 X78.315 Y65.084 E3.28623
G1 X77.696 Y64.769 E3.31728
G1 X77.248 Y64.321 E3.34564
G1 X77.522 Y64.049 F6000.000
G1 F1800.000
G1 X77.262 Y63.539 E3.37122
G1 X77.172 Y62.975 E3.39680
G1 X77.262 Y62.410 E3.42238
G1 X77.522 Y61.900 E3.44796
G1 X77.926 Y61.496 E3.47353
G1 X78.435 Y61.236 E3.49912
G1 X79.000 Y61.147 E3.52469
G1 X79.565 Y61.236 E3.55027
G1 X80.075 Y61.496 E3.57585
G1 X80.479 Y61.900 E3.60143
G1 X80.739 Y62.410 E3.62701
G1 X80.828 Y62.975 E3.65259
G1 X80.739 Y63.539 E3.67817
G1 X80.479 Y64.049 E3.70375
G1 X80.075 Y64.453 E3.72933
G1 X79.565 Y64.713 E3.75491
G1 X79.000 Y64.802 E3.78049
G1 X78.435 Y64.713 E3.80606
G1 X77.926 Y64.453 E3.83165
G1 X77.564 Y64.091 E3.85454
G1 X77.124 Y64.091 F6000.000
G1 E1.85454 F1200.00000
G92 E0
G1 X67.444 Y62.975 F6000.000
G1 E2.00000 F1200.00000
G1 F1800.000
G1 X67.316 Y63.781 E2.03651
G1 X66.946 Y64.508 E2.07301
G1 X66.369 Y65.085 E2.10952
G1 X65.641 Y65.456 E2.14603
G1 X64.835 Y65.583 E2.18254
G1 X64.029 Y65.456 E2.21904
G1 X63.302 Y65.085 E2.25555
G1 X62.725 Y64.508 E2.29206
G1 X62.354 Y63.781 E2.32856
G1 X62.227 Y62.975 E2.36507
G1 X62.354 Y62.169 E2.40158
G1 X62.725 Y61.441 E2.43808
G1 X63.302 Y60.864 E2.47459
G1 X64.029 Y60.494 E2.51110
G1 X64.835 Y60.366 E2.54761
G1 X65.641 Y60.494 E2.58411
G1 X66.369 Y60.864 E2.62062
G1 X66.946 Y61.441 E2.65713
G1 X67.316 Y62.169 E2.69363
G1 X67.435 Y62.915 E2.72746
G1 X67.053 Y62.975 F6000.000
G1 F1800.000
G1 X66.945 Y63.660 E2.75850
G1 X66.630 Y64.278 E2.78954
G1 X66.139 Y64.769 E2.82059
G1 X65.521 Y65.084 E2.85163
G1 X64.835 Y65.193 E2.88267
G1 X64.150 Y65.084 E2.91372
