; generated by Slic3r 1.3.1-dev (Build (Unknown revision)) on 2020-07-07 at 10:48:36

; external perimeters extrusion width = 0.44mm (2.86mm^3/s)
; perimeters extrusion width = 0.56mm (4.14mm^3/s)
; infill extrusion width = 0.50mm (5.48mm^3/s)
; solid infill extrusion width = 0.56mm (3.10mm^3/s)
; top infill extrusion width = 0.45mm (2.44mm^3/s)

M107
G92 E0
;D3D:START:START
T0
M104 S215 T0

G21
G90
M107
T0
G28
G29
M109 T0 S215 T0
G0 F3000
M107
T0
G92 E0
G0 X0 Y149 Z0.1 F3600
G1 Y49 E6.5 F1200
G0 Z1
G92 E0
; Filament gcode

G21 ; set units to millimeters
G90 ; use absolute coordinates
M82 ; use absolute distances for extrusion
G92 E0
G1 Z0.200 F6000.000
G1 E-2.00000 F1200.00000
G92 E0
G1 X16.665 Y13.378 F6000.000
G1 E2.00000 F1200.00000
G1 F1800.000
G1 X18.309 Y12.445 E2.03636
G1 X19.666 Y12.236 E2.06279
G1 X130.333 Y12.236 E4.19187
G1 X132.181 Y12.631 E4.22823
G1 X133.706 Y13.749 E4.26458
G1 X134.639 Y15.392 E4.30094
G1 X134.848 Y16.750 E4.32737
G1 X134.848 Y133.250 E6.56867
G1 X134.452 Y135.098 E6.60503
G1 X133.335 Y136.622 E6.64139
G1 X131.691 Y137.555 E6.67774
G1 X130.333 Y137.764 E6.70417
G1 X19.666 Y137.764 E8.83326
G1 X17.819 Y137.369 E8.86961
G1 X16.294 Y136.251 E8.90597
G1 X15.361 Y134.608 E8.94233
G1 X15.152 Y133.250 E8.96876
G1 X15.152 Y16.750 E11.21006
G1 X15.548 Y14.902 E11.24642
G1 X16.630 Y13.426 E11.28162
G1 X16.917 Y13.500 F6000.000
G1 F1800.000
G1 X18.540 Y12.645 E11.31691
G1 X19.666 Y12.493 E11.33878
G1 X130.333 Y12.493 E13.46786
G1 X132.125 Y12.888 E13.50315
G1 X133.584 Y14.001 E13.53845
G1 X134.439 Y15.624 E13.57374
G1 X134.591 Y16.750 E13.59560
G1 X134.591 Y133.250 E15.83691
G1 X134.195 Y135.041 E15.87220
G1 X133.083 Y136.500 E15.90749
G1 X131.460 Y137.355 E15.94279
G1 X130.333 Y137.507 E15.96465
G1 X19.666 Y137.507 E18.09373
G1 X17.875 Y137.112 E18.12903
G1 X16.416 Y135.999 E18.16432
G1 X15.561 Y134.376 E18.19962
G1 X15.409 Y133.250 E18.22148
G1 X15.409 Y16.750 E20.46278
G1 X15.805 Y14.959 E20.49808
G1 X16.881 Y13.547 E20.53222
G1 E18.53222 F1200.00000
G92 E0
G1 X84.933 Y127.000 F6000.000
G1 E2.00000 F1200.00000
G1 F1800.000
G1 X86.966 Y123.478 E2.07824
G1 X89.873 Y123.478 E2.13416
G1 X89.908 Y123.371 E2.13632
G1 X89.549 Y123.111 E2.14484
G1 X89.287 Y122.820 E2.15237
G1 X77.242 Y108.767 E2.50846
G1 X77.019 Y108.382 E2.51702
G1 X76.879 Y107.951 E2.52574
G1 X76.832 Y107.500 E2.53446
G1 X76.879 Y107.049 E2.54318
G1 X77.019 Y106.618 E2.55189
G1 X77.246 Y106.226 E2.56061
G1 X77.549 Y105.889 E2.56933
G1 X77.916 Y105.623 E2.57805
G1 X78.330 Y105.438 E2.58677
G1 X78.773 Y105.344 E2.59549
G1 X103.226 Y105.344 E3.06593
G1 X103.670 Y105.438 E3.07466
G1 X104.084 Y105.623 E3.08337
G1 X104.450 Y105.889 E3.09209
G1 X104.754 Y106.226 E3.10081
G1 X104.980 Y106.618 E3.10953
G1 X105.120 Y107.049 E3.11825
G1 X105.168 Y107.500 E3.12697
G1 X105.120 Y107.951 E3.13569
G1 X104.980 Y108.382 E3.14441
G1 X104.758 Y108.767 E3.15296
G1 X92.450 Y123.111 E3.51658
G1 X92.084 Y123.377 E3.52530
G1 X91.670 Y123.562 E3.53402
G1 X91.146 Y123.673 E3.54432
G1 X93.067 Y127.000 E3.61823
G1 X91.033 Y130.522 E3.69647
G1 X86.966 Y130.522 E3.77471
G1 X84.963 Y127.052 E3.85180
G1 X85.230 Y127.000 F6000.000
G1 F1800.000
G1 X87.115 Y123.735 E3.92433
G1 X90.885 Y123.735 E3.99686
G1 X92.770 Y127.000 E4.06939
G1 X90.885 Y130.265 E4.14192
G1 X87.115 Y130.265 E4.21445
G1 X85.260 Y127.052 E4.28583
G1 X85.527 Y127.000 F6000.000
G1 F1800.000
G1 X87.263 Y123.992 E4.35265
G1 X90.736 Y123.992 E4.41947
G1 X92.473 Y127.000 E4.48629
G1 X90.736 Y130.008 E4.55311
G1 X87.263 Y130.008 E4.61993
G1 X85.557 Y127.052 E4.68560
G1 X85.180 Y126.800 F6000.000
G1 E2.68560 F1200.00000
G92 E0
G1 X89.722 Y122.919 F6000.000
G1 E2.00000 F1200.00000
G1 F1800.000
G1 X77.453 Y108.618 E2.36251
G1 X77.256 Y108.277 E2.37010
G1 X77.132 Y107.897 E2.37778
G1 X77.090 Y107.500 E2.38546
G1 X77.132 Y107.103 E2.39314
G1 X77.256 Y106.723 E2.40081
G1 X77.455 Y106.378 E2.40849
G1 X77.722 Y106.081 E2.41617
G1 X78.045 Y105.847 E2.42385
G1 X78.410 Y105.684 E2.43153
G1 X78.800 Y105.601 E2.43921
G1 X103.199 Y105.601 E2.90862
G1 X103.590 Y105.684 E2.91630
G1 X103.954 Y105.847 E2.92398
G1 X104.277 Y106.081 E2.93165
G1 X104.545 Y106.378 E2.93933
G1 X104.744 Y106.723 E2.94701
G1 X104.867 Y107.103 E2.95469
G1 X104.909 Y107.500 E2.96237
G1 X104.867 Y107.897 E2.97005
G1 X104.744 Y108.277 E2.97773
G1 X104.547 Y108.618 E2.98531
G1 X92.519 Y122.650 E3.34088
G1 X92.277 Y122.919 E3.34783
G1 X91.954 Y123.153 E3.35551
G1 X91.590 Y123.316 E3.36319
G1 X91.199 Y123.399 E3.37087
G1 X90.800 Y123.399 E3.37855
G1 X90.410 Y123.316 E3.38623
G1 X90.045 Y123.153 E3.39391
G1 X89.771 Y122.954 E3.40043
G1 X89.895 Y122.727 F6000.000
G1 F1800.000
G1 X77.663 Y108.469 E3.76185
G1 X77.492 Y108.171 E3.76845
G1 X77.385 Y107.843 E3.77509
G1 X77.349 Y107.500 E3.78173
G1 X77.385 Y107.157 E3.78837
G1 X77.492 Y106.829 E3.79501
G1 X77.664 Y106.530 E3.80165
G1 X77.895 Y106.273 E3.80829
G1 X78.174 Y106.070 E3.81493
G1 X78.490 Y105.930 E3.82157
G1 X78.827 Y105.858 E3.82821
G1 X103.172 Y105.858 E4.29657
G1 X103.510 Y105.930 E4.30321
G1 X103.825 Y106.070 E4.30985
G1 X104.104 Y106.273 E4.31649
G1 X104.335 Y106.530 E4.32313
G1 X104.508 Y106.829 E4.32977
G1 X104.615 Y107.157 E4.33641
G1 X104.651 Y107.500 E4.34305
G1 X104.615 Y107.843 E4.34969
G1 X104.508 Y108.171 E4.35633
G1 X104.336 Y108.469 E4.36293
G1 X92.326 Y122.481 E4.71798
G1 X92.104 Y122.727 E4.72435
G1 X91.825 Y122.930 E4.73099
G1 X91.510 Y123.070 E4.73763
G1 X91.172 Y123.142 E4.74427
G1 X90.827 Y123.142 E4.75091
G1 X90.490 Y123.070 E4.75755
G1 X90.174 Y122.930 E4.76419
G1 X89.944 Y122.762 E4.76967
G1 X89.580 Y122.829 F6000.000
G1 E2.76967 F1200.00000
G92 E0
G1 X79.964 Y104.050 F6000.000
G1 E2.00000 F1200.00000
G1 F1800.000
G1 X79.700 Y104.155 E2.00547
G1 X79.424 Y104.225 E2.01095
G1 X79.142 Y104.261 E2.01642
G1 X78.858 Y104.261 E2.02189
G1 X78.575 Y104.225 E2.02737
G1 X78.300 Y104.155 E2.03284
G1 X78.035 Y104.050 E2.03832
G1 X77.786 Y103.913 E2.04379
G1 X77.556 Y103.746 E2.04926
G1 X77.348 Y103.551 E2.05473
G1 X77.167 Y103.332 E2.06021
G1 X77.015 Y103.091 E2.06568
G1 X76.893 Y102.834 E2.07116
G1 X76.806 Y102.563 E2.07663
G1 X76.752 Y102.284 E2.08210
G1 X76.734 Y102.000 E2.08758
G1 X76.752 Y101.716 E2.09305
G1 X76.806 Y101.437 E2.09852
G1 X76.893 Y101.166 E2.10400
G1 X77.015 Y100.909 E2.10947
G1 X77.167 Y100.668 E2.11494
G1 X77.348 Y100.449 E2.12042
G1 X77.556 Y100.254 E2.12589
G1 X77.786 Y100.087 E2.13136
G1 X78.035 Y99.950 E2.13684
G1 X78.300 Y99.845 E2.14231
G1 X78.575 Y99.775 E2.14778
G1 X78.858 Y99.739 E2.15326
G1 X79.142 Y99.739 E2.15873
G1 X79.424 Y99.775 E2.16420
G1 X79.700 Y99.845 E2.16968
G1 X79.964 Y99.950 E2.17515
G1 X80.214 Y100.087 E2.18063
G1 X80.444 Y100.254 E2.18610
G1 X80.651 Y100.449 E2.19157
G1 X80.833 Y100.668 E2.19705
G1 X80.985 Y100.909 E2.20252
G1 X81.106 Y101.166 E2.20799
G1 X81.194 Y101.437 E2.21347
G1 X81.247 Y101.716 E2.21894
G1 X81.265 Y102.000 E2.22441
G1 X81.247 Y102.284 E2.22988
G1 X81.194 Y102.563 E2.23536
G1 X81.106 Y102.834 E2.24083
G1 X80.985 Y103.091 E2.24630
G1 X80.833 Y103.332 E2.25178
G1 X80.651 Y103.551 E2.25725
G1 X80.444 Y103.746 E2.26273
G1 X80.214 Y103.913 E2.26820
G1 X80.017 Y104.021 E2.27252
G1 X79.855 Y103.817 F6000.000
G1 F1800.000
G1 X79.620 Y103.910 E2.27737
G1 X79.376 Y103.972 E2.28222
G1 X79.126 Y104.004 E2.28707
G1 X78.874 Y104.004 E2.29192
G1 X78.624 Y103.972 E2.29677
G1 X78.379 Y103.910 E2.30162
G1 X78.145 Y103.817 E2.30647
G1 X77.924 Y103.695 E2.31133
G1 X77.720 Y103.547 E2.31618
G1 X77.536 Y103.375 E2.32103
G1 X77.375 Y103.180 E2.32588
G1 X77.240 Y102.967 E2.33073
G1 X77.133 Y102.739 E2.33558
G1 X77.055 Y102.499 E2.34043
G1 X77.008 Y102.252 E2.34528
G1 X76.992 Y102.000 E2.35013
G1 X77.008 Y101.748 E2.35499
G1 X77.055 Y101.501 E2.35984
G1 X77.133 Y101.261 E2.36469
G1 X77.240 Y101.033 E2.36954
G1 X77.375 Y100.820 E2.37439
G1 X77.536 Y100.625 E2.37924
G1 X77.720 Y100.453 E2.38409
G1 X77.924 Y100.305 E2.38894
G1 X78.145 Y100.183 E2.39379
G1 X78.379 Y100.090 E2.39864
G1 X78.624 Y100.028 E2.40350
G1 X78.874 Y99.996 E2.40835
G1 X79.126 Y99.996 E2.41320
G1 X79.376 Y100.028 E2.41805
G1 X79.620 Y100.090 E2.42290
G1 X79.855 Y100.183 E2.42775
G1 X80.076 Y100.305 E2.43260
G1 X80.280 Y100.453 E2.43745
G1 X80.463 Y100.625 E2.44230
G1 X80.624 Y100.820 E2.44716
G1 X80.759 Y101.033 E2.45201
G1 X80.867 Y101.261 E2.45686
G1 X80.945 Y101.501 E2.46171
G1 X80.992 Y101.748 E2.46656
G1 X81.008 Y102.000 E2.47141
G1 X80.992 Y102.252 E2.47626
G1 X80.945 Y102.499 E2.48111
G1 X80.867 Y102.739 E2.48597
G1 X80.759 Y102.967 E2.49081
G1 X80.624 Y103.180 E2.49567
G1 X80.463 Y103.375 E2.50052
G1 X80.280 Y103.547 E2.50537
G1 X80.076 Y103.695 E2.51022
G1 X79.907 Y103.788 E2.51392
G1 X79.745 Y103.584 F6000.000
G1 F1800.000
G1 X79.541 Y103.665 E2.51814
G1 X79.328 Y103.719 E2.52237
G1 X79.110 Y103.747 E2.52660
G1 X78.890 Y103.747 E2.53083
G1 X78.672 Y103.719 E2.53506
G1 X78.459 Y103.665 E2.53929
G1 X78.255 Y103.584 E2.54352
G1 X78.062 Y103.478 E2.54775
G1 X77.884 Y103.349 E2.55197
G1 X77.724 Y103.198 E2.55620
G1 X77.584 Y103.029 E2.56043
G1 X77.466 Y102.843 E2.56466
G1 X77.372 Y102.644 E2.56889
G1 X77.305 Y102.435 E2.57312
G1 X77.263 Y102.219 E2.57735
G1 X77.250 Y102.000 E2.58158
G1 X77.263 Y101.781 E2.58580
G1 X77.305 Y101.565 E2.59003
G1 X77.372 Y101.356 E2.59426
G1 X77.466 Y101.157 E2.59849
G1 X77.584 Y100.971 E2.60272
G1 X77.724 Y100.802 E2.60695
G1 X77.884 Y100.651 E2.61118
G1 X78.062 Y100.522 E2.61541
G1 X78.255 Y100.416 E2.61963
G1 X78.459 Y100.335 E2.62386
G1 X78.672 Y100.281 E2.62809
G1 X78.890 Y100.253 E2.63232
G1 X79.110 Y100.253 E2.63655
G1 X79.328 Y100.281 E2.64078
G1 X79.541 Y100.335 E2.64501
G1 X79.745 Y100.416 E2.64924
G1 X79.938 Y100.522 E2.65347
G1 X80.115 Y100.651 E2.65769
G1 X80.276 Y100.802 E2.66192
G1 X80.416 Y100.971 E2.66615
G1 X80.534 Y101.157 E2.67038
G1 X80.627 Y101.356 E2.67461
G1 X80.695 Y101.565 E2.67884
G1 X80.736 Y101.781 E2.68307
G1 X80.750 Y102.000 E2.68729
G1 X80.736 Y102.219 E2.69152
G1 X80.695 Y102.435 E2.69575
G1 X80.627 Y102.644 E2.69998
G1 X80.534 Y102.843 E2.70421
G1 X80.416 Y103.029 E2.70844
G1 X80.276 Y103.198 E2.71267
G1 X80.115 Y103.349 E2.71690
G1 X79.798 Y103.555 E2.72418
G1 X79.727 Y103.803 F6000.000
G1 E0.72418 F1200.00000
G92 E0
G1 X71.247 Y102.284 F6000.000
G1 E2.00000 F1200.00000
G1 F1800.000
G1 X71.194 Y102.563 E2.00547
G1 X71.106 Y102.834 E2.01095
G1 X70.985 Y103.091 E2.01642
G1 X70.833 Y103.332 E2.02190
G1 X70.651 Y103.551 E2.02737
G1 X70.444 Y103.746 E2.03284
G1 X70.214 Y103.913 E2.03831
G1 X69.964 Y104.050 E2.04379
G1 X69.700 Y104.155 E2.04926
G1 X69.424 Y104.225 E2.05474
G1 X69.142 Y104.261 E2.06021
G1 X68.858 Y104.261 E2.06568
G1 X68.575 Y104.225 E2.07116
G1 X68.300 Y104.155 E2.07663
G1 X68.035 Y104.050 E2.08210
G1 X67.786 Y103.913 E2.08758
G1 X67.556 Y103.746 E2.09305
G1 X67.348 Y103.551 E2.09852
G1 X67.167 Y103.332 E2.10400
G1 X67.015 Y103.091 E2.10947
G1 X66.893 Y102.834 E2.11495
G1 X66.806 Y102.563 E2.12042
G1 X66.752 Y102.284 E2.12589
G1 X66.734 Y102.000 E2.13136
G1 X66.752 Y101.716 E2.13684
G1 X66.806 Y101.437 E2.14231
G1 X66.893 Y101.166 E2.14778
G1 X67.015 Y100.909 E2.15326
G1 X67.167 Y100.668 E2.15873
G1 X67.348 Y100.449 E2.16421
G1 X67.556 Y100.254 E2.16968
G1 X67.786 Y100.087 E2.17515
G1 X68.035 Y99.950 E2.18062
G1 X68.300 Y99.845 E2.18610
G1 X68.575 Y99.775 E2.19157
G1 X68.858 Y99.739 E2.19705
G1 X69.142 Y99.739 E2.20252
G1 X69.424 Y99.775 E2.20799
G1 X69.700 Y99.845 E2.21347
G1 X69.964 Y99.950 E2.21894
G1 X70.214 Y100.087 E2.22441
G1 X70.444 Y100.254 E2.22989
G1 X70.651 Y100.449 E2.23536
G1 X70.833 Y100.668 E2.24083
G1 X70.985 Y100.909 E2.24631
G1 X71.106 Y101.166 E2.25178
G1 X71.194 Y101.437 E2.25725
G1 X71.247 Y101.716 E2.26273
G1 X71.265 Y102.000 E2.26820
G1 X71.251 Y102.224 E2.27252
G1 X70.992 Y102.252 F6000.000
G1 F1800.000
G1 X70.945 Y102.499 E2.27737
G1 X70.867 Y102.739 E2.28222
G1 X70.759 Y102.967 E2.28707
G1 X70.624 Y103.180 E2.29192
G1 X70.463 Y103.375 E2.29678
G1 X70.280 Y103.547 E2.30162
G1 X70.076 Y103.695 E2.30647
G1 X69.855 Y103.817 E2.31133
G1 X69.620 Y103.910 E2.31618
G1 X69.376 Y103.972 E2.32103
G1 X69.126 Y104.004 E2.32588
G1 X68.874 Y104.004 E2.33073
G1 X68.624 Y103.972 E2.33558
G1 X68.379 Y103.910 E2.34043
G1 X68.145 Y103.817 E2.34528
G1 X67.924 Y103.695 E2.35014
G1 X67.720 Y103.547 E2.35499
G1 X67.536 Y103.375 E2.35983
G1 X67.375 Y103.180 E2.36469
G1 X67.240 Y102.967 E2.36954
G1 X67.133 Y102.739 E2.37439
G1 X67.055 Y102.499 E2.37924
G1 X67.008 Y102.252 E2.38409
G1 X66.992 Y102.000 E2.38894
G1 X67.008 Y101.748 E2.39379
G1 X67.055 Y101.501 E2.39865
G1 X67.133 Y101.261 E2.40350
G1 X67.240 Y101.033 E2.40835
G1 X67.375 Y100.820 E2.41320
G1 X67.536 Y100.625 E2.41805
G1 X67.720 Y100.453 E2.42290
G1 X67.924 Y100.305 E2.42775
G1 X68.145 Y100.183 E2.43260
G1 X68.379 Y100.090 E2.43745
G1 X68.624 Y100.028 E2.44231
G1 X68.874 Y99.996 E2.44716
G1 X69.126 Y99.996 E2.45201
G1 X69.376 Y100.028 E2.45686
G1 X69.620 Y100.090 E2.46171
G1 X69.855 Y100.183 E2.46656
G1 X70.076 Y100.305 E2.47141
G1 X70.280 Y100.453 E2.47626
G1 X70.463 Y100.625 E2.48111
G1 X70.624 Y100.820 E2.48597
G1 X70.759 Y101.033 E2.49082
G1 X70.867 Y101.261 E2.49567
G1 X70.945 Y101.501 E2.50052
G1 X70.992 Y101.748 E2.50537
G1 X71.008 Y102.000 E2.51022
G1 X70.996 Y102.192 E2.51392
G1 X70.736 Y102.219 F6000.000
G1 F1800.000
G1 X70.695 Y102.435 E2.51814
G1 X70.627 Y102.644 E2.52237
G1 X70.534 Y102.843 E2.52660
G1 X70.416 Y103.029 E2.53083
G1 X70.276 Y103.198 E2.53506
G1 X70.115 Y103.349 E2.53929
G1 X69.938 Y103.478 E2.54352
G1 X69.745 Y103.584 E2.54775
G1 X69.541 Y103.665 E2.55197
G1 X69.328 Y103.719 E2.55621
G1 X69.110 Y103.747 E2.56043
G1 X68.890 Y103.747 E2.56466
G1 X68.672 Y103.719 E2.56889
G1 X68.459 Y103.665 E2.57312
G1 X68.255 Y103.584 E2.57735
G1 X68.062 Y103.478 E2.58158
G1 X67.884 Y103.349 E2.58580
G1 X67.724 Y103.198 E2.59003
G1 X67.584 Y103.029 E2.59426
G1 X67.466 Y102.843 E2.59849
G1 X67.372 Y102.644 E2.60272
G1 X67.305 Y102.435 E2.60695
G1 X67.263 Y102.219 E2.61118
G1 X67.250 Y102.000 E2.61541
G1 X67.263 Y101.781 E2.61963
G1 X67.305 Y101.565 E2.62386
G1 X67.372 Y101.356 E2.62809
G1 X67.466 Y101.157 E2.63232
G1 X67.584 Y100.971 E2.63655
G1 X67.724 Y100.802 E2.64078
G1 X67.884 Y100.651 E2.64501
G1 X68.062 Y100.522 E2.64924
G1 X68.255 Y100.416 E2.65346
G1 X68.459 Y100.335 E2.65769
G1 X68.672 Y100.281 E2.66192
G1 X68.890 Y100.253 E2.66615
G1 X69.110 Y100.253 E2.67038
G1 X69.328 Y100.281 E2.67461
G1 X69.541 Y100.335 E2.67884
G1 X69.745 Y100.416 E2.68307
G1 X69.938 Y100.522 E2.68730
G1 X70.115 Y100.651 E2.69152
G1 X70.276 Y100.802 E2.69575
G1 X70.416 Y100.971 E2.69998
G1 X70.534 Y101.157 E2.70421
G1 X70.627 Y101.356 E2.70844
G1 X70.695 Y101.565 E2.71267
G1 X70.736 Y101.781 E2.71690
G1 X70.740 Y102.159 E2.72418
G1 X70.911 Y102.352 F6000.000
G1 E0.72418 F1200.00000
G92 E0
G1 X70.226 Y105.344 F6000.000
G1 E2.00000 F1200.00000
G1 F1800.000
G1 X70.670 Y105.438 E2.00872
G1 X71.084 Y105.623 E2.01744
G1 X71.457 Y105.894 E2.02631
G1 X83.758 Y120.233 E2.38978
G1 X83.980 Y120.618 E2.39834
G1 X84.120 Y121.049 E2.40705
G1 X84.168 Y121.500 E2.41577
G1 X84.120 Y121.951 E2.42449
G1 X83.980 Y122.382 E2.43321
G1 X83.754 Y122.774 E2.44193
G1 X83.450 Y123.111 E2.45065
G1 X83.084 Y123.377 E2.45937
G1 X82.670 Y123.562 E2.46809
G1 X82.226 Y123.656 E2.47681
G1 X57.773 Y123.656 E2.94725
G1 X57.330 Y123.562 E2.95597
G1 X56.916 Y123.377 E2.96469
G1 X56.549 Y123.111 E2.97341
G1 X56.246 Y122.774 E2.98213
G1 X56.019 Y122.382 E2.99085
G1 X55.879 Y121.951 E2.99957
G1 X55.832 Y121.500 E3.00829
G1 X55.879 Y121.049 E3.01701
G1 X56.019 Y120.618 E3.02572
G1 X56.242 Y120.233 E3.03429
G1 X68.549 Y105.889 E3.39790
G1 X68.916 Y105.623 E3.40662
G1 X69.330 Y105.438 E3.41534
G1 X69.773 Y105.344 E3.42406
G1 X70.166 Y105.344 E3.43162
G1 X70.199 Y105.601 F6000.000
G1 F1800.000
G1 X70.590 Y105.684 E3.43930
G1 X70.954 Y105.847 E3.44698
G1 X71.281 Y106.084 E3.45475
G1 X83.547 Y120.382 E3.81718
G1 X83.744 Y120.723 E3.82476
G1 X83.867 Y121.103 E3.83244
G1 X83.909 Y121.500 E3.84012
G1 X83.867 Y121.897 E3.84780
G1 X83.744 Y122.277 E3.85548
G1 X83.545 Y122.622 E3.86315
G1 X83.277 Y122.919 E3.87084
G1 X82.954 Y123.153 E3.87851
