; generated by Slic3r 1.3.1-dev (Build (Unknown revision)) on 2020-06-30 at 09:50:11

; external perimeters extrusion width = 0.44mm (2.86mm^3/s)
; perimeters extrusion width = 0.56mm (4.14mm^3/s)
; infill extrusion width = 0.50mm (5.48mm^3/s)
; solid infill extrusion width = 0.56mm (3.10mm^3/s)
; top infill extrusion width = 0.45mm (2.44mm^3/s)

M107
G92 E0
;D3D:START:START
T0
M104 S215 T0

G21
G90
M107
T0
G28
G29
M109 T0 S215 T0
G0 F3000
M107
T0
G92 E0
G0 X0 Y149 Z0.1 F3600
G1 Y49 E6.5 F1200
G0 Z1
G92 E0
; Filament gcode

G21 ; set units to millimeters
G90 ; use absolute coordinates
M82 ; use absolute distances for extrusion
G92 E0
G1 Z0.200 F6000.000
G1 E-2.00000 F1200.00000
G92 E0
G1 X57.599 Y57.128 F6000.000
G1 E2.00000 F1200.00000
G1 F1800.000
G1 X59.242 Y56.195 E2.03636
G1 X60.600 Y55.986 E2.06279
G1 X86.739 Y55.986 E2.56566
G1 X88.586 Y56.381 E2.60201
G1 X90.111 Y57.499 E2.63837
G1 X91.174 Y59.660 E2.68472
G1 X93.797 Y73.520 E2.95610
G1 X93.835 Y73.737 E2.96034
G1 X93.900 Y74.500 E2.97506
G1 X93.900 Y89.500 E3.26364
G1 X93.505 Y91.348 E3.30000
G1 X92.387 Y92.872 E3.33636
G1 X90.744 Y93.805 E3.37271
G1 X89.386 Y94.014 E3.39914
G1 X60.600 Y94.014 E3.95295
G1 X58.752 Y93.619 E3.98930
G1 X57.228 Y92.501 E4.02566
G1 X56.295 Y90.858 E4.06202
G1 X56.086 Y89.500 E4.08845
G1 X56.086 Y60.500 E4.64637
G1 X56.481 Y58.652 E4.68273
G1 X57.563 Y57.176 E4.71793
G1 X57.851 Y57.250 F6000.000
G1 F1800.000
G1 X59.474 Y56.395 E4.75322
G1 X60.600 Y56.243 E4.77509
G1 X86.739 Y56.243 E5.27795
G1 X88.530 Y56.638 E5.31325
G1 X89.989 Y57.751 E5.34854
G1 X90.921 Y59.708 E5.39026
G1 X93.545 Y73.568 E5.66164
G1 X93.582 Y73.781 E5.66579
G1 X93.643 Y74.500 E5.67968
G1 X93.643 Y89.500 E5.96826
G1 X93.248 Y91.291 E6.00355
G1 X92.135 Y92.750 E6.03885
G1 X90.512 Y93.605 E6.07414
G1 X89.386 Y93.757 E6.09601
G1 X60.600 Y93.757 E6.64981
G1 X58.809 Y93.362 E6.68510
G1 X57.350 Y92.249 E6.72040
G1 X56.495 Y90.626 E6.75569
G1 X56.343 Y89.500 E6.77755
G1 X56.343 Y60.500 E7.33548
G1 X56.738 Y58.709 E7.37077
G1 X57.814 Y57.297 E7.40491
G1 E5.40491 F1200.00000
G92 E0
G1 X82.203 Y83.836 F6000.000
G1 E2.00000 F1200.00000
G1 F1800.000
G1 X81.701 Y84.338 E2.01368
G1 X81.067 Y84.661 E2.02736
G1 X80.365 Y84.772 E2.04103
G1 X79.663 Y84.661 E2.05471
G1 X79.029 Y84.338 E2.06839
G1 X78.527 Y83.836 E2.08207
G1 X78.204 Y83.202 E2.09575
G1 X78.093 Y82.500 E2.10943
G1 X78.204 Y81.798 E2.12310
G1 X78.527 Y81.164 E2.13678
G1 X79.029 Y80.662 E2.15046
G1 X79.663 Y80.339 E2.16414
G1 X80.365 Y80.228 E2.17782
G1 X81.067 Y80.339 E2.19149
G1 X81.701 Y80.662 E2.20517
G1 X82.203 Y81.164 E2.21885
G1 X82.526 Y81.798 E2.23253
G1 X82.637 Y82.500 E2.24621
G1 X82.526 Y83.202 E2.25989
G1 X82.231 Y83.782 E2.27241
G1 X81.993 Y83.683 F6000.000
G1 F1800.000
G1 X81.548 Y84.128 E2.28452
G1 X80.987 Y84.414 E2.29663
G1 X80.365 Y84.512 E2.30874
G1 X79.743 Y84.414 E2.32085
G1 X79.182 Y84.128 E2.33297
G1 X78.737 Y83.683 E2.34508
G1 X78.451 Y83.122 E2.35719
G1 X78.353 Y82.500 E2.36930
G1 X78.451 Y81.878 E2.38141
G1 X78.737 Y81.317 E2.39352
G1 X79.182 Y80.872 E2.40564
G1 X79.743 Y80.586 E2.41775
G1 X80.365 Y80.488 E2.42986
G1 X80.987 Y80.586 E2.44197
G1 X81.548 Y80.872 E2.45408
G1 X81.993 Y81.317 E2.46619
G1 X82.279 Y81.878 E2.47830
G1 X82.377 Y82.500 E2.49042
G1 X82.279 Y83.122 E2.50253
G1 X82.020 Y83.629 E2.51349
G1 X81.782 Y83.530 F6000.000
G1 F1800.000
G1 X81.395 Y83.917 E2.52403
G1 X80.906 Y84.166 E2.53458
G1 X80.365 Y84.252 E2.54512
G1 X79.824 Y84.166 E2.55566
G1 X79.335 Y83.917 E2.56621
G1 X78.948 Y83.530 E2.57675
G1 X78.699 Y83.041 E2.58730
G1 X78.613 Y82.500 E2.59784
G1 X78.699 Y81.959 E2.60839
G1 X78.948 Y81.470 E2.61893
G1 X79.335 Y81.083 E2.62948
G1 X79.824 Y80.834 E2.64002
G1 X80.365 Y80.748 E2.65057
G1 X80.906 Y80.834 E2.66111
G1 X81.395 Y81.083 E2.67166
G1 X81.782 Y81.470 E2.68220
G1 X82.031 Y81.959 E2.69275
G1 X82.117 Y82.500 E2.70329
G1 X82.031 Y83.041 E2.71384
G1 X81.810 Y83.476 E2.72323
G1 X81.945 Y83.895 F6000.000
G1 E0.72323 F1200.00000
G92 E0
G1 X68.472 Y82.500 F6000.000
G1 E2.00000 F1200.00000
G1 F1800.000
G1 X68.361 Y83.202 E2.01368
G1 X68.038 Y83.836 E2.02736
G1 X67.536 Y84.338 E2.04103
G1 X66.902 Y84.661 E2.05471
G1 X66.200 Y84.772 E2.06839
G1 X65.498 Y84.661 E2.08207
G1 X64.864 Y84.338 E2.09575
G1 X64.362 Y83.836 E2.10943
G1 X64.039 Y83.202 E2.12310
G1 X63.928 Y82.500 E2.13678
G1 X64.039 Y81.798 E2.15046
G1 X64.362 Y81.164 E2.16414
G1 X64.864 Y80.662 E2.17782
G1 X65.498 Y80.339 E2.19149
G1 X66.200 Y80.228 E2.20517
G1 X66.902 Y80.339 E2.21885
G1 X67.536 Y80.662 E2.23253
G1 X68.038 Y81.164 E2.24621
G1 X68.361 Y81.798 E2.25989
G1 X68.463 Y82.441 E2.27241
G1 X68.212 Y82.500 F6000.000
G1 F1800.000
G1 X68.114 Y83.122 E2.28452
G1 X67.828 Y83.683 E2.29663
G1 X67.383 Y84.128 E2.30874
G1 X66.822 Y84.414 E2.32086
G1 X66.200 Y84.512 E2.33297
G1 X65.578 Y84.414 E2.34508
G1 X65.017 Y84.128 E2.35719
G1 X64.572 Y83.683 E2.36930
G1 X64.286 Y83.122 E2.38141
G1 X64.188 Y82.500 E2.39352
G1 X64.286 Y81.878 E2.40564
G1 X64.572 Y81.317 E2.41775
G1 X65.017 Y80.872 E2.42986
G1 X65.578 Y80.586 E2.44197
G1 X66.200 Y80.488 E2.45408
G1 X66.822 Y80.586 E2.46619
G1 X67.383 Y80.872 E2.47831
G1 X67.828 Y81.317 E2.49042
G1 X68.114 Y81.878 E2.50253
G1 X68.203 Y82.441 E2.51349
G1 X67.952 Y82.500 F6000.000
G1 F1800.000
G1 X67.866 Y83.041 E2.52403
G1 X67.617 Y83.530 E2.53458
G1 X67.230 Y83.917 E2.54512
G1 X66.741 Y84.166 E2.55566
G1 X66.200 Y84.252 E2.56621
G1 X65.659 Y84.166 E2.57675
G1 X65.170 Y83.917 E2.58730
G1 X64.783 Y83.530 E2.59784
G1 X64.534 Y83.041 E2.60839
G1 X64.448 Y82.500 E2.61893
G1 X64.534 Y81.959 E2.62948
G1 X64.783 Y81.470 E2.64002
G1 X65.170 Y81.083 E2.65057
G1 X65.659 Y80.834 E2.66111
G1 X66.200 Y80.748 E2.67166
G1 X66.741 Y80.834 E2.68220
G1 X67.230 Y81.083 E2.69275
G1 X67.617 Y81.470 E2.70329
G1 X67.866 Y81.959 E2.71384
G1 X67.942 Y82.441 E2.72323
G1 X68.298 Y82.700 F6000.000
G1 E0.72323 F1200.00000
G92 E0
G1 X61.264 Y76.164 F6000.000
G1 E2.00000 F1200.00000
G1 F1800.000
G1 X86.188 Y76.164 E2.47951
G1 X88.587 Y88.836 E2.72762
G1 X61.264 Y88.836 E3.25327
G1 X61.264 Y76.224 E3.49590
G1 X61.007 Y75.907 F6000.000
G1 F1800.000
G1 X86.401 Y75.907 E3.98445
G1 X88.897 Y89.093 E4.24263
G1 X61.007 Y89.093 E4.77920
G1 X61.007 Y75.967 E5.03172
G1 X60.750 Y75.650 F6000.000
G1 F1800.000
G1 X86.614 Y75.650 E5.52932
G1 X89.207 Y89.350 E5.79757
G1 X60.750 Y89.350 E6.34505
G1 X60.750 Y75.710 E6.60746
G1 X61.146 Y75.710 F6000.000
G1 X61.412 Y76.530 F6000.000
G1 F1800.000
G1 X61.630 Y76.312 E6.61340
G1 X61.994 Y76.312 E6.62040
G1 X61.412 Y76.894 E6.63624
G1 X61.412 Y77.258 E6.64323
G1 X62.358 Y76.312 E6.66897
G1 X62.721 Y76.312 E6.67597
G1 X61.412 Y77.621 E6.71160
G1 X61.412 Y77.985 E6.71860
G1 X63.085 Y76.312 E6.76413
G1 X63.449 Y76.312 E6.77113
G1 X61.412 Y78.349 E6.82656
G1 X61.412 Y78.712 E6.83355
G1 X63.812 Y76.312 E6.89888
G1 X64.176 Y76.312 E6.90588
G1 X61.412 Y79.076 E6.98110
G1 X61.412 Y79.440 E6.98810
G1 X64.540 Y76.312 E7.07322
G1 X64.903 Y76.312 E7.08022
G1 X61.412 Y79.803 E7.17523
G1 X61.412 Y80.167 E7.18223
G1 X65.267 Y76.312 E7.28715
G1 X65.631 Y76.312 E7.29414
G1 X61.412 Y80.531 E7.40896
G1 X61.412 Y80.894 E7.41595
G1 X65.994 Y76.312 E7.54066
G1 X66.358 Y76.312 E7.54766
G1 X61.412 Y81.258 E7.68227
G1 X61.412 Y81.622 E7.68927
G1 X66.722 Y76.312 E7.83377
G1 X67.085 Y76.312 E7.84077
G1 X61.412 Y81.985 E7.99517
G1 X61.412 Y82.349 E8.00217
G1 X67.449 Y76.312 E8.16647
G1 X67.813 Y76.312 E8.17347
G1 X61.412 Y82.713 E8.34766
G1 X61.412 Y83.076 E8.35466
G1 X68.176 Y76.312 E8.53875
G1 X68.540 Y76.312 E8.54575
G1 X61.412 Y83.440 E8.73974
G1 X61.412 Y83.804 E8.74674
G1 X64.204 Y81.012 E8.82273
G1 X63.900 Y81.608 E8.83562
G1 X63.887 Y81.693 E8.83726
G1 X61.412 Y84.167 E8.90461
G1 X61.412 Y84.531 E8.91161
G1 X63.819 Y82.125 E8.97710
G1 X63.776 Y82.391 E8.98229
G1 X63.795 Y82.512 E8.98464
G1 X61.412 Y84.895 E9.04950
G1 X61.412 Y85.258 E9.05650
G1 X63.845 Y82.825 E9.12272
G1 X63.895 Y83.139 E9.12883
G1 X61.412 Y85.622 E9.19640
G1 X61.412 Y85.986 E9.20340
G1 X64.010 Y83.388 E9.27409
G1 X64.132 Y83.629 E9.27930
G1 X61.412 Y86.349 E9.35333
G1 X61.412 Y86.713 E9.36033
G1 X64.255 Y83.870 E9.43770
G1 X64.435 Y84.054 E9.44265
G1 X61.412 Y87.077 E9.52491
G1 X61.412 Y87.441 E9.53191
G1 X64.617 Y84.236 E9.61912
G1 X64.798 Y84.418 E9.62407
G1 X61.412 Y87.804 E9.71623
G1 X61.412 Y88.168 E9.72323
G1 X65.032 Y84.548 E9.82175
G1 X65.273 Y84.671 E9.82695
G1 X61.412 Y88.532 E9.93203
G1 X61.412 Y88.688 E9.93503
G1 X61.619 Y88.688 E9.93902
G1 X65.514 Y84.793 E10.04501
G1 X65.824 Y84.847 E10.05107
G1 X61.983 Y88.688 E10.15561
G1 X62.347 Y88.688 E10.16261
G1 X66.138 Y84.897 E10.26579
G1 X66.309 Y84.924 E10.26912
G1 X66.506 Y84.892 E10.27295
G1 X62.710 Y88.688 E10.37625
G1 X63.074 Y88.688 E10.38324
G1 X66.938 Y84.824 E10.48840
G1 X67.092 Y84.800 E10.49139
G1 X67.569 Y84.556 E10.50171
G1 X63.438 Y88.688 E10.61415
G1 X63.801 Y88.688 E10.62115
G1 X76.177 Y76.312 E10.95796
G1 X76.541 Y76.312 E10.96496
G1 X64.165 Y88.688 E11.30177
G1 X64.529 Y88.688 E11.30877
G1 X76.905 Y76.312 E11.64558
G1 X77.268 Y76.312 E11.65257
G1 X64.892 Y88.688 E11.98938
G1 X65.256 Y88.688 E11.99638
G1 X77.632 Y76.312 E12.33319
G1 X77.996 Y76.312 E12.34019
G1 X65.620 Y88.688 E12.67700
G1 X65.984 Y88.688 E12.68399
G1 X78.359 Y76.312 E13.02080
G1 X78.723 Y76.312 E13.02780
G1 X66.347 Y88.688 E13.36461
G1 X66.711 Y88.688 E13.37161
G1 X79.087 Y76.312 E13.70842
G1 X79.450 Y76.312 E13.71542
G1 X67.075 Y88.688 E14.05222
G1 X67.438 Y88.688 E14.05922
G1 X79.814 Y76.312 E14.39603
G1 X80.178 Y76.312 E14.40303
G1 X67.802 Y88.688 E14.73984
G1 X68.166 Y88.688 E14.74684
G1 X80.541 Y76.312 E15.08365
G1 X80.905 Y76.312 E15.09064
G1 X68.529 Y88.688 E15.42745
G1 X68.893 Y88.688 E15.43445
G1 X81.269 Y76.312 E15.77126
G1 X81.632 Y76.312 E15.77826
G1 X69.257 Y88.688 E16.11507
G1 X69.620 Y88.688 E16.12207
G1 X81.996 Y76.312 E16.45887
G1 X82.360 Y76.312 E16.46587
G1 X69.984 Y88.688 E16.80268
G1 X70.348 Y88.688 E16.80968
G1 X82.723 Y76.312 E17.14649
G1 X83.087 Y76.312 E17.15349
G1 X78.914 Y80.485 E17.26707
G1 X79.473 Y80.200 E17.27915
G1 X79.579 Y80.184 E17.28122
G1 X83.451 Y76.312 E17.38658
G1 X83.814 Y76.312 E17.39358
G1 X80.011 Y80.115 E17.49708
G1 X80.256 Y80.076 E17.50184
G1 X80.392 Y80.098 E17.50450
G1 X84.178 Y76.312 E17.60753
G1 X84.542 Y76.312 E17.61453
G1 X80.706 Y80.148 E17.71891
G1 X81.020 Y80.197 E17.72503
G1 X84.905 Y76.312 E17.83077
G1 X85.269 Y76.312 E17.83776
G1 X81.265 Y80.316 E17.94673
G1 X81.506 Y80.439 E17.95193
G1 X85.633 Y76.312 E18.06423
G1 X85.996 Y76.312 E18.07123
G1 X81.747 Y80.562 E18.18689
G1 X81.928 Y80.744 E18.19184
G1 X86.128 Y76.544 E18.30614
G1 X86.186 Y76.850 E18.31213
G1 X82.110 Y80.926 E18.42306
G1 X82.292 Y81.107 E18.42801
G1 X86.244 Y77.155 E18.53556
G1 X86.302 Y77.461 E18.54155
G1 X82.419 Y81.344 E18.64723
G1 X82.542 Y81.585 E18.65243
G1 X86.360 Y77.767 E18.75634
G1 X86.418 Y78.073 E18.76233
G1 X82.664 Y81.826 E18.86447
G1 X82.714 Y82.140 E18.87059
G1 X86.476 Y78.379 E18.97295
G1 X86.533 Y78.684 E18.97894
G1 X82.764 Y82.454 E19.08152
G1 X82.789 Y82.609 E19.08455
G1 X82.754 Y82.827 E19.08880
G1 X86.591 Y78.990 E19.19323
G1 X86.649 Y79.296 E19.19922
G1 X82.686 Y83.259 E19.30709
G1 X82.665 Y83.392 E19.30967
G1 X82.402 Y83.906 E19.32078
G1 X86.707 Y79.602 E19.43793
G1 X86.765 Y79.908 E19.44392
G1 X77.985 Y88.688 E19.68288
G1 X78.348 Y88.688 E19.68988
G1 X86.823 Y80.213 E19.92052
G1 X86.881 Y80.519 E19.92651
G1 X78.712 Y88.688 E20.14882
G1 X79.076 Y88.688 E20.15582
G1 X86.939 Y80.825 E20.36981
G1 X86.996 Y81.131 E20.37580
G1 X79.439 Y88.688 E20.58147
G1 X79.803 Y88.688 E20.58847
G1 X87.054 Y81.436 E20.78582
G1 X87.112 Y81.742 E20.79181
G1 X80.167 Y88.688 E20.98084
G1 X80.530 Y88.688 E20.98783
G1 X87.170 Y82.048 E21.16854
G1 X87.228 Y82.354 E21.17453
G1 X80.894 Y88.688 E21.34691
G1 X81.258 Y88.688 E21.35391
G1 X87.286 Y82.660 E21.51797
G1 X87.344 Y82.965 E21.52396
G1 X81.621 Y88.688 E21.67970
G1 X81.985 Y88.688 E21.68669
G1 X87.402 Y83.271 E21.83411
G1 X87.459 Y83.577 E21.84010
G1 X82.349 Y88.688 E21.97919
G1 X82.712 Y88.688 E21.98619
G1 X87.517 Y83.883 E22.11696
G1 X87.575 Y84.189 E22.12295
G1 X83.076 Y88.688 E22.24540
G1 X83.440 Y88.688 E22.25240
G1 X87.633 Y84.494 E22.36653
G1 X87.691 Y84.800 E22.37252
G1 X83.803 Y88.688 E22.47832
G1 X84.167 Y88.688 E22.48532
G1 X87.749 Y85.106 E22.58280
G1 X87.807 Y85.412 E22.58879
G1 X84.531 Y88.688 E22.67795
G1 X84.894 Y88.688 E22.68495
G1 X87.865 Y85.718 E22.76579
G1 X87.923 Y86.023 E22.77178
G1 X85.258 Y88.688 E22.84430
G1 X85.622 Y88.688 E22.85130
G1 X87.980 Y86.329 E22.91549
G1 X88.038 Y86.635 E22.92148
G1 X85.985 Y88.688 E22.97735
G1 X86.349 Y88.688 E22.98435
G1 X88.096 Y86.941 E23.03190
G1 X88.154 Y87.246 E23.03789
G1 X86.713 Y88.688 E23.07712
G1 X87.076 Y88.688 E23.08412
G1 X88.212 Y87.552 E23.11502
G1 X88.270 Y87.858 E23.12101
G1 X87.440 Y88.688 E23.14360
G1 X87.804 Y88.688 E23.15059
G1 X88.328 Y88.164 E23.16486
G1 X88.386 Y88.470 E23.17085
G1 X88.167 Y88.688 E23.17679
G1 E21.17679 F1200.00000
G92 E0
G1 X77.621 Y88.688 F6000.000
G1 E2.00000 F1200.00000
G1 F1800.000
G1 X81.771 Y84.537 E2.11295
G1 X81.257 Y84.800 E2.12407
G1 X81.125 Y84.821 E2.12664
G1 X77.257 Y88.688 E2.23189
G1 X76.894 Y88.688 E2.23889
G1 X80.692 Y84.889 E2.34228
G1 X80.474 Y84.924 E2.34653
G1 X80.319 Y84.899 E2.34956
G1 X76.530 Y88.688 E2.45267
G1 X76.166 Y88.688 E2.45967
G1 X80.005 Y84.849 E2.56414
G1 X79.691 Y84.799 E2.57025
G1 X75.803 Y88.688 E2.67607
G1 X75.439 Y88.688 E2.68307
G1 X79.450 Y84.677 E2.79224
G1 X79.209 Y84.554 E2.79744
G1 X75.075 Y88.688 E2.90995
G1 X74.712 Y88.688 E2.91695
G1 X78.972 Y84.427 E3.03291
G1 X78.791 Y84.245 E3.03785
G1 X74.348 Y88.688 E3.15876
G1 X73.984 Y88.688 E3.16576
G1 X78.609 Y84.063 E3.29162
G1 X78.427 Y83.881 E3.29657
G1 X73.621 Y88.688 E3.42738
G1 X73.257 Y88.688 E3.43437
G1 X78.304 Y83.641 E3.57172
G1 X78.181 Y83.400 E3.57693
G1 X72.893 Y88.688 E3.72083
G1 X72.530 Y88.688 E3.72783
G1 X78.062 Y83.155 E3.87840
G1 X78.013 Y82.841 E3.88452
G1 X72.166 Y88.688 E4.04364
G1 X71.802 Y88.688 E4.05064
G1 X77.963 Y82.527 E4.21831
G1 X77.941 Y82.391 E4.22096
G1 X77.980 Y82.146 E4.22573
G1 X71.439 Y88.688 E4.40376
G1 X71.075 Y88.688 E4.41076
G1 X78.049 Y81.714 E4.60055
G1 X78.065 Y81.608 E4.60261
G1 X78.351 Y81.048 E4.61470
G1 X70.711 Y88.688 E4.82261
G1 X70.348 Y88.688 E4.82961
G1 E2.82961 F1200.00000
G92 E0
G1 X68.256 Y83.869 F6000.000
G1 E2.00000 F1200.00000
G1 F1800.000
G1 X75.814 Y76.312 E2.20567
G1 X75.450 Y76.312 E2.21267
G1 X68.524 Y83.238 E2.40116
G1 X68.592 Y82.806 E2.40958
G1 X75.086 Y76.312 E2.58631
G1 X74.723 Y76.312 E2.59331
G1 X68.597 Y82.438 E2.76003
G1 X68.547 Y82.124 E2.76614
G1 X74.359 Y76.312 E2.92432
G1 X73.995 Y76.312 E2.93132
G1 X68.493 Y81.814 E3.08105
G1 X68.371 Y81.573 E3.08626
G1 X73.632 Y76.312 E3.22943
G1 X73.268 Y76.312 E3.23643
G1 X68.248 Y81.332 E3.37305
G1 X68.118 Y81.098 E3.37820
G1 X72.904 Y76.312 E3.50846
G1 X72.541 Y76.312 E3.51546
G1 X67.936 Y80.917 E3.64077
G1 X67.754 Y80.735 E3.64572
G1 X72.177 Y76.312 E3.76608
G1 X71.813 Y76.312 E3.77308
G1 X67.570 Y80.555 E3.88855
G1 X67.329 Y80.432 E3.89376
G1 X71.450 Y76.312 E4.00589
G1 X71.086 Y76.312 E4.01289
G1 X67.088 Y80.310 E4.12169
G1 X66.839 Y80.195 E4.12696
G1 X70.722 Y76.312 E4.23263
G1 X70.358 Y76.312 E4.23963
G1 X66.525 Y80.145 E4.34395
G1 X66.212 Y80.095 E4.35006
G1 X69.995 Y76.312 E4.45303
G1 X69.631 Y76.312 E4.46003
G1 X65.825 Y80.119 E4.56362
G1 X65.393 Y80.187 E4.57204
G1 X69.267 Y76.312 E4.67749
G1 X68.904 Y76.312 E4.68449
G1 X64.712 Y80.504 E4.79858
G1 X64.602 Y80.560 E4.80094
G1 X64.042 Y81.120 E4.81619
G1 X63.986 Y81.230 E4.81856
G1 E2.81856 F1200.00000
G92 E0
G1 X78.204 Y68.202 F6000.000
G1 E2.00000 F1200.00000
G1 F1800.000
G1 X78.093 Y67.500 E2.01368
G1 X78.204 Y66.798 E2.02736
G1 X78.527 Y66.164 E2.04103
G1 X79.029 Y65.662 E2.05471
G1 X79.663 Y65.339 E2.06839
G1 X80.365 Y65.228 E2.08207
G1 X81.067 Y65.339 E2.09575
G1 X81.701 Y65.662 E2.10943
G1 X82.203 Y66.164 E2.12310
G1 X82.526 Y66.798 E2.13678
G1 X82.637 Y67.500 E2.15046
G1 X82.526 Y68.202 E2.16414
G1 X82.203 Y68.836 E2.17782
G1 X81.701 Y69.338 E2.19149
G1 X81.067 Y69.661 E2.20517
G1 X80.365 Y69.772 E2.21885
