; generated by Slic3r 1.3.0 on 2020-07-23 at 21:55:48

; external perimeters extrusion width = 0.44mm (2.86mm^3/s)
; perimeters extrusion width = 0.56mm (4.14mm^3/s)
; infill extrusion width = 0.50mm (5.48mm^3/s)
; solid infill extrusion width = 0.56mm (3.10mm^3/s)
; top infill extrusion width = 0.45mm (2.44mm^3/s)

M107
;D3D:START:START
T0
M104 S215 T0

G21
G90
M107
T0
G28
G29
M109 T0 S215 T0
G0 F3000
M107
T0
G92 E0
G0 X0 Y149 Z0.1 F3600
G1 Y49 E6.5 F1200
G0 Z1
G92 E0
; Filament gcode

G21 ; set units to millimeters
G90 ; use absolute coordinates
M82 ; use absolute distances for extrusion
G92 E0
G1 Z0.300 F6000.000
G1 E-2.00000 F1200.00000
G92 E0
G1 X64.573 Y64.537 F6000.000
G1 E2.00000 F1200.00000
G1 F1800
G1 X65.098 Y64.040 E2.03131
G1 X65.604 Y63.603 E2.06025
G1 X65.779 Y63.460 E2.07004
G1 X66.377 Y63.052 E2.10137
G1 X68.963 Y61.559 E2.23064
G1 X69.616 Y61.245 E2.26200
G1 X70.607 Y60.897 E2.30744
G1 X71.651 Y60.613 E2.35430
G1 X72.788 Y60.395 E2.40441
G1 X73.507 Y60.341 E2.43561
G1 X76.493 Y60.341 E2.56486
G1 X77.215 Y60.396 E2.59620
G1 X77.896 Y60.515 E2.62613
G1 X78.548 Y60.661 E2.65504
G1 X79.246 Y60.852 E2.68637
G1 X79.881 Y61.059 E2.71529
G1 X80.384 Y61.245 E2.73850
G1 X81.037 Y61.559 E2.76985
G1 X83.623 Y63.052 E2.89913
G1 X84.221 Y63.460 E2.93048
G1 X84.396 Y63.603 E2.94024
G1 X84.903 Y64.040 E2.96920
G1 X85.427 Y64.537 E3.00050
G1 X85.960 Y65.097 E3.03397
G1 X86.397 Y65.604 E3.06292
G1 X86.540 Y65.779 E3.07271
G1 X86.948 Y66.377 E3.10407
G1 X88.443 Y68.966 E3.23343
G1 X88.756 Y69.618 E3.26476
G1 X89.103 Y70.607 E3.31011
G1 X89.387 Y71.651 E3.35697
G1 X89.604 Y72.785 E3.40692
G1 X89.659 Y73.505 E3.43820
G1 X89.659 Y76.495 E3.56761
G1 X89.604 Y77.216 E3.59892
G1 X89.485 Y77.895 E3.62877
G1 X89.339 Y78.547 E3.65769
G1 X89.148 Y79.246 E3.68904
G1 X88.941 Y79.881 E3.71796
G1 X88.756 Y80.382 E3.74107
G1 X88.443 Y81.034 E3.77240
G1 X86.948 Y83.623 E3.90177
G1 X86.540 Y84.221 E3.93313
G1 X86.397 Y84.396 E3.94291
G1 X85.960 Y84.902 E3.97185
G1 X85.463 Y85.427 E4.00316
G1 X84.903 Y85.960 E4.03664
G1 X84.396 Y86.397 E4.06559
G1 X84.221 Y86.540 E4.07536
G1 X83.623 Y86.948 E4.10670
G1 X81.037 Y88.441 E4.23598
G1 X80.384 Y88.755 E4.26734
G1 X79.393 Y89.103 E4.31278
G1 X78.349 Y89.387 E4.35964
G1 X77.215 Y89.604 E4.40960
G1 X76.493 Y89.659 E4.44095
G1 X73.507 Y89.659 E4.57020
G1 X72.786 Y89.604 E4.60151
G1 X72.105 Y89.485 E4.63144
G1 X71.453 Y89.339 E4.66037
G1 X70.754 Y89.148 E4.69171
G1 X70.119 Y88.941 E4.72063
G1 X69.616 Y88.755 E4.74383
G1 X68.963 Y88.441 E4.77519
G1 X66.377 Y86.948 E4.90447
G1 X65.779 Y86.540 E4.93581
G1 X65.604 Y86.397 E4.94558
G1 X65.098 Y85.960 E4.97452
G1 X64.573 Y85.463 E5.00583
G1 X64.040 Y84.903 E5.03931
G1 X63.603 Y84.396 E5.06826
G1 X63.460 Y84.221 E5.07805
G1 X63.052 Y83.623 E5.10940
G1 X61.557 Y81.034 E5.23877
G1 X61.244 Y80.382 E5.27010
G1 X60.897 Y79.393 E5.31545
G1 X60.614 Y78.349 E5.36227
G1 X60.396 Y77.217 E5.41219
G1 X60.341 Y76.495 E5.44354
G1 X60.341 Y73.505 E5.57294
G1 X60.396 Y72.783 E5.60429
G1 X60.515 Y72.105 E5.63410
G1 X60.661 Y71.452 E5.66304
G1 X60.852 Y70.754 E5.69437
G1 X61.059 Y70.119 E5.72330
G1 X61.244 Y69.618 E5.74641
G1 X61.557 Y68.966 E5.77774
G1 X63.052 Y66.377 E5.90710
G1 X63.460 Y65.780 E5.93845
G1 X63.603 Y65.604 E5.94825
G1 X64.040 Y65.097 E5.97720
G1 X64.531 Y64.580 E6.00808
G1 X64.844 Y64.812 F6000.000
G1 F1800
G1 X65.357 Y64.325 E6.03869
G1 X65.848 Y63.901 E6.06676
G1 X66.021 Y63.761 E6.07637
G1 X66.570 Y63.386 E6.10516
G1 X69.156 Y61.892 E6.23444
G1 X69.756 Y61.604 E6.26326
G1 X70.720 Y61.266 E6.30748
G1 X71.737 Y60.989 E6.35312
G1 X72.846 Y60.777 E6.40200
G1 X73.507 Y60.727 E6.43068
G1 X76.493 Y60.727 E6.55993
G1 X77.156 Y60.777 E6.58873
G1 X77.822 Y60.894 E6.61796
G1 X78.454 Y61.035 E6.64600
G1 X79.136 Y61.222 E6.67663
G1 X79.752 Y61.422 E6.70468
G1 X80.244 Y61.604 E6.72736
G1 X80.844 Y61.892 E6.75618
G1 X83.430 Y63.386 E6.88546
G1 X83.980 Y63.761 E6.91427
G1 X84.152 Y63.901 E6.92386
G1 X84.643 Y64.325 E6.95194
G1 X85.156 Y64.812 E6.98254
G1 X85.605 Y65.280 E7.01061
G1 X86.070 Y65.813 E7.04126
G1 X86.239 Y66.020 E7.05283
G1 X86.615 Y66.570 E7.08166
G1 X88.109 Y69.158 E7.21102
G1 X88.397 Y69.758 E7.23982
G1 X88.734 Y70.720 E7.28395
G1 X89.011 Y71.737 E7.32958
G1 X89.223 Y72.843 E7.37831
G1 X89.273 Y73.505 E7.40706
G1 X89.273 Y76.495 E7.53647
G1 X89.223 Y77.158 E7.56525
G1 X89.106 Y77.821 E7.59440
G1 X88.965 Y78.453 E7.62245
G1 X88.778 Y79.136 E7.65309
G1 X88.578 Y79.752 E7.68114
G1 X88.397 Y80.242 E7.70373
G1 X88.109 Y80.842 E7.73253
G1 X86.615 Y83.430 E7.86189
G1 X86.239 Y83.980 E7.89072
G1 X86.099 Y84.152 E7.90033
G1 X85.675 Y84.643 E7.92840
G1 X85.188 Y85.156 E7.95901
G1 X84.721 Y85.604 E7.98706
G1 X84.187 Y86.070 E8.01770
G1 X83.980 Y86.239 E8.02928
G1 X83.430 Y86.614 E8.05809
G1 X80.844 Y88.108 E8.18737
G1 X80.244 Y88.396 E8.21619
G1 X79.280 Y88.734 E8.26041
G1 X78.263 Y89.011 E8.30605
G1 X77.157 Y89.223 E8.35479
G1 X76.493 Y89.273 E8.38360
G1 X73.507 Y89.273 E8.51285
G1 X72.844 Y89.223 E8.54164
G1 X72.179 Y89.106 E8.57086
G1 X71.546 Y88.965 E8.59892
G1 X70.864 Y88.778 E8.62956
G1 X70.248 Y88.578 E8.65761
G1 X69.756 Y88.396 E8.68028
G1 X69.156 Y88.108 E8.70911
G1 X66.570 Y86.614 E8.83839
G1 X66.020 Y86.239 E8.86720
G1 X65.848 Y86.099 E8.87680
G1 X65.357 Y85.675 E8.90486
G1 X64.844 Y85.188 E8.93547
G1 X64.395 Y84.720 E8.96354
G1 X63.930 Y84.187 E8.99417
G1 X63.761 Y83.979 E9.00577
G1 X63.385 Y83.430 E9.03459
G1 X61.891 Y80.842 E9.16395
G1 X61.603 Y80.242 E9.19275
G1 X61.266 Y79.280 E9.23688
G1 X60.989 Y78.263 E9.28248
G1 X60.777 Y77.158 E9.33118
G1 X60.727 Y76.495 E9.35999
G1 X60.727 Y73.505 E9.48940
G1 X60.777 Y72.842 E9.51821
G1 X60.894 Y72.179 E9.54732
G1 X61.035 Y71.546 E9.57539
G1 X61.222 Y70.864 E9.60602
G1 X61.422 Y70.248 E9.63407
G1 X61.603 Y69.758 E9.65666
G1 X61.891 Y69.158 E9.68546
G1 X63.385 Y66.570 E9.81482
G1 X63.761 Y66.021 E9.84364
G1 X63.901 Y65.848 E9.85326
G1 X64.325 Y65.357 E9.88134
G1 X64.802 Y64.854 E9.91134
G1 E7.91134 F1200.00000
G92 E0
G1 X77.225 Y78.854 F6000.000
G1 E2.00000 F1200.00000
G1 F1800
G1 X72.775 Y78.854 E2.19264
G1 X70.550 Y75.000 E2.38528
G1 X72.775 Y71.146 E2.57793
G1 X77.225 Y71.146 E2.77057
G1 X79.450 Y75.000 E2.96321
G1 X77.255 Y78.802 E3.15326
G1 X77.003 Y78.468 F6000.000
G1 F1800
G1 X72.997 Y78.468 E3.32662
G1 X70.995 Y75.000 E3.49999
G1 X72.997 Y71.531 E3.67336
G1 X77.003 Y71.531 E3.84673
G1 X79.005 Y75.000 E4.02009
G1 X77.033 Y78.417 E4.19086
G1 X76.780 Y78.083 F6000.000
G1 F1800
G1 X73.220 Y78.083 E4.34496
G1 X71.440 Y75.000 E4.49905
G1 X73.220 Y71.917 E4.65314
G1 X76.780 Y71.917 E4.80724
G1 X78.560 Y75.000 E4.96133
G1 X76.810 Y78.031 E5.11283
G1 X76.780 Y78.483 F6000.000
G1 E3.11283 F1200.00000
G92 E0
G1 X81.228 Y81.497 F6000.000
G1 E2.00000 F1200.00000
G1 F1800
G1 X81.093 Y81.411 E2.00694
G1 X80.743 Y81.273 E2.02325
G1 X80.185 Y81.166 E2.04781
G1 X79.799 Y81.169 E2.06456
G1 X79.257 Y81.273 E2.08845
G1 X78.907 Y81.411 E2.10472
G1 X78.404 Y81.731 E2.13052
G1 X77.974 Y82.188 E2.15769
G1 X77.687 Y82.711 E2.18349
G1 X77.571 Y83.069 E2.19980
G1 X77.498 Y83.647 E2.22502
G1 X77.330 Y83.697 E2.23257
G1 X77.153 Y83.739 E2.24047
G1 X76.996 Y83.495 E2.25305
G1 X76.615 Y83.091 E2.27707
G1 X76.301 Y82.866 E2.29378
G1 X75.773 Y82.618 E2.31904
G1 X75.188 Y82.507 E2.34481
G1 X74.812 Y82.507 E2.36112
G1 X74.226 Y82.618 E2.38692
G1 X73.687 Y82.872 E2.41272
G1 X73.408 Y83.075 E2.42766
G1 X73.156 Y83.311 E2.44260
G1 X72.845 Y83.739 E2.46547
G1 X72.502 Y83.647 E2.48084
G1 X72.425 Y83.037 E2.50743
G1 X72.206 Y82.483 E2.53323
G1 X72.004 Y82.165 E2.54954
G1 X71.618 Y81.754 E2.57397
G1 X71.339 Y81.551 E2.58891
G1 X71.036 Y81.385 E2.60386
G1 X70.499 Y81.210 E2.62829
G1 X70.126 Y81.163 E2.64459
G1 X69.531 Y81.200 E2.67039
G1 X68.964 Y81.385 E2.69619
G1 X68.767 Y81.493 E2.70592
G1 X68.634 Y81.366 E2.71388
G1 X68.501 Y81.226 E2.72224
G1 X68.653 Y80.950 E2.73591
G1 X68.769 Y80.592 E2.75218
G1 X68.839 Y80.045 E2.77607
G1 X68.819 Y79.690 E2.79145
G1 X68.754 Y79.348 E2.80653
G1 X68.546 Y78.823 E2.83095
G1 X68.344 Y78.505 E2.84726
G1 X67.936 Y78.071 E2.87306
G1 X67.406 Y77.734 E2.90023
G1 X66.809 Y77.540 E2.92740
G1 X66.357 Y77.512 E2.94700
G1 X66.303 Y77.330 E2.95520
G1 X66.263 Y77.164 E2.96260
G1 X66.618 Y76.906 E2.98157
G1 X67.004 Y76.495 E3.00600
G1 X67.206 Y76.177 E3.02230
G1 X67.425 Y75.624 E3.04807
G1 X67.499 Y75.045 E3.07333
G1 X67.479 Y74.690 E3.08871
G1 X67.414 Y74.348 E3.10379
G1 X67.194 Y73.794 E3.12959
G1 X66.825 Y73.286 E3.15676
G1 X66.342 Y72.886 E3.18393
G1 X66.261 Y72.848 E3.18781
G1 X66.356 Y72.493 E3.20369
G1 X66.528 Y72.493 E3.21115
G1 X67.113 Y72.382 E3.23692
G1 X67.641 Y72.134 E3.26218
G1 X67.930 Y71.927 E3.27756
G1 X68.184 Y71.689 E3.29263
G1 X68.534 Y71.206 E3.31843
G1 X68.754 Y70.652 E3.34423
G1 X68.819 Y70.310 E3.35931
G1 X68.839 Y69.955 E3.37469
G1 X68.765 Y69.376 E3.39995
G1 X68.519 Y68.755 E3.42890
G1 X68.634 Y68.634 E3.43613
G1 X68.771 Y68.503 E3.44434
G1 X68.896 Y68.582 E3.45072
G1 X69.254 Y68.727 E3.46746
G1 X69.812 Y68.833 E3.49202
G1 X70.188 Y68.833 E3.50833
G1 X70.743 Y68.727 E3.53276
G1 X71.093 Y68.589 E3.54906
G1 X71.596 Y68.269 E3.57486
G1 X72.026 Y67.812 E3.60204
G1 X72.313 Y67.289 E3.62783
G1 X72.429 Y66.931 E3.64414
G1 X72.502 Y66.353 E3.66937
G1 X72.845 Y66.261 E3.68473
G1 X73.156 Y66.689 E3.70760
G1 X73.408 Y66.925 E3.72255
G1 X73.687 Y67.128 E3.73749
G1 X74.225 Y67.381 E3.76325
G1 X74.799 Y67.492 E3.78852
G1 X75.185 Y67.494 E3.80526
G1 X75.743 Y67.388 E3.82982
G1 X76.093 Y67.249 E3.84613
G1 X76.569 Y66.946 E3.87056
G1 X76.844 Y66.689 E3.88686
G1 X77.155 Y66.261 E3.90973
G1 X77.330 Y66.303 E3.91755
G1 X77.498 Y66.353 E3.92510
G1 X77.574 Y66.962 E3.95167
G1 X77.788 Y67.505 E3.97693
G1 X77.993 Y67.832 E3.99364
G1 X78.373 Y68.237 E4.01766
G1 X78.659 Y68.448 E4.03305
G1 X78.964 Y68.615 E4.04812
G1 X79.501 Y68.790 E4.07255
G1 X79.874 Y68.837 E4.08885
G1 X80.468 Y68.800 E4.11462
G1 X81.024 Y68.620 E4.13988
G1 X81.233 Y68.507 E4.15017
G1 X81.366 Y68.634 E4.15815
G1 X81.499 Y68.774 E4.16651
G1 X81.332 Y69.078 E4.18154
G1 X81.184 Y69.655 E4.20734
G1 X81.160 Y70.031 E4.22365
G1 X81.235 Y70.622 E4.24942
G1 X81.449 Y71.165 E4.27468
G1 X81.654 Y71.493 E4.29143
G1 X82.064 Y71.929 E4.31736
G1 X82.594 Y72.266 E4.34453
G1 X83.191 Y72.460 E4.37170
G1 X83.643 Y72.488 E4.39130
G1 X83.697 Y72.670 E4.39949
G1 X83.737 Y72.836 E4.40690
G1 X83.382 Y73.094 E4.42586
G1 X82.996 Y73.505 E4.45029
G1 X82.794 Y73.823 E4.46660
G1 X82.575 Y74.377 E4.49240
G1 X82.500 Y74.969 E4.51820
G1 X82.521 Y75.313 E4.53314
G1 X82.586 Y75.651 E4.54805
G1 X82.788 Y76.165 E4.57194
G1 X82.977 Y76.466 E4.58733
G1 X83.199 Y76.734 E4.60240
G1 X83.658 Y77.114 E4.62820
G1 X83.739 Y77.152 E4.63208
G1 X83.644 Y77.507 E4.64795
G1 X83.472 Y77.507 E4.65542
G1 X82.915 Y77.613 E4.67998
G1 X82.556 Y77.758 E4.69672
G1 X82.090 Y78.054 E4.72062
G1 X81.816 Y78.311 E4.73689
G1 X81.466 Y78.794 E4.76269
G1 X81.246 Y79.348 E4.78849
G1 X81.182 Y79.687 E4.80343
G1 X81.160 Y80.031 E4.81837
G1 X81.235 Y80.623 E4.84418
G1 X81.481 Y81.245 E4.87316
G1 X81.272 Y81.456 E4.88602
G1 X81.276 Y81.984 F6000.000
G1 F1800
G1 X80.917 Y81.757 E4.90440
G1 X80.635 Y81.645 E4.91755
G1 X80.150 Y81.552 E4.93890
G1 X79.836 Y81.554 E4.95248
G1 X79.365 Y81.645 E4.97327
G1 X79.083 Y81.757 E4.98640
G1 X78.652 Y82.030 E5.00851
G1 X78.289 Y82.417 E5.03147
G1 X78.042 Y82.864 E5.05358
G1 X77.949 Y83.153 E5.06673
G1 X77.885 Y83.660 E5.08884
G1 X77.918 Y83.925 E5.10038
G1 X77.430 Y84.069 E5.12241
G1 X76.936 Y84.188 E5.14441
G1 X76.860 Y83.997 E5.15329
G1 X76.691 Y83.733 E5.16687
G1 X76.360 Y83.383 E5.18773
G1 X76.106 Y83.200 E5.20129
G1 X75.653 Y82.988 E5.22292
G1 X75.152 Y82.892 E5.24501
G1 X74.848 Y82.892 E5.25816
G1 X74.346 Y82.988 E5.28027
G1 X73.884 Y83.206 E5.30239
G1 X73.654 Y83.373 E5.31470
G1 X73.446 Y83.568 E5.32702
G1 X73.146 Y83.981 E5.34913
G1 X73.064 Y84.188 E5.35877
G1 X72.570 Y84.069 E5.38078
G1 X72.095 Y83.929 E5.40222
G1 X72.113 Y83.641 E5.41469
G1 X72.049 Y83.134 E5.43680
G1 X71.861 Y82.659 E5.45892
G1 X71.698 Y82.403 E5.47207
G1 X71.362 Y82.044 E5.49334
G1 X71.132 Y81.877 E5.50566
G1 X70.882 Y81.740 E5.51797
G1 X70.415 Y81.588 E5.53925
G1 X70.113 Y81.550 E5.55240
G1 X69.604 Y81.582 E5.57451
G1 X69.118 Y81.740 E5.59662
G1 X68.852 Y81.886 E5.60978
G1 X68.729 Y81.988 E5.61668
G1 X68.361 Y81.639 E5.63863
G1 X68.027 Y81.287 E5.65962
G1 X68.297 Y80.796 E5.68390
G1 X68.391 Y80.507 E5.69703
G1 X68.452 Y80.031 E5.71782
G1 X68.435 Y79.737 E5.73056
G1 X68.382 Y79.456 E5.74295
G1 X68.201 Y78.999 E5.76423
G1 X68.038 Y78.742 E5.77738
G1 X67.688 Y78.370 E5.79949
G1 X67.240 Y78.086 E5.82245
G1 X66.736 Y77.922 E5.84540
G1 X66.207 Y77.889 E5.86835
G1 X66.074 Y77.914 E5.87421
G1 X65.931 Y77.430 E5.89606
G1 X65.812 Y76.937 E5.91800
G1 X66.116 Y76.794 E5.93252
G1 X66.362 Y76.616 E5.94567
G1 X66.698 Y76.258 E5.96694
G1 X66.861 Y76.001 E5.98009
G1 X67.049 Y75.527 E6.00218
G1 X67.112 Y75.031 E6.02381
G1 X67.096 Y74.737 E6.03655
G1 X67.042 Y74.456 E6.04895
G1 X66.854 Y73.981 E6.07106
G1 X66.542 Y73.552 E6.09401
G1 X66.134 Y73.214 E6.11697
G1 X65.812 Y73.063 E6.13233
G1 X65.931 Y72.570 E6.15427
G1 X66.074 Y72.086 E6.17612
G1 X66.188 Y72.108 E6.18113
G1 X66.492 Y72.108 E6.19428
G1 X66.993 Y72.012 E6.21637
G1 X67.445 Y71.800 E6.23800
G1 X67.685 Y71.628 E6.25074
G1 X67.893 Y71.432 E6.26313
G1 X68.194 Y71.019 E6.28525
G1 X68.382 Y70.544 E6.30736
G1 X68.435 Y70.263 E6.31976
G1 X68.452 Y69.969 E6.33250
G1 X68.389 Y69.473 E6.35412
G1 X68.201 Y68.999 E6.37622
G1 X68.022 Y68.718 E6.39063
G1 X68.361 Y68.361 E6.41193
G1 X68.724 Y68.016 E6.43362
G1 X69.073 Y68.238 E6.45149
G1 X69.364 Y68.355 E6.46507
G1 X69.848 Y68.447 E6.48642
G1 X70.152 Y68.447 E6.49958
G1 X70.635 Y68.355 E6.52085
G1 X70.917 Y68.243 E6.53400
G1 X71.348 Y67.970 E6.55611
G1 X71.711 Y67.583 E6.57907
G1 X71.958 Y67.136 E6.60118
G1 X72.051 Y66.847 E6.61433
G1 X72.115 Y66.340 E6.63644
G1 X72.082 Y66.075 E6.64798
G1 X72.570 Y65.931 E6.67001
G1 X73.064 Y65.812 E6.69201
G1 X73.146 Y66.019 E6.70165
G1 X73.446 Y66.432 E6.72377
G1 X73.654 Y66.627 E6.73608
G1 X73.884 Y66.794 E6.74840
G1 X74.346 Y67.012 E6.77049
G1 X74.836 Y67.106 E6.79212
G1 X75.150 Y67.108 E6.80569
G1 X75.635 Y67.016 E6.82705
G1 X75.917 Y66.904 E6.84020
G1 X76.332 Y66.640 E6.86147
G1 X76.554 Y66.432 E6.87462
G1 X76.854 Y66.019 E6.89674
G1 X76.936 Y65.812 E6.90638
G1 X77.430 Y65.931 E6.92838
G1 X77.905 Y66.071 E6.94982
G1 X77.887 Y66.359 E6.96230
G1 X77.951 Y66.865 E6.98439
G1 X78.134 Y67.330 E7.00602
G1 X78.300 Y67.596 E7.01957
G1 X78.630 Y67.948 E7.04044
G1 X78.867 Y68.122 E7.05318
G1 X79.118 Y68.260 E7.06557
G1 X79.585 Y68.412 E7.08685
G1 X79.887 Y68.450 E7.10000
G1 X80.396 Y68.418 E7.12209
G1 X80.871 Y68.264 E7.14372
G1 X81.147 Y68.115 E7.15729
G1 X81.271 Y68.012 E7.16428
G1 X81.639 Y68.361 E7.18622
G1 X81.973 Y68.713 E7.20721
G1 X81.693 Y69.221 E7.23234
G1 X81.566 Y69.716 E7.25445
G1 X81.547 Y70.019 E7.26760
G1 X81.611 Y70.526 E7.28970
G1 X81.794 Y70.990 E7.31132
G1 X81.961 Y71.256 E7.32490
G1 X82.312 Y71.630 E7.34709
G1 X82.760 Y71.914 E7.37005
G1 X83.264 Y72.078 E7.39300
G1 X83.793 Y72.111 E7.41596
G1 X83.926 Y72.086 E7.42181
G1 X84.069 Y72.570 E7.44366
G1 X84.188 Y73.063 E7.46560
G1 X83.884 Y73.206 E7.48012
G1 X83.638 Y73.384 E7.49327
G1 X83.302 Y73.742 E7.51454
G1 X83.139 Y73.999 E7.52769
G1 X82.951 Y74.474 E7.54981
G1 X82.887 Y74.981 E7.57192
G1 X82.905 Y75.265 E7.58423
G1 X82.958 Y75.544 E7.59653
G1 X83.134 Y75.990 E7.61732
G1 X83.290 Y76.240 E7.63006
G1 X83.473 Y76.461 E7.64245
G1 X83.866 Y76.786 E7.66457
G1 X84.188 Y76.937 E7.67993
G1 X84.069 Y77.430 E7.70187
G1 X83.926 Y77.914 E7.72371
G1 X83.812 Y77.892 E7.72873
G1 X83.508 Y77.892 E7.74188
G1 X83.024 Y77.985 E7.76323
G1 X82.733 Y78.102 E7.77681
G1 X82.328 Y78.360 E7.79759
G1 X82.107 Y78.568 E7.81072
G1 X81.806 Y78.981 E7.83284
G1 X81.618 Y79.456 E7.85495
G1 X81.565 Y79.735 E7.86727
G1 X81.547 Y80.019 E7.87958
G1 X81.611 Y80.526 E7.90169
G1 X81.799 Y81.001 E7.92381
G1 X81.978 Y81.282 E7.93823
G1 X81.319 Y81.943 E7.97860
G1 X81.272 Y82.492 F6000.000
G1 F1800
G1 X81.095 Y82.326 E7.98911
G1 X80.741 Y82.102 E8.00723
G1 X80.527 Y82.017 E8.01723
G1 X80.115 Y81.938 E8.03537
G1 X79.874 Y81.940 E8.04578
