; generated by Slic3r 1.3.0 on 2020-08-19 at 19:10:19

; external perimeters extrusion width = 0.42mm (4.00mm^3/s)
; perimeters extrusion width = 0.40mm (5.03mm^3/s)
; infill extrusion width = 0.42mm (6.93mm^3/s)
; solid infill extrusion width = 0.42mm (2.13mm^3/s)
; top infill extrusion width = 0.42mm (1.60mm^3/s)

; external perimeters extrusion width = 0.42mm (4.00mm^3/s)
; perimeters extrusion width = 0.40mm (5.03mm^3/s)
; infill extrusion width = 0.42mm (6.93mm^3/s)
; solid infill extrusion width = 0.42mm (2.13mm^3/s)
; top infill extrusion width = 0.42mm (1.60mm^3/s)

;D3D:START:START
T0
M104 S215 T0

G21
G90
M107
T0
G28
G29
M109 T0 S215 T0
G0 F3000
M107
T0
G92 E0
G0 X0 Y149 Z0.1 F3600
G1 Y49 E6.5 F1200
G0 Z1
G92 E0
; Filament gcode

G21 ; set units to millimeters
G90 ; use absolute coordinates
M82 ; use absolute distances for extrusion
G92 E0
G1 Z0.300 F6000.000
G1 E-0.50000 F1200.00000
G92 E0
G1 X50.995 Y65.987 F6000.000
G1 E0.52000 F1200.00000
G1 F1080
G1 X52.917 Y65.389 E0.57445
G1 X59.607 Y64.908 E0.75578
G1 X67.425 Y64.385 E0.96762
G1 X73.282 Y64.030 E1.12627
G1 X76.275 Y63.872 E1.20730
G1 X82.175 Y63.634 E1.36694
G1 X84.906 Y63.557 E1.44082
G1 X87.543 Y63.518 E1.51212
G1 X90.019 Y63.531 E1.57906
G1 X92.305 Y63.608 E1.64089
G1 X94.375 Y63.759 E1.69701
G1 X96.245 Y63.999 E1.74799
G1 X96.622 Y64.066 E1.75835
G1 X97.917 Y64.352 E1.79420
G1 X98.517 Y64.530 E1.81112
G1 X99.474 Y64.888 E1.83876
G1 X100.494 Y65.429 E1.86997
G1 X101.098 Y65.857 E1.88998
G1 X102.542 Y67.568 E1.95051
G1 X102.781 Y68.065 E1.96540
G1 X103.220 Y69.893 E2.01625
G1 X103.137 Y70.864 E2.04260
G1 X101.137 Y81.017 E2.32236
G1 X100.393 Y82.744 E2.37321
G1 X99.005 Y84.013 E2.42406
G1 X97.083 Y84.611 E2.47850
G1 X85.354 Y85.433 E2.79639
G1 X76.718 Y85.970 E3.03032
G1 X73.725 Y86.128 E3.11136
G1 X70.746 Y86.260 E3.19198
G1 X65.094 Y86.443 E3.34487
G1 X62.457 Y86.482 E3.41617
G1 X59.982 Y86.469 E3.48309
G1 X57.516 Y86.382 E3.54980
G1 X55.364 Y86.214 E3.60816
G1 X53.755 Y86.001 E3.65204
G1 X53.378 Y85.934 E3.66240
G1 X52.084 Y85.648 E3.69823
G1 X51.483 Y85.470 E3.71517
G1 X50.526 Y85.112 E3.74281
G1 X49.506 Y84.571 E3.77402
G1 X48.902 Y84.143 E3.79403
G1 X47.460 Y82.436 E3.85446
G1 X47.220 Y81.936 E3.86944
G1 X46.780 Y80.108 E3.92029
G1 X46.863 Y79.136 E3.94666
G1 X48.863 Y68.983 E4.22642
G1 X49.607 Y67.256 E4.27727
G1 X50.950 Y66.027 E4.32649
G1 X51.199 Y66.142 F6000.000
G1 F1080
G1 X52.935 Y65.624 E4.37546
G1 X59.623 Y65.143 E4.55676
G1 X67.440 Y64.621 E4.76857
G1 X73.296 Y64.266 E4.92719
G1 X76.288 Y64.107 E5.00818
G1 X82.181 Y63.870 E5.16766
G1 X84.913 Y63.793 E5.24154
G1 X87.547 Y63.754 E5.31276
G1 X90.018 Y63.767 E5.37957
G1 X92.297 Y63.843 E5.44121
G1 X94.365 Y63.995 E5.49728
G1 X96.214 Y64.233 E5.54769
G1 X96.571 Y64.296 E5.55750
G1 X97.866 Y64.582 E5.59335
G1 X98.435 Y64.751 E5.60938
G1 X99.392 Y65.109 E5.63702
G1 X100.358 Y65.621 E5.66658
G1 X100.962 Y66.049 E5.68659
G1 X102.330 Y67.670 E5.74394
G1 X102.568 Y68.167 E5.75883
G1 X102.906 Y70.819 E5.83111
G1 X100.906 Y80.971 E6.11087
G1 X100.173 Y82.648 E6.16035
G1 X98.801 Y83.858 E6.20982
G1 X97.065 Y84.376 E6.25879
G1 X90.377 Y84.857 E6.44009
G1 X82.560 Y85.379 E6.65189
G1 X76.704 Y85.734 E6.81051
G1 X73.712 Y85.893 E6.89151
G1 X67.819 Y86.130 E7.05099
G1 X65.087 Y86.207 E7.12486
G1 X62.453 Y86.246 E7.19608
G1 X59.983 Y86.233 E7.26287
G1 X57.704 Y86.157 E7.32453
G1 X55.636 Y86.005 E7.38058
G1 X53.786 Y85.767 E7.43102
G1 X52.135 Y85.418 E7.47665
G1 X51.565 Y85.249 E7.49270
G1 X50.608 Y84.891 E7.52034
G1 X49.642 Y84.379 E7.54991
G1 X49.038 Y83.951 E7.56992
G1 X47.672 Y82.333 E7.62716
G1 X47.432 Y81.834 E7.64214
G1 X47.094 Y79.181 E7.71444
G1 X49.094 Y69.029 E7.99420
G1 X49.827 Y67.352 E8.04367
G1 X51.154 Y66.181 E8.09152
G1 E7.59152 F1200.00000
G92 E0
G1 X54.861 Y81.157 F6000.000
G1 E0.52000 F1200.00000
G1 F1080
G1 X54.519 Y81.222 E0.52941
G1 X54.331 Y81.222 E0.53450
G1 X53.984 Y81.156 E0.54404
G1 X53.665 Y81.006 E0.55358
G1 X53.513 Y80.895 E0.55867
G1 X53.271 Y80.638 E0.56821
G1 X53.099 Y80.325 E0.57788
G1 X53.011 Y79.983 E0.58741
G1 X53.000 Y79.800 E0.59238
G1 X53.011 Y79.617 E0.59735
G1 X53.099 Y79.275 E0.60688
G1 X53.269 Y78.966 E0.61642
G1 X53.389 Y78.821 E0.62152
G1 X53.657 Y78.599 E0.63092
G1 X53.989 Y78.443 E0.64084
G1 X54.331 Y78.378 E0.65024
G1 X54.519 Y78.378 E0.65534
G1 X54.866 Y78.444 E0.66488
G1 X55.185 Y78.594 E0.67441
G1 X55.337 Y78.705 E0.67951
G1 X55.579 Y78.962 E0.68905
G1 X55.751 Y79.275 E0.69871
G1 X55.839 Y79.617 E0.70825
G1 X55.850 Y79.800 E0.71322
G1 X55.839 Y79.983 E0.71818
G1 X55.751 Y80.325 E0.72772
G1 X55.581 Y80.634 E0.73726
G1 X55.461 Y80.779 E0.74235
G1 X55.193 Y81.001 E0.75176
G1 X54.917 Y81.135 E0.76006
G1 X57.761 Y80.857 F6000.000
G1 F1080
G1 X57.419 Y80.922 E0.76946
G1 X57.231 Y80.922 E0.77456
G1 X56.884 Y80.856 E0.78410
G1 X56.565 Y80.706 E0.79363
G1 X56.413 Y80.595 E0.79873
G1 X56.171 Y80.338 E0.80827
G1 X55.999 Y80.025 E0.81793
G1 X55.911 Y79.683 E0.82747
G1 X55.900 Y79.500 E0.83244
G1 X55.911 Y79.317 E0.83740
G1 X55.999 Y78.975 E0.84694
G1 X56.169 Y78.666 E0.85648
G1 X56.289 Y78.521 E0.86157
G1 X56.557 Y78.299 E0.87098
G1 X56.889 Y78.143 E0.88089
G1 X57.231 Y78.078 E0.89030
G1 X57.419 Y78.078 E0.89540
G1 X57.766 Y78.144 E0.90493
G1 X58.085 Y78.294 E0.91447
G1 X58.237 Y78.405 E0.91957
G1 X58.479 Y78.662 E0.92910
G1 X58.651 Y78.975 E0.93877
G1 X58.739 Y79.317 E0.94830
G1 X58.750 Y79.500 E0.95327
G1 X58.739 Y79.683 E0.95824
G1 X58.651 Y80.025 E0.96778
G1 X58.481 Y80.334 E0.97731
G1 X58.361 Y80.479 E0.98241
G1 X58.093 Y80.701 E0.99182
G1 X57.817 Y80.835 E1.00011
G1 E0.50011 F1200.00000
G92 E0
G1 X66.715 Y80.923 F6000.000
G1 E0.52000 F1200.00000
G1 F1080
G1 X66.363 Y80.901 E0.52954
G1 X66.180 Y80.854 E0.53463
G1 X65.865 Y80.706 E0.54404
G1 X65.716 Y80.598 E0.54901
G1 X65.580 Y80.469 E0.55408
G1 X65.375 Y80.187 E0.56351
G1 X65.245 Y79.859 E0.57305
G1 X65.210 Y79.670 E0.57825
G1 X65.210 Y79.321 E0.58768
G1 X65.299 Y78.975 E0.59734
G1 X65.469 Y78.666 E0.60688
G1 X65.589 Y78.521 E0.61198
G1 X65.857 Y78.299 E0.62138
G1 X66.018 Y78.210 E0.62635
G1 X66.189 Y78.143 E0.63132
G1 X66.535 Y78.077 E0.64086
G1 X66.887 Y78.099 E0.65039
G1 X67.070 Y78.146 E0.65549
G1 X67.385 Y78.294 E0.66490
G1 X67.537 Y78.405 E0.66999
G1 X67.776 Y78.658 E0.67940
G1 X67.877 Y78.817 E0.68449
G1 X68.005 Y79.141 E0.69390
G1 X68.040 Y79.326 E0.69900
G1 X68.040 Y79.674 E0.70841
G1 X68.005 Y79.859 E0.71350
G1 X67.877 Y80.183 E0.72291
G1 X67.776 Y80.342 E0.72800
G1 X67.537 Y80.595 E0.73741
G1 X67.385 Y80.706 E0.74251
G1 X67.066 Y80.856 E0.75204
G1 X66.773 Y80.912 E0.76009
G1 E0.26009 F1200.00000
G92 E0
G1 X96.600 Y80.012 F6000.000
G1 E0.52000 F1200.00000
G1 F1080
G1 X85.045 Y80.822 E0.83319
G1 X76.447 Y81.356 E1.06607
G1 X73.482 Y81.513 E1.14636
G1 X67.694 Y81.746 E1.30297
G1 X64.965 Y81.823 E1.37679
G1 X62.391 Y81.861 E1.44640
G1 X60.010 Y81.848 E1.51077
G1 X57.858 Y81.774 E1.56899
G1 X55.967 Y81.632 E1.62024
G1 X54.369 Y81.420 E1.66383
G1 X53.092 Y81.138 E1.69920
G1 X52.163 Y80.790 E1.72602
G1 X51.607 Y80.396 E1.74445
G1 X51.409 Y79.984 E1.75680
G1 X51.522 Y79.542 E1.76914
G1 X51.995 Y79.048 E1.78763
G1 X52.854 Y78.534 E1.81470
G1 X54.082 Y78.031 E1.85058
G1 X55.657 Y77.565 E1.89499
G1 X57.552 Y77.155 E1.94740
G1 X59.734 Y76.819 E2.00711
G1 X62.168 Y76.573 E2.07325
G1 X64.813 Y76.428 E2.14485
G1 X67.622 Y76.389 E2.22080
G1 X70.537 Y76.456 E2.29965
G1 X73.519 Y76.612 E2.38038
G1 X76.514 Y76.834 E2.46157
G1 X79.482 Y77.114 E2.54217
G1 X82.376 Y77.438 E2.62091
G1 X85.150 Y77.793 E2.69652
G1 X87.761 Y78.166 E2.76782
G1 X90.167 Y78.542 E2.83366
G1 X92.331 Y78.908 E2.89302
G1 X94.221 Y79.249 E2.94494
G1 X96.600 Y79.710 E3.01045
G1 X96.600 Y79.952 E3.01700
G1 X95.941 Y79.822 F6000.000
G1 F1080
G1 X95.661 Y79.768 E3.02474
G1 X95.582 Y79.848 E3.02779
G1 X95.222 Y79.873 E3.03756
G1 X95.381 Y79.714 E3.04366
G1 X95.101 Y79.660 E3.05140
G1 X94.863 Y79.898 E3.06054
G1 X94.503 Y79.923 E3.07032
G1 X94.821 Y79.605 E3.08251
G1 X94.541 Y79.551 E3.09025
G1 X94.144 Y79.948 E3.10549
G1 X93.784 Y79.974 E3.11527
G1 X94.261 Y79.497 E3.13356
G1 X93.978 Y79.446 E3.14136
G1 X93.425 Y79.999 E3.16258
G1 X93.065 Y80.024 E3.17235
G1 X93.693 Y79.396 E3.19643
G1 X93.408 Y79.347 E3.20427
G1 X92.706 Y80.049 E3.23123
G1 X92.346 Y80.074 E3.24100
G1 X93.124 Y79.297 E3.27082
G1 X92.839 Y79.247 E3.27866
G1 X91.987 Y80.100 E3.31136
G1 X91.627 Y80.125 E3.32113
G1 X92.554 Y79.198 E3.35670
G1 X92.270 Y79.148 E3.36453
G1 X91.268 Y80.150 E3.40297
G1 X90.908 Y80.175 E3.41274
G1 X91.985 Y79.098 E3.45405
G1 X91.700 Y79.049 E3.46189
G1 X90.549 Y80.200 E3.50606
G1 X90.189 Y80.226 E3.51584
G1 X91.415 Y78.999 E3.56288
G1 X91.131 Y78.950 E3.57072
G1 X89.830 Y80.251 E3.62064
G1 X89.470 Y80.276 E3.63041
G1 X90.846 Y78.900 E3.68320
G1 X90.561 Y78.850 E3.69104
G1 X89.111 Y80.301 E3.74669
G1 X88.751 Y80.326 E3.75647
G1 X90.277 Y78.801 E3.81500
G1 X89.990 Y78.753 E3.82288
G1 X88.392 Y80.352 E3.88420
G1 X88.032 Y80.377 E3.89397
G1 X89.701 Y78.708 E3.95799
G1 X89.412 Y78.663 E3.96593
G1 X87.673 Y80.402 E4.03265
G1 X87.313 Y80.427 E4.04242
G1 X89.123 Y78.618 E4.11184
G1 X88.834 Y78.572 E4.11978
G1 X86.954 Y80.452 E4.19190
G1 X86.594 Y80.478 E4.20168
G1 X88.545 Y78.527 E4.27650
G1 X88.256 Y78.482 E4.28444
G1 X86.235 Y80.503 E4.36196
G1 X85.875 Y80.528 E4.37174
G1 X87.966 Y78.437 E4.45196
G1 X87.677 Y78.392 E4.45991
G1 X85.516 Y80.553 E4.54282
G1 X85.156 Y80.578 E4.55259
G1 X87.384 Y78.350 E4.63807
G1 X87.092 Y78.308 E4.64608
G1 X84.799 Y80.602 E4.73405
G1 X84.442 Y80.624 E4.74374
G1 X86.799 Y78.267 E4.83416
G1 X86.507 Y78.225 E4.84217
G1 X84.086 Y80.646 E4.93504
G1 X83.729 Y80.668 E4.94473
G1 X86.214 Y78.183 E5.04005
G1 X85.922 Y78.141 E5.04807
G1 X83.373 Y80.690 E5.14584
G1 X83.016 Y80.712 E5.15553
G1 X85.629 Y78.100 E5.25575
G1 X85.337 Y78.058 E5.26377
G1 X82.660 Y80.734 E5.36644
G1 X82.303 Y80.757 E5.37613
G1 X85.043 Y78.017 E5.48122
G1 X84.747 Y77.979 E5.48932
G1 X81.947 Y80.779 E5.59672
G1 X81.591 Y80.801 E5.60641
G1 X84.450 Y77.941 E5.71611
G1 X84.154 Y77.903 E5.72421
G1 X81.234 Y80.823 E5.83621
G1 X80.878 Y80.845 E5.84590
G1 X83.858 Y77.865 E5.96021
G1 X83.561 Y77.827 E5.96831
G1 X80.521 Y80.867 E6.08493
G1 X80.165 Y80.889 E6.09462
G1 X83.265 Y77.789 E6.21353
G1 X82.969 Y77.751 E6.22164
G1 X79.808 Y80.912 E6.34286
G1 X79.452 Y80.934 E6.35255
G1 X82.672 Y77.714 E6.47607
G1 X82.376 Y77.676 E6.48418
G1 X79.096 Y80.956 E6.61001
G1 X78.739 Y80.978 E6.61970
G1 X82.076 Y77.641 E6.74769
G1 X81.775 Y77.608 E6.75589
G1 X78.383 Y81.000 E6.88602
G1 X78.026 Y81.022 E6.89571
G1 X81.474 Y77.574 E7.02797
G1 X81.174 Y77.541 E7.03618
G1 X77.670 Y81.044 E7.17059
G1 X77.313 Y81.067 E7.18028
G1 X80.873 Y77.507 E7.31682
G1 X80.572 Y77.473 E7.32503
G1 X76.957 Y81.089 E7.46372
G1 X76.601 Y81.111 E7.47340
G1 X80.272 Y77.440 E7.61423
G1 X79.971 Y77.406 E7.62244
G1 X76.246 Y81.131 E7.76534
G1 X75.893 Y81.150 E7.77492
G1 X79.670 Y77.372 E7.91983
G1 X79.368 Y77.340 E7.92807
G1 X75.540 Y81.168 E8.07492
G1 X75.187 Y81.187 E8.08451
G1 X79.063 Y77.311 E8.23319
G1 X78.757 Y77.282 E8.24151
G1 X74.834 Y81.206 E8.39201
G1 X74.481 Y81.224 E8.40159
G1 X78.452 Y77.254 E8.55391
G1 X78.146 Y77.225 E8.56223
G1 X74.128 Y81.243 E8.71637
G1 X73.775 Y81.262 E8.72595
G1 X77.841 Y77.196 E8.88191
G1 X77.535 Y77.167 E8.89023
G1 X73.423 Y81.280 E9.04798
G1 X73.075 Y81.294 E9.05744
G1 X77.230 Y77.139 E9.21683
G1 X76.924 Y77.110 E9.22515
G1 X72.726 Y81.308 E9.38619
G1 X72.378 Y81.322 E9.39565
G1 X76.619 Y77.081 E9.55832
G1 X76.310 Y77.056 E9.56673
G1 X72.030 Y81.336 E9.73092
G1 X71.681 Y81.350 E9.74038
G1 X75.999 Y77.032 E9.90600
G1 X75.688 Y77.009 E9.91446
G1 X71.333 Y81.364 E10.08151
G1 X70.985 Y81.378 E10.09097
G1 X75.376 Y76.986 E10.25944
G1 X75.065 Y76.963 E10.26790
G1 X70.636 Y81.392 E10.43780
G1 X70.288 Y81.406 E10.44726
G1 X74.754 Y76.940 E10.61859
G1 X74.443 Y76.917 E10.62705
G1 X69.939 Y81.420 E10.79981
G1 X69.591 Y81.434 E10.80926
G1 X74.132 Y76.893 E10.98345
G1 X73.821 Y76.870 E10.99191
G1 X69.243 Y81.448 E11.16752
G1 X68.894 Y81.462 E11.17697
G1 X73.510 Y76.847 E11.35401
G1 X73.192 Y76.830 E11.36264
G1 X68.546 Y81.476 E11.54085
G1 X68.198 Y81.490 E11.55031
G1 X72.874 Y76.814 E11.72969
G1 X72.556 Y76.797 E11.73832
G1 X67.849 Y81.504 E11.91888
G1 X67.503 Y81.516 E11.92827
G1 X72.239 Y76.781 E12.10992
G1 X71.921 Y76.764 E12.11855
G1 X67.159 Y81.526 E12.30119
G1 X66.815 Y81.535 E12.31053
G1 X67.384 Y80.967 E12.33233
G1 X67.139 Y81.082 E12.33967
G1 X66.886 Y81.130 E12.34665
G1 X66.471 Y81.545 E12.36256
G1 X66.127 Y81.555 E12.37189
G1 X66.534 Y81.148 E12.38750
G1 X66.236 Y81.112 E12.39564
G1 X65.784 Y81.564 E12.41300
G1 X65.440 Y81.574 E12.42234
G1 X65.989 Y81.025 E12.44341
G1 X65.762 Y80.918 E12.45023
G1 X65.096 Y81.584 E12.47577
G1 X64.754 Y81.591 E12.48503
G1 X65.574 Y80.771 E12.51648
G1 X65.395 Y80.616 E12.52290
G1 X64.415 Y81.596 E12.56050
G1 X64.076 Y81.601 E12.56970
G1 X65.255 Y80.422 E12.61491
G1 X65.167 Y80.301 E12.61896
G1 X65.131 Y80.211 E12.62159
G1 X63.737 Y81.606 E12.67509
G1 X63.397 Y81.611 E12.68430
G1 X65.036 Y79.971 E12.74717
G1 X64.975 Y79.698 E12.75477
G1 X63.243 Y81.431 E12.82123
G1 X63.243 Y81.097 E12.83030
G1 X64.974 Y79.365 E12.89673
G1 X64.974 Y79.291 E12.89872
G1 X65.065 Y78.940 E12.90855
G1 X63.243 Y80.762 E12.97843
G1 X63.243 Y80.428 E12.98750
G1 X67.038 Y76.633 E13.13308
G1 X66.699 Y76.637 E13.14228
G1 X63.243 Y80.094 E13.27486
G1 X63.243 Y79.759 E13.28393
G1 X66.360 Y76.642 E13.40350
G1 X66.021 Y76.647 E13.41270
G1 X63.243 Y79.425 E13.51927
G1 X63.243 Y79.091 E13.52833
G1 X65.682 Y76.652 E13.62190
G1 X65.343 Y76.656 E13.63109
G1 X63.243 Y78.756 E13.71165
G1 X63.243 Y78.422 E13.72072
G1 X65.004 Y76.661 E13.78827
G1 X64.658 Y76.673 E13.79766
G1 X63.243 Y78.088 E13.85195
G1 X63.243 Y77.754 E13.86102
G1 X64.304 Y76.692 E13.90174
G1 X63.951 Y76.711 E13.91135
G1 X63.243 Y77.419 E13.93850
G1 X63.243 Y77.085 E13.94756
G1 X63.597 Y76.731 E13.96114
G1 X63.243 Y76.750 E13.97075
G1 X65.065 Y78.940 F6000.000
G1 F1080
G1 X65.273 Y78.533 E13.98317
G1 X65.422 Y78.353 E13.98949
G1 X65.730 Y78.098 E14.00034
G1 X66.064 Y77.941 E14.01035
G1 X67.377 Y76.628 E14.06073
G1 X67.713 Y76.627 E14.06983
G1 X66.495 Y77.845 E14.11654
G1 X66.815 Y77.858 E14.12525
G1 X68.039 Y76.634 E14.17220
G1 X68.366 Y76.642 E14.18106
G1 X67.098 Y77.910 E14.22969
G1 X67.333 Y78.009 E14.23661
G1 X68.693 Y76.649 E14.28877
G1 X69.020 Y76.657 E14.29763
G1 X67.552 Y78.124 E14.35392
G1 X67.737 Y78.273 E14.36036
G1 X69.346 Y76.665 E14.42208
G1 X69.673 Y76.672 E14.43095
G1 X67.899 Y78.446 E14.49899
G1 X68.042 Y78.638 E14.50547
G1 X70.000 Y76.680 E14.58058
G1 X70.326 Y76.687 E14.58945
G1 X68.149 Y78.865 E14.67298
G1 X68.238 Y79.110 E14.68005
G1 X70.650 Y76.698 E14.77255
G1 X70.968 Y76.715 E14.78118
G1 X68.276 Y79.407 E14.88444
G1 X68.265 Y79.752 E14.89380
G1 X71.285 Y76.731 E15.00966
G1 X71.603 Y76.748 E15.01829
G1 X68.105 Y80.246 E15.15249
G1 E14.65249 F1200.00000
G92 E0
G1 X63.007 Y81.616 F6000.000
G1 E0.52000 F1200.00000
G1 F1080
G1 X63.007 Y81.275 E0.52945
G1 X62.661 Y81.621 E0.54302
G1 X62.316 Y81.625 E0.55256
G1 X63.007 Y80.934 E0.57963
G1 X63.007 Y80.592 E0.58907
G1 X61.977 Y81.623 E0.62942
G1 X61.637 Y81.621 E0.63882
G1 X63.007 Y80.251 E0.69246
G1 X63.007 Y79.910 E0.70190
G1 X61.298 Y81.619 E0.76883
G1 X60.959 Y81.617 E0.77822
G1 X63.007 Y79.569 E0.85843
G1 X63.007 Y79.228 E0.86788
G1 X60.619 Y81.615 E0.96137
G1 X60.280 Y81.614 E0.97076
G1 X63.007 Y78.886 E1.07754
G1 X63.007 Y78.545 E1.08699
G1 X59.943 Y81.610 E1.20698
G1 X59.613 Y81.598 E1.21612
G1 X63.007 Y78.204 E1.34902
G1 X63.007 Y77.863 E1.35847
G1 X59.283 Y81.587 E1.50428
G1 X58.953 Y81.576 E1.51342
G1 X63.007 Y77.521 E1.67216
G1 X63.007 Y77.180 E1.68161
G1 X58.623 Y81.564 E1.85326
G1 X58.293 Y81.553 E1.86240
G1 X63.007 Y76.839 E2.04696
G1 X63.007 Y76.763 E2.04906
G1 X62.726 Y76.779 E2.05685
G1 X57.963 Y81.542 E2.24333
G1 X57.642 Y81.521 E2.25224
G1 X58.464 Y80.700 E2.28439
G1 X58.220 Y80.902 E2.29314
G1 X57.834 Y81.083 E2.30495
G1 X57.717 Y81.106 E2.30825
G1 X57.325 Y81.498 E2.32360
G1 X57.008 Y81.474 E2.33242
G1 X57.323 Y81.158 E2.34478
G1 X57.208 Y81.158 E2.34796
G1 X57.018 Y81.122 E2.35332
G1 X56.690 Y81.450 E2.36617
