; generated by Slic3r 1.3.1-dev (Build (Unknown revision)) on 2020-06-19 at 09:10:05

; external perimeters extrusion width = 0.44mm (2.86mm^3/s)
; perimeters extrusion width = 0.56mm (4.14mm^3/s)
; infill extrusion width = 0.50mm (3.66mm^3/s)
; solid infill extrusion width = 0.56mm (3.10mm^3/s)
; top infill extrusion width = 0.45mm (2.44mm^3/s)

M107
G92 E0
;D3D:START:START
T0
M104 S215 T0

G21
G90
M107
T0
G28
G29
M109 T0 S215 T0
G0 F3000
M107
T0
G92 E0
G0 X0 Y149 Z0.1 F3600
G1 Y49 E6.5 F1200
G0 Z1
G92 E0
; Filament gcode

G21 ; set units to millimeters
G90 ; use absolute coordinates
M82 ; use absolute distances for extrusion
G92 E0
G1 Z0.200 F6000.000
G1 E-2.00000 F1200.00000
G92 E0
G1 Z0.700 F6000.000
G1 X55.025 Y60.795 F6000.000
G1 Z0.200 F6000.000
G1 E2.00000 F1200.00000
G1 F1800.000
G1 X56.774 Y59.341 E2.04375
G1 X58.503 Y58.660 E2.07950
G1 X77.641 Y54.142 E2.45782
G1 X78.322 Y54.019 E2.47112
G1 X78.895 Y53.946 E2.48224
G1 X79.711 Y53.895 E2.49797
G1 X80.289 Y53.895 E2.50908
G1 X81.105 Y53.946 E2.52482
G1 X81.678 Y54.019 E2.53593
G1 X82.481 Y54.172 E2.55166
G1 X83.041 Y54.315 E2.56278
G1 X83.820 Y54.569 E2.57854
G1 X84.357 Y54.781 E2.58965
G1 X84.953 Y55.053 E2.60225
G1 X92.994 Y59.215 E2.77645
G1 X94.800 Y60.597 E2.82020
G1 X96.022 Y62.515 E2.86395
G1 X96.514 Y65.000 E2.91268
G1 X96.514 Y85.000 E3.29746
G1 X96.117 Y87.239 E3.34121
G1 X94.975 Y89.205 E3.38496
G1 X92.994 Y90.785 E3.43369
G1 X84.953 Y94.947 E3.60789
G1 X84.357 Y95.219 E3.62049
G1 X83.820 Y95.431 E3.63160
G1 X83.041 Y95.685 E3.64736
G1 X82.481 Y95.828 E3.65848
G1 X81.678 Y95.981 E3.67421
G1 X81.105 Y96.054 E3.68532
G1 X80.289 Y96.105 E3.70106
G1 X79.711 Y96.105 E3.71217
G1 X78.895 Y96.054 E3.72790
G1 X78.322 Y95.981 E3.73902
G1 X77.641 Y95.858 E3.75232
G1 X58.503 Y91.340 E4.13064
G1 X56.415 Y90.439 E4.17439
G1 X54.764 Y88.875 E4.21814
G1 X53.751 Y86.839 E4.26189
G1 X53.486 Y85.000 E4.29764
G1 X53.486 Y65.000 E4.68241
G1 X53.883 Y62.761 E4.72616
G1 X54.995 Y60.846 E4.76876
G1 X55.280 Y60.893 F6000.000
G1 F1800.000
G1 X57.019 Y59.499 E4.81163
G1 X58.562 Y58.910 E4.84341
G1 X77.700 Y54.392 E5.22172
G1 X78.354 Y54.274 E5.23450
G1 X78.927 Y54.201 E5.24562
G1 X79.711 Y54.152 E5.26073
G1 X80.289 Y54.152 E5.27184
G1 X81.073 Y54.201 E5.28696
G1 X81.646 Y54.274 E5.29807
G1 X82.418 Y54.421 E5.31318
G1 X82.977 Y54.564 E5.32430
G1 X83.725 Y54.808 E5.33943
G1 X84.262 Y55.020 E5.35055
G1 X84.835 Y55.281 E5.36265
G1 X92.876 Y59.443 E5.53685
G1 X94.641 Y60.804 E5.57972
G1 X95.817 Y62.696 E5.62259
G1 X96.257 Y65.000 E5.66771
G1 X96.257 Y85.000 E6.05249
G1 X95.860 Y87.193 E6.09536
G1 X94.720 Y89.107 E6.13823
G1 X92.876 Y90.557 E6.18335
G1 X84.835 Y94.719 E6.35755
G1 X84.262 Y94.980 E6.36965
G1 X83.725 Y95.192 E6.38076
G1 X82.977 Y95.436 E6.39590
G1 X82.418 Y95.579 E6.40702
G1 X81.646 Y95.726 E6.42212
G1 X81.073 Y95.799 E6.43324
G1 X80.289 Y95.848 E6.44835
G1 X79.711 Y95.848 E6.45947
G1 X78.927 Y95.799 E6.47458
G1 X78.354 Y95.726 E6.48570
G1 X77.700 Y95.608 E6.49848
G1 X58.562 Y91.090 E6.87679
G1 X56.519 Y90.200 E6.91966
G1 X54.918 Y88.650 E6.96253
G1 X53.961 Y86.638 E7.00540
G1 X53.743 Y85.000 E7.03718
G1 X53.743 Y65.000 E7.42196
G1 X54.140 Y62.807 E7.46483
G1 X55.249 Y60.944 E7.50654
G1 E5.50654 F1200.00000
G92 E0
G1 Z0.700 F6000.000
G1 X81.651 Y86.551 F6000.000
G1 Z0.200 F6000.000
G1 E2.00000 F1200.00000
G1 F1800.000
G1 X81.444 Y86.746 E2.00547
G1 X81.214 Y86.913 E2.01095
G1 X80.965 Y87.050 E2.01642
G1 X80.700 Y87.155 E2.02189
G1 X80.424 Y87.225 E2.02737
G1 X80.142 Y87.261 E2.03284
G1 X79.858 Y87.261 E2.03831
G1 X79.576 Y87.225 E2.04378
G1 X79.300 Y87.155 E2.04926
G1 X79.035 Y87.050 E2.05473
G1 X78.786 Y86.913 E2.06020
G1 X78.556 Y86.746 E2.06568
G1 X78.348 Y86.551 E2.07115
G1 X78.167 Y86.332 E2.07663
G1 X78.015 Y86.091 E2.08210
G1 X77.894 Y85.834 E2.08757
G1 X77.806 Y85.563 E2.09304
G1 X77.752 Y85.284 E2.09852
G1 X77.735 Y85.000 E2.10399
G1 X77.752 Y84.716 E2.10947
G1 X77.806 Y84.437 E2.11494
G1 X77.894 Y84.166 E2.12041
G1 X78.015 Y83.909 E2.12589
G1 X78.167 Y83.668 E2.13136
G1 X78.348 Y83.449 E2.13683
G1 X78.556 Y83.254 E2.14231
G1 X78.786 Y83.087 E2.14778
G1 X79.035 Y82.950 E2.15325
G1 X79.300 Y82.845 E2.15873
G1 X79.575 Y82.775 E2.16420
G1 X79.858 Y82.739 E2.16967
G1 X80.142 Y82.739 E2.17515
G1 X80.425 Y82.775 E2.18062
G1 X80.700 Y82.845 E2.18609
G1 X80.965 Y82.950 E2.19157
G1 X81.214 Y83.087 E2.19704
G1 X81.444 Y83.254 E2.20251
G1 X81.651 Y83.449 E2.20799
G1 X81.833 Y83.668 E2.21346
G1 X81.985 Y83.909 E2.21893
G1 X82.106 Y84.166 E2.22441
G1 X82.194 Y84.437 E2.22988
G1 X82.248 Y84.716 E2.23535
G1 X82.265 Y85.000 E2.24083
G1 X82.248 Y85.284 E2.24630
G1 X82.194 Y85.563 E2.25178
G1 X82.106 Y85.834 E2.25725
G1 X81.985 Y86.091 E2.26272
G1 X81.833 Y86.332 E2.26820
G1 X81.690 Y86.505 E2.27251
G1 X81.464 Y86.375 F6000.000
G1 F1800.000
G1 X81.280 Y86.547 E2.27736
G1 X81.076 Y86.695 E2.28222
G1 X80.855 Y86.817 E2.28707
G1 X80.621 Y86.910 E2.29192
G1 X80.376 Y86.972 E2.29677
G1 X80.126 Y87.004 E2.30162
G1 X79.874 Y87.004 E2.30647
G1 X79.624 Y86.972 E2.31132
G1 X79.379 Y86.910 E2.31617
G1 X79.145 Y86.817 E2.32102
G1 X78.924 Y86.695 E2.32587
G1 X78.720 Y86.547 E2.33072
G1 X78.536 Y86.375 E2.33558
G1 X78.376 Y86.180 E2.34043
G1 X78.240 Y85.967 E2.34528
G1 X78.133 Y85.739 E2.35013
G1 X78.055 Y85.499 E2.35498
G1 X78.008 Y85.252 E2.35983
G1 X77.992 Y85.000 E2.36468
G1 X78.008 Y84.748 E2.36953
G1 X78.055 Y84.501 E2.37439
G1 X78.133 Y84.261 E2.37924
G1 X78.240 Y84.033 E2.38409
G1 X78.376 Y83.820 E2.38894
G1 X78.536 Y83.626 E2.39379
G1 X78.720 Y83.453 E2.39864
G1 X78.924 Y83.305 E2.40349
G1 X79.145 Y83.183 E2.40834
G1 X79.380 Y83.090 E2.41319
G1 X79.624 Y83.028 E2.41804
G1 X79.874 Y82.996 E2.42289
G1 X80.126 Y82.996 E2.42775
G1 X80.376 Y83.028 E2.43260
G1 X80.620 Y83.090 E2.43745
G1 X80.855 Y83.183 E2.44230
G1 X81.076 Y83.305 E2.44715
G1 X81.280 Y83.453 E2.45200
G1 X81.464 Y83.626 E2.45685
G1 X81.624 Y83.820 E2.46170
G1 X81.760 Y84.033 E2.46656
G1 X81.867 Y84.261 E2.47141
G1 X81.945 Y84.501 E2.47626
G1 X81.992 Y84.748 E2.48111
G1 X82.008 Y85.000 E2.48596
G1 X81.992 Y85.252 E2.49081
G1 X81.945 Y85.499 E2.49566
G1 X81.867 Y85.739 E2.50051
G1 X81.760 Y85.967 E2.50536
G1 X81.624 Y86.180 E2.51022
G1 X81.502 Y86.328 E2.51391
G1 X81.276 Y86.198 F6000.000
G1 F1800.000
G1 X81.116 Y86.349 E2.51814
G1 X80.938 Y86.478 E2.52237
G1 X80.745 Y86.584 E2.52660
G1 X80.541 Y86.665 E2.53083
G1 X80.328 Y86.719 E2.53506
G1 X80.110 Y86.747 E2.53928
G1 X79.890 Y86.747 E2.54351
G1 X79.672 Y86.719 E2.54774
G1 X79.459 Y86.665 E2.55197
G1 X79.255 Y86.584 E2.55620
G1 X79.062 Y86.478 E2.56043
G1 X78.884 Y86.349 E2.56466
G1 X78.724 Y86.198 E2.56888
G1 X78.584 Y86.029 E2.57311
G1 X78.466 Y85.843 E2.57734
G1 X78.373 Y85.644 E2.58157
G1 X78.305 Y85.435 E2.58580
G1 X78.263 Y85.219 E2.59003
G1 X78.250 Y85.000 E2.59426
G1 X78.263 Y84.781 E2.59849
G1 X78.305 Y84.565 E2.60271
G1 X78.373 Y84.356 E2.60694
G1 X78.466 Y84.157 E2.61117
G1 X78.584 Y83.971 E2.61540
G1 X78.724 Y83.802 E2.61963
G1 X78.884 Y83.651 E2.62386
G1 X79.062 Y83.522 E2.62809
G1 X79.255 Y83.416 E2.63232
G1 X79.459 Y83.335 E2.63654
G1 X79.672 Y83.281 E2.64077
G1 X79.890 Y83.253 E2.64500
G1 X80.110 Y83.253 E2.64923
G1 X80.328 Y83.281 E2.65346
G1 X80.541 Y83.335 E2.65769
G1 X80.745 Y83.416 E2.66192
G1 X80.938 Y83.522 E2.66614
G1 X81.116 Y83.651 E2.67037
G1 X81.276 Y83.802 E2.67460
G1 X81.416 Y83.971 E2.67883
G1 X81.534 Y84.157 E2.68306
G1 X81.627 Y84.356 E2.68729
G1 X81.695 Y84.565 E2.69152
G1 X81.737 Y84.781 E2.69575
G1 X81.750 Y85.000 E2.69997
G1 X81.737 Y85.219 E2.70420
G1 X81.695 Y85.435 E2.70843
G1 X81.627 Y85.644 E2.71266
G1 X81.534 Y85.843 E2.71689
G1 X81.314 Y86.152 E2.72418
G1 X81.339 Y86.409 F6000.000
G1 E0.72418 F1200.00000
G92 E0
G1 Z0.700 F6000.000
G1 X71.651 Y76.551 F6000.000
G1 Z0.200 F6000.000
G1 E2.00000 F1200.00000
G1 F1800.000
G1 X71.444 Y76.746 E2.00547
G1 X71.214 Y76.913 E2.01095
G1 X70.965 Y77.050 E2.01642
G1 X70.700 Y77.155 E2.02189
G1 X70.425 Y77.225 E2.02737
G1 X70.142 Y77.261 E2.03284
G1 X69.858 Y77.261 E2.03831
G1 X69.575 Y77.225 E2.04379
G1 X69.300 Y77.155 E2.04926
G1 X69.035 Y77.050 E2.05473
G1 X68.786 Y76.913 E2.06021
G1 X68.556 Y76.746 E2.06568
G1 X68.349 Y76.551 E2.07115
G1 X68.167 Y76.332 E2.07663
G1 X68.015 Y76.091 E2.08210
G1 X67.894 Y75.834 E2.08757
G1 X67.808 Y75.569 E2.09292
G1 X67.754 Y75.317 E2.09789
G1 X67.735 Y75.000 E2.10400
G1 X67.756 Y74.664 E2.11048
G1 X67.887 Y74.181 E2.12010
G1 X68.015 Y73.909 E2.12590
G1 X68.167 Y73.668 E2.13137
G1 X68.349 Y73.449 E2.13684
G1 X68.556 Y73.254 E2.14232
G1 X68.786 Y73.087 E2.14779
G1 X69.035 Y72.950 E2.15326
G1 X69.300 Y72.845 E2.15874
G1 X69.575 Y72.775 E2.16421
G1 X69.858 Y72.739 E2.16968
G1 X70.142 Y72.739 E2.17516
G1 X70.425 Y72.775 E2.18063
G1 X70.700 Y72.845 E2.18610
G1 X70.965 Y72.950 E2.19158
G1 X71.214 Y73.087 E2.19705
G1 X71.444 Y73.254 E2.20252
G1 X71.651 Y73.449 E2.20800
G1 X71.833 Y73.668 E2.21347
G1 X71.985 Y73.909 E2.21894
G1 X72.106 Y74.166 E2.22442
G1 X72.194 Y74.437 E2.22989
G1 X72.248 Y74.716 E2.23536
G1 X72.265 Y75.000 E2.24084
G1 X72.248 Y75.284 E2.24631
G1 X72.194 Y75.563 E2.25179
G1 X72.106 Y75.834 E2.25726
G1 X71.985 Y76.091 E2.26273
G1 X71.833 Y76.332 E2.26821
G1 X71.690 Y76.505 E2.27252
G1 X71.464 Y76.374 F6000.000
G1 F1800.000
G1 X71.280 Y76.547 E2.27737
G1 X71.076 Y76.695 E2.28223
G1 X70.855 Y76.817 E2.28708
G1 X70.620 Y76.910 E2.29193
G1 X70.376 Y76.972 E2.29678
G1 X70.126 Y77.004 E2.30163
G1 X69.874 Y77.004 E2.30648
G1 X69.624 Y76.972 E2.31133
G1 X69.380 Y76.910 E2.31618
G1 X69.145 Y76.817 E2.32103
G1 X68.924 Y76.695 E2.32588
G1 X68.720 Y76.547 E2.33074
G1 X68.536 Y76.374 E2.33559
G1 X68.376 Y76.180 E2.34044
G1 X68.240 Y75.967 E2.34529
G1 X68.133 Y75.739 E2.35014
G1 X68.056 Y75.503 E2.35491
G1 X68.010 Y75.282 E2.35926
G1 X67.992 Y75.000 E2.36470
G1 X68.011 Y74.706 E2.37036
G1 X68.129 Y74.270 E2.37906
G1 X68.240 Y74.033 E2.38410
G1 X68.376 Y73.820 E2.38895
G1 X68.536 Y73.626 E2.39380
G1 X68.720 Y73.453 E2.39865
G1 X68.924 Y73.305 E2.40351
G1 X69.145 Y73.183 E2.40836
G1 X69.380 Y73.090 E2.41321
G1 X69.624 Y73.028 E2.41806
G1 X69.874 Y72.996 E2.42291
G1 X70.126 Y72.996 E2.42776
G1 X70.376 Y73.028 E2.43261
G1 X70.620 Y73.090 E2.43746
G1 X70.855 Y73.183 E2.44231
G1 X71.076 Y73.305 E2.44716
G1 X71.280 Y73.453 E2.45202
G1 X71.464 Y73.626 E2.45687
G1 X71.624 Y73.820 E2.46172
G1 X71.760 Y74.033 E2.46657
G1 X71.867 Y74.261 E2.47142
G1 X71.945 Y74.501 E2.47627
G1 X71.992 Y74.748 E2.48112
G1 X72.008 Y75.000 E2.48597
G1 X71.992 Y75.252 E2.49082
G1 X71.945 Y75.499 E2.49568
G1 X71.867 Y75.739 E2.50053
G1 X71.760 Y75.967 E2.50538
G1 X71.624 Y76.180 E2.51023
G1 X71.502 Y76.328 E2.51392
G1 X71.276 Y76.198 F6000.000
G1 F1800.000
G1 X71.116 Y76.349 E2.51815
G1 X70.938 Y76.478 E2.52238
G1 X70.745 Y76.584 E2.52661
G1 X70.541 Y76.665 E2.53084
G1 X70.328 Y76.719 E2.53507
G1 X70.110 Y76.747 E2.53930
G1 X69.890 Y76.747 E2.54353
G1 X69.672 Y76.719 E2.54775
G1 X69.459 Y76.665 E2.55198
G1 X69.255 Y76.584 E2.55621
G1 X69.062 Y76.478 E2.56044
G1 X68.884 Y76.349 E2.56467
G1 X68.724 Y76.198 E2.56890
G1 X68.584 Y76.029 E2.57313
G1 X68.466 Y75.843 E2.57736
G1 X68.373 Y75.644 E2.58158
G1 X68.305 Y75.437 E2.58578
G1 X68.265 Y75.248 E2.58950
G1 X68.250 Y75.000 E2.59427
G1 X68.266 Y74.748 E2.59913
G1 X68.371 Y74.359 E2.60689
G1 X68.466 Y74.157 E2.61119
G1 X68.584 Y73.971 E2.61541
G1 X68.724 Y73.802 E2.61964
G1 X68.884 Y73.651 E2.62387
G1 X69.062 Y73.522 E2.62810
G1 X69.255 Y73.416 E2.63233
G1 X69.459 Y73.335 E2.63656
G1 X69.672 Y73.281 E2.64079
G1 X69.890 Y73.253 E2.64502
G1 X70.110 Y73.253 E2.64925
G1 X70.328 Y73.281 E2.65347
G1 X70.541 Y73.335 E2.65770
G1 X70.745 Y73.416 E2.66193
G1 X70.938 Y73.522 E2.66616
G1 X71.116 Y73.651 E2.67039
G1 X71.276 Y73.802 E2.67462
G1 X71.416 Y73.971 E2.67884
G1 X71.534 Y74.157 E2.68307
G1 X71.627 Y74.356 E2.68730
G1 X71.695 Y74.565 E2.69153
G1 X71.737 Y74.781 E2.69576
G1 X71.750 Y75.000 E2.69999
G1 X71.737 Y75.219 E2.70422
G1 X71.695 Y75.435 E2.70845
G1 X71.627 Y75.644 E2.71268
G1 X71.534 Y75.843 E2.71690
G1 X71.314 Y76.152 E2.72419
G1 X71.339 Y76.409 F6000.000
G1 E0.72419 F1200.00000
G92 E0
G1 Z0.700 F6000.000
G1 X78.556 Y66.746 F6000.000
G1 Z0.200 F6000.000
G1 E2.00000 F1200.00000
G1 F1800.000
G1 X78.348 Y66.551 E2.00548
G1 X78.167 Y66.332 E2.01095
G1 X78.015 Y66.091 E2.01642
G1 X77.894 Y65.834 E2.02190
G1 X77.806 Y65.563 E2.02737
G1 X77.752 Y65.284 E2.03284
G1 X77.735 Y65.000 E2.03831
G1 X77.752 Y64.716 E2.04379
G1 X77.806 Y64.437 E2.04926
G1 X77.894 Y64.166 E2.05473
G1 X78.015 Y63.909 E2.06021
G1 X78.167 Y63.668 E2.06568
G1 X78.348 Y63.449 E2.07115
G1 X78.556 Y63.254 E2.07663
G1 X78.786 Y63.087 E2.08210
G1 X79.035 Y62.950 E2.08757
G1 X79.300 Y62.845 E2.09305
G1 X79.576 Y62.775 E2.09852
G1 X79.858 Y62.739 E2.10400
G1 X80.142 Y62.739 E2.10947
G1 X80.424 Y62.775 E2.11494
G1 X80.700 Y62.845 E2.12042
G1 X80.965 Y62.950 E2.12589
G1 X81.214 Y63.087 E2.13136
G1 X81.444 Y63.254 E2.13684
G1 X81.651 Y63.449 E2.14231
G1 X81.833 Y63.668 E2.14778
G1 X81.985 Y63.909 E2.15326
G1 X82.106 Y64.166 E2.15873
G1 X82.194 Y64.437 E2.16420
G1 X82.248 Y64.716 E2.16968
G1 X82.265 Y65.000 E2.17515
G1 X82.248 Y65.284 E2.18062
G1 X82.194 Y65.563 E2.18610
G1 X82.106 Y65.834 E2.19157
G1 X81.985 Y66.091 E2.19704
G1 X81.833 Y66.332 E2.20252
G1 X81.651 Y66.551 E2.20799
G1 X81.444 Y66.746 E2.21346
G1 X81.214 Y66.913 E2.21894
G1 X80.965 Y67.050 E2.22441
G1 X80.700 Y67.155 E2.22988
G1 X80.425 Y67.225 E2.23536
G1 X80.142 Y67.261 E2.24083
G1 X79.858 Y67.261 E2.24630
G1 X79.575 Y67.225 E2.25178
G1 X79.300 Y67.155 E2.25725
G1 X79.035 Y67.050 E2.26272
G1 X78.786 Y66.913 E2.26819
G1 X78.605 Y66.781 E2.27251
G1 X78.720 Y66.547 F6000.000
G1 F1800.000
G1 X78.536 Y66.374 E2.27737
G1 X78.376 Y66.180 E2.28222
G1 X78.240 Y65.967 E2.28707
G1 X78.133 Y65.739 E2.29192
G1 X78.055 Y65.499 E2.29677
G1 X78.008 Y65.252 E2.30162
G1 X77.992 Y65.000 E2.30647
G1 X78.008 Y64.748 E2.31132
G1 X78.055 Y64.501 E2.31618
G1 X78.133 Y64.261 E2.32103
G1 X78.240 Y64.033 E2.32588
G1 X78.376 Y63.820 E2.33073
G1 X78.536 Y63.625 E2.33558
G1 X78.720 Y63.453 E2.34043
G1 X78.924 Y63.305 E2.34528
G1 X79.145 Y63.183 E2.35013
G1 X79.379 Y63.090 E2.35498
G1 X79.624 Y63.028 E2.35984
G1 X79.874 Y62.996 E2.36469
G1 X80.126 Y62.996 E2.36954
G1 X80.376 Y63.028 E2.37439
G1 X80.621 Y63.090 E2.37924
G1 X80.855 Y63.183 E2.38409
G1 X81.076 Y63.305 E2.38894
G1 X81.280 Y63.453 E2.39379
G1 X81.464 Y63.625 E2.39864
G1 X81.624 Y63.820 E2.40349
G1 X81.760 Y64.033 E2.40835
G1 X81.867 Y64.261 E2.41320
G1 X81.945 Y64.501 E2.41805
G1 X81.992 Y64.748 E2.42290
G1 X82.008 Y65.000 E2.42775
G1 X81.992 Y65.252 E2.43260
G1 X81.945 Y65.499 E2.43745
G1 X81.867 Y65.739 E2.44230
G1 X81.760 Y65.967 E2.44715
G1 X81.624 Y66.180 E2.45200
G1 X81.464 Y66.374 E2.45685
G1 X81.280 Y66.547 E2.46170
G1 X81.076 Y66.695 E2.46656
G1 X80.855 Y66.817 E2.47141
G1 X80.620 Y66.910 E2.47626
G1 X80.376 Y66.972 E2.48111
G1 X80.126 Y67.004 E2.48596
G1 X79.874 Y67.004 E2.49081
G1 X79.624 Y66.972 E2.49566
G1 X79.380 Y66.910 E2.50051
G1 X79.145 Y66.817 E2.50536
G1 X78.924 Y66.695 E2.51021
G1 X78.769 Y66.582 E2.51391
G1 X78.884 Y66.349 F6000.000
G1 F1800.000
G1 X78.724 Y66.198 E2.51814
G1 X78.584 Y66.029 E2.52237
G1 X78.466 Y65.843 E2.52660
G1 X78.373 Y65.644 E2.53083
G1 X78.305 Y65.435 E2.53506
G1 X78.263 Y65.219 E2.53928
G1 X78.250 Y65.000 E2.54351
G1 X78.263 Y64.781 E2.54774
G1 X78.305 Y64.565 E2.55197
G1 X78.373 Y64.356 E2.55620
G1 X78.466 Y64.157 E2.56043
G1 X78.584 Y63.971 E2.56466
G1 X78.724 Y63.802 E2.56889
G1 X78.884 Y63.651 E2.57311
G1 X79.062 Y63.522 E2.57734
G1 X79.255 Y63.416 E2.58157
G1 X79.459 Y63.335 E2.58580
G1 X79.672 Y63.281 E2.59003
G1 X79.890 Y63.253 E2.59426
G1 X80.110 Y63.253 E2.59849
G1 X80.328 Y63.281 E2.60271
G1 X80.541 Y63.335 E2.60694
G1 X80.745 Y63.416 E2.61117
G1 X80.938 Y63.522 E2.61540
G1 X81.116 Y63.651 E2.61963
G1 X81.276 Y63.802 E2.62386
G1 X81.416 Y63.971 E2.62809
G1 X81.534 Y64.157 E2.63232
G1 X81.627 Y64.356 E2.63654
G1 X81.695 Y64.565 E2.64077
G1 X81.737 Y64.781 E2.64500
G1 X81.750 Y65.000 E2.64923
G1 X81.737 Y65.219 E2.65346
G1 X81.695 Y65.435 E2.65769
G1 X81.627 Y65.644 E2.66192
G1 X81.534 Y65.843 E2.66615
