; generated by Slic3r 1.3.1-dev (Build (Unknown revision)) on 2020-06-18 at 22:15:22

; external perimeters extrusion width = 0.44mm (2.86mm^3/s)
; perimeters extrusion width = 0.56mm (4.14mm^3/s)
; infill extrusion width = 0.50mm (5.48mm^3/s)
; solid infill extrusion width = 0.56mm (3.10mm^3/s)
; top infill extrusion width = 0.45mm (2.44mm^3/s)

M107
G92 E0
;D3D:START:START
T0
M104 S215 T0

G21
G90
M107
T0
G28
G29
M109 T0 S215 T0
G0 F3000
M107
T0
G92 E0
G0 X0 Y149 Z0.1 F3600
G1 Y49 E6.5 F1200
G0 Z1
G92 E0
; Filament gcode

G21 ; set units to millimeters
G90 ; use absolute coordinates
M82 ; use absolute distances for extrusion
G92 E0
G1 Z0.200 F6000.000
G1 E-2.00000 F1200.00000
G92 E0
G1 X26.548 Y12.931 F6000.000
G1 E2.00000 F1200.00000
G1 F1800.000
G1 X27.665 Y11.407 E2.03636
G1 X29.309 Y10.474 E2.07271
G1 X30.667 Y10.265 E2.09914
G1 X69.882 Y10.265 E2.85360
G1 X70.821 Y10.363 E2.87175
G1 X71.894 Y10.591 E2.89287
G1 X72.792 Y10.883 E2.91102
G1 X73.859 Y11.359 E2.93349
G1 X82.234 Y15.245 E3.11112
G1 X82.987 Y15.688 E3.12793
G1 X84.678 Y16.917 E3.16815
G1 X85.133 Y17.295 E3.17954
G1 X103.788 Y35.011 E3.67447
G1 X104.034 Y35.264 E3.68126
G1 X104.918 Y36.260 E3.70689
G1 X122.873 Y58.949 E4.26354
G1 X123.710 Y60.643 E4.29989
G1 X123.848 Y61.750 E4.32135
G1 X123.848 Y88.250 E4.83117
G1 X123.452 Y90.098 E4.86753
G1 X122.873 Y91.051 E4.88899
G1 X104.918 Y113.740 E5.44564
G1 X104.034 Y114.736 E5.47126
G1 X103.788 Y114.989 E5.47805
G1 X85.133 Y132.705 E5.97298
G1 X84.678 Y133.083 E5.98438
G1 X82.987 Y134.312 E6.02460
G1 X82.234 Y134.755 E6.04141
G1 X73.859 Y138.641 E6.21903
G1 X72.792 Y139.117 E6.24151
G1 X71.894 Y139.409 E6.25966
G1 X70.821 Y139.637 E6.28077
G1 X69.882 Y139.735 E6.29893
G1 X30.667 Y139.735 E7.05338
G1 X28.819 Y139.340 E7.08974
G1 X27.295 Y138.222 E7.12609
G1 X26.362 Y136.579 E7.16245
G1 X26.152 Y135.221 E7.18888
G1 X26.152 Y14.779 E9.50603
G1 X26.535 Y12.990 E9.54123
G1 X26.805 Y12.987 F6000.000
G1 F1800.000
G1 X27.917 Y11.529 E9.57653
G1 X29.540 Y10.673 E9.61182
G1 X30.667 Y10.522 E9.63368
G1 X69.882 Y10.522 E10.38814
G1 X70.767 Y10.615 E10.40526
G1 X71.841 Y10.843 E10.42637
G1 X72.687 Y11.118 E10.44349
G1 X73.750 Y11.592 E10.46589
G1 X82.125 Y15.478 E10.64351
G1 X82.836 Y15.896 E10.65937
G1 X84.527 Y17.125 E10.69959
G1 X84.956 Y17.482 E10.71033
G1 X103.610 Y35.197 E11.20526
G1 X103.843 Y35.436 E11.21166
G1 X104.717 Y36.419 E11.23698
G1 X122.672 Y59.108 E11.79363
G1 X123.473 Y60.758 E11.82892
G1 X123.590 Y61.750 E11.84813
G1 X123.590 Y88.250 E12.35795
G1 X123.195 Y90.041 E12.39325
G1 X122.672 Y90.892 E12.41246
G1 X104.717 Y113.581 E12.96911
G1 X103.610 Y114.803 E13.00082
G1 X84.956 Y132.518 E13.49575
G1 X84.527 Y132.875 E13.50649
G1 X82.836 Y134.104 E13.54671
G1 X82.125 Y134.522 E13.56256
G1 X73.750 Y138.408 E13.74019
G1 X72.687 Y138.882 E13.76259
G1 X71.841 Y139.157 E13.77970
G1 X70.767 Y139.385 E13.80082
G1 X69.882 Y139.478 E13.81794
G1 X30.667 Y139.478 E14.57239
G1 X28.875 Y139.083 E14.60769
G1 X27.416 Y137.970 E14.64298
G1 X26.561 Y136.347 E14.67828
G1 X26.410 Y135.221 E14.70014
G1 X26.410 Y14.779 E17.01729
G1 X26.792 Y13.046 E17.05143
G1 E15.05143 F1200.00000
G92 E0
G1 X67.191 Y127.739 F6000.000
G1 E2.00000 F1200.00000
G1 F1800.000
G1 X67.475 Y127.739 E2.00547
G1 X67.758 Y127.775 E2.01094
G1 X68.034 Y127.845 E2.01642
G1 X68.298 Y127.950 E2.02189
G1 X68.547 Y128.087 E2.02737
G1 X68.777 Y128.254 E2.03284
G1 X68.985 Y128.449 E2.03831
G1 X69.166 Y128.668 E2.04378
G1 X69.319 Y128.909 E2.04926
G1 X69.440 Y129.166 E2.05473
G1 X69.528 Y129.437 E2.06021
G1 X69.581 Y129.716 E2.06568
G1 X69.600 Y130.012 E2.07137
G1 X69.553 Y130.485 E2.08053
G1 X69.440 Y130.834 E2.08758
G1 X69.319 Y131.091 E2.09306
G1 X69.166 Y131.332 E2.09853
G1 X68.985 Y131.551 E2.10401
G1 X68.777 Y131.746 E2.10948
G1 X68.547 Y131.913 E2.11495
G1 X68.298 Y132.050 E2.12043
G1 X68.034 Y132.155 E2.12590
G1 X67.758 Y132.225 E2.13137
G1 X67.475 Y132.261 E2.13685
G1 X67.191 Y132.261 E2.14232
G1 X66.909 Y132.225 E2.14779
G1 X66.633 Y132.155 E2.15327
G1 X66.369 Y132.050 E2.15874
G1 X66.119 Y131.913 E2.16421
G1 X65.889 Y131.746 E2.16969
G1 X65.682 Y131.551 E2.17516
G1 X65.500 Y131.332 E2.18063
G1 X65.348 Y131.091 E2.18611
G1 X65.227 Y130.834 E2.19158
G1 X65.139 Y130.563 E2.19706
G1 X65.086 Y130.284 E2.20253
G1 X65.068 Y130.000 E2.20800
G1 X65.086 Y129.716 E2.21347
G1 X65.139 Y129.437 E2.21895
G1 X65.227 Y129.166 E2.22442
G1 X65.348 Y128.909 E2.22989
G1 X65.500 Y128.668 E2.23537
G1 X65.682 Y128.449 E2.24084
G1 X65.889 Y128.254 E2.24632
G1 X66.119 Y128.087 E2.25179
G1 X66.369 Y127.950 E2.25726
G1 X66.633 Y127.845 E2.26273
G1 X66.909 Y127.775 E2.26821
G1 X67.132 Y127.747 E2.27253
G1 X67.207 Y127.996 F6000.000
G1 F1800.000
G1 X67.459 Y127.996 E2.27738
G1 X67.710 Y128.028 E2.28223
G1 X67.954 Y128.090 E2.28708
G1 X68.188 Y128.183 E2.29193
G1 X68.409 Y128.305 E2.29678
G1 X68.613 Y128.453 E2.30163
G1 X68.797 Y128.625 E2.30648
G1 X68.958 Y128.820 E2.31134
G1 X69.093 Y129.033 E2.31619
G1 X69.200 Y129.261 E2.32104
G1 X69.278 Y129.501 E2.32589
G1 X69.325 Y129.748 E2.33074
G1 X69.342 Y130.007 E2.33573
G1 X69.300 Y130.432 E2.34395
G1 X69.200 Y130.739 E2.35015
G1 X69.093 Y130.967 E2.35501
G1 X68.958 Y131.180 E2.35986
G1 X68.797 Y131.375 E2.36471
G1 X68.613 Y131.547 E2.36956
G1 X68.409 Y131.695 E2.37441
G1 X68.188 Y131.817 E2.37926
G1 X67.954 Y131.910 E2.38411
G1 X67.710 Y131.972 E2.38896
G1 X67.459 Y132.004 E2.39382
G1 X67.207 Y132.004 E2.39866
G1 X66.957 Y131.972 E2.40351
G1 X66.713 Y131.910 E2.40837
G1 X66.478 Y131.817 E2.41322
G1 X66.257 Y131.695 E2.41807
G1 X66.053 Y131.547 E2.42292
G1 X65.870 Y131.375 E2.42777
G1 X65.709 Y131.180 E2.43262
G1 X65.574 Y130.967 E2.43748
G1 X65.466 Y130.739 E2.44232
G1 X65.388 Y130.499 E2.44718
G1 X65.341 Y130.252 E2.45203
G1 X65.325 Y130.000 E2.45688
G1 X65.341 Y129.748 E2.46173
G1 X65.388 Y129.501 E2.46658
G1 X65.466 Y129.261 E2.47143
G1 X65.574 Y129.033 E2.47628
G1 X65.709 Y128.820 E2.48113
G1 X65.870 Y128.625 E2.48599
G1 X66.053 Y128.453 E2.49084
G1 X66.257 Y128.305 E2.49569
G1 X66.478 Y128.183 E2.50054
G1 X66.713 Y128.090 E2.50539
G1 X66.957 Y128.028 E2.51024
G1 X67.148 Y128.004 E2.51394
G1 X67.223 Y128.253 F6000.000
G1 F1800.000
G1 X67.443 Y128.253 E2.51817
G1 X67.661 Y128.281 E2.52240
G1 X67.874 Y128.335 E2.52663
G1 X68.079 Y128.416 E2.53085
G1 X68.271 Y128.522 E2.53508
G1 X68.449 Y128.651 E2.53931
G1 X68.609 Y128.802 E2.54354
G1 X68.749 Y128.971 E2.54777
G1 X68.867 Y129.157 E2.55200
G1 X68.961 Y129.356 E2.55623
G1 X69.029 Y129.565 E2.56045
G1 X69.070 Y129.781 E2.56468
G1 X69.084 Y130.003 E2.56896
G1 X69.047 Y130.379 E2.57625
G1 X68.961 Y130.644 E2.58160
G1 X68.867 Y130.843 E2.58583
G1 X68.749 Y131.029 E2.59006
G1 X68.609 Y131.198 E2.59429
G1 X68.449 Y131.349 E2.59852
G1 X68.271 Y131.478 E2.60275
G1 X68.079 Y131.584 E2.60698
G1 X67.874 Y131.665 E2.61121
G1 X67.661 Y131.719 E2.61544
G1 X67.443 Y131.747 E2.61966
G1 X67.223 Y131.747 E2.62389
G1 X67.005 Y131.719 E2.62812
G1 X66.792 Y131.665 E2.63235
G1 X66.588 Y131.584 E2.63658
G1 X66.395 Y131.478 E2.64081
G1 X66.218 Y131.349 E2.64504
G1 X66.057 Y131.198 E2.64926
G1 X65.917 Y131.029 E2.65349
G1 X65.800 Y130.843 E2.65772
G1 X65.706 Y130.644 E2.66195
G1 X65.638 Y130.435 E2.66618
G1 X65.597 Y130.219 E2.67041
G1 X65.583 Y130.000 E2.67464
G1 X65.597 Y129.781 E2.67886
G1 X65.638 Y129.565 E2.68309
G1 X65.706 Y129.356 E2.68732
G1 X65.800 Y129.157 E2.69155
G1 X65.917 Y128.971 E2.69578
G1 X66.057 Y128.802 E2.70001
G1 X66.218 Y128.651 E2.70424
G1 X66.395 Y128.522 E2.70847
G1 X66.588 Y128.416 E2.71270
G1 X66.792 Y128.335 E2.71692
G1 X67.164 Y128.261 E2.72421
G1 X67.321 Y128.056 F6000.000
G1 E0.72421 F1200.00000
G92 E0
G1 X59.581 Y129.716 F6000.000
G1 E2.00000 F1200.00000
G1 F1800.000
G1 X59.600 Y130.012 E2.00570
G1 X59.553 Y130.485 E2.01485
G1 X59.440 Y130.834 E2.02191
G1 X59.319 Y131.091 E2.02738
G1 X59.166 Y131.332 E2.03286
G1 X58.985 Y131.551 E2.03833
G1 X58.777 Y131.746 E2.04380
G1 X58.547 Y131.913 E2.04927
G1 X58.298 Y132.050 E2.05475
G1 X58.034 Y132.155 E2.06022
G1 X57.758 Y132.225 E2.06570
G1 X57.475 Y132.261 E2.07117
G1 X57.191 Y132.261 E2.07664
G1 X56.909 Y132.225 E2.08211
G1 X56.633 Y132.155 E2.08759
G1 X56.369 Y132.050 E2.09306
G1 X56.119 Y131.913 E2.09854
G1 X55.889 Y131.746 E2.10401
G1 X55.682 Y131.551 E2.10948
G1 X55.500 Y131.332 E2.11496
G1 X55.348 Y131.091 E2.12043
G1 X55.227 Y130.834 E2.12590
G1 X55.139 Y130.563 E2.13138
G1 X55.086 Y130.284 E2.13685
G1 X55.068 Y130.000 E2.14232
G1 X55.086 Y129.716 E2.14779
G1 X55.139 Y129.437 E2.15327
G1 X55.227 Y129.166 E2.15874
G1 X55.348 Y128.909 E2.16422
G1 X55.500 Y128.668 E2.16969
G1 X55.682 Y128.449 E2.17517
G1 X55.889 Y128.254 E2.18064
G1 X56.119 Y128.087 E2.18611
G1 X56.369 Y127.950 E2.19158
G1 X56.633 Y127.845 E2.19705
G1 X56.909 Y127.775 E2.20253
G1 X57.191 Y127.739 E2.20801
G1 X57.475 Y127.739 E2.21347
G1 X57.758 Y127.775 E2.21895
G1 X58.034 Y127.845 E2.22443
G1 X58.298 Y127.950 E2.22990
G1 X58.547 Y128.087 E2.23537
G1 X58.777 Y128.254 E2.24084
G1 X58.985 Y128.449 E2.24631
G1 X59.166 Y128.668 E2.25179
G1 X59.319 Y128.909 E2.25727
G1 X59.440 Y129.166 E2.26274
G1 X59.528 Y129.437 E2.26821
G1 X59.570 Y129.657 E2.27253
G1 X59.325 Y129.748 F6000.000
G1 F1800.000
G1 X59.342 Y130.007 E2.27752
G1 X59.300 Y130.432 E2.28574
G1 X59.200 Y130.739 E2.29194
G1 X59.093 Y130.967 E2.29679
G1 X58.958 Y131.180 E2.30165
G1 X58.797 Y131.375 E2.30650
G1 X58.613 Y131.547 E2.31135
G1 X58.409 Y131.695 E2.31620
G1 X58.188 Y131.817 E2.32105
G1 X57.954 Y131.910 E2.32590
G1 X57.710 Y131.972 E2.33075
G1 X57.459 Y132.004 E2.33561
G1 X57.207 Y132.004 E2.34045
G1 X56.957 Y131.972 E2.34530
G1 X56.713 Y131.910 E2.35016
G1 X56.478 Y131.817 E2.35501
G1 X56.257 Y131.695 E2.35986
G1 X56.053 Y131.547 E2.36471
G1 X55.870 Y131.375 E2.36956
G1 X55.709 Y131.180 E2.37441
G1 X55.574 Y130.967 E2.37926
G1 X55.466 Y130.739 E2.38411
G1 X55.388 Y130.499 E2.38897
G1 X55.341 Y130.252 E2.39382
G1 X55.325 Y130.000 E2.39867
G1 X55.341 Y129.748 E2.40352
G1 X55.388 Y129.501 E2.40837
G1 X55.466 Y129.261 E2.41322
G1 X55.574 Y129.033 E2.41807
G1 X55.709 Y128.820 E2.42292
G1 X55.870 Y128.625 E2.42778
G1 X56.053 Y128.453 E2.43263
G1 X56.257 Y128.305 E2.43748
G1 X56.478 Y128.183 E2.44233
G1 X56.713 Y128.090 E2.44718
G1 X56.957 Y128.028 E2.45203
G1 X57.207 Y127.996 E2.45688
G1 X57.459 Y127.996 E2.46173
G1 X57.710 Y128.028 E2.46658
G1 X57.954 Y128.090 E2.47144
G1 X58.188 Y128.183 E2.47629
G1 X58.409 Y128.305 E2.48114
G1 X58.613 Y128.453 E2.48599
G1 X58.797 Y128.625 E2.49084
G1 X58.958 Y128.820 E2.49569
G1 X59.093 Y129.033 E2.50054
G1 X59.200 Y129.261 E2.50539
G1 X59.278 Y129.501 E2.51024
G1 X59.314 Y129.689 E2.51394
G1 X59.070 Y129.781 F6000.000
G1 F1800.000
G1 X59.084 Y130.003 E2.51822
G1 X59.047 Y130.379 E2.52550
G1 X58.961 Y130.644 E2.53086
G1 X58.867 Y130.843 E2.53509
G1 X58.749 Y131.029 E2.53932
G1 X58.609 Y131.198 E2.54355
G1 X58.449 Y131.349 E2.54778
G1 X58.271 Y131.478 E2.55200
G1 X58.079 Y131.584 E2.55623
G1 X57.874 Y131.665 E2.56046
G1 X57.661 Y131.719 E2.56469
G1 X57.443 Y131.747 E2.56892
G1 X57.223 Y131.747 E2.57315
G1 X57.005 Y131.719 E2.57738
G1 X56.792 Y131.665 E2.58161
G1 X56.588 Y131.584 E2.58584
G1 X56.395 Y131.478 E2.59006
G1 X56.218 Y131.349 E2.59429
G1 X56.057 Y131.198 E2.59852
G1 X55.917 Y131.029 E2.60275
G1 X55.800 Y130.843 E2.60698
G1 X55.706 Y130.644 E2.61121
G1 X55.638 Y130.435 E2.61544
G1 X55.597 Y130.219 E2.61967
G1 X55.583 Y130.000 E2.62389
G1 X55.597 Y129.781 E2.62812
G1 X55.638 Y129.565 E2.63235
G1 X55.706 Y129.356 E2.63658
G1 X55.800 Y129.157 E2.64081
G1 X55.917 Y128.971 E2.64504
G1 X56.057 Y128.802 E2.64927
G1 X56.218 Y128.651 E2.65349
G1 X56.395 Y128.522 E2.65772
G1 X56.588 Y128.416 E2.66195
G1 X56.792 Y128.335 E2.66618
G1 X57.005 Y128.281 E2.67041
G1 X57.223 Y128.253 E2.67464
G1 X57.443 Y128.253 E2.67887
G1 X57.661 Y128.281 E2.68310
G1 X57.874 Y128.335 E2.68732
G1 X58.079 Y128.416 E2.69155
G1 X58.271 Y128.522 E2.69578
G1 X58.449 Y128.651 E2.70001
G1 X58.609 Y128.802 E2.70424
G1 X58.749 Y128.971 E2.70847
G1 X58.867 Y129.157 E2.71270
G1 X58.961 Y129.356 E2.71693
G1 X59.059 Y129.722 E2.72421
G1 X59.275 Y129.867 F6000.000
G1 E0.72421 F1200.00000
G92 E0
G1 X49.600 Y130.012 F6000.000
G1 E2.00000 F1200.00000
G1 F1800.000
G1 X49.553 Y130.485 E2.00916
G1 X49.440 Y130.834 E2.01621
G1 X49.319 Y131.091 E2.02168
G1 X49.166 Y131.332 E2.02716
G1 X48.985 Y131.551 E2.03263
G1 X48.777 Y131.746 E2.03811
G1 X48.547 Y131.913 E2.04358
G1 X48.298 Y132.050 E2.04905
G1 X48.034 Y132.155 E2.05452
G1 X47.758 Y132.225 E2.06000
G1 X47.475 Y132.261 E2.06548
G1 X47.191 Y132.261 E2.07094
G1 X46.909 Y132.225 E2.07642
G1 X46.633 Y132.155 E2.08189
G1 X46.369 Y132.050 E2.08737
G1 X46.119 Y131.913 E2.09284
G1 X45.889 Y131.746 E2.09831
G1 X45.682 Y131.551 E2.10378
G1 X45.500 Y131.332 E2.10926
G1 X45.348 Y131.091 E2.11473
G1 X45.227 Y130.834 E2.12020
G1 X45.139 Y130.563 E2.12568
G1 X45.086 Y130.284 E2.13116
G1 X45.068 Y130.000 E2.13663
G1 X45.086 Y129.716 E2.14210
G1 X45.139 Y129.437 E2.14757
G1 X45.227 Y129.166 E2.15305
G1 X45.348 Y128.909 E2.15852
G1 X45.500 Y128.668 E2.16399
G1 X45.682 Y128.449 E2.16947
G1 X45.889 Y128.254 E2.17494
G1 X46.119 Y128.087 E2.18041
G1 X46.369 Y127.950 E2.18589
G1 X46.633 Y127.845 E2.19136
G1 X46.909 Y127.775 E2.19684
G1 X47.191 Y127.739 E2.20231
G1 X47.475 Y127.739 E2.20778
G1 X47.758 Y127.775 E2.21325
G1 X48.034 Y127.845 E2.21873
G1 X48.298 Y127.950 E2.22420
G1 X48.547 Y128.087 E2.22967
G1 X48.777 Y128.254 E2.23515
G1 X48.985 Y128.449 E2.24062
G1 X49.166 Y128.668 E2.24609
G1 X49.319 Y128.909 E2.25157
G1 X49.440 Y129.166 E2.25704
G1 X49.528 Y129.437 E2.26252
G1 X49.581 Y129.716 E2.26799
G1 X49.596 Y129.952 E2.27253
G1 X49.342 Y130.007 F6000.000
G1 F1800.000
G1 X49.300 Y130.432 E2.28075
G1 X49.200 Y130.739 E2.28696
G1 X49.093 Y130.967 E2.29181
G1 X48.958 Y131.180 E2.29666
G1 X48.797 Y131.375 E2.30151
G1 X48.613 Y131.547 E2.30636
G1 X48.409 Y131.695 E2.31121
G1 X48.188 Y131.817 E2.31606
G1 X47.954 Y131.910 E2.32091
G1 X47.710 Y131.972 E2.32577
G1 X47.459 Y132.004 E2.33062
G1 X47.207 Y132.004 E2.33547
G1 X46.957 Y131.972 E2.34032
G1 X46.713 Y131.910 E2.34517
G1 X46.478 Y131.817 E2.35002
G1 X46.257 Y131.695 E2.35487
G1 X46.053 Y131.547 E2.35972
G1 X45.870 Y131.375 E2.36457
G1 X45.709 Y131.180 E2.36943
G1 X45.574 Y130.967 E2.37428
G1 X45.466 Y130.739 E2.37913
G1 X45.388 Y130.499 E2.38398
G1 X45.341 Y130.252 E2.38883
G1 X45.325 Y130.000 E2.39368
G1 X45.341 Y129.748 E2.39853
G1 X45.388 Y129.501 E2.40338
G1 X45.466 Y129.261 E2.40823
G1 X45.574 Y129.033 E2.41308
G1 X45.709 Y128.820 E2.41793
G1 X45.870 Y128.625 E2.42279
G1 X46.053 Y128.453 E2.42764
G1 X46.257 Y128.305 E2.43249
G1 X46.478 Y128.183 E2.43734
G1 X46.713 Y128.090 E2.44219
G1 X46.957 Y128.028 E2.44704
G1 X47.207 Y127.996 E2.45189
G1 X47.459 Y127.996 E2.45674
G1 X47.710 Y128.028 E2.46159
G1 X47.954 Y128.090 E2.46645
G1 X48.188 Y128.183 E2.47130
G1 X48.409 Y128.305 E2.47615
G1 X48.613 Y128.453 E2.48100
G1 X48.797 Y128.625 E2.48585
G1 X48.958 Y128.820 E2.49070
G1 X49.093 Y129.033 E2.49555
G1 X49.200 Y129.261 E2.50040
G1 X49.278 Y129.501 E2.50526
G1 X49.325 Y129.748 E2.51011
G1 X49.338 Y129.947 E2.51394
G1 X49.084 Y130.003 F6000.000
G1 F1800.000
G1 X49.047 Y130.379 E2.52122
G1 X48.961 Y130.644 E2.52658
G1 X48.867 Y130.843 E2.53081
G1 X48.749 Y131.029 E2.53504
G1 X48.609 Y131.198 E2.53927
G1 X48.449 Y131.349 E2.54350
G1 X48.271 Y131.478 E2.54772
G1 X48.079 Y131.584 E2.55195
G1 X47.874 Y131.665 E2.55618
G1 X47.661 Y131.719 E2.56041
G1 X47.443 Y131.747 E2.56464
G1 X47.223 Y131.747 E2.56887
G1 X47.005 Y131.719 E2.57310
G1 X46.792 Y131.665 E2.57733
G1 X46.588 Y131.584 E2.58156
G1 X46.395 Y131.478 E2.58579
G1 X46.218 Y131.349 E2.59001
G1 X46.057 Y131.198 E2.59424
G1 X45.917 Y131.029 E2.59847
G1 X45.800 Y130.843 E2.60270
G1 X45.706 Y130.644 E2.60693
G1 X45.638 Y130.435 E2.61116
G1 X45.597 Y130.219 E2.61539
G1 X45.583 Y130.000 E2.61961
G1 X45.597 Y129.781 E2.62384
G1 X45.638 Y129.565 E2.62807
G1 X45.706 Y129.356 E2.63230
G1 X45.800 Y129.157 E2.63653
G1 X45.917 Y128.971 E2.64076
G1 X46.057 Y128.802 E2.64499
G1 X46.218 Y128.651 E2.64922
G1 X46.395 Y128.522 E2.65344
G1 X46.588 Y128.416 E2.65767
