; generated by Slic3r 1.3.1-dev (Build (Unknown revision)) on 2020-07-17 at 14:43:05

; external perimeters extrusion width = 0.44mm (2.86mm^3/s)
; perimeters extrusion width = 0.56mm (4.14mm^3/s)
; infill extrusion width = 0.50mm (5.48mm^3/s)
; solid infill extrusion width = 0.56mm (3.10mm^3/s)
; top infill extrusion width = 0.45mm (2.44mm^3/s)

M107
G92 E0
;D3D:START:START
T0
M104 S215 T0

G21
G90
M107
T0
G28
G29
M109 T0 S215 T0
G0 F3000
M107
T0
G92 E0
G0 X0 Y149 Z0.1 F3600
G1 Y49 E6.5 F1200
G0 Z1
G92 E0
; Filament gcode

G21 ; set units to millimeters
G90 ; use absolute coordinates
M82 ; use absolute distances for extrusion
G92 E0
G1 Z0.200 F6000.000
G1 E-2.00000 F1200.00000
G92 E0
G1 X30.855 Y29.342 F6000.000
G1 E2.00000 F1200.00000
G1 F1800.000
G1 X33.500 Y28.486 E2.05348
G1 X94.500 Y28.486 E3.22704
G1 X96.924 Y29.192 E3.27560
G1 X118.924 Y43.192 E3.77728
G1 X120.270 Y44.517 E3.81364
G1 X120.991 Y46.543 E3.85501
G1 X124.396 Y80.039 E4.50275
G1 X124.488 Y81.105 E4.52332
G1 X124.512 Y82.142 E4.54328
G1 X124.470 Y83.178 E4.56323
G1 X124.396 Y83.961 E4.57835
G1 X120.991 Y117.457 E5.22609
G1 X120.411 Y119.255 E5.26245
G1 X119.145 Y120.658 E5.29880
G1 X116.500 Y121.514 E5.35228
G1 X55.500 Y121.514 E6.52584
G1 X53.076 Y120.808 E6.57440
G1 X31.076 Y106.808 E7.07608
G1 X29.730 Y105.483 E7.11244
G1 X29.009 Y103.457 E7.15381
G1 X25.604 Y69.961 E7.80155
G1 X25.512 Y68.895 E7.82212
G1 X25.488 Y67.858 E7.84208
G1 X25.530 Y66.822 E7.86203
G1 X25.604 Y66.039 E7.87715
G1 X29.009 Y32.543 E8.52489
G1 X29.589 Y30.745 E8.56125
G1 X30.815 Y29.386 E8.59645
G1 X31.094 Y29.488 F6000.000
G1 F1800.000
G1 X33.500 Y28.743 E8.64492
G1 X94.500 Y28.743 E9.81848
G1 X96.786 Y29.408 E9.86427
G1 X118.786 Y43.408 E10.36595
G1 X120.085 Y44.704 E10.40125
G1 X120.735 Y46.569 E10.43926
G1 X124.141 Y80.065 E11.08700
G1 X124.231 Y81.113 E11.10722
G1 X124.255 Y82.134 E11.12687
G1 X124.215 Y83.154 E11.14651
G1 X124.141 Y83.935 E11.16160
G1 X120.735 Y117.431 E11.80934
G1 X120.161 Y119.173 E11.84463
G1 X118.906 Y120.512 E11.87993
G1 X116.500 Y121.257 E11.92840
G1 X55.500 Y121.257 E13.10195
G1 X53.214 Y120.592 E13.14775
G1 X31.214 Y106.592 E13.64943
G1 X29.915 Y105.296 E13.68473
G1 X29.265 Y103.431 E13.72274
G1 X25.859 Y69.935 E14.37048
G1 X25.769 Y68.887 E14.39070
G1 X25.745 Y67.866 E14.41035
G1 X25.785 Y66.846 E14.42999
G1 X25.859 Y66.065 E14.44508
G1 X29.265 Y32.569 E15.09282
G1 X29.839 Y30.827 E15.12811
G1 X31.053 Y29.532 E15.16225
G1 E13.16225 F1200.00000
G92 E0
G1 X72.083 Y82.054 F6000.000
G1 E2.00000 F1200.00000
G1 F1800.000
G1 X72.691 Y81.891 E2.01211
G1 X73.319 Y81.924 E2.02422
G1 X73.907 Y82.149 E2.03633
G1 X74.396 Y82.546 E2.04845
G1 X74.739 Y83.074 E2.06056
G1 X74.902 Y83.682 E2.07267
G1 X74.869 Y84.310 E2.08478
G1 X74.644 Y84.898 E2.09689
G1 X74.248 Y85.387 E2.10900
G1 X73.720 Y85.730 E2.12112
G1 X73.111 Y85.893 E2.13323
G1 X72.483 Y85.860 E2.14534
G1 X71.895 Y85.635 E2.15745
G1 X71.406 Y85.238 E2.16956
G1 X71.063 Y84.710 E2.18167
G1 X70.900 Y84.102 E2.19378
G1 X70.933 Y83.474 E2.20589
G1 X71.159 Y82.886 E2.21801
G1 X71.555 Y82.397 E2.23012
G1 X72.032 Y82.086 E2.24108
G1 X72.189 Y82.292 F6000.000
G1 F1800.000
G1 X72.718 Y82.150 E2.25162
G1 X73.265 Y82.178 E2.26216
G1 X73.777 Y82.375 E2.27271
G1 X74.203 Y82.720 E2.28325
G1 X74.502 Y83.179 E2.29380
G1 X74.643 Y83.709 E2.30434
G1 X74.615 Y84.256 E2.31489
G1 X74.418 Y84.768 E2.32543
G1 X74.073 Y85.194 E2.33598
G1 X73.614 Y85.492 E2.34652
G1 X73.084 Y85.634 E2.35707
G1 X72.537 Y85.606 E2.36761
G1 X72.025 Y85.409 E2.37816
G1 X71.599 Y85.064 E2.38870
G1 X71.301 Y84.605 E2.39925
G1 X71.159 Y84.075 E2.40979
G1 X71.188 Y83.528 E2.42034
G1 X71.384 Y83.016 E2.43088
G1 X71.729 Y82.590 E2.44143
G1 X72.138 Y82.324 E2.45082
G1 X72.230 Y81.894 F6000.000
G1 E0.45082 F1200.00000
G92 E0
G1 X57.067 Y80.526 F6000.000
G1 E2.00000 F1200.00000
G1 F1800.000
G1 X56.841 Y81.114 E2.01211
G1 X56.445 Y81.603 E2.02422
G1 X55.917 Y81.946 E2.03634
G1 X55.309 Y82.109 E2.04845
G1 X54.680 Y82.076 E2.06056
G1 X54.093 Y81.851 E2.07267
G1 X53.604 Y81.454 E2.08478
G1 X53.261 Y80.926 E2.09689
G1 X53.098 Y80.318 E2.10900
G1 X53.131 Y79.690 E2.12112
G1 X53.356 Y79.102 E2.13323
G1 X53.752 Y78.613 E2.14534
G1 X54.280 Y78.270 E2.15745
G1 X54.889 Y78.107 E2.16956
G1 X55.517 Y78.140 E2.18167
G1 X56.105 Y78.365 E2.19379
G1 X56.594 Y78.762 E2.20590
G1 X56.937 Y79.290 E2.21801
G1 X57.100 Y79.898 E2.23012
G1 X57.070 Y80.466 E2.24108
G1 X56.812 Y80.472 F6000.000
G1 F1800.000
G1 X56.616 Y80.984 E2.25162
G1 X56.271 Y81.410 E2.26217
G1 X55.811 Y81.708 E2.27271
G1 X55.282 Y81.850 E2.28326
G1 X54.735 Y81.822 E2.29380
G1 X54.223 Y81.625 E2.30434
G1 X53.797 Y81.280 E2.31489
G1 X53.498 Y80.821 E2.32543
G1 X53.357 Y80.291 E2.33598
G1 X53.385 Y79.744 E2.34652
G1 X53.582 Y79.232 E2.35707
G1 X53.927 Y78.806 E2.36761
G1 X54.386 Y78.508 E2.37816
G1 X54.916 Y78.366 E2.38870
G1 X55.463 Y78.394 E2.39925
G1 X55.975 Y78.591 E2.40979
G1 X56.401 Y78.936 E2.42034
G1 X56.699 Y79.395 E2.43088
G1 X56.841 Y79.925 E2.44143
G1 X56.816 Y80.412 E2.45082
G1 X57.110 Y80.740 F6000.000
G1 E0.45082 F1200.00000
G92 E0
G1 X63.298 Y110.504 F6000.000
G1 E2.00000 F1200.00000
G1 F1800.000
G1 X64.000 Y110.393 E2.01368
G1 X64.702 Y110.504 E2.02736
G1 X65.336 Y110.827 E2.04103
G1 X65.838 Y111.329 E2.05471
G1 X66.161 Y111.963 E2.06839
G1 X66.272 Y112.665 E2.08207
G1 X66.161 Y113.367 E2.09575
G1 X65.838 Y114.001 E2.10943
G1 X65.336 Y114.503 E2.12310
G1 X64.702 Y114.826 E2.13678
G1 X64.000 Y114.937 E2.15046
G1 X63.298 Y114.826 E2.16414
G1 X62.664 Y114.503 E2.17782
G1 X62.162 Y114.001 E2.19149
G1 X61.839 Y113.367 E2.20517
G1 X61.728 Y112.665 E2.21885
G1 X61.839 Y111.963 E2.23253
G1 X62.162 Y111.329 E2.24621
G1 X62.664 Y110.827 E2.25988
G1 X63.244 Y110.531 E2.27241
G1 X63.378 Y110.751 F6000.000
G1 F1800.000
G1 X64.000 Y110.653 E2.28452
G1 X64.622 Y110.751 E2.29663
G1 X65.183 Y111.037 E2.30874
G1 X65.628 Y111.482 E2.32085
G1 X65.914 Y112.043 E2.33297
G1 X66.012 Y112.665 E2.34508
G1 X65.914 Y113.287 E2.35719
G1 X65.628 Y113.848 E2.36930
G1 X65.183 Y114.293 E2.38141
G1 X64.622 Y114.579 E2.39352
G1 X64.000 Y114.677 E2.40564
G1 X63.378 Y114.579 E2.41775
G1 X62.817 Y114.293 E2.42986
G1 X62.372 Y113.848 E2.44197
G1 X62.086 Y113.287 E2.45408
G1 X61.988 Y112.665 E2.46619
G1 X62.086 Y112.043 E2.47830
G1 X62.372 Y111.482 E2.49042
G1 X62.817 Y111.037 E2.50253
G1 X63.325 Y110.779 E2.51349
G1 X63.459 Y110.999 F6000.000
G1 F1800.000
G1 X64.000 Y110.913 E2.52403
G1 X64.541 Y110.999 E2.53457
G1 X65.030 Y111.248 E2.54512
G1 X65.417 Y111.635 E2.55566
G1 X65.666 Y112.124 E2.56621
G1 X65.752 Y112.665 E2.57675
G1 X65.666 Y113.206 E2.58730
G1 X65.417 Y113.695 E2.59784
G1 X65.030 Y114.082 E2.60839
G1 X64.541 Y114.331 E2.61893
G1 X64.000 Y114.417 E2.62948
G1 X63.459 Y114.331 E2.64002
G1 X62.970 Y114.082 E2.65057
G1 X62.583 Y113.695 E2.66111
G1 X62.334 Y113.206 E2.67166
G1 X62.248 Y112.665 E2.68220
G1 X62.334 Y112.124 E2.69275
G1 X62.583 Y111.635 E2.70329
G1 X62.970 Y111.248 E2.71384
G1 X63.405 Y111.026 E2.72323
G1 X63.542 Y110.608 F6000.000
G1 E0.72323 F1200.00000
G92 E0
G1 X64.000 Y100.772 F6000.000
G1 E2.00000 F1200.00000
G1 F1800.000
G1 X63.298 Y100.661 E2.01368
G1 X62.664 Y100.338 E2.02736
G1 X62.162 Y99.836 E2.04103
G1 X61.839 Y99.202 E2.05471
G1 X61.728 Y98.500 E2.06839
G1 X61.839 Y97.798 E2.08207
G1 X62.162 Y97.164 E2.09575
G1 X62.664 Y96.662 E2.10942
G1 X63.298 Y96.339 E2.12310
G1 X64.000 Y96.228 E2.13678
G1 X64.702 Y96.339 E2.15046
G1 X65.336 Y96.662 E2.16414
G1 X65.838 Y97.164 E2.17782
G1 X66.161 Y97.798 E2.19150
G1 X66.272 Y98.500 E2.20517
G1 X66.161 Y99.202 E2.21885
G1 X65.838 Y99.836 E2.23253
G1 X65.336 Y100.338 E2.24621
G1 X64.702 Y100.661 E2.25989
G1 X64.059 Y100.763 E2.27241
G1 X64.000 Y100.512 F6000.000
G1 F1800.000
G1 X63.378 Y100.414 E2.28452
G1 X62.817 Y100.128 E2.29663
G1 X62.372 Y99.683 E2.30874
G1 X62.086 Y99.122 E2.32086
G1 X61.988 Y98.500 E2.33297
G1 X62.086 Y97.878 E2.34508
G1 X62.372 Y97.317 E2.35719
G1 X62.817 Y96.872 E2.36930
G1 X63.378 Y96.586 E2.38141
G1 X64.000 Y96.488 E2.39352
G1 X64.622 Y96.586 E2.40564
G1 X65.183 Y96.872 E2.41775
G1 X65.628 Y97.317 E2.42986
G1 X65.914 Y97.878 E2.44197
G1 X66.012 Y98.500 E2.45408
G1 X65.914 Y99.122 E2.46619
G1 X65.628 Y99.683 E2.47831
G1 X65.183 Y100.128 E2.49042
G1 X64.622 Y100.414 E2.50253
G1 X64.059 Y100.503 E2.51349
G1 X64.000 Y100.252 F6000.000
G1 F1800.000
G1 X63.459 Y100.166 E2.52403
G1 X62.970 Y99.917 E2.53458
G1 X62.583 Y99.530 E2.54512
G1 X62.334 Y99.041 E2.55567
G1 X62.248 Y98.500 E2.56621
G1 X62.334 Y97.959 E2.57675
G1 X62.583 Y97.470 E2.58730
G1 X62.970 Y97.083 E2.59784
G1 X63.459 Y96.834 E2.60839
G1 X64.000 Y96.748 E2.61893
G1 X64.541 Y96.834 E2.62948
G1 X65.030 Y97.083 E2.64002
G1 X65.417 Y97.470 E2.65057
G1 X65.666 Y97.959 E2.66111
G1 X65.752 Y98.500 E2.67166
G1 X65.666 Y99.041 E2.68220
G1 X65.417 Y99.530 E2.69275
G1 X65.030 Y99.917 E2.70329
G1 X64.541 Y100.166 E2.71384
G1 X64.059 Y100.242 E2.72323
G1 X63.800 Y100.598 F6000.000
G1 E0.72323 F1200.00000
G92 E0
G1 X64.000 Y84.272 F6000.000
G1 E2.00000 F1200.00000
G1 F1800.000
G1 X63.298 Y84.161 E2.01368
G1 X62.664 Y83.838 E2.02736
G1 X62.162 Y83.336 E2.04103
G1 X61.839 Y82.702 E2.05471
G1 X61.728 Y82.000 E2.06839
G1 X61.839 Y81.298 E2.08207
G1 X62.162 Y80.664 E2.09575
G1 X62.664 Y80.162 E2.10942
G1 X63.298 Y79.839 E2.12310
G1 X64.000 Y79.728 E2.13678
G1 X64.702 Y79.839 E2.15046
G1 X65.336 Y80.162 E2.16414
G1 X65.838 Y80.664 E2.17782
G1 X66.161 Y81.298 E2.19149
G1 X66.272 Y82.000 E2.20517
G1 X66.161 Y82.702 E2.21885
G1 X65.838 Y83.336 E2.23253
G1 X65.336 Y83.838 E2.24621
G1 X64.702 Y84.161 E2.25989
G1 X64.059 Y84.263 E2.27241
G1 X64.000 Y84.012 F6000.000
G1 F1800.000
G1 X63.378 Y83.914 E2.28452
G1 X62.817 Y83.628 E2.29663
G1 X62.372 Y83.183 E2.30874
G1 X62.086 Y82.622 E2.32086
G1 X61.988 Y82.000 E2.33297
G1 X62.086 Y81.378 E2.34508
G1 X62.372 Y80.817 E2.35719
G1 X62.817 Y80.372 E2.36930
G1 X63.378 Y80.086 E2.38141
G1 X64.000 Y79.988 E2.39352
G1 X64.622 Y80.086 E2.40564
G1 X65.183 Y80.372 E2.41775
G1 X65.628 Y80.817 E2.42986
G1 X65.914 Y81.378 E2.44197
G1 X66.012 Y82.000 E2.45408
G1 X65.914 Y82.622 E2.46619
G1 X65.628 Y83.183 E2.47831
G1 X65.183 Y83.628 E2.49042
G1 X64.622 Y83.914 E2.50253
G1 X64.059 Y84.003 E2.51349
G1 X64.000 Y83.752 F6000.000
G1 F1800.000
G1 X63.459 Y83.666 E2.52403
G1 X62.970 Y83.417 E2.53458
G1 X62.583 Y83.030 E2.54512
G1 X62.334 Y82.541 E2.55566
G1 X62.248 Y82.000 E2.56621
G1 X62.334 Y81.459 E2.57675
G1 X62.583 Y80.970 E2.58730
G1 X62.970 Y80.583 E2.59784
G1 X63.459 Y80.334 E2.60839
G1 X64.000 Y80.248 E2.61893
G1 X64.541 Y80.334 E2.62948
G1 X65.030 Y80.583 E2.64002
G1 X65.417 Y80.970 E2.65057
G1 X65.666 Y81.459 E2.66111
G1 X65.752 Y82.000 E2.67166
G1 X65.666 Y82.541 E2.68220
G1 X65.417 Y83.030 E2.69275
G1 X65.030 Y83.417 E2.70329
G1 X64.541 Y83.666 E2.71384
G1 X64.059 Y83.742 E2.72323
G1 X63.800 Y84.098 F6000.000
G1 E0.72323 F1200.00000
G92 E0
G1 X64.000 Y67.772 F6000.000
G1 E2.00000 F1200.00000
G1 F1800.000
G1 X63.298 Y67.661 E2.01368
G1 X62.664 Y67.338 E2.02736
G1 X62.162 Y66.836 E2.04103
G1 X61.839 Y66.202 E2.05471
G1 X61.728 Y65.500 E2.06839
G1 X61.839 Y64.798 E2.08207
G1 X62.162 Y64.164 E2.09575
G1 X62.664 Y63.662 E2.10942
G1 X63.298 Y63.339 E2.12310
G1 X64.000 Y63.228 E2.13678
G1 X64.702 Y63.339 E2.15046
G1 X65.336 Y63.662 E2.16414
G1 X65.838 Y64.164 E2.17782
G1 X66.161 Y64.798 E2.19150
G1 X66.272 Y65.500 E2.20517
G1 X66.161 Y66.202 E2.21885
G1 X65.838 Y66.836 E2.23253
G1 X65.336 Y67.338 E2.24621
G1 X64.702 Y67.661 E2.25989
G1 X64.059 Y67.763 E2.27241
G1 X64.000 Y67.512 F6000.000
G1 F1800.000
G1 X63.378 Y67.414 E2.28452
G1 X62.817 Y67.128 E2.29663
G1 X62.372 Y66.683 E2.30874
G1 X62.086 Y66.122 E2.32086
G1 X61.988 Y65.500 E2.33297
G1 X62.086 Y64.878 E2.34508
G1 X62.372 Y64.317 E2.35719
G1 X62.817 Y63.872 E2.36930
G1 X63.378 Y63.586 E2.38141
G1 X64.000 Y63.488 E2.39352
G1 X64.622 Y63.586 E2.40564
G1 X65.183 Y63.872 E2.41775
G1 X65.628 Y64.317 E2.42986
G1 X65.914 Y64.878 E2.44197
G1 X66.012 Y65.500 E2.45408
G1 X65.914 Y66.122 E2.46619
G1 X65.628 Y66.683 E2.47831
G1 X65.183 Y67.128 E2.49042
G1 X64.622 Y67.414 E2.50253
G1 X64.059 Y67.503 E2.51349
G1 X64.000 Y67.252 F6000.000
G1 F1800.000
G1 X63.459 Y67.166 E2.52403
G1 X62.970 Y66.917 E2.53458
G1 X62.583 Y66.530 E2.54512
G1 X62.334 Y66.041 E2.55567
G1 X62.248 Y65.500 E2.56621
G1 X62.334 Y64.959 E2.57675
G1 X62.583 Y64.470 E2.58730
G1 X62.970 Y64.083 E2.59784
G1 X63.459 Y63.834 E2.60839
G1 X64.000 Y63.748 E2.61893
G1 X64.541 Y63.834 E2.62948
G1 X65.030 Y64.083 E2.64002
G1 X65.417 Y64.470 E2.65057
G1 X65.666 Y64.959 E2.66111
G1 X65.752 Y65.500 E2.67166
G1 X65.666 Y66.041 E2.68220
G1 X65.417 Y66.530 E2.69275
G1 X65.030 Y66.917 E2.70329
G1 X64.541 Y67.166 E2.71384
G1 X64.059 Y67.242 E2.72323
G1 X63.800 Y67.598 F6000.000
G1 E0.72323 F1200.00000
G92 E0
G1 X64.000 Y53.607 F6000.000
G1 E2.00000 F1200.00000
G1 F1800.000
G1 X63.298 Y53.496 E2.01368
G1 X62.664 Y53.173 E2.02736
G1 X62.162 Y52.671 E2.04103
G1 X61.839 Y52.037 E2.05471
G1 X61.728 Y51.335 E2.06839
G1 X61.839 Y50.633 E2.08207
G1 X62.162 Y49.999 E2.09575
G1 X62.664 Y49.497 E2.10942
G1 X63.298 Y49.174 E2.12310
G1 X64.000 Y49.063 E2.13678
G1 X64.702 Y49.174 E2.15046
G1 X65.336 Y49.497 E2.16414
G1 X65.838 Y49.999 E2.17782
G1 X66.161 Y50.633 E2.19150
G1 X66.272 Y51.335 E2.20517
G1 X66.161 Y52.037 E2.21885
G1 X65.838 Y52.671 E2.23253
G1 X65.336 Y53.173 E2.24621
G1 X64.702 Y53.496 E2.25989
G1 X64.059 Y53.598 E2.27241
G1 X64.000 Y53.347 F6000.000
G1 F1800.000
G1 X63.378 Y53.249 E2.28452
G1 X62.817 Y52.963 E2.29663
G1 X62.372 Y52.518 E2.30874
G1 X62.086 Y51.957 E2.32086
G1 X61.988 Y51.335 E2.33297
G1 X62.086 Y50.713 E2.34508
G1 X62.372 Y50.152 E2.35719
G1 X62.817 Y49.707 E2.36930
G1 X63.378 Y49.421 E2.38141
G1 X64.000 Y49.323 E2.39352
G1 X64.622 Y49.421 E2.40564
G1 X65.183 Y49.707 E2.41775
G1 X65.628 Y50.152 E2.42986
G1 X65.914 Y50.713 E2.44197
G1 X66.012 Y51.335 E2.45408
G1 X65.914 Y51.957 E2.46619
G1 X65.628 Y52.518 E2.47831
G1 X65.183 Y52.963 E2.49042
G1 X64.622 Y53.249 E2.50253
G1 X64.059 Y53.338 E2.51349
G1 X64.000 Y53.087 F6000.000
G1 F1800.000
G1 X63.459 Y53.001 E2.52403
G1 X62.970 Y52.752 E2.53458
G1 X62.583 Y52.365 E2.54512
G1 X62.334 Y51.876 E2.55567
G1 X62.248 Y51.335 E2.56621
G1 X62.334 Y50.794 E2.57675
G1 X62.583 Y50.305 E2.58730
G1 X62.970 Y49.918 E2.59784
G1 X63.459 Y49.669 E2.60839
G1 X64.000 Y49.583 E2.61893
G1 X64.541 Y49.669 E2.62948
G1 X65.030 Y49.918 E2.64002
G1 X65.417 Y50.305 E2.65057
G1 X65.666 Y50.794 E2.66111
G1 X65.752 Y51.335 E2.67166
G1 X65.666 Y51.876 E2.68220
G1 X65.417 Y52.365 E2.69275
G1 X65.030 Y52.752 E2.70329
G1 X64.541 Y53.001 E2.71384
G1 X64.059 Y53.077 E2.72323
G1 X63.800 Y53.433 F6000.000
G1 E0.72323 F1200.00000
G92 E0
G1 X71.836 Y47.664 F6000.000
G1 E2.00000 F1200.00000
G1 F1800.000
G1 X71.836 Y63.367 E2.30210
G1 X71.586 Y63.399 E2.30696
G1 X71.080 Y63.599 E2.31742
G1 X70.640 Y63.919 E2.32788
G1 X70.293 Y64.338 E2.33835
G1 X70.062 Y64.830 E2.34881
G1 X69.960 Y65.364 E2.35927
G1 X69.994 Y65.907 E2.36973
G1 X70.162 Y66.424 E2.38019
G1 X70.453 Y66.883 E2.39065
G1 X70.850 Y67.255 E2.40112
G1 X71.326 Y67.517 E2.41158
G1 X71.853 Y67.652 E2.42204
G1 X72.397 Y67.652 E2.43250
G1 X72.528 Y67.619 E2.43511
G1 X75.134 Y79.873 E2.67613
G1 X75.246 Y80.579 E2.68990
G1 X75.313 Y81.288 E2.70360
G1 X75.336 Y82.000 E2.71730
G1 X75.313 Y82.712 E2.73100
G1 X75.242 Y83.465 E2.74556
G1 X75.113 Y83.476 E2.74804
G1 X74.977 Y82.968 E2.75817
G1 X74.590 Y82.371 E2.77185
G1 X74.037 Y81.924 E2.78553
G1 X73.374 Y81.669 E2.79921
G1 X72.664 Y81.632 E2.81288
G1 X71.977 Y81.816 E2.82656
G1 X71.381 Y82.203 E2.84024
G1 X70.933 Y82.756 E2.85392
G1 X70.678 Y83.420 E2.86760
G1 X70.641 Y84.130 E2.88128
G1 X70.825 Y84.816 E2.89495
G1 X71.212 Y85.413 E2.90863
G1 X71.765 Y85.860 E2.92231
G1 X72.429 Y86.115 E2.93599
G1 X73.139 Y86.152 E2.94966
G1 X73.825 Y85.968 E2.96334
G1 X74.422 Y85.581 E2.97702
G1 X74.805 Y85.108 E2.98874
G1 X74.915 Y85.160 E2.99107
G1 X72.528 Y96.381 E3.21179
G1 X72.397 Y96.348 E3.21439
G1 X71.853 Y96.348 E3.22486
G1 X71.347 Y96.478 E3.23491
G1 X71.072 Y96.607 E3.24075
G1 X70.735 Y96.836 E3.24860
G1 X70.370 Y97.225 E3.25886
