; generated by Slic3r 1.3.0 on 2020-04-09 at 23:32:40

; external perimeters extrusion width = 0.44mm (2.86mm^3/s)
; perimeters extrusion width = 0.56mm (4.14mm^3/s)
; infill extrusion width = 0.50mm (3.66mm^3/s)
; solid infill extrusion width = 0.56mm (3.10mm^3/s)
; top infill extrusion width = 0.45mm (2.44mm^3/s)

M107
;D3D:START:START
T0
M104 S215 T0

G21
G90
M107
T0
G28
G29
M109 T0 S215 T0
G0 F3000
M107
T0
G92 E0
G0 X0 Y149 Z0.1 F3600
G1 Y49 E6.5 F1200
G0 Z1
G92 E0
; Filament gcode

G21 ; set units to millimeters
G90 ; use absolute coordinates
M82 ; use absolute distances for extrusion
G92 E0
G1 Z0.200 F6000.000
G1 E-2.00000 F1200.00000
G92 E0
G1 Z0.700 F6000.000
G1 X21.976 Y42.236 F6000.000
G1 Z0.200 F6000.000
G1 E2.00000 F1200.00000
G1 F1800
G1 X23.333 Y42.027 E2.02643
G1 X126.666 Y42.027 E4.01442
G1 X128.514 Y42.423 E4.05077
G1 X130.038 Y43.540 E4.08713
G1 X130.972 Y45.183 E4.12349
G1 X131.181 Y46.541 E4.14992
G1 X131.181 Y98.370 E5.14704
G1 X130.785 Y100.218 E5.18340
G1 X129.668 Y101.742 E5.21976
G1 X127.691 Y102.767 E5.26258
G1 X108.660 Y107.203 E5.63853
G1 X105.507 Y107.874 E5.70056
G1 X104.568 Y107.973 E5.71872
G1 X23.333 Y107.973 E7.28156
G1 X21.486 Y107.577 E7.31792
G1 X19.961 Y106.460 E7.35428
G1 X19.028 Y104.817 E7.39063
G1 X18.819 Y103.459 E7.41706
G1 X18.819 Y46.541 E8.51208
G1 X19.215 Y44.693 E8.54844
G1 X20.332 Y43.169 E8.58480
G1 X21.923 Y42.266 E8.62000
G1 X22.207 Y42.436 F6000.000
G1 F1800
G1 X23.333 Y42.284 E8.64186
G1 X126.666 Y42.284 E10.62985
G1 X128.458 Y42.679 E10.66514
G1 X129.917 Y43.792 E10.70044
G1 X130.772 Y45.415 E10.73573
G1 X130.924 Y46.541 E10.75760
G1 X130.924 Y98.370 E11.75472
G1 X130.528 Y100.162 E11.79001
G1 X129.416 Y101.621 E11.82531
G1 X127.633 Y102.516 E11.86369
G1 X108.602 Y106.953 E12.23964
G1 X105.453 Y107.623 E12.30158
G1 X104.568 Y107.716 E12.31870
G1 X23.333 Y107.716 E13.88154
G1 X21.542 Y107.321 E13.91684
G1 X20.083 Y106.208 E13.95213
G1 X19.228 Y104.585 E13.98742
G1 X19.076 Y103.459 E14.00929
G1 X19.076 Y46.541 E15.10431
G1 X19.472 Y44.750 E15.13960
G1 X20.584 Y43.291 E15.17490
G1 X22.154 Y42.464 E15.20904
G1 E13.20904 F1200.00000
G92 E0
G1 Z0.700 F6000.000
G1 X99.463 Y92.205 F6000.000
G1 Z0.200 F6000.000
G1 E2.00000 F1200.00000
G1 F1800
G1 X97.868 Y92.205 E2.03069
G1 X95.724 Y91.317 E2.07534
G1 X94.836 Y89.173 E2.11998
G1 X94.836 Y85.909 E2.18278
G1 X95.724 Y83.765 E2.22743
G1 X97.868 Y82.877 E2.27208
G1 X116.132 Y82.877 E2.62345
G1 X118.276 Y83.765 E2.66810
G1 X119.164 Y85.909 E2.71275
G1 X119.164 Y89.173 E2.77554
G1 X118.276 Y91.317 E2.82019
G1 X116.132 Y92.205 E2.86484
G1 X100.537 Y92.205 E3.16487
G1 X100.520 Y92.340 E3.16749
G1 X100.700 Y92.387 E3.17107
G1 X100.965 Y92.491 E3.17654
G1 X101.232 Y92.638 E3.18241
G1 X101.632 Y92.968 E3.19239
G1 X101.832 Y93.208 E3.19840
G1 X101.985 Y93.450 E3.20390
G1 X102.107 Y93.707 E3.20938
G1 X102.194 Y93.978 E3.21485
G1 X102.248 Y94.257 E3.22032
G1 X102.266 Y94.541 E3.22579
G1 X102.248 Y94.825 E3.23127
G1 X102.194 Y95.104 E3.23674
G1 X102.107 Y95.375 E3.24221
G1 X101.985 Y95.632 E3.24769
G1 X101.833 Y95.873 E3.25316
G1 X101.652 Y96.092 E3.25864
G1 X101.444 Y96.287 E3.26411
G1 X101.214 Y96.454 E3.26958
G1 X100.965 Y96.591 E3.27505
G1 X100.700 Y96.696 E3.28053
G1 X100.425 Y96.767 E3.28600
G1 X100.142 Y96.802 E3.29148
G1 X99.858 Y96.802 E3.29695
G1 X99.576 Y96.767 E3.30242
G1 X99.300 Y96.696 E3.30790
G1 X99.036 Y96.591 E3.31337
G1 X98.786 Y96.454 E3.31884
G1 X98.556 Y96.287 E3.32431
G1 X98.349 Y96.092 E3.32979
G1 X98.167 Y95.873 E3.33526
G1 X98.015 Y95.632 E3.34074
G1 X97.894 Y95.375 E3.34621
G1 X97.806 Y95.104 E3.35168
G1 X97.753 Y94.825 E3.35716
G1 X97.735 Y94.541 E3.36263
G1 X97.753 Y94.257 E3.36810
G1 X97.806 Y93.978 E3.37357
G1 X97.894 Y93.707 E3.37905
G1 X98.015 Y93.450 E3.38452
G1 X98.167 Y93.210 E3.38999
G1 X98.349 Y92.990 E3.39547
G1 X98.556 Y92.796 E3.40094
G1 X98.786 Y92.628 E3.40641
G1 X99.036 Y92.491 E3.41189
G1 X99.300 Y92.387 E3.41736
G1 X99.480 Y92.340 E3.42095
G1 X99.471 Y92.265 E3.42241
G1 X99.624 Y92.569 F6000.000
G1 F1800
G1 X99.874 Y92.537 E3.42726
G1 X100.126 Y92.537 E3.43211
G1 X100.376 Y92.569 E3.43696
G1 X100.621 Y92.631 E3.44181
G1 X100.855 Y92.724 E3.44666
G1 X101.087 Y92.852 E3.45176
G1 X101.450 Y93.151 E3.46081
G1 X101.624 Y93.360 E3.46604
G1 X101.760 Y93.574 E3.47091
G1 X101.867 Y93.802 E3.47576
G1 X101.945 Y94.042 E3.48061
G1 X101.992 Y94.289 E3.48546
G1 X102.008 Y94.541 E3.49031
G1 X101.992 Y94.793 E3.49516
G1 X101.945 Y95.040 E3.50001
G1 X101.867 Y95.280 E3.50486
G1 X101.760 Y95.508 E3.50971
G1 X101.625 Y95.721 E3.51457
G1 X101.464 Y95.916 E3.51942
G1 X101.280 Y96.088 E3.52427
G1 X101.076 Y96.236 E3.52912
G1 X100.855 Y96.358 E3.53397
G1 X100.621 Y96.451 E3.53882
G1 X100.376 Y96.513 E3.54367
G1 X100.126 Y96.545 E3.54852
G1 X99.874 Y96.545 E3.55337
G1 X99.624 Y96.513 E3.55822
G1 X99.380 Y96.451 E3.56308
G1 X99.145 Y96.358 E3.56793
G1 X98.924 Y96.236 E3.57278
G1 X98.720 Y96.088 E3.57763
G1 X98.537 Y95.916 E3.58248
G1 X98.376 Y95.721 E3.58733
G1 X98.241 Y95.508 E3.59218
G1 X98.133 Y95.280 E3.59703
G1 X98.055 Y95.040 E3.60188
G1 X98.008 Y94.793 E3.60674
G1 X97.992 Y94.541 E3.61159
G1 X98.008 Y94.290 E3.61643
G1 X98.055 Y94.042 E3.62129
G1 X98.133 Y93.802 E3.62614
G1 X98.241 Y93.574 E3.63099
G1 X98.376 Y93.361 E3.63584
G1 X98.537 Y93.167 E3.64069
G1 X98.720 Y92.994 E3.64554
G1 X98.924 Y92.846 E3.65039
G1 X99.145 Y92.724 E3.65524
G1 X99.380 Y92.631 E3.66010
G1 X99.566 Y92.584 E3.66380
G1 X99.672 Y92.822 F6000.000
G1 F1800
G1 X99.890 Y92.794 E3.66802
G1 X100.110 Y92.794 E3.67225
G1 X100.328 Y92.822 E3.67648
G1 X100.541 Y92.876 E3.68071
G1 X100.745 Y92.957 E3.68494
G1 X100.942 Y93.066 E3.68926
G1 X101.268 Y93.334 E3.69738
G1 X101.416 Y93.512 E3.70183
G1 X101.534 Y93.698 E3.70607
G1 X101.628 Y93.897 E3.71030
G1 X101.695 Y94.106 E3.71453
G1 X101.737 Y94.322 E3.71875
G1 X101.751 Y94.541 E3.72298
G1 X101.737 Y94.760 E3.72721
G1 X101.695 Y94.976 E3.73144
G1 X101.628 Y95.185 E3.73567
G1 X101.534 Y95.384 E3.73990
G1 X101.416 Y95.570 E3.74413
G1 X101.276 Y95.739 E3.74836
G1 X101.116 Y95.890 E3.75258
G1 X100.938 Y96.019 E3.75681
G1 X100.745 Y96.125 E3.76104
G1 X100.541 Y96.206 E3.76527
G1 X100.328 Y96.260 E3.76950
G1 X100.110 Y96.288 E3.77373
G1 X99.890 Y96.288 E3.77796
G1 X99.672 Y96.260 E3.78218
G1 X99.459 Y96.206 E3.78641
G1 X99.255 Y96.125 E3.79064
G1 X99.062 Y96.019 E3.79487
G1 X98.885 Y95.890 E3.79910
G1 X98.724 Y95.739 E3.80333
G1 X98.584 Y95.570 E3.80756
G1 X98.466 Y95.384 E3.81179
G1 X98.373 Y95.185 E3.81601
G1 X98.305 Y94.976 E3.82024
G1 X98.264 Y94.760 E3.82447
G1 X98.250 Y94.541 E3.82870
G1 X98.264 Y94.322 E3.83293
G1 X98.305 Y94.106 E3.83716
G1 X98.373 Y93.897 E3.84139
G1 X98.466 Y93.698 E3.84562
G1 X98.584 Y93.512 E3.84984
G1 X98.724 Y93.343 E3.85407
G1 X98.885 Y93.192 E3.85830
G1 X99.062 Y93.063 E3.86253
G1 X99.255 Y92.957 E3.86676
G1 X99.614 Y92.837 E3.87405
G1 X99.745 Y92.614 F6000.000
G1 X97.919 Y91.948 F6000.000
G1 F1800
G1 X95.921 Y91.120 E3.91566
G1 X95.093 Y89.122 E3.95728
G1 X95.093 Y85.960 E4.01811
G1 X95.921 Y83.962 E4.05972
G1 X97.919 Y83.134 E4.10134
G1 X116.081 Y83.134 E4.45075
G1 X118.079 Y83.962 E4.49236
G1 X118.907 Y85.960 E4.53397
G1 X118.907 Y89.122 E4.59480
G1 X118.079 Y91.120 E4.63642
G1 X116.081 Y91.948 E4.67803
G1 X97.979 Y91.948 E5.02629
G1 X97.970 Y91.691 F6000.000
G1 F1800
G1 X96.118 Y90.924 E5.06487
G1 X95.350 Y89.071 E5.10345
G1 X95.350 Y86.011 E5.16231
G1 X96.118 Y84.158 E5.20090
G1 X97.970 Y83.391 E5.23948
G1 X116.030 Y83.391 E5.58692
G1 X117.883 Y84.158 E5.62550
G1 X118.650 Y86.011 E5.66408
G1 X118.650 Y89.071 E5.72295
G1 X117.883 Y90.924 E5.76153
G1 X116.030 Y91.691 E5.80011
G1 X98.030 Y91.691 E6.14640
G1 X97.691 Y91.978 F6000.000
G1 E4.14640 F1200.00000
G92 E0
G1 Z0.700 F6000.000
G1 X99.576 Y81.767 F6000.000
G1 Z0.200 F6000.000
G1 E2.00000 F1200.00000
G1 F1800
G1 X99.300 Y81.696 E2.00548
G1 X99.036 Y81.591 E2.01095
G1 X98.786 Y81.454 E2.01642
G1 X98.556 Y81.287 E2.02190
G1 X98.349 Y81.092 E2.02737
G1 X98.167 Y80.873 E2.03284
G1 X98.015 Y80.632 E2.03832
G1 X97.894 Y80.375 E2.04379
G1 X97.806 Y80.104 E2.04927
G1 X97.753 Y79.825 E2.05474
G1 X97.735 Y79.541 E2.06021
G1 X97.753 Y79.257 E2.06568
G1 X97.806 Y78.978 E2.07116
G1 X97.894 Y78.707 E2.07663
G1 X98.015 Y78.450 E2.08210
G1 X98.167 Y78.210 E2.08758
G1 X98.349 Y77.990 E2.09305
G1 X98.571 Y77.781 E2.09892
G1 X99.009 Y77.503 E2.10890
G1 X99.299 Y77.387 E2.11491
G1 X99.576 Y77.316 E2.12041
G1 X99.858 Y77.280 E2.12589
G1 X100.142 Y77.280 E2.13135
G1 X100.425 Y77.316 E2.13683
G1 X100.700 Y77.387 E2.14231
G1 X100.965 Y77.491 E2.14778
G1 X101.232 Y77.638 E2.15365
G1 X101.632 Y77.968 E2.16362
G1 X101.832 Y78.208 E2.16963
G1 X101.985 Y78.450 E2.17514
G1 X102.107 Y78.707 E2.18061
G1 X102.194 Y78.978 E2.18608
G1 X102.248 Y79.257 E2.19155
G1 X102.266 Y79.541 E2.19703
G1 X102.248 Y79.825 E2.20250
G1 X102.194 Y80.104 E2.20797
G1 X102.107 Y80.375 E2.21345
G1 X101.985 Y80.632 E2.21892
G1 X101.833 Y80.873 E2.22440
G1 X101.652 Y81.092 E2.22987
G1 X101.444 Y81.287 E2.23534
G1 X101.214 Y81.454 E2.24081
G1 X100.965 Y81.591 E2.24629
G1 X100.700 Y81.696 E2.25176
G1 X100.425 Y81.767 E2.25724
G1 X100.142 Y81.802 E2.26271
G1 X99.858 Y81.802 E2.26818
G1 X99.635 Y81.774 E2.27250
G1 X99.624 Y81.513 F6000.000
G1 F1800
G1 X99.380 Y81.451 E2.27735
G1 X99.145 Y81.358 E2.28220
G1 X98.924 Y81.236 E2.28706
G1 X98.720 Y81.088 E2.29190
G1 X98.537 Y80.916 E2.29675
G1 X98.376 Y80.721 E2.30161
G1 X98.241 Y80.508 E2.30646
G1 X98.133 Y80.280 E2.31131
G1 X98.055 Y80.040 E2.31616
G1 X98.008 Y79.793 E2.32101
G1 X97.992 Y79.541 E2.32586
G1 X98.008 Y79.290 E2.33071
G1 X98.055 Y79.042 E2.33556
G1 X98.133 Y78.802 E2.34042
G1 X98.241 Y78.574 E2.34527
G1 X98.376 Y78.361 E2.35012
G1 X98.537 Y78.167 E2.35497
G1 X98.730 Y77.985 E2.36006
G1 X99.126 Y77.733 E2.36911
G1 X99.379 Y77.632 E2.37435
G1 X99.624 Y77.569 E2.37922
G1 X99.874 Y77.537 E2.38407
G1 X100.126 Y77.537 E2.38891
G1 X100.376 Y77.569 E2.39377
G1 X100.621 Y77.631 E2.39862
G1 X100.855 Y77.724 E2.40347
G1 X101.087 Y77.852 E2.40856
G1 X101.450 Y78.151 E2.41761
G1 X101.624 Y78.360 E2.42284
G1 X101.760 Y78.574 E2.42771
G1 X101.867 Y78.802 E2.43256
G1 X101.945 Y79.042 E2.43742
G1 X101.992 Y79.289 E2.44227
G1 X102.008 Y79.541 E2.44712
G1 X101.992 Y79.793 E2.45197
G1 X101.945 Y80.040 E2.45682
G1 X101.867 Y80.280 E2.46167
G1 X101.760 Y80.508 E2.46652
G1 X101.625 Y80.721 E2.47137
G1 X101.464 Y80.916 E2.47623
G1 X101.280 Y81.088 E2.48108
G1 X101.076 Y81.236 E2.48592
G1 X100.855 Y81.358 E2.49078
G1 X100.621 Y81.451 E2.49563
G1 X100.376 Y81.513 E2.50048
G1 X100.126 Y81.545 E2.50533
G1 X99.874 Y81.545 E2.51018
G1 X99.684 Y81.521 E2.51388
G1 X99.672 Y81.260 F6000.000
G1 F1800
G1 X99.459 Y81.206 E2.51811
G1 X99.255 Y81.125 E2.52234
G1 X99.062 Y81.019 E2.52656
G1 X98.885 Y80.890 E2.53079
G1 X98.724 Y80.739 E2.53502
G1 X98.584 Y80.570 E2.53925
G1 X98.466 Y80.384 E2.54348
G1 X98.373 Y80.185 E2.54771
G1 X98.305 Y79.976 E2.55194
G1 X98.264 Y79.760 E2.55617
G1 X98.250 Y79.541 E2.56039
G1 X98.264 Y79.322 E2.56462
G1 X98.305 Y79.106 E2.56885
G1 X98.373 Y78.897 E2.57308
G1 X98.466 Y78.698 E2.57731
G1 X98.584 Y78.512 E2.58154
G1 X98.724 Y78.343 E2.58577
G1 X98.888 Y78.189 E2.59008
G1 X99.244 Y77.963 E2.59821
G1 X99.459 Y77.877 E2.60266
G1 X99.672 Y77.822 E2.60690
G1 X99.890 Y77.794 E2.61112
G1 X100.110 Y77.794 E2.61535
G1 X100.328 Y77.822 E2.61958
G1 X100.541 Y77.876 E2.62381
G1 X100.745 Y77.957 E2.62804
G1 X100.942 Y78.066 E2.63236
G1 X101.268 Y78.334 E2.64048
G1 X101.416 Y78.512 E2.64493
G1 X101.534 Y78.698 E2.64917
G1 X101.628 Y78.897 E2.65340
G1 X101.695 Y79.106 E2.65763
G1 X101.737 Y79.322 E2.66185
G1 X101.751 Y79.541 E2.66608
G1 X101.737 Y79.760 E2.67031
G1 X101.695 Y79.976 E2.67454
G1 X101.628 Y80.185 E2.67877
G1 X101.534 Y80.384 E2.68300
G1 X101.416 Y80.570 E2.68723
G1 X101.276 Y80.739 E2.69146
G1 X101.116 Y80.890 E2.69568
G1 X100.938 Y81.019 E2.69991
G1 X100.745 Y81.125 E2.70414
G1 X100.541 Y81.206 E2.70837
G1 X100.328 Y81.260 E2.71260
G1 X100.110 Y81.288 E2.71683
G1 X99.732 Y81.268 E2.72412
G1 X99.529 Y81.427 F6000.000
G1 E0.72412 F1200.00000
G92 E0
G1 Z0.700 F6000.000
G1 X92.248 Y79.825 F6000.000
G1 Z0.200 F6000.000
G1 E2.00000 F1200.00000
G1 F1800
G1 X92.194 Y80.104 E2.00547
G1 X92.107 Y80.375 E2.01095
G1 X91.985 Y80.632 E2.01642
G1 X91.833 Y80.873 E2.02189
G1 X91.652 Y81.092 E2.02737
G1 X91.444 Y81.287 E2.03284
G1 X91.214 Y81.454 E2.03831
G1 X90.965 Y81.591 E2.04379
G1 X90.700 Y81.696 E2.04926
G1 X90.425 Y81.767 E2.05473
G1 X90.142 Y81.802 E2.06021
G1 X89.858 Y81.802 E2.06568
G1 X89.576 Y81.767 E2.07115
G1 X89.300 Y81.696 E2.07663
G1 X89.036 Y81.591 E2.08210
G1 X88.786 Y81.454 E2.08758
G1 X88.556 Y81.287 E2.09305
G1 X88.349 Y81.092 E2.09852
G1 X88.167 Y80.873 E2.10400
G1 X88.015 Y80.632 E2.10947
G1 X87.894 Y80.375 E2.11494
G1 X87.806 Y80.104 E2.12042
G1 X87.753 Y79.825 E2.12589
G1 X87.735 Y79.541 E2.13136
G1 X87.753 Y79.257 E2.13683
G1 X87.806 Y78.978 E2.14231
G1 X87.894 Y78.707 E2.14778
G1 X88.015 Y78.450 E2.15325
G1 X88.167 Y78.210 E2.15873
G1 X88.349 Y77.990 E2.16420
G1 X88.556 Y77.796 E2.16968
G1 X88.786 Y77.628 E2.17515
G1 X89.036 Y77.491 E2.18062
G1 X89.300 Y77.387 E2.18609
G1 X89.576 Y77.316 E2.19157
G1 X89.858 Y77.280 E2.19704
G1 X90.142 Y77.280 E2.20251
G1 X90.425 Y77.316 E2.20799
G1 X90.700 Y77.387 E2.21346
G1 X90.965 Y77.491 E2.21894
G1 X91.232 Y77.638 E2.22481
G1 X91.632 Y77.968 E2.23478
G1 X91.832 Y78.208 E2.24079
G1 X91.985 Y78.450 E2.24630
G1 X92.107 Y78.707 E2.25177
G1 X92.194 Y78.978 E2.25724
G1 X92.248 Y79.257 E2.26271
G1 X92.266 Y79.541 E2.26819
G1 X92.251 Y79.765 E2.27251
G1 X91.992 Y79.793 F6000.000
G1 F1800
G1 X91.945 Y80.040 E2.27736
G1 X91.867 Y80.280 E2.28221
G1 X91.760 Y80.508 E2.28706
G1 X91.625 Y80.721 E2.29191
G1 X91.464 Y80.916 E2.29676
G1 X91.280 Y81.088 E2.30161
G1 X91.076 Y81.236 E2.30646
G1 X90.855 Y81.358 E2.31131
G1 X90.621 Y81.451 E2.31616
G1 X90.376 Y81.513 E2.32102
G1 X90.126 Y81.545 E2.32587
G1 X89.874 Y81.545 E2.33072
G1 X89.624 Y81.513 E2.33557
G1 X89.380 Y81.451 E2.34042
G1 X89.145 Y81.358 E2.34527
G1 X88.924 Y81.236 E2.35013
G1 X88.720 Y81.088 E2.35497
G1 X88.537 Y80.916 E2.35982
G1 X88.376 Y80.721 E2.36468
G1 X88.241 Y80.508 E2.36953
G1 X88.133 Y80.280 E2.37438
G1 X88.055 Y80.040 E2.37923
G1 X88.008 Y79.793 E2.38408
G1 X87.992 Y79.541 E2.38893
G1 X88.008 Y79.290 E2.39378
G1 X88.055 Y79.042 E2.39863
G1 X88.133 Y78.802 E2.40349
G1 X88.241 Y78.574 E2.40834
G1 X88.376 Y78.361 E2.41319
G1 X88.537 Y78.167 E2.41804
G1 X88.720 Y77.994 E2.42289
G1 X88.924 Y77.846 E2.42774
G1 X89.145 Y77.724 E2.43259
G1 X89.380 Y77.631 E2.43744
G1 X89.624 Y77.569 E2.44230
G1 X89.874 Y77.537 E2.44715
G1 X90.126 Y77.537 E2.45199
G1 X90.376 Y77.569 E2.45685
G1 X90.621 Y77.631 E2.46170
G1 X90.855 Y77.724 E2.46655
G1 X91.087 Y77.852 E2.47164
G1 X91.450 Y78.151 E2.48069
G1 X91.624 Y78.360 E2.48593
G1 X91.760 Y78.574 E2.49080
G1 X91.867 Y78.802 E2.49565
G1 X91.945 Y79.042 E2.50050
G1 X91.992 Y79.289 E2.50535
G1 X92.008 Y79.541 E2.51020
G1 X91.996 Y79.733 E2.51389
G1 X91.737 Y79.760 F6000.000
G1 F1800
G1 X91.695 Y79.976 E2.51812
G1 X91.628 Y80.185 E2.52235
G1 X91.534 Y80.384 E2.52658
G1 X91.416 Y80.570 E2.53081
G1 X91.276 Y80.739 E2.53504
G1 X91.116 Y80.890 E2.53927
G1 X90.938 Y81.019 E2.54350
G1 X90.745 Y81.125 E2.54772
G1 X90.541 Y81.206 E2.55195
G1 X90.328 Y81.260 E2.55618
G1 X90.110 Y81.288 E2.56041
G1 X89.890 Y81.288 E2.56464
G1 X89.672 Y81.260 E2.56887
G1 X89.459 Y81.206 E2.57310
G1 X89.255 Y81.125 E2.57733
G1 X89.062 Y81.019 E2.58156
G1 X88.885 Y80.890 E2.58578
G1 X88.724 Y80.739 E2.59001
G1 X88.584 Y80.570 E2.59424
G1 X88.466 Y80.384 E2.59847
G1 X88.373 Y80.185 E2.60270
G1 X88.305 Y79.976 E2.60693
G1 X88.264 Y79.760 E2.61116
G1 X88.250 Y79.541 E2.61538
G1 X88.264 Y79.322 E2.61961
G1 X88.305 Y79.106 E2.62384
G1 X88.373 Y78.897 E2.62807
G1 X88.466 Y78.698 E2.63230
G1 X88.584 Y78.512 E2.63653
G1 X88.724 Y78.343 E2.64076
G1 X88.885 Y78.192 E2.64499
G1 X89.062 Y78.063 E2.64921
G1 X89.255 Y77.957 E2.65344
G1 X89.459 Y77.876 E2.65767
G1 X89.672 Y77.822 E2.66190
G1 X89.890 Y77.794 E2.66613
G1 X90.110 Y77.794 E2.67036
G1 X90.328 Y77.822 E2.67459
G1 X90.541 Y77.876 E2.67882
