; generated by Slic3r 1.3.1-dev (Build (Unknown revision)) on 2020-05-29 at 10:48:03

; external perimeters extrusion width = 0.44mm (2.86mm^3/s)
; perimeters extrusion width = 0.56mm (4.14mm^3/s)
; infill extrusion width = 0.50mm (3.66mm^3/s)
; solid infill extrusion width = 0.56mm (3.10mm^3/s)
; top infill extrusion width = 0.45mm (2.44mm^3/s)

M107
G92 E0
;D3D:START:START
T0
M104 S215 T0

G21
G90
M107
T0
G28
G29
M109 T0 S215 T0
G0 F3000
M107
T0
G92 E0
G0 X0 Y149 Z0.1 F3600
G1 Y49 E6.5 F1200
G0 Z1
G92 E0
; Filament gcode

G21 ; set units to millimeters
G90 ; use absolute coordinates
M82 ; use absolute distances for extrusion
G92 E0
G1 Z0.200 F6000.000
G1 E-2.00000 F1200.00000
G92 E0
G1 Z0.700 F6000.000
G1 X56.833 Y82.636 F6000.000
G1 Z0.200 F6000.000
G1 E2.00000 F1200.00000
G1 F1800.000
G1 X68.452 Y82.636 E2.22353
G1 X68.963 Y83.295 E2.23957
G1 X69.288 Y83.664 E2.24904
G1 X69.636 Y84.012 E2.25851
G1 X70.005 Y84.337 E2.26798
G1 X70.664 Y84.848 E2.28401
G1 X70.664 Y96.467 E2.50754
G1 X69.232 Y96.051 E2.53623
G1 X68.129 Y95.654 E2.55879
G1 X67.053 Y95.188 E2.58134
G1 X66.008 Y94.656 E2.60390
G1 X64.999 Y94.059 E2.62646
G1 X64.029 Y93.400 E2.64902
G1 X63.103 Y92.681 E2.67158
G1 X62.223 Y91.906 E2.69413
G1 X61.394 Y91.077 E2.71669
G1 X60.619 Y90.197 E2.73925
G1 X59.900 Y89.271 E2.76181
G1 X59.241 Y88.301 E2.78436
G1 X58.644 Y87.292 E2.80692
G1 X58.112 Y86.247 E2.82948
G1 X57.646 Y85.171 E2.85204
G1 X57.249 Y84.068 E2.87460
G1 X56.850 Y82.693 E2.90213
G1 X57.175 Y82.893 F6000.000
G1 F1800.000
G1 X68.326 Y82.893 E3.11664
G1 X68.764 Y83.458 E3.13041
G1 X69.101 Y83.840 E3.14020
G1 X69.460 Y84.199 E3.14998
G1 X69.842 Y84.536 E3.15976
G1 X70.407 Y84.974 E3.17353
G1 X70.407 Y96.125 E3.38805
G1 X69.312 Y95.806 E3.40999
G1 X68.224 Y95.415 E3.43223
G1 X67.163 Y94.955 E3.45448
G1 X66.132 Y94.430 E3.47673
G1 X65.137 Y93.842 E3.49898
G1 X64.180 Y93.192 E3.52122
G1 X63.267 Y92.483 E3.54347
G1 X62.399 Y91.718 E3.56572
G1 X61.582 Y90.901 E3.58796
G1 X60.817 Y90.033 E3.61021
G1 X60.108 Y89.119 E3.63246
G1 X59.458 Y88.163 E3.65470
G1 X58.870 Y87.168 E3.67695
G1 X58.345 Y86.137 E3.69920
G1 X57.885 Y85.076 E3.72145
G1 X57.494 Y83.988 E3.74369
G1 X57.192 Y82.951 E3.76448
G1 X57.518 Y83.150 F6000.000
G1 F1800.000
G1 X68.200 Y83.150 E3.96999
G1 X68.566 Y83.622 E3.98149
G1 X68.913 Y84.016 E3.99158
G1 X69.284 Y84.387 E4.00167
G1 X69.678 Y84.734 E4.01177
G1 X70.150 Y85.100 E4.02327
G1 X70.150 Y95.782 E4.22878
G1 X69.391 Y95.562 E4.24398
G1 X68.319 Y95.176 E4.26591
G1 X67.272 Y94.723 E4.28785
G1 X66.256 Y94.205 E4.30978
G1 X65.275 Y93.625 E4.33172
G1 X64.332 Y92.984 E4.35366
G1 X63.431 Y92.285 E4.37559
G1 X62.575 Y91.531 E4.39753
G1 X61.769 Y90.725 E4.41947
G1 X61.015 Y89.869 E4.44140
G1 X60.316 Y88.968 E4.46334
G1 X59.675 Y88.025 E4.48527
G1 X59.095 Y87.044 E4.50721
G1 X58.577 Y86.028 E4.52915
G1 X58.124 Y84.981 E4.55108
G1 X57.738 Y83.909 E4.57302
G1 X57.535 Y83.208 E4.58706
G1 X57.475 Y82.752 F6000.000
G1 E2.58706 F1200.00000
G92 E0
G1 Z0.700 F6000.000
G1 X60.949 Y79.951 F6000.000
G1 Z0.200 F6000.000
G1 E2.00000 F1200.00000
G1 F1800.000
G1 X60.754 Y79.744 E2.00547
G1 X60.587 Y79.514 E2.01095
G1 X60.450 Y79.265 E2.01642
G1 X60.345 Y79.000 E2.02189
G1 X60.275 Y78.724 E2.02737
G1 X60.239 Y78.442 E2.03284
G1 X60.239 Y78.158 E2.03831
G1 X60.275 Y77.876 E2.04378
G1 X60.345 Y77.600 E2.04926
G1 X60.450 Y77.335 E2.05473
G1 X60.587 Y77.086 E2.06020
G1 X60.754 Y76.856 E2.06568
G1 X60.949 Y76.648 E2.07115
G1 X61.168 Y76.467 E2.07663
G1 X61.409 Y76.315 E2.08210
G1 X61.666 Y76.194 E2.08757
G1 X61.937 Y76.106 E2.09304
G1 X62.216 Y76.052 E2.09852
G1 X62.500 Y76.035 E2.10399
G1 X62.784 Y76.052 E2.10947
G1 X63.063 Y76.106 E2.11494
G1 X63.334 Y76.194 E2.12041
G1 X63.591 Y76.315 E2.12588
G1 X63.832 Y76.467 E2.13136
G1 X64.051 Y76.648 E2.13683
G1 X64.246 Y76.856 E2.14231
G1 X64.413 Y77.086 E2.14778
G1 X64.550 Y77.335 E2.15325
G1 X64.655 Y77.600 E2.15872
G1 X64.725 Y77.876 E2.16420
G1 X64.761 Y78.158 E2.16968
G1 X64.761 Y78.442 E2.17514
G1 X64.725 Y78.724 E2.18062
G1 X64.655 Y79.000 E2.18610
G1 X64.550 Y79.265 E2.19157
G1 X64.413 Y79.514 E2.19704
G1 X64.246 Y79.744 E2.20251
G1 X64.051 Y79.951 E2.20799
G1 X63.832 Y80.133 E2.21346
G1 X63.591 Y80.285 E2.21894
G1 X63.334 Y80.406 E2.22441
G1 X63.063 Y80.494 E2.22988
G1 X62.784 Y80.548 E2.23535
G1 X62.500 Y80.565 E2.24083
G1 X62.216 Y80.548 E2.24630
G1 X61.937 Y80.494 E2.25178
G1 X61.666 Y80.406 E2.25725
G1 X61.409 Y80.285 E2.26272
G1 X61.168 Y80.133 E2.26820
G1 X60.995 Y79.990 E2.27251
G1 X61.125 Y79.764 F6000.000
G1 F1800.000
G1 X60.953 Y79.580 E2.27736
G1 X60.805 Y79.376 E2.28222
G1 X60.683 Y79.155 E2.28707
G1 X60.590 Y78.921 E2.29192
G1 X60.528 Y78.676 E2.29677
G1 X60.496 Y78.426 E2.30162
G1 X60.496 Y78.174 E2.30647
G1 X60.528 Y77.924 E2.31132
G1 X60.590 Y77.679 E2.31617
G1 X60.683 Y77.445 E2.32102
G1 X60.805 Y77.224 E2.32587
G1 X60.953 Y77.020 E2.33072
G1 X61.125 Y76.836 E2.33558
G1 X61.320 Y76.676 E2.34043
G1 X61.533 Y76.540 E2.34528
G1 X61.761 Y76.433 E2.35013
G1 X62.001 Y76.355 E2.35498
G1 X62.248 Y76.308 E2.35983
G1 X62.500 Y76.292 E2.36468
G1 X62.752 Y76.308 E2.36953
G1 X62.999 Y76.355 E2.37439
G1 X63.239 Y76.433 E2.37924
G1 X63.467 Y76.540 E2.38409
G1 X63.680 Y76.676 E2.38894
G1 X63.875 Y76.836 E2.39379
G1 X64.047 Y77.020 E2.39864
G1 X64.195 Y77.224 E2.40349
G1 X64.317 Y77.445 E2.40834
G1 X64.410 Y77.679 E2.41319
G1 X64.472 Y77.924 E2.41805
G1 X64.504 Y78.174 E2.42290
G1 X64.504 Y78.426 E2.42775
G1 X64.472 Y78.676 E2.43260
G1 X64.410 Y78.921 E2.43745
G1 X64.317 Y79.155 E2.44230
G1 X64.195 Y79.376 E2.44715
G1 X64.047 Y79.580 E2.45200
G1 X63.875 Y79.764 E2.45685
G1 X63.680 Y79.924 E2.46170
G1 X63.467 Y80.060 E2.46656
G1 X63.239 Y80.167 E2.47141
G1 X62.999 Y80.245 E2.47626
G1 X62.752 Y80.292 E2.48111
G1 X62.500 Y80.308 E2.48596
G1 X62.248 Y80.292 E2.49081
G1 X62.001 Y80.245 E2.49566
G1 X61.761 Y80.167 E2.50051
G1 X61.533 Y80.060 E2.50536
G1 X61.320 Y79.924 E2.51022
G1 X61.172 Y79.802 E2.51391
G1 X61.302 Y79.576 F6000.000
G1 F1800.000
G1 X61.151 Y79.416 E2.51814
G1 X61.022 Y79.238 E2.52237
G1 X60.916 Y79.045 E2.52660
G1 X60.835 Y78.841 E2.53083
G1 X60.781 Y78.628 E2.53506
G1 X60.753 Y78.410 E2.53928
G1 X60.753 Y78.190 E2.54351
G1 X60.781 Y77.972 E2.54774
G1 X60.835 Y77.759 E2.55197
G1 X60.916 Y77.555 E2.55620
G1 X61.022 Y77.362 E2.56043
G1 X61.151 Y77.184 E2.56466
G1 X61.302 Y77.024 E2.56888
G1 X61.471 Y76.884 E2.57311
G1 X61.657 Y76.766 E2.57734
G1 X61.856 Y76.673 E2.58157
G1 X62.065 Y76.605 E2.58580
G1 X62.281 Y76.563 E2.59003
G1 X62.500 Y76.550 E2.59426
G1 X62.719 Y76.563 E2.59848
G1 X62.935 Y76.605 E2.60271
G1 X63.144 Y76.673 E2.60694
G1 X63.343 Y76.766 E2.61117
G1 X63.529 Y76.884 E2.61540
G1 X63.698 Y77.024 E2.61963
G1 X63.849 Y77.184 E2.62386
G1 X63.978 Y77.362 E2.62809
G1 X64.084 Y77.555 E2.63232
G1 X64.165 Y77.759 E2.63654
G1 X64.219 Y77.972 E2.64077
G1 X64.247 Y78.190 E2.64500
G1 X64.247 Y78.410 E2.64923
G1 X64.219 Y78.628 E2.65346
G1 X64.165 Y78.841 E2.65769
G1 X64.084 Y79.045 E2.66192
G1 X63.978 Y79.238 E2.66614
G1 X63.849 Y79.416 E2.67037
G1 X63.698 Y79.576 E2.67460
G1 X63.529 Y79.716 E2.67883
G1 X63.343 Y79.834 E2.68306
G1 X63.144 Y79.927 E2.68729
G1 X62.935 Y79.995 E2.69152
G1 X62.719 Y80.037 E2.69575
G1 X62.500 Y80.050 E2.69997
G1 X62.281 Y80.037 E2.70420
G1 X62.065 Y79.995 E2.70843
G1 X61.856 Y79.927 E2.71266
G1 X61.657 Y79.834 E2.71689
G1 X61.348 Y79.614 E2.72418
G1 X61.091 Y79.639 F6000.000
G1 E0.72418 F1200.00000
G92 E0
G1 Z0.700 F6000.000
G1 X69.347 Y78.666 F6000.000
G1 Z0.200 F6000.000
G1 E2.00000 F1200.00000
G1 F1800.000
G1 X69.335 Y78.290 E2.00725
G1 X69.379 Y77.590 E2.02074
G1 X69.511 Y76.901 E2.03422
G1 X69.616 Y76.540 E2.04147
G1 X69.870 Y75.897 E2.05476
G1 X70.041 Y75.562 E2.06200
G1 X70.411 Y74.979 E2.07529
G1 X70.635 Y74.689 E2.08234
G1 X70.878 Y74.415 E2.08938
G1 X71.381 Y73.942 E2.10267
G1 X71.679 Y73.711 E2.10992
G1 X72.271 Y73.335 E2.12340
G1 X72.905 Y73.037 E2.13689
G1 X73.259 Y72.909 E2.14414
G1 X73.938 Y72.735 E2.15762
G1 X74.634 Y72.647 E2.17111
G1 X75.010 Y72.635 E2.17836
G1 X75.710 Y72.679 E2.19185
G1 X76.399 Y72.811 E2.20533
G1 X76.750 Y72.913 E2.21238
G1 X77.095 Y73.037 E2.21943
G1 X77.729 Y73.335 E2.23291
G1 X78.321 Y73.711 E2.24640
G1 X78.619 Y73.942 E2.25365
G1 X79.122 Y74.415 E2.26693
G1 X79.365 Y74.689 E2.27398
G1 X79.589 Y74.979 E2.28103
G1 X79.965 Y75.571 E2.29451
G1 X80.268 Y76.214 E2.30820
G1 X80.487 Y76.891 E2.32189
G1 X80.619 Y77.580 E2.33537
G1 X80.653 Y77.944 E2.34242
G1 X80.665 Y78.310 E2.34947
G1 X80.621 Y79.000 E2.36276
G1 X80.563 Y79.372 E2.37000
G1 X80.388 Y80.051 E2.38349
G1 X80.130 Y80.703 E2.39698
G1 X79.959 Y81.038 E2.40422
G1 X79.589 Y81.621 E2.41751
G1 X79.365 Y81.911 E2.42456
G1 X79.122 Y82.185 E2.43160
G1 X78.619 Y82.658 E2.44489
G1 X78.321 Y82.889 E2.45214
G1 X77.729 Y83.265 E2.46562
G1 X77.095 Y83.563 E2.47911
G1 X76.741 Y83.691 E2.48636
G1 X76.062 Y83.865 E2.49984
G1 X75.366 Y83.953 E2.51333
G1 X74.990 Y83.965 E2.52058
G1 X74.290 Y83.921 E2.53407
G1 X73.601 Y83.789 E2.54755
G1 X73.250 Y83.687 E2.55460
G1 X72.905 Y83.563 E2.56165
G1 X72.271 Y83.265 E2.57513
G1 X71.679 Y82.889 E2.58862
G1 X71.381 Y82.658 E2.59587
G1 X70.878 Y82.185 E2.60915
G1 X70.635 Y81.911 E2.61620
G1 X70.411 Y81.621 E2.62325
G1 X70.041 Y81.038 E2.63653
G1 X69.870 Y80.703 E2.64378
G1 X69.612 Y80.051 E2.65727
G1 X69.435 Y79.362 E2.67095
G1 X69.355 Y78.726 E2.68329
G1 X69.604 Y78.646 F6000.000
G1 F1800.000
G1 X69.593 Y78.294 E2.69007
G1 X69.635 Y77.622 E2.70301
G1 X69.761 Y76.961 E2.71595
G1 X69.859 Y76.623 E2.72273
G1 X70.104 Y76.003 E2.73555
G1 X70.264 Y75.689 E2.74233
G1 X70.621 Y75.127 E2.75515
G1 X70.834 Y74.853 E2.76181
G1 X71.062 Y74.594 E2.76847
G1 X71.548 Y74.138 E2.78129
G1 X71.827 Y73.921 E2.78807
G1 X72.395 Y73.561 E2.80101
G1 X73.003 Y73.275 E2.81395
G1 X73.335 Y73.155 E2.82074
G1 X73.987 Y72.988 E2.83368
G1 X74.654 Y72.904 E2.84662
G1 X75.006 Y72.893 E2.85340
G1 X75.678 Y72.935 E2.86634
G1 X76.339 Y73.061 E2.87929
G1 X76.671 Y73.157 E2.88594
G1 X76.997 Y73.275 E2.89260
G1 X77.605 Y73.561 E2.90555
G1 X78.173 Y73.921 E2.91849
G1 X78.452 Y74.138 E2.92527
G1 X78.938 Y74.594 E2.93809
G1 X79.166 Y74.853 E2.94475
G1 X79.379 Y75.127 E2.95140
G1 X79.739 Y75.695 E2.96435
G1 X80.028 Y76.309 E2.97741
G1 X80.238 Y76.955 E2.99048
G1 X80.364 Y77.616 E3.00342
G1 X80.397 Y77.960 E3.01008
G1 X80.407 Y78.306 E3.01674
G1 X80.366 Y78.971 E3.02956
G1 X80.310 Y79.320 E3.03634
G1 X80.143 Y79.971 E3.04928
G1 X79.896 Y80.597 E3.06222
G1 X79.736 Y80.911 E3.06900
G1 X79.379 Y81.473 E3.08182
G1 X79.166 Y81.747 E3.08848
G1 X78.938 Y82.006 E3.09514
G1 X78.452 Y82.462 E3.10796
G1 X78.173 Y82.679 E3.11474
G1 X77.605 Y83.039 E3.12768
G1 X76.997 Y83.325 E3.14062
G1 X76.665 Y83.445 E3.14740
G1 X76.013 Y83.612 E3.16035
G1 X75.346 Y83.696 E3.17329
G1 X74.994 Y83.707 E3.18007
G1 X74.322 Y83.665 E3.19301
G1 X73.661 Y83.539 E3.20595
G1 X73.329 Y83.443 E3.21261
G1 X73.003 Y83.325 E3.21927
G1 X72.395 Y83.039 E3.23221
G1 X71.827 Y82.679 E3.24515
G1 X71.548 Y82.462 E3.25194
G1 X71.062 Y82.006 E3.26476
G1 X70.834 Y81.747 E3.27141
G1 X70.622 Y81.473 E3.27807
G1 X70.264 Y80.911 E3.29089
G1 X70.104 Y80.597 E3.29767
G1 X69.857 Y79.971 E3.31061
G1 X69.688 Y79.313 E3.32368
G1 X69.611 Y78.705 E3.33547
G1 X69.860 Y78.626 F6000.000
G1 F1800.000
G1 X69.850 Y78.298 E3.34178
G1 X69.890 Y77.654 E3.35418
G1 X70.011 Y77.021 E3.36658
G1 X70.103 Y76.706 E3.37289
G1 X70.339 Y76.109 E3.38525
G1 X70.488 Y75.817 E3.39156
G1 X70.832 Y75.275 E3.40391
G1 X71.032 Y75.017 E3.41018
G1 X71.247 Y74.773 E3.41645
G1 X71.715 Y74.333 E3.42881
G1 X71.975 Y74.132 E3.43512
G1 X72.519 Y73.787 E3.44752
G1 X73.102 Y73.512 E3.45992
G1 X73.411 Y73.401 E3.46623
G1 X74.035 Y73.241 E3.47863
G1 X74.674 Y73.160 E3.49103
G1 X75.002 Y73.150 E3.49734
G1 X75.646 Y73.190 E3.50974
G1 X76.279 Y73.311 E3.52214
G1 X76.591 Y73.402 E3.52841
G1 X76.898 Y73.512 E3.53468
G1 X77.481 Y73.787 E3.54707
G1 X78.025 Y74.132 E3.55947
G1 X78.285 Y74.333 E3.56579
G1 X78.753 Y74.773 E3.57814
G1 X78.968 Y75.017 E3.58441
G1 X79.168 Y75.275 E3.59068
G1 X79.513 Y75.819 E3.60308
G1 X79.789 Y76.404 E3.61552
G1 X79.988 Y77.019 E3.62796
G1 X80.109 Y77.652 E3.64036
G1 X80.140 Y77.977 E3.64663
G1 X80.150 Y78.302 E3.65290
G1 X80.110 Y78.943 E3.66525
G1 X80.058 Y79.267 E3.67157
G1 X79.898 Y79.892 E3.68397
G1 X79.661 Y80.491 E3.69636
G1 X79.512 Y80.783 E3.70268
G1 X79.168 Y81.325 E3.71503
G1 X78.968 Y81.583 E3.72130
G1 X78.753 Y81.827 E3.72757
G1 X78.285 Y82.267 E3.73992
G1 X78.025 Y82.468 E3.74624
G1 X77.481 Y82.813 E3.75863
G1 X76.898 Y83.088 E3.77103
G1 X76.589 Y83.199 E3.77735
G1 X75.965 Y83.359 E3.78975
G1 X75.326 Y83.440 E3.80214
G1 X74.998 Y83.450 E3.80846
G1 X74.354 Y83.410 E3.82086
G1 X73.721 Y83.289 E3.83325
G1 X73.409 Y83.198 E3.83952
G1 X73.102 Y83.088 E3.84579
G1 X72.519 Y82.813 E3.85819
G1 X71.975 Y82.468 E3.87059
G1 X71.715 Y82.267 E3.87690
G1 X71.247 Y81.827 E3.88926
G1 X71.032 Y81.583 E3.89553
G1 X70.832 Y81.325 E3.90180
G1 X70.488 Y80.783 E3.91415
G1 X70.339 Y80.491 E3.92046
G1 X70.102 Y79.892 E3.93286
G1 X69.941 Y79.265 E3.94530
G1 X69.868 Y78.685 E3.95655
G1 X69.563 Y78.486 F6000.000
G1 E1.95655 F1200.00000
G92 E0
G1 Z0.700 F6000.000
G1 X79.336 Y60.133 F6000.000
G1 Z0.200 F6000.000
G1 E2.00000 F1200.00000
G1 F1800.000
G1 X80.768 Y60.549 E2.02868
G1 X81.870 Y60.946 E2.05123
G1 X82.907 Y61.392 E2.07294
G1 X83.992 Y61.944 E2.09636
G1 X85.001 Y62.541 E2.11892
G1 X85.971 Y63.200 E2.14148
G1 X86.897 Y63.919 E2.16403
G1 X87.777 Y64.694 E2.18659
G1 X88.606 Y65.523 E2.20915
G1 X89.381 Y66.403 E2.23171
G1 X90.100 Y67.329 E2.25427
G1 X90.759 Y68.299 E2.27682
G1 X91.356 Y69.308 E2.29938
G1 X91.888 Y70.353 E2.32194
G1 X92.354 Y71.429 E2.34450
G1 X92.751 Y72.532 E2.36705
G1 X93.167 Y73.964 E2.39574
G1 X81.548 Y73.964 E2.61927
G1 X81.037 Y73.305 E2.63531
G1 X80.712 Y72.936 E2.64478
G1 X80.364 Y72.588 E2.65425
G1 X79.995 Y72.263 E2.66372
G1 X79.336 Y71.752 E2.67975
G1 X79.336 Y60.193 E2.90213
G1 X79.593 Y60.475 F6000.000
G1 F1800.000
G1 X80.688 Y60.794 E2.92407
G1 X81.776 Y61.185 E2.94631
G1 X82.798 Y61.624 E2.96771
G1 X83.868 Y62.170 E2.99081
G1 X84.863 Y62.758 E3.01306
G1 X85.819 Y63.408 E3.03531
G1 X86.733 Y64.117 E3.05755
G1 X87.601 Y64.882 E3.07980
G1 X88.418 Y65.699 E3.10205
G1 X89.183 Y66.567 E3.12429
G1 X89.892 Y67.480 E3.14654
G1 X90.542 Y68.437 E3.16879
G1 X91.130 Y69.432 E3.19103
G1 X91.655 Y70.463 E3.21328
G1 X92.115 Y71.524 E3.23553
G1 X92.506 Y72.612 E3.25778
G1 X92.825 Y73.707 E3.27972
G1 X81.674 Y73.707 E3.49424
G1 X81.236 Y73.141 E3.50801
G1 X80.899 Y72.760 E3.51779
G1 X80.540 Y72.401 E3.52757
G1 X80.158 Y72.064 E3.53735
G1 X79.593 Y71.626 E3.55112
G1 X79.593 Y60.535 E3.76448
G1 X79.850 Y60.818 F6000.000
G1 F1800.000
G1 X80.609 Y61.038 E3.77968
G1 X81.681 Y61.424 E3.80161
G1 X82.689 Y61.857 E3.82271
G1 X83.744 Y62.395 E3.84549
G1 X84.725 Y62.975 E3.86743
G1 X85.668 Y63.616 E3.88936
G1 X86.569 Y64.315 E3.91130
G1 X87.425 Y65.069 E3.93324
G1 X88.231 Y65.875 E3.95517
G1 X88.985 Y66.731 E3.97711
G1 X89.684 Y67.632 E3.99905
G1 X90.325 Y68.575 E4.02098
G1 X90.905 Y69.556 E4.04292
G1 X91.423 Y70.572 E4.06485
G1 X91.876 Y71.619 E4.08679
G1 X92.262 Y72.691 E4.10873
G1 X92.482 Y73.450 E4.12393
G1 X81.800 Y73.450 E4.32943
G1 X81.434 Y72.978 E4.34094
G1 X81.087 Y72.584 E4.35103
G1 X80.716 Y72.213 E4.36112
G1 X80.322 Y71.866 E4.37121
G1 X79.850 Y71.500 E4.38271
G1 X79.850 Y60.878 E4.58707
G1 X79.919 Y60.424 F6000.000
G1 E2.58707 F1200.00000
G92 E0
G1 Z0.700 F6000.000
G1 X86.666 Y76.194 F6000.000
G1 Z0.200 F6000.000
G1 E2.00000 F1200.00000
G1 F1800.000
G1 X86.937 Y76.106 E2.00547
G1 X87.216 Y76.052 E2.01095
G1 X87.500 Y76.035 E2.01642
G1 X87.784 Y76.052 E2.02189
G1 X88.063 Y76.106 E2.02737
G1 X88.334 Y76.194 E2.03284
G1 X88.591 Y76.315 E2.03831
G1 X88.832 Y76.467 E2.04379
G1 X89.051 Y76.648 E2.04926
G1 X89.246 Y76.856 E2.05474
G1 X89.413 Y77.086 E2.06021
G1 X89.550 Y77.335 E2.06568
G1 X89.655 Y77.600 E2.07115
G1 X89.725 Y77.876 E2.07663
G1 X89.761 Y78.158 E2.08210
G1 X89.761 Y78.442 E2.08757
G1 X89.725 Y78.724 E2.09305
G1 X89.655 Y79.000 E2.09852
G1 X89.550 Y79.265 E2.10399
G1 X89.413 Y79.514 E2.10947
G1 X89.246 Y79.744 E2.11494
G1 X89.051 Y79.951 E2.12041
