; generated by Slic3r 1.3.1-dev (Build (Unknown revision)) on 2020-07-26 at 09:39:55

; external perimeters extrusion width = 0.44mm (2.86mm^3/s)
; perimeters extrusion width = 0.56mm (4.14mm^3/s)
; infill extrusion width = 0.50mm (5.48mm^3/s)
; solid infill extrusion width = 0.56mm (3.10mm^3/s)
; top infill extrusion width = 0.45mm (2.44mm^3/s)

M107
G92 E0
;D3D:START:START
T0
M104 S215 T0

G21
G90
M107
T0
G28
G29
M109 T0 S215 T0
G0 F3000
M107
T0
G92 E0
G0 X0 Y149 Z0.1 F3600
G1 Y49 E6.5 F1200
G0 Z1
G92 E0
; Filament gcode

G21 ; set units to millimeters
G90 ; use absolute coordinates
M82 ; use absolute distances for extrusion
G92 E0
G1 Z0.300 F6000.000
G1 E-2.00000 F1200.00000
G92 E0
G1 X56.217 Y50.981 F6000.000
G1 E2.00000 F1200.00000
G1 F1800.000
G1 X57.878 Y49.973 E2.08693
G1 X59.055 Y49.717 E2.14079
G1 X90.114 Y47.003 E3.53534
G1 X92.044 Y47.231 E3.62227
G1 X93.723 Y48.210 E3.70920
G1 X94.872 Y49.778 E3.79613
G1 X95.301 Y51.756 E3.88665
G1 X95.301 Y76.756 E5.00490
G1 X95.203 Y77.718 E5.04816
G1 X90.779 Y99.206 E6.02950
G1 X90.007 Y100.990 E6.11643
G1 X88.588 Y102.319 E6.20336
G1 X85.788 Y103.005 E6.33232
G1 X59.153 Y101.231 E7.52633
G1 X57.281 Y100.710 E7.61326
G1 X55.772 Y99.485 E7.70019
G1 X54.877 Y97.760 E7.78712
G1 X54.699 Y96.470 E7.84535
G1 X54.699 Y54.470 E9.72401
G1 X55.095 Y52.568 E9.81094
G1 X56.182 Y51.030 E9.89518
G1 X56.595 Y51.159 F6000.000
G1 F1800.000
G1 X59.089 Y50.101 E10.01632
G1 X90.148 Y47.387 E11.41088
G1 X91.995 Y47.622 E11.49418
G1 X93.578 Y48.603 E11.57749
G1 X94.612 Y50.152 E11.66079
G1 X94.915 Y51.756 E11.73378
G1 X94.915 Y76.756 E12.85202
G1 X94.825 Y77.640 E12.89178
G1 X90.401 Y99.129 E13.87313
G1 X89.647 Y100.832 E13.95643
G1 X88.254 Y102.068 E14.03974
G1 X85.814 Y102.620 E14.15163
G1 X59.179 Y100.846 E15.34564
G1 X57.389 Y100.331 E15.42894
G1 X55.975 Y99.119 E15.51225
G1 X55.191 Y97.430 E15.59555
G1 X55.085 Y96.470 E15.63873
G1 X55.085 Y54.470 E17.51738
G1 X55.480 Y52.651 E17.60069
G1 X56.559 Y51.207 E17.68131
G1 E15.68131 F1200.00000
G92 E0
G1 X81.717 Y88.777 F6000.000
G1 E2.00000 F1200.00000
G1 F1800.000
G1 X81.346 Y89.504 E2.03651
G1 X80.769 Y90.081 E2.07301
G1 X80.042 Y90.451 E2.10952
G1 X79.236 Y90.579 E2.14603
G1 X78.429 Y90.451 E2.18254
G1 X77.702 Y90.081 E2.21905
G1 X77.125 Y89.504 E2.25555
G1 X76.755 Y88.777 E2.29206
G1 X76.627 Y87.970 E2.32857
G1 X76.755 Y87.164 E2.36507
G1 X77.125 Y86.437 E2.40158
G1 X77.702 Y85.860 E2.43808
G1 X78.429 Y85.489 E2.47459
G1 X79.236 Y85.362 E2.51110
G1 X80.042 Y85.489 E2.54761
G1 X80.769 Y85.860 E2.58412
G1 X81.346 Y86.437 E2.62062
G1 X81.717 Y87.164 E2.65713
G1 X81.844 Y87.970 E2.69364
G1 X81.726 Y88.717 E2.72746
G1 X81.345 Y88.656 F6000.000
G1 F1800.000
G1 X81.030 Y89.274 E2.75850
G1 X80.539 Y89.765 E2.78954
G1 X79.921 Y90.080 E2.82059
G1 X79.236 Y90.189 E2.85163
G1 X78.550 Y90.080 E2.88267
G1 X77.932 Y89.765 E2.91372
G1 X77.441 Y89.274 E2.94476
G1 X77.126 Y88.656 E2.97581
G1 X77.017 Y87.970 E3.00685
G1 X77.126 Y87.285 E3.03789
G1 X77.441 Y86.667 E3.06894
G1 X77.932 Y86.176 E3.09997
G1 X78.550 Y85.861 E3.13102
G1 X79.236 Y85.752 E3.16206
G1 X79.921 Y85.861 E3.19311
G1 X80.539 Y86.176 E3.22415
G1 X81.030 Y86.667 E3.25519
G1 X81.345 Y87.285 E3.28624
G1 X81.454 Y87.970 E3.31728
G1 X81.355 Y88.597 E3.34564
G1 X80.974 Y88.535 F6000.000
G1 F1800.000
G1 X80.714 Y89.045 E3.37122
G1 X80.310 Y89.449 E3.39680
G1 X79.800 Y89.709 E3.42238
G1 X79.236 Y89.798 E3.44796
G1 X78.671 Y89.709 E3.47353
G1 X78.161 Y89.449 E3.49912
G1 X77.757 Y89.045 E3.52469
G1 X77.497 Y88.535 E3.55028
G1 X77.408 Y87.970 E3.57585
G1 X77.497 Y87.406 E3.60143
G1 X77.757 Y86.896 E3.62701
G1 X78.161 Y86.492 E3.65259
G1 X78.671 Y86.232 E3.67817
G1 X79.236 Y86.143 E3.70375
G1 X79.800 Y86.232 E3.72933
G1 X80.310 Y86.492 E3.75491
G1 X80.714 Y86.896 E3.78049
G1 X80.974 Y87.406 E3.80607
G1 X81.063 Y87.970 E3.83165
G1 X80.983 Y88.476 E3.85454
G1 X81.242 Y88.832 F6000.000
G1 E1.85454 F1200.00000
G92 E0
G1 X67.679 Y87.970 F6000.000
G1 E2.00000 F1200.00000
G1 F1800.000
G1 X67.552 Y88.777 E2.03650
G1 X67.181 Y89.504 E2.07302
G1 X66.604 Y90.081 E2.10952
G1 X65.877 Y90.451 E2.14603
G1 X65.071 Y90.579 E2.18254
G1 X64.264 Y90.451 E2.21904
G1 X63.537 Y90.081 E2.25555
G1 X62.960 Y89.504 E2.29205
G1 X62.590 Y88.777 E2.32857
G1 X62.462 Y87.970 E2.36507
G1 X62.590 Y87.164 E2.40158
G1 X62.960 Y86.437 E2.43809
G1 X63.537 Y85.860 E2.47459
G1 X64.264 Y85.489 E2.51110
G1 X65.071 Y85.362 E2.54761
G1 X65.877 Y85.489 E2.58411
G1 X66.604 Y85.860 E2.62062
G1 X67.181 Y86.437 E2.65712
G1 X67.552 Y87.164 E2.69364
G1 X67.670 Y87.911 E2.72746
G1 X67.289 Y87.970 F6000.000
G1 F1800.000
G1 X67.180 Y88.656 E2.75850
G1 X66.865 Y89.274 E2.78955
G1 X66.374 Y89.765 E2.82059
G1 X65.756 Y90.080 E2.85163
G1 X65.071 Y90.189 E2.88267
G1 X64.385 Y90.080 E2.91372
G1 X63.767 Y89.765 E2.94476
G1 X63.276 Y89.274 E2.97580
G1 X62.961 Y88.656 E3.00685
G1 X62.852 Y87.970 E3.03789
G1 X62.961 Y87.285 E3.06893
G1 X63.276 Y86.667 E3.09998
G1 X63.767 Y86.176 E3.13102
G1 X64.385 Y85.861 E3.16206
G1 X65.071 Y85.752 E3.19311
G1 X65.756 Y85.861 E3.22415
G1 X66.374 Y86.176 E3.25519
G1 X66.865 Y86.667 E3.28623
G1 X67.180 Y87.285 E3.31728
G1 X67.279 Y87.911 E3.34564
G1 X66.898 Y87.970 F6000.000
G1 F1800.000
G1 X66.809 Y88.535 E3.37122
G1 X66.549 Y89.045 E3.39680
G1 X66.145 Y89.449 E3.42237
G1 X65.635 Y89.709 E3.44795
G1 X65.071 Y89.798 E3.47353
G1 X64.506 Y89.709 E3.49911
G1 X63.996 Y89.449 E3.52469
G1 X63.592 Y89.045 E3.55027
G1 X63.332 Y88.535 E3.57585
G1 X63.243 Y87.970 E3.60143
G1 X63.332 Y87.406 E3.62701
G1 X63.592 Y86.896 E3.65259
G1 X63.996 Y86.492 E3.67817
G1 X64.506 Y86.232 E3.70375
G1 X65.071 Y86.143 E3.72933
G1 X65.635 Y86.232 E3.75491
G1 X66.145 Y86.492 E3.78049
G1 X66.549 Y86.896 E3.80606
G1 X66.809 Y87.406 E3.83165
G1 X66.889 Y87.911 E3.85454
G1 X67.245 Y88.170 F6000.000
G1 E1.85454 F1200.00000
G92 E0
G1 X60.467 Y80.467 F6000.000
G1 E2.00000 F1200.00000
G1 F1800.000
G1 X77.869 Y80.467 E2.77840
G1 X89.246 Y78.047 E3.29869
G1 X85.332 Y97.061 E4.16703
G1 X77.869 Y95.474 E4.50830
G1 X60.467 Y95.474 E5.28671
G1 X60.467 Y80.527 E5.95531
G1 X60.081 Y80.081 F6000.000
G1 F1800.000
G1 X77.829 Y80.081 E6.74914
G1 X89.743 Y77.547 E7.29400
G1 X85.631 Y97.519 E8.20608
G1 X77.829 Y95.860 E8.56290
G1 X60.081 Y95.860 E9.35673
G1 X60.081 Y80.141 E10.05983
G1 X59.696 Y79.695 F6000.000
G1 F1800.000
G1 X77.788 Y79.695 E10.86910
G1 X90.240 Y77.047 E11.43852
G1 X85.931 Y97.977 E12.39435
G1 X77.788 Y96.245 E12.76671
G1 X59.696 Y96.245 E13.57598
G1 X59.696 Y79.755 E14.31358
G1 X60.083 Y79.793 F6000.000
G1 X60.525 Y81.179 F6000.000
G1 F1800.000
G1 X61.180 Y80.525 E14.35510
G1 X61.727 Y80.525 E14.37964
G1 X60.525 Y81.727 E14.45588
G1 X60.525 Y82.274 E14.48042
G1 X62.274 Y80.525 E14.59137
G1 X62.821 Y80.525 E14.61591
G1 X60.525 Y82.821 E14.76156
G1 X60.525 Y83.368 E14.78610
G1 X63.368 Y80.525 E14.96646
G1 X63.915 Y80.525 E14.99101
G1 X60.525 Y83.915 E15.20607
G1 X60.525 Y84.462 E15.23061
G1 X64.462 Y80.525 E15.48038
G1 X65.009 Y80.525 E15.50493
G1 X60.525 Y85.009 E15.78940
G1 X60.525 Y85.556 E15.81395
G1 X65.556 Y80.525 E16.13313
G1 X66.103 Y80.525 E16.15767
G1 X60.525 Y86.103 E16.51156
G1 X60.525 Y86.650 E16.53610
G1 X66.650 Y80.525 E16.92470
G1 X67.197 Y80.525 E16.94924
G1 X60.525 Y87.197 E17.37254
G1 X60.525 Y87.744 E17.39709
G1 X67.744 Y80.525 E17.85510
G1 X68.291 Y80.525 E17.87964
G1 X60.525 Y88.291 E18.37235
G1 X60.525 Y88.838 E18.39689
G1 X61.872 Y87.491 E18.48235
G1 X61.891 Y87.371 E18.48779
G1 X62.317 Y86.535 E18.52990
G1 X62.981 Y85.871 E18.57199
G1 X63.817 Y85.445 E18.61409
G1 X63.936 Y85.426 E18.61953
G1 X68.838 Y80.525 E18.93052
G1 X69.385 Y80.525 E18.95506
G1 X64.586 Y85.323 E19.25951
G1 X64.743 Y85.299 E19.26664
G1 X65.101 Y85.355 E19.28291
G1 X69.932 Y80.525 E19.58938
G1 X70.479 Y80.525 E19.61392
G1 X65.574 Y85.430 E19.92514
G1 X65.670 Y85.445 E19.92952
G1 X65.958 Y85.592 E19.94404
G1 X71.026 Y80.525 E20.26555
G1 X71.573 Y80.525 E20.29009
G1 X66.321 Y85.777 E20.62332
G1 X66.506 Y85.871 E20.63265
G1 X66.640 Y86.005 E20.64113
G1 X72.120 Y80.525 E20.98882
G1 X72.667 Y80.525 E21.01336
G1 X66.913 Y86.279 E21.37841
G1 X67.181 Y86.558 E21.39577
G1 X73.214 Y80.525 E21.77852
G1 X73.761 Y80.525 E21.80306
G1 X67.366 Y86.920 E22.20881
G1 X67.550 Y87.282 E22.22706
G1 X74.308 Y80.525 E22.65579
G1 X74.855 Y80.525 E22.68034
G1 X67.652 Y87.728 E23.13733
G1 X67.727 Y88.200 E23.15878
G1 X75.402 Y80.525 E23.64574
G1 X75.949 Y80.525 E23.67028
G1 X67.661 Y88.813 E24.19614
G1 X67.596 Y89.224 E24.21482
G1 X67.387 Y89.634 E24.23543
G1 X76.496 Y80.525 E24.81336
G1 X77.043 Y80.525 E24.83791
G1 X62.152 Y95.416 E25.78270
G1 X62.699 Y95.416 E25.80725
G1 X77.590 Y80.525 E26.75204
G1 X78.137 Y80.525 E26.77659
G1 X63.246 Y95.416 E27.72138
G1 X63.793 Y95.416 E27.74592
G1 X78.804 Y80.404 E28.69838
G1 X79.499 Y80.257 E28.73025
G1 X64.340 Y95.416 E29.69208
G1 X64.887 Y95.416 E29.71662
G1 X80.194 Y80.109 E30.68783
G1 X80.889 Y79.961 E30.71970
G1 X65.434 Y95.416 E31.70028
G1 X65.981 Y95.416 E31.72482
G1 X81.583 Y79.813 E32.71477
G1 X82.278 Y79.666 E32.74664
G1 X66.528 Y95.416 E33.74597
G1 X67.075 Y95.416 E33.77051
G1 X82.973 Y79.518 E34.77922
G1 X83.668 Y79.370 E34.81109
G1 X77.188 Y85.850 E35.22221
G1 X77.982 Y85.445 E35.26217
G1 X78.169 Y85.416 E35.27069
G1 X84.362 Y79.222 E35.66365
G1 X85.057 Y79.075 E35.69551
G1 X78.819 Y85.313 E36.09132
G1 X78.908 Y85.299 E36.09537
G1 X79.316 Y85.363 E36.11388
G1 X85.752 Y78.927 E36.52225
G1 X86.447 Y78.779 E36.55412
G1 X79.788 Y85.438 E36.97661
G1 X79.835 Y85.445 E36.97876
G1 X80.161 Y85.612 E36.99518
G1 X87.141 Y78.631 E37.43806
G1 X87.836 Y78.484 E37.46993
G1 X80.524 Y85.796 E37.93391
G1 X80.671 Y85.871 E37.94134
G1 X80.833 Y86.033 E37.95162
G1 X88.531 Y78.336 E38.44003
G1 X89.077 Y78.220 E38.46508
G1 X89.047 Y78.367 E38.47183
G1 X81.107 Y86.307 E38.97561
G1 X81.335 Y86.535 E38.99007
G1 X81.365 Y86.595 E38.99311
G1 X88.905 Y79.056 E39.47148
G1 X88.763 Y79.745 E39.50304
G1 X81.550 Y86.958 E39.96069
G1 X81.735 Y87.320 E39.97894
G1 X88.621 Y80.433 E40.41589
G1 X88.479 Y81.122 E40.44744
G1 X81.825 Y87.777 E40.86966
G1 X81.900 Y88.249 E40.89111
G1 X88.338 Y81.811 E41.29959
G1 X88.196 Y82.500 E41.33114
G1 X81.815 Y88.881 E41.73600
G1 X81.761 Y89.224 E41.75161
G1 X81.493 Y89.750 E41.77807
G1 X88.054 Y83.189 E42.19436
G1 X87.912 Y83.877 E42.22591
G1 X76.374 Y95.416 E42.95801
G1 X76.921 Y95.416 E42.98255
G1 X87.770 Y84.566 E43.67094
G1 X87.629 Y85.255 E43.70249
G1 X77.468 Y95.416 E44.34717
G1 X77.582 Y95.416 E44.35231
G1 X77.939 Y95.492 E44.36867
G1 X87.487 Y85.944 E44.97446
G1 X87.345 Y86.633 E45.00601
G1 X78.390 Y95.588 E45.57419
G1 X78.841 Y95.684 E45.59488
G1 X87.203 Y87.322 E46.12544
G1 X87.061 Y88.010 E46.15699
G1 X79.292 Y95.779 E46.64993
G1 X79.743 Y95.875 E46.67062
G1 X86.920 Y88.699 E47.12594
G1 X86.778 Y89.388 E47.15750
G1 X80.194 Y95.971 E47.57520
G1 X80.645 Y96.067 E47.59589
G1 X86.636 Y90.077 E47.97598
G1 X86.494 Y90.766 E48.00753
G1 X81.096 Y96.163 E48.35000
G1 X81.548 Y96.259 E48.37069
G1 X86.352 Y91.454 E48.67555
G1 X86.210 Y92.143 E48.70710
G1 X81.999 Y96.355 E48.97434
G1 X82.450 Y96.451 E48.99503
G1 X86.069 Y92.832 E49.22464
G1 X85.927 Y93.521 E49.25620
G1 X82.901 Y96.547 E49.44820
G1 X83.352 Y96.643 E49.46889
G1 X85.785 Y94.210 E49.62327
G1 X85.643 Y94.898 E49.65482
G1 X83.803 Y96.739 E49.77159
G1 X84.254 Y96.835 E49.79228
G1 X85.501 Y95.587 E49.87143
G1 X85.360 Y96.276 E49.90298
G1 X84.705 Y96.931 E49.94451
G1 E47.94451 F1200.00000
G92 E0
G1 X75.827 Y95.416 F6000.000
G1 E2.00000 F1200.00000
G1 F1800.000
G1 X81.015 Y90.228 E2.32917
G1 X80.489 Y90.496 E2.35563
G1 X80.146 Y90.550 E2.37124
G1 X75.280 Y95.416 E2.67997
G1 X74.733 Y95.416 E2.70451
G1 X79.514 Y90.635 E3.00788
G1 X79.042 Y90.560 E3.02933
G1 X74.186 Y95.416 E3.33743
G1 X73.639 Y95.416 E3.36198
G1 X78.585 Y90.470 E3.67581
G1 X78.223 Y90.285 E3.69405
G1 X73.092 Y95.416 E4.01960
G1 X72.545 Y95.416 E4.04414
G1 X77.860 Y90.100 E4.38140
G1 X77.800 Y90.069 E4.38445
G1 X77.572 Y89.842 E4.39891
G1 X71.998 Y95.416 E4.75258
G1 X71.451 Y95.416 E4.77712
G1 X77.299 Y89.568 E5.14815
G1 X77.136 Y89.406 E5.15843
G1 X77.061 Y89.258 E5.16586
G1 X70.904 Y95.416 E5.55654
G1 X70.357 Y95.416 E5.58108
G1 X76.877 Y88.896 E5.99475
G1 X76.710 Y88.570 E6.01117
G1 X76.703 Y88.523 E6.01332
G1 X69.810 Y95.416 E6.45067
G1 X69.263 Y95.416 E6.47522
G1 X76.628 Y88.051 E6.94253
G1 X76.564 Y87.643 E6.96103
G1 X76.578 Y87.554 E6.96509
G1 X68.716 Y95.416 E7.46392
G1 X68.169 Y95.416 E7.48846
G1 X76.681 Y86.904 E8.02853
G1 X76.710 Y86.717 E8.03704
G1 X77.115 Y85.923 E8.07700
G1 X67.622 Y95.416 E8.67932
G1 X67.075 Y95.416 E8.70386
G1 E6.70386 F1200.00000
G92 E0
G1 X61.605 Y95.416 F6000.000
G1 E2.00000 F1200.00000
G1 F1800.000
G1 X66.734 Y90.287 E2.32542
G1 X66.325 Y90.496 E2.34603
G1 X65.913 Y90.561 E2.36472
G1 X61.058 Y95.416 E2.67277
G1 X60.525 Y95.416 E2.69668
G1 X65.300 Y90.627 E3.00008
G1 X64.828 Y90.552 E3.02153
G1 X60.525 Y94.855 E3.29453
G1 X60.525 Y94.308 E3.31907
G1 X64.382 Y90.450 E3.56380
G1 X64.020 Y90.266 E3.58205
G1 X60.525 Y93.761 E3.80379
G1 X60.525 Y93.214 E3.82834
G1 X63.658 Y90.081 E4.02709
G1 X63.379 Y89.813 E4.04445
G1 X60.525 Y92.667 E4.22549
G1 X60.525 Y92.120 E4.25004
G1 X63.105 Y89.540 E4.41373
G1 X62.971 Y89.406 E4.42221
G1 X62.877 Y89.221 E4.43154
G1 X60.525 Y91.573 E4.58076
G1 X60.525 Y91.026 E4.60530
G1 X62.692 Y88.858 E4.74281
G1 X62.545 Y88.570 E4.75734
G1 X62.530 Y88.474 E4.76171
G1 X60.525 Y90.479 E4.88893
G1 X60.525 Y89.932 E4.91347
G1 X62.455 Y88.001 E5.03594
G1 X62.399 Y87.643 E5.05221
G1 X62.424 Y87.486 E5.05934
G1 X60.525 Y89.385 E5.17979
G1 X60.525 Y88.838 E5.20433
G1 E3.20433 F1200.00000
G92 E0
G1 X77.125 Y64.504 F6000.000
G1 E2.00000 F1200.00000
G1 F1800.000
G1 X76.755 Y63.777 E2.03651
G1 X76.627 Y62.970 E2.07301
G1 X76.755 Y62.164 E2.10952
G1 X77.125 Y61.437 E2.14603
G1 X77.702 Y60.860 E2.18253
G1 X78.429 Y60.489 E2.21904
G1 X79.236 Y60.362 E2.25555
G1 X80.042 Y60.489 E2.29205
G1 X80.769 Y60.860 E2.32857
G1 X81.346 Y61.437 E2.36507
G1 X81.717 Y62.164 E2.40158
G1 X81.844 Y62.970 E2.43808
G1 X81.717 Y63.777 E2.47459
G1 X81.346 Y64.504 E2.51110
G1 X80.769 Y65.081 E2.54760
G1 X80.042 Y65.451 E2.58412
G1 X79.236 Y65.579 E2.62062
G1 X78.429 Y65.451 E2.65712
G1 X77.702 Y65.081 E2.69364
G1 X77.168 Y64.546 E2.72746
G1 X77.441 Y64.274 F6000.000
G1 F1800.000
G1 X77.126 Y63.656 E2.75850
G1 X77.017 Y62.970 E2.78954
G1 X77.126 Y62.285 E2.82059
G1 X77.441 Y61.667 E2.85163
G1 X77.932 Y61.176 E2.88267
G1 X78.550 Y60.861 E2.91372
G1 X79.236 Y60.752 E2.94476
G1 X79.921 Y60.861 E2.97580
G1 X80.539 Y61.176 E3.00685
G1 X81.030 Y61.667 E3.03789
G1 X81.345 Y62.285 E3.06893
G1 X81.454 Y62.970 E3.09998
G1 X81.345 Y63.656 E3.13102
G1 X81.030 Y64.274 E3.16206
G1 X80.539 Y64.765 E3.19310
G1 X79.921 Y65.080 E3.22415
G1 X79.236 Y65.189 E3.25519
G1 X78.550 Y65.080 E3.28623
G1 X77.932 Y64.765 E3.31728
G1 X77.483 Y64.317 E3.34564
G1 X77.757 Y64.045 F6000.000
G1 F1800.000
G1 X77.497 Y63.535 E3.37122
G1 X77.408 Y62.970 E3.39680
G1 X77.497 Y62.406 E3.42238
G1 X77.757 Y61.896 E3.44796
G1 X78.161 Y61.492 E3.47353
G1 X78.671 Y61.232 E3.49912
G1 X79.236 Y61.143 E3.52469
G1 X79.800 Y61.232 E3.55027
G1 X80.310 Y61.492 E3.57585
G1 X80.714 Y61.896 E3.60143
G1 X80.974 Y62.406 E3.62701
G1 X81.063 Y62.970 E3.65259
G1 X80.974 Y63.535 E3.67817
G1 X80.714 Y64.045 E3.70375
G1 X80.310 Y64.449 E3.72933
G1 X79.800 Y64.709 E3.75491
G1 X79.236 Y64.798 E3.78049
G1 X78.671 Y64.709 E3.80606
G1 X78.161 Y64.449 E3.83165
G1 X77.799 Y64.087 E3.85454
G1 X77.359 Y64.087 F6000.000
G1 E1.85454 F1200.00000
G92 E0
G1 X67.679 Y62.970 F6000.000
G1 E2.00000 F1200.00000
G1 F1800.000
G1 X67.552 Y63.777 E2.03651
G1 X67.181 Y64.504 E2.07301
G1 X66.604 Y65.081 E2.10952
G1 X65.877 Y65.451 E2.14603
G1 X65.071 Y65.579 E2.18254
G1 X64.264 Y65.451 E2.21904
G1 X63.537 Y65.081 E2.25555
G1 X62.960 Y64.504 E2.29206
G1 X62.590 Y63.777 E2.32856
G1 X62.462 Y62.970 E2.36507
G1 X62.590 Y62.164 E2.40158
G1 X62.960 Y61.437 E2.43808
G1 X63.537 Y60.860 E2.47459
G1 X64.264 Y60.489 E2.51110
G1 X65.071 Y60.362 E2.54761
G1 X65.877 Y60.489 E2.58411
G1 X66.604 Y60.860 E2.62062
G1 X67.181 Y61.437 E2.65713
G1 X67.552 Y62.164 E2.69363
