; generated by Slic3r 1.3.0 on 2020-10-06 at 18:16:35

; external perimeters extrusion width = 0.44mm (2.86mm^3/s)
; perimeters extrusion width = 0.56mm (4.14mm^3/s)
; infill extrusion width = 0.50mm (5.48mm^3/s)
; solid infill extrusion width = 0.56mm (3.10mm^3/s)
; top infill extrusion width = 0.45mm (2.44mm^3/s)

M107
;D3D:START:START
T0
M104 S215 T0

G21
G90
M107
T0
G28
G29
M109 T0 S215 T0
G0 F3000
M107
T0
G92 E0
G0 X0 Y149 Z0.1 F3600
G1 Y49 E6.5 F1200
G0 Z1
G92 E0
; Filament gcode

G21 ; set units to millimeters
G90 ; use absolute coordinates
M82 ; use absolute distances for extrusion
G92 E0
G1 Z0.300 F6000.000
G1 E-2.00000 F1200.00000
G92 E0
G1 X64.573 Y64.537 F6000.000
G1 E2.00000 F1200.00000
G1 F1800
G1 X65.098 Y64.040 E2.03236
G1 X65.604 Y63.603 E2.06226
G1 X65.779 Y63.460 E2.07238
G1 X66.377 Y63.052 E2.10474
G1 X68.963 Y61.559 E2.23833
G1 X69.616 Y61.245 E2.27074
G1 X70.607 Y60.897 E2.31769
G1 X71.651 Y60.613 E2.36611
G1 X72.788 Y60.395 E2.41789
G1 X73.507 Y60.341 E2.45013
G1 X76.493 Y60.341 E2.58369
G1 X77.215 Y60.396 E2.61607
G1 X77.896 Y60.515 E2.64700
G1 X78.548 Y60.661 E2.67687
G1 X79.246 Y60.852 E2.70925
G1 X79.881 Y61.059 E2.73913
G1 X80.384 Y61.245 E2.76311
G1 X81.037 Y61.559 E2.79552
G1 X83.623 Y63.052 E2.92910
G1 X84.221 Y63.460 E2.96149
G1 X84.396 Y63.603 E2.97158
G1 X84.903 Y64.040 E3.00150
G1 X85.427 Y64.537 E3.03385
G1 X85.960 Y65.097 E3.06843
G1 X86.397 Y65.604 E3.09835
G1 X86.540 Y65.779 E3.10846
G1 X86.948 Y66.377 E3.14087
G1 X88.443 Y68.966 E3.27454
G1 X88.756 Y69.618 E3.30692
G1 X89.103 Y70.607 E3.35379
G1 X89.387 Y71.651 E3.40220
G1 X89.604 Y72.785 E3.45382
G1 X89.659 Y73.505 E3.48614
G1 X89.659 Y76.495 E3.61986
G1 X89.604 Y77.216 E3.65222
G1 X89.485 Y77.895 E3.68307
G1 X89.339 Y78.547 E3.71295
G1 X89.148 Y79.246 E3.74534
G1 X88.941 Y79.881 E3.77522
G1 X88.756 Y80.382 E3.79911
G1 X88.443 Y81.034 E3.83149
G1 X86.948 Y83.623 E3.96516
G1 X86.540 Y84.221 E3.99757
G1 X86.397 Y84.396 E4.00768
G1 X85.960 Y84.902 E4.03758
G1 X85.463 Y85.427 E4.06994
G1 X84.903 Y85.960 E4.10452
G1 X84.396 Y86.397 E4.13444
G1 X84.221 Y86.540 E4.14454
G1 X83.623 Y86.948 E4.17693
G1 X81.037 Y88.441 E4.31051
G1 X80.384 Y88.755 E4.34292
G1 X79.393 Y89.103 E4.38987
G1 X78.349 Y89.387 E4.43829
G1 X77.215 Y89.604 E4.48992
G1 X76.493 Y89.659 E4.52231
G1 X73.507 Y89.659 E4.65587
G1 X72.786 Y89.604 E4.68823
G1 X72.105 Y89.485 E4.71915
G1 X71.453 Y89.339 E4.74905
G1 X70.754 Y89.148 E4.78144
G1 X70.119 Y88.941 E4.81132
G1 X69.616 Y88.755 E4.83529
G1 X68.963 Y88.441 E4.86770
G1 X66.377 Y86.948 E5.00128
G1 X65.779 Y86.540 E5.03367
G1 X65.604 Y86.397 E5.04377
G1 X65.098 Y85.960 E5.07367
G1 X64.573 Y85.463 E5.10603
G1 X64.040 Y84.903 E5.14062
G1 X63.603 Y84.396 E5.17053
G1 X63.460 Y84.221 E5.18065
G1 X63.052 Y83.623 E5.21305
G1 X61.557 Y81.034 E5.34672
G1 X61.244 Y80.382 E5.37911
G1 X60.897 Y79.393 E5.42596
G1 X60.614 Y78.349 E5.47435
G1 X60.396 Y77.217 E5.52593
G1 X60.341 Y76.495 E5.55833
G1 X60.341 Y73.505 E5.69204
G1 X60.396 Y72.783 E5.72444
G1 X60.515 Y72.105 E5.75524
G1 X60.661 Y71.452 E5.78514
G1 X60.852 Y70.754 E5.81752
G1 X61.059 Y70.119 E5.84741
G1 X61.244 Y69.618 E5.87129
G1 X61.557 Y68.966 E5.90367
G1 X63.052 Y66.377 E6.03734
G1 X63.460 Y65.780 E6.06973
G1 X63.603 Y65.604 E6.07986
G1 X64.040 Y65.097 E6.10977
G1 X64.531 Y64.580 E6.14168
G1 X64.844 Y64.812 F6000.000
G1 F1800
G1 X65.357 Y64.325 E6.17331
G1 X65.848 Y63.901 E6.20231
G1 X66.021 Y63.761 E6.21225
G1 X66.570 Y63.386 E6.24200
G1 X69.156 Y61.892 E6.37559
G1 X69.756 Y61.604 E6.40537
G1 X70.720 Y61.266 E6.45106
G1 X71.737 Y60.989 E6.49822
G1 X72.846 Y60.777 E6.54873
G1 X73.507 Y60.727 E6.57836
G1 X76.493 Y60.727 E6.71192
G1 X77.156 Y60.777 E6.74169
G1 X77.822 Y60.894 E6.77189
G1 X78.454 Y61.035 E6.80086
G1 X79.136 Y61.222 E6.83252
G1 X79.752 Y61.422 E6.86150
G1 X80.244 Y61.604 E6.88493
G1 X80.844 Y61.892 E6.91472
G1 X83.430 Y63.386 E7.04831
G1 X83.980 Y63.761 E7.07808
G1 X84.152 Y63.901 E7.08799
G1 X84.643 Y64.325 E7.11701
G1 X85.156 Y64.812 E7.14863
G1 X85.605 Y65.280 E7.17763
G1 X86.070 Y65.813 E7.20930
G1 X86.239 Y66.020 E7.22126
G1 X86.615 Y66.570 E7.25105
G1 X88.109 Y69.158 E7.38472
G1 X88.397 Y69.758 E7.41448
G1 X88.734 Y70.720 E7.46008
G1 X89.011 Y71.737 E7.50724
G1 X89.223 Y72.843 E7.55759
G1 X89.273 Y73.505 E7.58730
G1 X89.273 Y76.495 E7.72102
G1 X89.223 Y77.158 E7.75075
G1 X89.106 Y77.821 E7.78088
G1 X88.965 Y78.453 E7.80986
G1 X88.778 Y79.136 E7.84153
G1 X88.578 Y79.752 E7.87051
G1 X88.397 Y80.242 E7.89385
G1 X88.109 Y80.842 E7.92361
G1 X86.615 Y83.430 E8.05729
G1 X86.239 Y83.980 E8.08708
G1 X86.099 Y84.152 E8.09701
G1 X85.675 Y84.643 E8.12601
G1 X85.188 Y85.156 E8.15764
G1 X84.721 Y85.604 E8.18663
G1 X84.187 Y86.070 E8.21829
G1 X83.980 Y86.239 E8.23026
G1 X83.430 Y86.614 E8.26003
G1 X80.844 Y88.108 E8.39362
G1 X80.244 Y88.396 E8.42340
G1 X79.280 Y88.734 E8.46910
G1 X78.263 Y89.011 E8.51625
G1 X77.157 Y89.223 E8.56662
G1 X76.493 Y89.273 E8.59639
G1 X73.507 Y89.273 E8.72995
G1 X72.844 Y89.223 E8.75969
G1 X72.179 Y89.106 E8.78989
G1 X71.546 Y88.965 E8.81889
G1 X70.864 Y88.778 E8.85055
G1 X70.248 Y88.578 E8.87953
G1 X69.756 Y88.396 E8.90296
G1 X69.156 Y88.108 E8.93275
G1 X66.570 Y86.614 E9.06633
G1 X66.020 Y86.239 E9.09610
G1 X65.848 Y86.099 E9.10602
G1 X65.357 Y85.675 E9.13502
G1 X64.844 Y85.188 E9.16666
G1 X64.395 Y84.720 E9.19566
G1 X63.930 Y84.187 E9.22731
G1 X63.761 Y83.979 E9.23929
G1 X63.385 Y83.430 E9.26907
G1 X61.891 Y80.842 E9.40275
G1 X61.603 Y80.242 E9.43251
G1 X61.266 Y79.280 E9.47811
G1 X60.989 Y78.263 E9.52523
G1 X60.777 Y77.158 E9.57555
G1 X60.727 Y76.495 E9.60532
G1 X60.727 Y73.505 E9.73904
G1 X60.777 Y72.842 E9.76882
G1 X60.894 Y72.179 E9.79890
G1 X61.035 Y71.546 E9.82790
G1 X61.222 Y70.864 E9.85955
G1 X61.422 Y70.248 E9.88854
G1 X61.603 Y69.758 E9.91188
G1 X61.891 Y69.158 E9.94164
G1 X63.385 Y66.570 E10.07532
G1 X63.761 Y66.021 E10.10509
G1 X63.901 Y65.848 E10.11503
G1 X64.325 Y65.357 E10.14405
G1 X64.802 Y64.854 E10.17505
G1 E8.17505 F1200.00000
G92 E0
G1 X77.225 Y78.854 F6000.000
G1 E2.00000 F1200.00000
G1 F1800
G1 X72.775 Y78.854 E2.19906
G1 X70.550 Y75.000 E2.39813
G1 X72.775 Y71.146 E2.59719
G1 X77.225 Y71.146 E2.79625
G1 X79.450 Y75.000 E2.99532
G1 X77.255 Y78.802 E3.19170
G1 X77.003 Y78.468 F6000.000
G1 F1800
G1 X72.997 Y78.468 E3.37084
G1 X70.995 Y75.000 E3.54999
G1 X72.997 Y71.531 E3.72914
G1 X77.003 Y71.531 E3.90828
G1 X79.005 Y75.000 E4.08743
G1 X77.033 Y78.417 E4.26389
G1 X76.780 Y78.083 F6000.000
G1 F1800
G1 X73.220 Y78.083 E4.42312
G1 X71.440 Y75.000 E4.58235
G1 X73.220 Y71.917 E4.74158
G1 X76.780 Y71.917 E4.90081
G1 X78.560 Y75.000 E5.06004
G1 X76.810 Y78.031 E5.21659
G1 X76.780 Y78.483 F6000.000
G1 E3.21659 F1200.00000
G92 E0
G1 X81.228 Y81.497 F6000.000
G1 E2.00000 F1200.00000
G1 F1800
G1 X81.093 Y81.411 E2.00718
G1 X80.743 Y81.273 E2.02403
G1 X80.185 Y81.166 E2.04940
G1 X79.799 Y81.169 E2.06671
G1 X79.257 Y81.273 E2.09140
G1 X78.907 Y81.411 E2.10821
G1 X78.404 Y81.731 E2.13487
G1 X77.974 Y82.188 E2.16295
G1 X77.687 Y82.711 E2.18961
G1 X77.571 Y83.069 E2.20646
G1 X77.498 Y83.647 E2.23252
G1 X77.330 Y83.697 E2.24033
G1 X77.153 Y83.739 E2.24849
G1 X76.996 Y83.495 E2.26148
G1 X76.615 Y83.091 E2.28630
G1 X76.301 Y82.866 E2.30357
G1 X75.773 Y82.618 E2.32968
G1 X75.188 Y82.507 E2.35630
G1 X74.812 Y82.507 E2.37315
G1 X74.226 Y82.618 E2.39981
G1 X73.687 Y82.872 E2.42647
G1 X73.408 Y83.075 E2.44191
G1 X73.156 Y83.311 E2.45736
G1 X72.845 Y83.739 E2.48099
G1 X72.502 Y83.647 E2.49686
G1 X72.425 Y83.037 E2.52435
G1 X72.206 Y82.483 E2.55101
G1 X72.004 Y82.165 E2.56786
G1 X71.618 Y81.754 E2.59310
G1 X71.339 Y81.551 E2.60854
G1 X71.036 Y81.385 E2.62399
G1 X70.499 Y81.210 E2.64923
G1 X70.126 Y81.163 E2.66608
G1 X69.531 Y81.200 E2.69274
G1 X68.964 Y81.385 E2.71940
G1 X68.767 Y81.493 E2.72945
G1 X68.634 Y81.366 E2.73767
G1 X68.501 Y81.226 E2.74631
G1 X68.653 Y80.950 E2.76044
G1 X68.769 Y80.592 E2.77725
G1 X68.839 Y80.045 E2.80194
G1 X68.819 Y79.690 E2.81784
G1 X68.754 Y79.348 E2.83341
G1 X68.546 Y78.823 E2.85865
G1 X68.344 Y78.505 E2.87550
G1 X67.936 Y78.071 E2.90216
G1 X67.406 Y77.734 E2.93024
G1 X66.809 Y77.540 E2.95832
G1 X66.357 Y77.512 E2.97857
G1 X66.303 Y77.330 E2.98704
G1 X66.263 Y77.164 E2.99469
G1 X66.618 Y76.906 E3.01429
G1 X67.004 Y76.495 E3.03953
G1 X67.206 Y76.177 E3.05638
G1 X67.425 Y75.624 E3.08300
G1 X67.499 Y75.045 E3.10911
G1 X67.479 Y74.690 E3.12500
G1 X67.414 Y74.348 E3.14058
G1 X67.194 Y73.794 E3.16724
G1 X66.825 Y73.286 E3.19532
G1 X66.342 Y72.886 E3.22339
G1 X66.261 Y72.848 E3.22740
G1 X66.356 Y72.493 E3.24381
G1 X66.528 Y72.493 E3.25152
G1 X67.113 Y72.382 E3.27815
G1 X67.641 Y72.134 E3.30425
G1 X67.930 Y71.927 E3.32015
G1 X68.184 Y71.689 E3.33572
G1 X68.534 Y71.206 E3.36238
G1 X68.754 Y70.652 E3.38904
G1 X68.819 Y70.310 E3.40462
G1 X68.839 Y69.955 E3.42051
G1 X68.765 Y69.376 E3.44662
G1 X68.519 Y68.755 E3.47653
G1 X68.634 Y68.634 E3.48400
G1 X68.771 Y68.503 E3.49248
G1 X68.896 Y68.582 E3.49907
G1 X69.254 Y68.727 E3.51638
G1 X69.812 Y68.833 E3.54176
G1 X70.188 Y68.833 E3.55861
G1 X70.743 Y68.727 E3.58385
G1 X71.093 Y68.589 E3.60070
G1 X71.596 Y68.269 E3.62736
G1 X72.026 Y67.812 E3.65544
G1 X72.313 Y67.289 E3.68210
G1 X72.429 Y66.931 E3.69895
G1 X72.502 Y66.353 E3.72501
G1 X72.845 Y66.261 E3.74089
G1 X73.156 Y66.689 E3.76452
G1 X73.408 Y66.925 E3.77996
G1 X73.687 Y67.128 E3.79541
G1 X74.225 Y67.381 E3.82203
G1 X74.799 Y67.492 E3.84813
G1 X75.185 Y67.494 E3.86544
G1 X75.743 Y67.388 E3.89082
G1 X76.093 Y67.249 E3.90767
G1 X76.569 Y66.946 E3.93291
G1 X76.844 Y66.689 E3.94976
G1 X77.155 Y66.261 E3.97339
G1 X77.330 Y66.303 E3.98147
G1 X77.498 Y66.353 E3.98927
G1 X77.574 Y66.962 E4.01672
G1 X77.788 Y67.505 E4.04283
G1 X77.993 Y67.832 E4.06009
G1 X78.373 Y68.237 E4.08492
G1 X78.659 Y68.448 E4.10081
G1 X78.964 Y68.615 E4.11639
G1 X79.501 Y68.790 E4.14163
G1 X79.874 Y68.837 E4.15848
G1 X80.468 Y68.800 E4.18511
G1 X81.024 Y68.620 E4.21121
G1 X81.233 Y68.507 E4.22185
G1 X81.366 Y68.634 E4.23008
G1 X81.499 Y68.774 E4.23872
G1 X81.332 Y69.078 E4.25426
G1 X81.184 Y69.655 E4.28092
G1 X81.160 Y70.031 E4.29777
G1 X81.235 Y70.622 E4.32440
G1 X81.449 Y71.165 E4.35050
G1 X81.654 Y71.493 E4.36781
G1 X82.064 Y71.929 E4.39460
G1 X82.594 Y72.266 E4.42268
G1 X83.191 Y72.460 E4.45076
G1 X83.643 Y72.488 E4.47101
G1 X83.697 Y72.670 E4.47947
G1 X83.737 Y72.836 E4.48713
G1 X83.382 Y73.094 E4.50672
G1 X82.996 Y73.505 E4.53197
G1 X82.794 Y73.823 E4.54882
G1 X82.575 Y74.377 E4.57548
G1 X82.500 Y74.969 E4.60214
G1 X82.521 Y75.313 E4.61758
G1 X82.586 Y75.651 E4.63298
G1 X82.788 Y76.165 E4.65767
G1 X82.977 Y76.466 E4.67357
G1 X83.199 Y76.734 E4.68914
G1 X83.658 Y77.114 E4.71580
G1 X83.739 Y77.152 E4.71981
G1 X83.644 Y77.507 E4.73622
G1 X83.472 Y77.507 E4.74393
G1 X82.915 Y77.613 E4.76931
G1 X82.556 Y77.758 E4.78662
G1 X82.090 Y78.054 E4.81130
G1 X81.816 Y78.311 E4.82812
G1 X81.466 Y78.794 E4.85478
G1 X81.246 Y79.348 E4.88144
G1 X81.182 Y79.687 E4.89688
G1 X81.160 Y80.031 E4.91232
G1 X81.235 Y80.623 E4.93898
G1 X81.481 Y81.245 E4.96893
G1 X81.272 Y81.456 E4.98222
G1 X81.276 Y81.984 F6000.000
G1 F1800
G1 X80.917 Y81.757 E5.00121
G1 X80.635 Y81.645 E5.01480
G1 X80.150 Y81.552 E5.03687
G1 X79.836 Y81.554 E5.05090
G1 X79.365 Y81.645 E5.07238
G1 X79.083 Y81.757 E5.08594
G1 X78.652 Y82.030 E5.10879
G1 X78.289 Y82.417 E5.13251
G1 X78.042 Y82.864 E5.15536
G1 X77.949 Y83.153 E5.16895
G1 X77.885 Y83.660 E5.19180
G1 X77.918 Y83.925 E5.20373
G1 X77.430 Y84.069 E5.22649
G1 X76.936 Y84.188 E5.24923
G1 X76.860 Y83.997 E5.25840
G1 X76.691 Y83.733 E5.27243
G1 X76.360 Y83.383 E5.29399
G1 X76.106 Y83.200 E5.30800
G1 X75.653 Y82.988 E5.33035
G1 X75.152 Y82.892 E5.35318
G1 X74.848 Y82.892 E5.36676
G1 X74.346 Y82.988 E5.38962
G1 X73.884 Y83.206 E5.41247
G1 X73.654 Y83.373 E5.42519
G1 X73.446 Y83.568 E5.43792
G1 X73.146 Y83.981 E5.46077
G1 X73.064 Y84.188 E5.47073
G1 X72.570 Y84.069 E5.49347
G1 X72.095 Y83.929 E5.51563
G1 X72.113 Y83.641 E5.52851
G1 X72.049 Y83.134 E5.55136
G1 X71.861 Y82.659 E5.57422
G1 X71.698 Y82.403 E5.58780
G1 X71.362 Y82.044 E5.60979
G1 X71.132 Y81.877 E5.62251
G1 X70.882 Y81.740 E5.63524
G1 X70.415 Y81.588 E5.65722
G1 X70.113 Y81.550 E5.67081
G1 X69.604 Y81.582 E5.69366
G1 X69.118 Y81.740 E5.71651
G1 X68.852 Y81.886 E5.73010
G1 X68.729 Y81.988 E5.73724
G1 X68.361 Y81.639 E5.75991
G1 X68.027 Y81.287 E5.78161
G1 X68.297 Y80.796 E5.80670
G1 X68.391 Y80.507 E5.82027
G1 X68.452 Y80.031 E5.84175
G1 X68.435 Y79.737 E5.85491
G1 X68.382 Y79.456 E5.86772
G1 X68.201 Y78.999 E5.88970
G1 X68.038 Y78.742 E5.90329
G1 X67.688 Y78.370 E5.92614
G1 X67.240 Y78.086 E5.94986
G1 X66.736 Y77.922 E5.97358
G1 X66.207 Y77.889 E5.99730
G1 X66.074 Y77.914 E6.00335
G1 X65.931 Y77.430 E6.02592
G1 X65.812 Y76.937 E6.04859
G1 X66.116 Y76.794 E6.06360
G1 X66.362 Y76.616 E6.07719
G1 X66.698 Y76.258 E6.09917
G1 X66.861 Y76.001 E6.11276
G1 X67.049 Y75.527 E6.13559
G1 X67.112 Y75.031 E6.15794
G1 X67.096 Y74.737 E6.17110
G1 X67.042 Y74.456 E6.18391
G1 X66.854 Y73.981 E6.20676
G1 X66.542 Y73.552 E6.23048
G1 X66.134 Y73.214 E6.25420
G1 X65.812 Y73.063 E6.27007
G1 X65.931 Y72.570 E6.29274
G1 X66.074 Y72.086 E6.31532
G1 X66.188 Y72.108 E6.32050
G1 X66.492 Y72.108 E6.33409
G1 X66.993 Y72.012 E6.35692
G1 X67.445 Y71.800 E6.37927
G1 X67.685 Y71.628 E6.39243
G1 X67.893 Y71.432 E6.40524
G1 X68.194 Y71.019 E6.42809
G1 X68.382 Y70.544 E6.45094
G1 X68.435 Y70.263 E6.46375
G1 X68.452 Y69.969 E6.47691
G1 X68.389 Y69.473 E6.49926
G1 X68.201 Y68.999 E6.52209
G1 X68.022 Y68.718 E6.53699
G1 X68.361 Y68.361 E6.55899
G1 X68.724 Y68.016 E6.58141
G1 X69.073 Y68.238 E6.59988
G1 X69.364 Y68.355 E6.61391
G1 X69.848 Y68.447 E6.63597
G1 X70.152 Y68.447 E6.64956
G1 X70.635 Y68.355 E6.67154
G1 X70.917 Y68.243 E6.68513
G1 X71.348 Y67.970 E6.70798
G1 X71.711 Y67.583 E6.73170
G1 X71.958 Y67.136 E6.75455
G1 X72.051 Y66.847 E6.76814
G1 X72.115 Y66.340 E6.79099
G1 X72.082 Y66.075 E6.80292
G1 X72.570 Y65.931 E6.82568
G1 X73.064 Y65.812 E6.84841
G1 X73.146 Y66.019 E6.85838
G1 X73.446 Y66.432 E6.88123
G1 X73.654 Y66.627 E6.89395
G1 X73.884 Y66.794 E6.90668
G1 X74.346 Y67.012 E6.92951
G1 X74.836 Y67.106 E6.95185
G1 X75.150 Y67.108 E6.96588
G1 X75.635 Y67.016 E6.98795
G1 X75.917 Y66.904 E7.00154
G1 X76.332 Y66.640 E7.02352
G1 X76.554 Y66.432 E7.03711
G1 X76.854 Y66.019 E7.05996
G1 X76.936 Y65.812 E7.06992
G1 X77.430 Y65.931 E7.09266
G1 X77.905 Y66.071 E7.11482
G1 X77.887 Y66.359 E7.12771
G1 X77.951 Y66.865 E7.15053
G1 X78.134 Y67.330 E7.17288
G1 X78.300 Y67.596 E7.18689
G1 X78.630 Y67.948 E7.20845
G1 X78.867 Y68.122 E7.22162
G1 X79.118 Y68.260 E7.23443
G1 X79.585 Y68.412 E7.25641
G1 X79.887 Y68.450 E7.27000
G1 X80.396 Y68.418 E7.29283
G1 X80.871 Y68.264 E7.31517
G1 X81.147 Y68.115 E7.32920
G1 X81.271 Y68.012 E7.33642
G1 X81.639 Y68.361 E7.35910
G1 X81.973 Y68.713 E7.38079
G1 X81.693 Y69.221 E7.40675
G1 X81.566 Y69.716 E7.42960
G1 X81.547 Y70.019 E7.44319
G1 X81.611 Y70.526 E7.46602
G1 X81.794 Y70.990 E7.48837
G1 X81.961 Y71.256 E7.50240
G1 X82.312 Y71.630 E7.52533
G1 X82.760 Y71.914 E7.54905
G1 X83.264 Y72.078 E7.57277
G1 X83.793 Y72.111 E7.59649
G1 X83.926 Y72.086 E7.60254
G1 X84.069 Y72.570 E7.62511
G1 X84.188 Y73.063 E7.64778
G1 X83.884 Y73.206 E7.66279
G1 X83.638 Y73.384 E7.67638
G1 X83.302 Y73.742 E7.69836
G1 X83.139 Y73.999 E7.71195
G1 X82.951 Y74.474 E7.73480
G1 X82.887 Y74.981 E7.75765
G1 X82.905 Y75.265 E7.77038
G1 X82.958 Y75.544 E7.78308
G1 X83.134 Y75.990 E7.80456
G1 X83.290 Y76.240 E7.81773
G1 X83.473 Y76.461 E7.83053
G1 X83.866 Y76.786 E7.85338
G1 X84.188 Y76.937 E7.86926
G1 X84.069 Y77.430 E7.89193
G1 X83.926 Y77.914 E7.91451
G1 X83.812 Y77.892 E7.91968
G1 X83.508 Y77.892 E7.93327
G1 X83.024 Y77.985 E7.95534
G1 X82.733 Y78.102 E7.96937
G1 X82.328 Y78.360 E7.99085
G1 X82.107 Y78.568 E8.00441
G1 X81.806 Y78.981 E8.02726
G1 X81.618 Y79.456 E8.05012
G1 X81.565 Y79.735 E8.06284
G1 X81.547 Y80.019 E8.07557
G1 X81.611 Y80.526 E8.09842
G1 X81.799 Y81.001 E8.12127
G1 X81.978 Y81.282 E8.13617
G1 X81.319 Y81.943 E8.17789
G1 X81.272 Y82.492 F6000.000
G1 F1800
G1 X81.095 Y82.326 E8.18875
G1 X80.741 Y82.102 E8.20747
G1 X80.527 Y82.017 E8.21780
G1 X80.115 Y81.938 E8.23655
G1 X79.874 Y81.940 E8.24731
