; generated by Slic3r 1.3.1-dev (Build (Unknown revision)) on 2020-06-26 at 22:58:20

; external perimeters extrusion width = 0.44mm (2.86mm^3/s)
; perimeters extrusion width = 0.56mm (4.14mm^3/s)
; infill extrusion width = 0.50mm (5.48mm^3/s)
; solid infill extrusion width = 0.56mm (3.10mm^3/s)
; top infill extrusion width = 0.45mm (2.44mm^3/s)

M107
G92 E0
;D3D:START:START
T0
M104 S215 T0

G21
G90
M107
T0
G28
G29
M109 T0 S215 T0
G0 F3000
M107
T0
G92 E0
G0 X0 Y149 Z0.1 F3600
G1 Y49 E6.5 F1200
G0 Z1
G92 E0
; Filament gcode

G21 ; set units to millimeters
G90 ; use absolute coordinates
M82 ; use absolute distances for extrusion
G92 E0
G1 Z0.200 F6000.000
G1 E-2.00000 F1200.00000
G92 E0
G1 X45.197 Y62.624 F6000.000
G1 E2.00000 F1200.00000
G1 F1800.000
G1 X46.014 Y62.152 E2.01815
G1 X46.835 Y61.787 E2.03545
G1 X47.733 Y61.495 E2.05360
G1 X48.612 Y61.308 E2.07090
G1 X49.550 Y61.209 E2.08905
G1 X100.449 Y61.209 E3.06828
G1 X101.388 Y61.308 E3.08644
G1 X102.267 Y61.495 E3.10373
G1 X103.165 Y61.787 E3.12189
G1 X103.986 Y62.152 E3.13918
G1 X104.803 Y62.624 E3.15733
G1 X105.531 Y63.152 E3.17463
G1 X106.232 Y63.784 E3.19279
G1 X106.833 Y64.452 E3.21008
G1 X107.388 Y65.216 E3.22824
G1 X107.838 Y65.994 E3.24554
G1 X108.221 Y66.856 E3.26369
G1 X108.499 Y67.711 E3.28098
G1 X108.695 Y68.634 E3.29913
G1 X108.789 Y69.528 E3.31643
G1 X108.814 Y70.000 E3.32552
G1 X108.814 Y80.000 E3.51791
G1 X108.789 Y80.472 E3.52700
G1 X108.695 Y81.366 E3.54430
G1 X108.499 Y82.289 E3.56245
G1 X108.221 Y83.144 E3.57974
G1 X107.838 Y84.006 E3.59789
G1 X107.388 Y84.784 E3.61519
G1 X106.834 Y85.548 E3.63335
G1 X106.232 Y86.216 E3.65064
G1 X105.531 Y86.848 E3.66880
G1 X104.803 Y87.376 E3.68610
G1 X103.986 Y87.848 E3.70425
G1 X103.165 Y88.213 E3.72154
G1 X102.267 Y88.505 E3.73970
G1 X101.388 Y88.692 E3.75699
G1 X100.449 Y88.791 E3.77515
G1 X49.550 Y88.791 E4.75438
G1 X48.612 Y88.692 E4.77253
G1 X47.733 Y88.505 E4.78983
G1 X46.835 Y88.213 E4.80798
G1 X46.014 Y87.848 E4.82528
G1 X45.197 Y87.376 E4.84343
G1 X44.469 Y86.848 E4.86073
G1 X43.768 Y86.216 E4.87889
G1 X43.167 Y85.548 E4.89618
G1 X42.612 Y84.784 E4.91434
G1 X42.162 Y84.006 E4.93163
G1 X41.779 Y83.144 E4.94978
G1 X41.501 Y82.289 E4.96708
G1 X41.305 Y81.366 E4.98523
G1 X41.211 Y80.472 E5.00253
G1 X41.186 Y80.000 E5.01162
G1 X41.186 Y70.000 E5.20401
G1 X41.211 Y69.528 E5.21310
G1 X41.305 Y68.634 E5.23039
G1 X41.501 Y67.711 E5.24855
G1 X41.779 Y66.856 E5.26584
G1 X42.162 Y65.994 E5.28399
G1 X42.612 Y65.216 E5.30128
G1 X43.167 Y64.452 E5.31945
G1 X43.768 Y63.784 E5.33674
G1 X44.469 Y63.152 E5.35490
G1 X45.148 Y62.659 E5.37104
G1 X45.348 Y62.832 F6000.000
G1 F1800.000
G1 X46.118 Y62.387 E5.38816
G1 X46.940 Y62.021 E5.40545
G1 X47.786 Y61.746 E5.42258
G1 X48.665 Y61.560 E5.43987
G1 X49.550 Y61.466 E5.45699
G1 X100.449 Y61.466 E6.43622
G1 X101.335 Y61.560 E6.45334
G1 X102.214 Y61.746 E6.47063
G1 X103.060 Y62.021 E6.48776
G1 X103.882 Y62.387 E6.50505
G1 X104.652 Y62.832 E6.52217
G1 X105.379 Y63.360 E6.53947
G1 X106.041 Y63.956 E6.55659
G1 X106.642 Y64.624 E6.57388
G1 X107.166 Y65.344 E6.59101
G1 X107.615 Y66.123 E6.60830
G1 X107.977 Y66.935 E6.62542
G1 X108.255 Y67.790 E6.64272
G1 X108.440 Y68.661 E6.65983
G1 X108.534 Y69.555 E6.67713
G1 X108.557 Y70.000 E6.68570
G1 X108.557 Y80.000 E6.87809
G1 X108.534 Y80.445 E6.88667
G1 X108.440 Y81.339 E6.90396
G1 X108.255 Y82.210 E6.92108
G1 X107.977 Y83.065 E6.93838
G1 X107.615 Y83.877 E6.95549
G1 X107.166 Y84.656 E6.97279
G1 X106.642 Y85.376 E6.98991
G1 X106.041 Y86.044 E7.00721
G1 X105.379 Y86.640 E7.02433
G1 X104.652 Y87.168 E7.04163
G1 X103.882 Y87.613 E7.05874
G1 X103.060 Y87.979 E7.07604
G1 X102.214 Y88.254 E7.09316
G1 X101.335 Y88.440 E7.11046
G1 X100.449 Y88.534 E7.12758
G1 X49.550 Y88.534 E8.10680
G1 X48.665 Y88.440 E8.12393
G1 X47.786 Y88.254 E8.14122
G1 X46.940 Y87.979 E8.15834
G1 X46.118 Y87.613 E8.17564
G1 X45.348 Y87.168 E8.19276
G1 X44.621 Y86.640 E8.21005
G1 X43.959 Y86.044 E8.22718
G1 X43.358 Y85.376 E8.24447
G1 X42.834 Y84.656 E8.26160
G1 X42.385 Y83.877 E8.27889
G1 X42.023 Y83.065 E8.29601
G1 X41.745 Y82.210 E8.31330
G1 X41.560 Y81.339 E8.33042
G1 X41.466 Y80.445 E8.34772
G1 X41.443 Y80.000 E8.35629
G1 X41.443 Y70.000 E8.54868
G1 X41.466 Y69.555 E8.55725
G1 X41.560 Y68.661 E8.57455
G1 X41.745 Y67.790 E8.59167
G1 X42.023 Y66.935 E8.60896
G1 X42.385 Y66.123 E8.62608
G1 X42.834 Y65.344 E8.64337
G1 X43.358 Y64.624 E8.66050
G1 X43.959 Y63.956 E8.67779
G1 X44.621 Y63.360 E8.69492
G1 X45.299 Y62.867 E8.71106
G1 E6.71106 F1200.00000
G92 E0
G1 X99.747 Y82.407 F6000.000
G1 E2.00000 F1200.00000
G1 F1800.000
G1 X99.251 Y82.301 E2.00975
G1 X98.789 Y82.093 E2.01950
G1 X98.380 Y81.793 E2.02925
G1 X98.042 Y81.415 E2.03901
G1 X97.790 Y80.974 E2.04877
G1 X97.635 Y80.491 E2.05854
G1 X97.582 Y79.986 E2.06830
G1 X97.635 Y79.482 E2.07806
G1 X97.790 Y78.999 E2.08783
G1 X98.042 Y78.558 E2.09759
G1 X98.380 Y78.180 E2.10735
G1 X98.789 Y77.880 E2.11710
G1 X99.251 Y77.672 E2.12685
G1 X99.747 Y77.566 E2.13660
G1 X100.253 Y77.566 E2.14635
G1 X100.749 Y77.672 E2.15610
G1 X101.211 Y77.880 E2.16585
G1 X101.620 Y78.180 E2.17560
G1 X101.958 Y78.558 E2.18536
G1 X102.210 Y78.999 E2.19512
G1 X102.365 Y79.482 E2.20488
G1 X102.418 Y79.986 E2.21465
G1 X102.365 Y80.491 E2.22441
G1 X102.210 Y80.974 E2.23417
G1 X101.958 Y81.415 E2.24393
G1 X101.620 Y81.793 E2.25369
G1 X101.211 Y82.093 E2.26345
G1 X100.749 Y82.301 E2.27320
G1 X100.253 Y82.407 E2.28295
G1 X99.807 Y82.407 E2.29154
G1 X99.774 Y82.150 F6000.000
G1 F1800.000
G1 X99.332 Y82.055 E2.30024
G1 X98.919 Y81.870 E2.30895
G1 X98.554 Y81.602 E2.31766
G1 X98.252 Y81.264 E2.32638
G1 X98.027 Y80.870 E2.33510
G1 X97.888 Y80.438 E2.34383
G1 X97.841 Y79.986 E2.35257
G1 X97.888 Y79.535 E2.36130
G1 X98.027 Y79.103 E2.37003
G1 X98.252 Y78.709 E2.37876
G1 X98.554 Y78.371 E2.38747
G1 X98.919 Y78.103 E2.39619
G1 X99.332 Y77.918 E2.40489
G1 X99.774 Y77.823 E2.41359
G1 X100.226 Y77.823 E2.42229
G1 X100.668 Y77.918 E2.43099
G1 X101.081 Y78.103 E2.43970
G1 X101.446 Y78.371 E2.44841
G1 X101.748 Y78.709 E2.45713
G1 X101.973 Y79.103 E2.46585
G1 X102.112 Y79.535 E2.47458
G1 X102.159 Y79.986 E2.48332
G1 X102.112 Y80.438 E2.49205
G1 X101.973 Y80.870 E2.50078
G1 X101.748 Y81.264 E2.50951
G1 X101.446 Y81.602 E2.51823
G1 X101.081 Y81.870 E2.52694
G1 X100.668 Y82.055 E2.53564
G1 X100.226 Y82.150 E2.54434
G1 X99.834 Y82.150 E2.55189
G1 X99.801 Y81.893 F6000.000
G1 F1800.000
G1 X99.412 Y81.809 E2.55954
G1 X99.049 Y81.646 E2.56720
G1 X98.728 Y81.410 E2.57487
G1 X98.462 Y81.113 E2.58255
G1 X98.263 Y80.766 E2.59024
G1 X98.141 Y80.385 E2.59794
G1 X98.099 Y79.986 E2.60564
G1 X98.141 Y79.588 E2.61334
G1 X98.263 Y79.207 E2.62104
G1 X98.462 Y78.860 E2.62873
G1 X98.728 Y78.563 E2.63641
G1 X99.049 Y78.327 E2.64408
G1 X99.412 Y78.164 E2.65174
G1 X99.801 Y78.080 E2.65940
G1 X100.199 Y78.080 E2.66705
G1 X100.588 Y78.164 E2.67470
G1 X100.951 Y78.327 E2.68236
G1 X101.272 Y78.563 E2.69003
G1 X101.538 Y78.860 E2.69771
G1 X101.737 Y79.207 E2.70540
G1 X101.859 Y79.588 E2.71310
G1 X101.901 Y79.986 E2.72080
G1 X101.859 Y80.385 E2.72850
G1 X101.737 Y80.766 E2.73620
G1 X101.538 Y81.113 E2.74389
G1 X101.272 Y81.410 E2.75157
G1 X100.951 Y81.646 E2.75924
G1 X100.588 Y81.809 E2.76690
G1 X100.199 Y81.893 E2.77455
G1 X99.861 Y81.893 E2.78105
G1 X99.567 Y82.214 F6000.000
G1 E0.78105 F1200.00000
G92 E0
G1 X92.365 Y80.491 F6000.000
G1 E2.00000 F1200.00000
G1 F1800.000
G1 X92.210 Y80.974 E2.00976
G1 X91.958 Y81.415 E2.01952
G1 X91.620 Y81.793 E2.02928
G1 X91.211 Y82.093 E2.03903
G1 X90.749 Y82.301 E2.04879
G1 X90.253 Y82.407 E2.05854
G1 X89.747 Y82.407 E2.06828
G1 X89.251 Y82.301 E2.07803
G1 X88.789 Y82.093 E2.08778
G1 X88.380 Y81.793 E2.09754
G1 X88.042 Y81.415 E2.10729
G1 X87.790 Y80.974 E2.11705
G1 X87.635 Y80.491 E2.12682
G1 X87.582 Y79.986 E2.13658
G1 X87.635 Y79.482 E2.14635
G1 X87.790 Y78.999 E2.15611
G1 X88.042 Y78.558 E2.16587
G1 X88.380 Y78.180 E2.17563
G1 X88.789 Y77.880 E2.18538
G1 X89.251 Y77.672 E2.19513
G1 X89.747 Y77.566 E2.20488
G1 X90.253 Y77.566 E2.21463
G1 X90.749 Y77.672 E2.22438
G1 X91.211 Y77.880 E2.23413
G1 X91.620 Y78.180 E2.24388
G1 X91.958 Y78.558 E2.25364
G1 X92.210 Y78.999 E2.26340
G1 X92.365 Y79.482 E2.27316
G1 X92.418 Y79.986 E2.28293
G1 X92.371 Y80.432 E2.29154
G1 X92.112 Y80.438 F6000.000
G1 F1800.000
G1 X91.973 Y80.870 E2.30027
G1 X91.748 Y81.264 E2.30900
G1 X91.446 Y81.602 E2.31771
G1 X91.081 Y81.870 E2.32643
G1 X90.668 Y82.055 E2.33513
G1 X90.226 Y82.150 E2.34383
G1 X89.774 Y82.150 E2.35253
G1 X89.332 Y82.055 E2.36123
G1 X88.919 Y81.870 E2.36994
G1 X88.554 Y81.602 E2.37865
G1 X88.252 Y81.264 E2.38737
G1 X88.027 Y80.870 E2.39609
G1 X87.888 Y80.438 E2.40482
G1 X87.841 Y79.986 E2.41356
G1 X87.888 Y79.535 E2.42229
G1 X88.027 Y79.103 E2.43102
G1 X88.252 Y78.709 E2.43975
G1 X88.554 Y78.371 E2.44847
G1 X88.919 Y78.103 E2.45718
G1 X89.332 Y77.918 E2.46588
G1 X89.774 Y77.823 E2.47458
G1 X90.226 Y77.823 E2.48328
G1 X90.668 Y77.918 E2.49198
G1 X91.081 Y78.103 E2.50069
G1 X91.446 Y78.371 E2.50940
G1 X91.748 Y78.709 E2.51812
G1 X91.973 Y79.103 E2.52684
G1 X92.112 Y79.535 E2.53558
G1 X92.159 Y79.986 E2.54431
G1 X92.119 Y80.378 E2.55189
G1 X91.859 Y80.385 F6000.000
G1 F1800.000
G1 X91.737 Y80.766 E2.55959
G1 X91.538 Y81.113 E2.56728
G1 X91.272 Y81.410 E2.57496
G1 X90.951 Y81.646 E2.58263
G1 X90.588 Y81.809 E2.59029
G1 X90.199 Y81.893 E2.59794
G1 X89.801 Y81.893 E2.60559
G1 X89.412 Y81.809 E2.61324
G1 X89.049 Y81.646 E2.62090
G1 X88.728 Y81.410 E2.62857
G1 X88.462 Y81.113 E2.63625
G1 X88.263 Y80.766 E2.64394
G1 X88.141 Y80.385 E2.65164
G1 X88.099 Y79.986 E2.65934
G1 X88.141 Y79.588 E2.66705
G1 X88.263 Y79.207 E2.67474
G1 X88.462 Y78.860 E2.68243
G1 X88.728 Y78.563 E2.69011
G1 X89.049 Y78.327 E2.69778
G1 X89.412 Y78.164 E2.70544
G1 X89.801 Y78.080 E2.71310
G1 X90.199 Y78.080 E2.72075
G1 X90.588 Y78.164 E2.72840
G1 X90.951 Y78.327 E2.73606
G1 X91.272 Y78.563 E2.74373
G1 X91.538 Y78.860 E2.75141
G1 X91.737 Y79.207 E2.75910
G1 X91.859 Y79.588 E2.76680
G1 X91.901 Y79.986 E2.77450
G1 X91.866 Y80.325 E2.78105
G1 X92.157 Y80.652 F6000.000
G1 E0.78105 F1200.00000
G92 E0
G1 X82.418 Y79.986 F6000.000
G1 E2.00000 F1200.00000
G1 F1800.000
G1 X82.365 Y80.491 E2.00976
G1 X82.210 Y80.974 E2.01953
G1 X81.958 Y81.415 E2.02929
G1 X81.620 Y81.793 E2.03905
G1 X81.211 Y82.093 E2.04880
G1 X80.749 Y82.301 E2.05855
G1 X80.253 Y82.407 E2.06830
G1 X79.747 Y82.407 E2.07805
G1 X79.251 Y82.301 E2.08780
G1 X78.789 Y82.093 E2.09755
G1 X78.380 Y81.793 E2.10730
G1 X78.042 Y81.415 E2.11706
G1 X77.790 Y80.974 E2.12682
G1 X77.635 Y80.491 E2.13658
G1 X77.582 Y79.986 E2.14635
G1 X77.635 Y79.482 E2.15611
G1 X77.790 Y78.999 E2.16587
G1 X78.042 Y78.558 E2.17563
G1 X78.380 Y78.180 E2.18539
G1 X78.789 Y77.880 E2.19515
G1 X79.251 Y77.672 E2.20490
G1 X79.747 Y77.566 E2.21464
G1 X80.253 Y77.566 E2.22439
G1 X80.749 Y77.672 E2.23414
G1 X81.211 Y77.880 E2.24389
G1 X81.620 Y78.180 E2.25365
G1 X81.958 Y78.558 E2.26340
G1 X82.210 Y78.999 E2.27316
G1 X82.365 Y79.482 E2.28293
G1 X82.412 Y79.927 E2.29154
G1 X82.159 Y79.986 F6000.000
G1 F1800.000
G1 X82.112 Y80.438 E2.30027
G1 X81.973 Y80.870 E2.30900
G1 X81.748 Y81.264 E2.31773
G1 X81.446 Y81.602 E2.32645
G1 X81.081 Y81.870 E2.33516
G1 X80.668 Y82.055 E2.34386
G1 X80.226 Y82.150 E2.35256
G1 X79.774 Y82.150 E2.36126
G1 X79.332 Y82.055 E2.36996
G1 X78.919 Y81.870 E2.37867
G1 X78.554 Y81.602 E2.38738
G1 X78.252 Y81.264 E2.39610
G1 X78.027 Y80.870 E2.40482
G1 X77.888 Y80.438 E2.41356
G1 X77.841 Y79.986 E2.42229
G1 X77.888 Y79.535 E2.43102
G1 X78.027 Y79.103 E2.43975
G1 X78.252 Y78.709 E2.44848
G1 X78.554 Y78.371 E2.45720
G1 X78.919 Y78.103 E2.46591
G1 X79.332 Y77.918 E2.47461
G1 X79.774 Y77.823 E2.48331
G1 X80.226 Y77.823 E2.49201
G1 X80.668 Y77.918 E2.50072
G1 X81.081 Y78.103 E2.50942
G1 X81.446 Y78.371 E2.51813
G1 X81.748 Y78.709 E2.52685
G1 X81.973 Y79.103 E2.53558
G1 X82.112 Y79.535 E2.54431
G1 X82.153 Y79.927 E2.55189
G1 X81.901 Y79.986 F6000.000
G1 F1800.000
G1 X81.859 Y80.385 E2.55959
G1 X81.737 Y80.766 E2.56729
G1 X81.538 Y81.113 E2.57498
G1 X81.272 Y81.410 E2.58266
G1 X80.951 Y81.646 E2.59033
G1 X80.588 Y81.809 E2.59799
G1 X80.199 Y81.893 E2.60564
G1 X79.801 Y81.893 E2.61329
G1 X79.412 Y81.809 E2.62094
G1 X79.049 Y81.646 E2.62860
G1 X78.728 Y81.410 E2.63627
G1 X78.462 Y81.113 E2.64395
G1 X78.263 Y80.766 E2.65164
G1 X78.141 Y80.385 E2.65934
G1 X78.099 Y79.986 E2.66704
G1 X78.141 Y79.588 E2.67475
G1 X78.263 Y79.207 E2.68244
G1 X78.462 Y78.860 E2.69013
G1 X78.728 Y78.563 E2.69781
G1 X79.049 Y78.327 E2.70548
G1 X79.412 Y78.164 E2.71314
G1 X79.801 Y78.080 E2.72080
G1 X80.199 Y78.080 E2.72845
G1 X80.588 Y78.164 E2.73610
G1 X80.951 Y78.327 E2.74376
G1 X81.272 Y78.563 E2.75143
G1 X81.538 Y78.860 E2.75911
G1 X81.737 Y79.207 E2.76680
G1 X81.859 Y79.588 E2.77450
G1 X81.895 Y79.927 E2.78104
G1 X82.247 Y80.186 F6000.000
G1 E0.78104 F1200.00000
G92 E0
G1 X72.418 Y79.986 F6000.000
G1 E2.00000 F1200.00000
G1 F1800.000
G1 X72.365 Y80.491 E2.00976
G1 X72.210 Y80.974 E2.01953
G1 X71.958 Y81.415 E2.02929
G1 X71.620 Y81.793 E2.03905
G1 X71.211 Y82.093 E2.04880
G1 X70.749 Y82.301 E2.05855
G1 X70.253 Y82.407 E2.06830
G1 X69.747 Y82.407 E2.07805
G1 X69.251 Y82.301 E2.08780
G1 X68.789 Y82.093 E2.09755
G1 X68.380 Y81.793 E2.10730
G1 X68.042 Y81.415 E2.11706
G1 X67.790 Y80.974 E2.12682
G1 X67.635 Y80.491 E2.13658
G1 X67.582 Y79.986 E2.14635
G1 X67.635 Y79.482 E2.15611
G1 X67.790 Y78.999 E2.16587
G1 X68.042 Y78.558 E2.17563
G1 X68.380 Y78.180 E2.18539
G1 X68.789 Y77.880 E2.19515
G1 X69.251 Y77.672 E2.20490
G1 X69.747 Y77.566 E2.21465
G1 X70.253 Y77.566 E2.22439
G1 X70.749 Y77.672 E2.23414
G1 X71.211 Y77.880 E2.24389
G1 X71.620 Y78.180 E2.25365
G1 X71.958 Y78.558 E2.26340
G1 X72.210 Y78.999 E2.27316
G1 X72.365 Y79.482 E2.28293
G1 X72.412 Y79.927 E2.29154
G1 X72.159 Y79.986 F6000.000
G1 F1800.000
G1 X72.112 Y80.438 E2.30027
G1 X71.973 Y80.870 E2.30900
G1 X71.748 Y81.264 E2.31773
G1 X71.446 Y81.602 E2.32645
G1 X71.081 Y81.870 E2.33516
G1 X70.668 Y82.055 E2.34386
G1 X70.226 Y82.150 E2.35256
G1 X69.774 Y82.150 E2.36126
G1 X69.332 Y82.055 E2.36996
G1 X68.919 Y81.870 E2.37867
G1 X68.554 Y81.602 E2.38738
G1 X68.252 Y81.264 E2.39610
G1 X68.027 Y80.870 E2.40482
G1 X67.888 Y80.438 E2.41356
G1 X67.841 Y79.986 E2.42229
G1 X67.888 Y79.535 E2.43102
G1 X68.027 Y79.103 E2.43975
G1 X68.252 Y78.709 E2.44848
G1 X68.554 Y78.371 E2.45720
G1 X68.919 Y78.103 E2.46591
G1 X69.332 Y77.918 E2.47461
G1 X69.774 Y77.823 E2.48332
G1 X70.226 Y77.823 E2.49201
G1 X70.668 Y77.918 E2.50072
G1 X71.081 Y78.103 E2.50942
G1 X71.446 Y78.371 E2.51813
G1 X71.748 Y78.709 E2.52685
G1 X71.973 Y79.103 E2.53558
G1 X72.112 Y79.535 E2.54431
G1 X72.153 Y79.927 E2.55189
G1 X71.901 Y79.986 F6000.000
G1 F1800.000
G1 X71.859 Y80.385 E2.55959
G1 X71.737 Y80.766 E2.56729
G1 X71.538 Y81.113 E2.57498
G1 X71.272 Y81.410 E2.58266
G1 X70.951 Y81.646 E2.59033
G1 X70.588 Y81.809 E2.59799
G1 X70.199 Y81.893 E2.60564
G1 X69.801 Y81.893 E2.61329
G1 X69.412 Y81.809 E2.62094
G1 X69.049 Y81.646 E2.62860
G1 X68.728 Y81.410 E2.63627
G1 X68.462 Y81.113 E2.64395
G1 X68.263 Y80.766 E2.65164
G1 X68.141 Y80.385 E2.65934
G1 X68.099 Y79.986 E2.66704
G1 X68.141 Y79.588 E2.67475
G1 X68.263 Y79.207 E2.68244
G1 X68.462 Y78.860 E2.69013
G1 X68.728 Y78.563 E2.69781
G1 X69.049 Y78.327 E2.70548
G1 X69.412 Y78.164 E2.71314
G1 X69.801 Y78.080 E2.72080
G1 X70.199 Y78.080 E2.72845
G1 X70.588 Y78.164 E2.73610
G1 X70.951 Y78.327 E2.74376
G1 X71.272 Y78.563 E2.75143
G1 X71.538 Y78.860 E2.75911
G1 X71.737 Y79.207 E2.76680
G1 X71.859 Y79.588 E2.77450
G1 X71.895 Y79.927 E2.78104
G1 X72.247 Y80.186 F6000.000
G1 E0.78104 F1200.00000
G92 E0
G1 X62.418 Y79.986 F6000.000
G1 E2.00000 F1200.00000
G1 F1800.000
G1 X62.365 Y80.491 E2.00976
G1 X62.210 Y80.974 E2.01953
G1 X61.958 Y81.415 E2.02929
G1 X61.620 Y81.793 E2.03905
G1 X61.211 Y82.093 E2.04880
G1 X60.749 Y82.301 E2.05855
G1 X60.253 Y82.407 E2.06830
G1 X59.747 Y82.407 E2.07805
G1 X59.251 Y82.301 E2.08780
G1 X58.789 Y82.093 E2.09755
G1 X58.380 Y81.793 E2.10730
G1 X58.042 Y81.415 E2.11706
G1 X57.790 Y80.974 E2.12682
G1 X57.635 Y80.491 E2.13658
G1 X57.582 Y79.986 E2.14635
G1 X57.635 Y79.482 E2.15611
G1 X57.790 Y78.999 E2.16587
