; generated by Slic3r 1.3.1-dev (Build (Unknown revision)) on 2020-06-19 at 09:06:21

; external perimeters extrusion width = 0.44mm (2.86mm^3/s)
; perimeters extrusion width = 0.56mm (4.14mm^3/s)
; infill extrusion width = 0.50mm (5.48mm^3/s)
; solid infill extrusion width = 0.56mm (3.10mm^3/s)
; top infill extrusion width = 0.45mm (2.44mm^3/s)

M107
G92 E0
;D3D:START:START
T0
M104 S215 T0

G21
G90
M107
T0
G28
G29
M109 T0 S215 T0
G0 F3000
M107
T0
G92 E0
G0 X0 Y149 Z0.1 F3600
G1 Y49 E6.5 F1200
G0 Z1
G92 E0
; Filament gcode

G21 ; set units to millimeters
G90 ; use absolute coordinates
M82 ; use absolute distances for extrusion
G92 E0
G1 Z0.200 F6000.000
G1 E-2.00000 F1200.00000
G92 E0
G1 X24.575 Y15.270 F6000.000
G1 E2.00000 F1200.00000
G1 F1800.000
G1 X25.832 Y13.859 E2.03636
G1 X28.500 Y12.986 E2.09036
G1 X131.500 Y12.986 E4.07194
G1 X133.348 Y13.381 E4.10830
G1 X134.872 Y14.499 E4.14466
G1 X135.805 Y16.142 E4.18101
G1 X136.014 Y17.500 E4.20744
G1 X136.014 Y27.500 E4.39983
G1 X135.994 Y27.928 E4.40807
G1 X125.994 Y132.928 E6.43727
G1 X125.425 Y134.730 E6.47363
G1 X124.168 Y136.141 E6.50998
G1 X121.500 Y137.014 E6.56399
G1 X18.500 Y137.014 E8.54557
G1 X16.652 Y136.619 E8.58193
G1 X15.128 Y135.501 E8.61828
G1 X14.195 Y133.858 E8.65464
G1 X13.986 Y132.500 E8.68107
G1 X13.986 Y122.500 E8.87346
G1 X14.006 Y122.072 E8.88170
G1 X24.006 Y17.072 E10.91090
G1 X24.557 Y15.327 E10.94610
G1 X24.825 Y15.350 F6000.000
G1 F1800.000
G1 X26.071 Y14.004 E10.98139
G1 X28.500 Y13.243 E11.03036
G1 X131.500 Y13.243 E13.01194
G1 X133.291 Y13.638 E13.04723
G1 X134.750 Y14.751 E13.08253
G1 X135.605 Y16.374 E13.11782
G1 X135.757 Y17.500 E13.13969
G1 X135.757 Y27.500 E13.33207
G1 X135.738 Y27.904 E13.33985
G1 X125.738 Y132.904 E15.36904
G1 X125.175 Y134.650 E15.40434
G1 X123.929 Y135.996 E15.43963
G1 X121.500 Y136.757 E15.48860
G1 X18.500 Y136.757 E17.47018
G1 X16.709 Y136.362 E17.50547
G1 X15.250 Y135.249 E17.54076
G1 X14.395 Y133.626 E17.57606
G1 X14.243 Y132.500 E17.59792
G1 X14.243 Y122.500 E17.79031
G1 X14.262 Y122.096 E17.79808
G1 X24.262 Y17.096 E19.82728
G1 X24.807 Y15.408 E19.86142
G1 E17.86142 F1200.00000
G92 E0
G1 X72.797 Y125.519 F6000.000
G1 E2.00000 F1200.00000
G1 F1800.000
G1 X73.262 Y125.419 E2.00915
G1 X73.738 Y125.419 E2.01829
G1 X74.203 Y125.519 E2.02744
G1 X74.636 Y125.714 E2.03658
G1 X75.020 Y125.995 E2.04573
G1 X75.336 Y126.350 E2.05488
G1 X75.573 Y126.763 E2.06404
G1 X75.718 Y127.216 E2.07319
G1 X75.768 Y127.689 E2.08235
G1 X75.718 Y128.163 E2.09150
G1 X75.573 Y128.616 E2.10066
G1 X75.336 Y129.028 E2.10981
G1 X75.020 Y129.383 E2.11896
G1 X74.636 Y129.664 E2.12811
G1 X74.203 Y129.859 E2.13726
G1 X73.738 Y129.959 E2.14640
G1 X73.262 Y129.959 E2.15555
G1 X72.797 Y129.859 E2.16469
G1 X72.364 Y129.664 E2.17384
G1 X71.980 Y129.383 E2.18299
G1 X71.664 Y129.028 E2.19214
G1 X71.427 Y128.616 E2.20129
G1 X71.282 Y128.163 E2.21044
G1 X71.232 Y127.689 E2.21960
G1 X71.282 Y127.216 E2.22876
G1 X71.427 Y126.763 E2.23791
G1 X71.664 Y126.350 E2.24706
G1 X71.980 Y125.995 E2.25622
G1 X72.364 Y125.714 E2.26536
G1 X72.743 Y125.544 E2.27336
G1 X72.878 Y125.765 F6000.000
G1 F1800.000
G1 X73.290 Y125.676 E2.28145
G1 X73.710 Y125.676 E2.28955
G1 X74.122 Y125.765 E2.29765
G1 X74.506 Y125.937 E2.30575
G1 X74.846 Y126.186 E2.31385
G1 X75.127 Y126.501 E2.32197
G1 X75.336 Y126.867 E2.33008
G1 X75.466 Y127.269 E2.33821
G1 X75.509 Y127.689 E2.34633
G1 X75.466 Y128.109 E2.35446
G1 X75.336 Y128.511 E2.36258
G1 X75.127 Y128.877 E2.37070
G1 X74.846 Y129.192 E2.37881
G1 X74.506 Y129.441 E2.38691
G1 X74.122 Y129.614 E2.39502
G1 X73.710 Y129.702 E2.40311
G1 X73.290 Y129.702 E2.41121
G1 X72.878 Y129.614 E2.41931
G1 X72.494 Y129.441 E2.42741
G1 X72.154 Y129.192 E2.43551
G1 X71.873 Y128.877 E2.44363
G1 X71.664 Y128.511 E2.45174
G1 X71.534 Y128.109 E2.45987
G1 X71.491 Y127.689 E2.46799
G1 X71.534 Y127.269 E2.47612
G1 X71.664 Y126.867 E2.48424
G1 X71.873 Y126.501 E2.49236
G1 X72.154 Y126.186 E2.50047
G1 X72.494 Y125.937 E2.50857
G1 X72.823 Y125.789 E2.51552
G1 X72.959 Y126.010 F6000.000
G1 F1800.000
G1 X73.317 Y125.933 E2.52257
G1 X73.683 Y125.933 E2.52962
G1 X74.041 Y126.010 E2.53667
G1 X74.376 Y126.161 E2.54372
G1 X74.672 Y126.378 E2.55079
G1 X74.917 Y126.652 E2.55786
G1 X75.100 Y126.972 E2.56494
G1 X75.213 Y127.322 E2.57203
G1 X75.251 Y127.689 E2.57913
G1 X75.213 Y128.056 E2.58622
G1 X75.100 Y128.407 E2.59331
G1 X74.917 Y128.726 E2.60039
G1 X74.672 Y129.001 E2.60747
G1 X74.376 Y129.218 E2.61453
G1 X74.041 Y129.368 E2.62159
G1 X73.683 Y129.445 E2.62864
G1 X73.317 Y129.445 E2.63568
G1 X72.959 Y129.368 E2.64273
G1 X72.624 Y129.218 E2.64979
G1 X72.328 Y129.001 E2.65685
G1 X72.083 Y128.726 E2.66392
G1 X71.900 Y128.407 E2.67101
G1 X71.787 Y128.056 E2.67810
G1 X71.749 Y127.689 E2.68519
G1 X71.787 Y127.322 E2.69229
G1 X71.900 Y126.972 E2.69938
G1 X72.083 Y126.652 E2.70646
G1 X72.328 Y126.378 E2.71353
G1 X72.624 Y126.161 E2.72060
G1 X72.904 Y126.035 E2.72650
G1 X73.034 Y125.652 F6000.000
G1 E0.72650 F1200.00000
G92 E0
G1 X65.718 Y127.216 F6000.000
G1 E2.00000 F1200.00000
G1 F1800.000
G1 X65.768 Y127.689 E2.00916
G1 X65.718 Y128.163 E2.01831
G1 X65.573 Y128.615 E2.02747
G1 X65.336 Y129.028 E2.03662
G1 X65.020 Y129.383 E2.04577
G1 X64.636 Y129.664 E2.05492
G1 X64.202 Y129.859 E2.06407
G1 X63.738 Y129.959 E2.07321
G1 X63.262 Y129.959 E2.08235
G1 X62.798 Y129.859 E2.09150
G1 X62.364 Y129.664 E2.10065
G1 X61.980 Y129.383 E2.10980
G1 X61.664 Y129.028 E2.11894
G1 X61.427 Y128.615 E2.12810
G1 X61.282 Y128.163 E2.13725
G1 X61.232 Y127.689 E2.14641
G1 X61.282 Y127.216 E2.15557
G1 X61.427 Y126.763 E2.16472
G1 X61.664 Y126.350 E2.17387
G1 X61.980 Y125.995 E2.18302
G1 X62.364 Y125.714 E2.19217
G1 X62.798 Y125.519 E2.20132
G1 X63.262 Y125.419 E2.21047
G1 X63.738 Y125.419 E2.21961
G1 X64.202 Y125.519 E2.22876
G1 X64.636 Y125.714 E2.23790
G1 X65.020 Y125.995 E2.24705
G1 X65.336 Y126.350 E2.25620
G1 X65.573 Y126.763 E2.26535
G1 X65.700 Y127.159 E2.27335
G1 X65.465 Y127.269 F6000.000
G1 F1800.000
G1 X65.509 Y127.689 E2.28148
G1 X65.465 Y128.109 E2.28960
G1 X65.336 Y128.511 E2.29773
G1 X65.127 Y128.877 E2.30585
G1 X64.846 Y129.192 E2.31396
G1 X64.506 Y129.441 E2.32206
G1 X64.122 Y129.614 E2.33016
G1 X63.710 Y129.702 E2.33826
G1 X63.290 Y129.702 E2.34636
G1 X62.878 Y129.614 E2.35445
G1 X62.494 Y129.441 E2.36256
G1 X62.154 Y129.192 E2.37066
G1 X61.873 Y128.877 E2.37877
G1 X61.664 Y128.511 E2.38689
G1 X61.535 Y128.109 E2.39501
G1 X61.491 Y127.689 E2.40314
G1 X61.535 Y127.269 E2.41126
G1 X61.664 Y126.867 E2.41939
G1 X61.873 Y126.501 E2.42751
G1 X62.154 Y126.186 E2.43562
G1 X62.494 Y125.937 E2.44372
G1 X62.878 Y125.765 E2.45182
G1 X63.290 Y125.676 E2.45992
G1 X63.710 Y125.676 E2.46802
G1 X64.122 Y125.765 E2.47611
G1 X64.506 Y125.937 E2.48422
G1 X64.846 Y126.186 E2.49232
G1 X65.127 Y126.501 E2.50043
G1 X65.336 Y126.867 E2.50855
G1 X65.447 Y127.212 E2.51552
G1 X65.213 Y127.322 F6000.000
G1 F1800.000
G1 X65.251 Y127.689 E2.52261
G1 X65.213 Y128.056 E2.52971
G1 X65.100 Y128.407 E2.53680
G1 X64.917 Y128.726 E2.54388
G1 X64.672 Y129.001 E2.55095
G1 X64.376 Y129.218 E2.55802
G1 X64.041 Y129.368 E2.56507
G1 X63.683 Y129.445 E2.57212
G1 X63.317 Y129.445 E2.57917
G1 X62.959 Y129.368 E2.58622
G1 X62.624 Y129.218 E2.59327
G1 X62.328 Y129.001 E2.60034
G1 X62.083 Y128.726 E2.60741
G1 X61.900 Y128.407 E2.61449
G1 X61.787 Y128.056 E2.62158
G1 X61.749 Y127.689 E2.62868
G1 X61.787 Y127.322 E2.63577
G1 X61.900 Y126.972 E2.64286
G1 X62.083 Y126.652 E2.64995
G1 X62.328 Y126.378 E2.65702
G1 X62.624 Y126.161 E2.66408
G1 X62.959 Y126.010 E2.67114
G1 X63.317 Y125.933 E2.67819
G1 X63.683 Y125.933 E2.68523
G1 X64.041 Y126.010 E2.69228
G1 X64.376 Y126.161 E2.69934
G1 X64.672 Y126.378 E2.70640
G1 X64.917 Y126.652 E2.71348
G1 X65.100 Y126.972 E2.72056
G1 X65.194 Y127.265 E2.72649
G1 X65.563 Y127.437 F6000.000
G1 E0.72649 F1200.00000
G92 E0
G1 X55.768 Y127.689 F6000.000
G1 E2.00000 F1200.00000
G1 F1800.000
G1 X55.718 Y128.163 E2.00916
G1 X55.573 Y128.616 E2.01831
G1 X55.336 Y129.028 E2.02747
G1 X55.020 Y129.383 E2.03661
G1 X54.636 Y129.664 E2.04576
G1 X54.202 Y129.859 E2.05491
G1 X53.738 Y129.959 E2.06406
G1 X53.262 Y129.959 E2.07320
G1 X52.798 Y129.859 E2.08235
G1 X52.364 Y129.664 E2.09149
G1 X51.980 Y129.383 E2.10064
G1 X51.664 Y129.028 E2.10979
G1 X51.427 Y128.616 E2.11894
G1 X51.282 Y128.163 E2.12810
G1 X51.232 Y127.689 E2.13725
G1 X51.282 Y127.216 E2.14641
G1 X51.427 Y126.763 E2.15556
G1 X51.664 Y126.350 E2.16472
G1 X51.980 Y125.995 E2.17387
G1 X52.364 Y125.714 E2.18302
G1 X52.798 Y125.519 E2.19216
G1 X53.262 Y125.419 E2.20131
G1 X53.738 Y125.419 E2.21045
G1 X54.202 Y125.519 E2.21960
G1 X54.636 Y125.714 E2.22875
G1 X55.020 Y125.995 E2.23790
G1 X55.336 Y126.350 E2.24704
G1 X55.573 Y126.763 E2.25620
G1 X55.718 Y127.216 E2.26535
G1 X55.762 Y127.630 E2.27335
G1 X55.509 Y127.689 F6000.000
G1 F1800.000
G1 X55.465 Y128.109 E2.28148
G1 X55.336 Y128.511 E2.28960
G1 X55.127 Y128.877 E2.29772
G1 X54.846 Y129.192 E2.30583
G1 X54.506 Y129.441 E2.31394
G1 X54.122 Y129.614 E2.32204
G1 X53.710 Y129.702 E2.33014
G1 X53.290 Y129.702 E2.33823
G1 X52.878 Y129.614 E2.34633
G1 X52.494 Y129.441 E2.35443
G1 X52.154 Y129.192 E2.36254
G1 X51.873 Y128.877 E2.37065
G1 X51.664 Y128.511 E2.37877
G1 X51.535 Y128.109 E2.38689
G1 X51.491 Y127.689 E2.39501
G1 X51.535 Y127.269 E2.40314
G1 X51.664 Y126.867 E2.41126
G1 X51.873 Y126.501 E2.41938
G1 X52.154 Y126.186 E2.42749
G1 X52.494 Y125.937 E2.43560
G1 X52.878 Y125.765 E2.44370
G1 X53.290 Y125.676 E2.45180
G1 X53.710 Y125.676 E2.45989
G1 X54.122 Y125.765 E2.46799
G1 X54.506 Y125.937 E2.47609
G1 X54.846 Y126.186 E2.48420
G1 X55.127 Y126.501 E2.49231
G1 X55.336 Y126.867 E2.50043
G1 X55.465 Y127.269 E2.50855
G1 X55.503 Y127.630 E2.51552
G1 X55.251 Y127.689 F6000.000
G1 F1800.000
G1 X55.213 Y128.056 E2.52261
G1 X55.100 Y128.407 E2.52970
G1 X54.917 Y128.726 E2.53679
G1 X54.672 Y129.001 E2.54386
G1 X54.376 Y129.218 E2.55092
G1 X54.041 Y129.368 E2.55798
G1 X53.683 Y129.445 E2.56503
G1 X53.317 Y129.445 E2.57207
G1 X52.959 Y129.368 E2.57912
G1 X52.624 Y129.218 E2.58618
G1 X52.328 Y129.001 E2.59324
G1 X52.083 Y128.726 E2.60032
G1 X51.900 Y128.407 E2.60740
G1 X51.787 Y128.056 E2.61449
G1 X51.749 Y127.689 E2.62158
G1 X51.787 Y127.322 E2.62868
G1 X51.900 Y126.972 E2.63577
G1 X52.083 Y126.652 E2.64285
G1 X52.328 Y126.378 E2.64993
G1 X52.624 Y126.161 E2.65699
G1 X52.959 Y126.010 E2.66404
G1 X53.317 Y125.933 E2.67109
G1 X53.683 Y125.933 E2.67814
G1 X54.041 Y126.010 E2.68519
G1 X54.376 Y126.161 E2.69224
G1 X54.672 Y126.378 E2.69931
G1 X54.917 Y126.652 E2.70638
G1 X55.100 Y126.972 E2.71346
G1 X55.213 Y127.322 E2.72055
G1 X55.245 Y127.630 E2.72649
G1 X55.570 Y127.874 F6000.000
G1 E0.72649 F1200.00000
G92 E0
G1 X45.768 Y127.689 F6000.000
G1 E2.00000 F1200.00000
G1 F1800.000
G1 X45.718 Y128.163 E2.00916
G1 X45.573 Y128.615 E2.01831
G1 X45.336 Y129.028 E2.02747
G1 X45.020 Y129.383 E2.03661
G1 X44.636 Y129.664 E2.04576
G1 X44.202 Y129.859 E2.05491
G1 X43.738 Y129.959 E2.06406
G1 X43.262 Y129.959 E2.07320
G1 X42.798 Y129.859 E2.08235
G1 X42.364 Y129.664 E2.09149
G1 X41.980 Y129.383 E2.10064
G1 X41.664 Y129.028 E2.10979
G1 X41.427 Y128.615 E2.11894
G1 X41.282 Y128.163 E2.12810
G1 X41.232 Y127.689 E2.13725
G1 X41.282 Y127.216 E2.14641
G1 X41.427 Y126.763 E2.15556
G1 X41.664 Y126.350 E2.16472
G1 X41.980 Y125.995 E2.17387
G1 X42.364 Y125.714 E2.18302
G1 X42.798 Y125.519 E2.19216
G1 X43.262 Y125.419 E2.20131
G1 X43.738 Y125.419 E2.21045
G1 X44.202 Y125.519 E2.21960
G1 X44.636 Y125.714 E2.22875
G1 X45.020 Y125.995 E2.23789
G1 X45.336 Y126.350 E2.24704
G1 X45.573 Y126.763 E2.25620
G1 X45.718 Y127.216 E2.26535
G1 X45.762 Y127.630 E2.27335
G1 X45.509 Y127.689 F6000.000
G1 F1800.000
G1 X45.465 Y128.109 E2.28148
G1 X45.336 Y128.511 E2.28960
G1 X45.127 Y128.877 E2.29772
G1 X44.846 Y129.192 E2.30583
G1 X44.506 Y129.441 E2.31394
G1 X44.122 Y129.614 E2.32204
G1 X43.710 Y129.702 E2.33014
G1 X43.290 Y129.702 E2.33823
G1 X42.878 Y129.614 E2.34633
G1 X42.494 Y129.441 E2.35443
G1 X42.154 Y129.192 E2.36254
G1 X41.873 Y128.877 E2.37065
G1 X41.664 Y128.511 E2.37877
G1 X41.535 Y128.109 E2.38689
G1 X41.491 Y127.689 E2.39501
G1 X41.535 Y127.269 E2.40314
G1 X41.664 Y126.867 E2.41126
G1 X41.873 Y126.501 E2.41938
G1 X42.154 Y126.186 E2.42749
G1 X42.494 Y125.937 E2.43560
G1 X42.878 Y125.765 E2.44370
G1 X43.290 Y125.676 E2.45180
G1 X43.710 Y125.676 E2.45989
G1 X44.122 Y125.765 E2.46799
G1 X44.506 Y125.937 E2.47609
G1 X44.846 Y126.186 E2.48420
G1 X45.127 Y126.501 E2.49231
G1 X45.336 Y126.867 E2.50043
G1 X45.465 Y127.269 E2.50855
G1 X45.503 Y127.630 E2.51552
G1 X45.251 Y127.689 F6000.000
G1 F1800.000
G1 X45.213 Y128.056 E2.52261
G1 X45.100 Y128.407 E2.52970
G1 X44.917 Y128.726 E2.53679
G1 X44.672 Y129.001 E2.54386
G1 X44.376 Y129.218 E2.55092
G1 X44.041 Y129.368 E2.55798
G1 X43.683 Y129.445 E2.56503
G1 X43.317 Y129.445 E2.57207
G1 X42.959 Y129.368 E2.57912
G1 X42.624 Y129.218 E2.58618
G1 X42.328 Y129.001 E2.59324
G1 X42.083 Y128.726 E2.60032
G1 X41.900 Y128.407 E2.60740
G1 X41.787 Y128.056 E2.61449
G1 X41.749 Y127.689 E2.62158
G1 X41.787 Y127.322 E2.62868
G1 X41.900 Y126.972 E2.63577
G1 X42.083 Y126.652 E2.64285
G1 X42.328 Y126.378 E2.64992
G1 X42.624 Y126.161 E2.65699
G1 X42.959 Y126.010 E2.66404
G1 X43.317 Y125.933 E2.67109
G1 X43.683 Y125.933 E2.67814
G1 X44.041 Y126.010 E2.68519
G1 X44.376 Y126.161 E2.69224
G1 X44.672 Y126.378 E2.69931
G1 X44.917 Y126.652 E2.70638
G1 X45.100 Y126.972 E2.71346
G1 X45.213 Y127.322 E2.72055
G1 X45.245 Y127.630 E2.72649
G1 X45.570 Y127.874 F6000.000
G1 E0.72649 F1200.00000
G92 E0
G1 X35.768 Y127.689 F6000.000
G1 E2.00000 F1200.00000
G1 F1800.000
G1 X35.718 Y128.163 E2.00916
G1 X35.573 Y128.616 E2.01831
G1 X35.336 Y129.028 E2.02747
G1 X35.020 Y129.383 E2.03661
G1 X34.636 Y129.664 E2.04576
G1 X34.202 Y129.859 E2.05491
G1 X33.738 Y129.959 E2.06406
G1 X33.262 Y129.959 E2.07320
G1 X32.798 Y129.859 E2.08235
G1 X32.364 Y129.664 E2.09149
G1 X31.980 Y129.383 E2.10064
G1 X31.664 Y129.028 E2.10979
G1 X31.427 Y128.615 E2.11894
G1 X31.282 Y128.163 E2.12810
G1 X31.232 Y127.689 E2.13725
G1 X31.282 Y127.216 E2.14641
G1 X31.427 Y126.763 E2.15556
G1 X31.664 Y126.350 E2.16472
G1 X31.980 Y125.995 E2.17387
G1 X32.364 Y125.714 E2.18302
G1 X32.798 Y125.519 E2.19216
G1 X33.262 Y125.419 E2.20131
G1 X33.738 Y125.419 E2.21045
G1 X34.202 Y125.519 E2.21960
G1 X34.636 Y125.714 E2.22875
G1 X35.020 Y125.995 E2.23789
G1 X35.336 Y126.350 E2.24704
G1 X35.573 Y126.763 E2.25620
G1 X35.718 Y127.216 E2.26535
G1 X35.762 Y127.630 E2.27335
G1 X35.509 Y127.689 F6000.000
G1 F1800.000
G1 X35.465 Y128.109 E2.28148
G1 X35.336 Y128.511 E2.28960
G1 X35.127 Y128.877 E2.29772
G1 X34.846 Y129.192 E2.30583
G1 X34.506 Y129.441 E2.31394
G1 X34.122 Y129.614 E2.32204
G1 X33.710 Y129.702 E2.33014
G1 X33.290 Y129.702 E2.33823
G1 X32.878 Y129.614 E2.34633
G1 X32.494 Y129.441 E2.35443
G1 X32.154 Y129.192 E2.36254
G1 X31.873 Y128.877 E2.37065
G1 X31.664 Y128.511 E2.37877
G1 X31.535 Y128.109 E2.38689
G1 X31.491 Y127.689 E2.39501
G1 X31.535 Y127.269 E2.40314
G1 X31.664 Y126.867 E2.41126
G1 X31.873 Y126.501 E2.41938
G1 X32.154 Y126.186 E2.42749
G1 X32.494 Y125.937 E2.43560
G1 X32.878 Y125.765 E2.44370
G1 X33.290 Y125.676 E2.45180
G1 X33.710 Y125.676 E2.45989
G1 X34.122 Y125.765 E2.46799
G1 X34.506 Y125.937 E2.47609
G1 X34.846 Y126.186 E2.48420
G1 X35.127 Y126.501 E2.49231
G1 X35.336 Y126.867 E2.50043
G1 X35.465 Y127.269 E2.50855
G1 X35.503 Y127.630 E2.51552
G1 X35.251 Y127.689 F6000.000
G1 F1800.000
G1 X35.213 Y128.056 E2.52261
G1 X35.100 Y128.407 E2.52970
G1 X34.917 Y128.726 E2.53679
G1 X34.672 Y129.001 E2.54386
G1 X34.376 Y129.218 E2.55092
G1 X34.041 Y129.368 E2.55798
G1 X33.683 Y129.445 E2.56503
G1 X33.317 Y129.445 E2.57207
G1 X32.959 Y129.368 E2.57912
G1 X32.624 Y129.218 E2.58618
G1 X32.328 Y129.001 E2.59324
G1 X32.083 Y128.726 E2.60032
G1 X31.900 Y128.407 E2.60740
G1 X31.787 Y128.056 E2.61449
G1 X31.749 Y127.689 E2.62158
G1 X31.787 Y127.322 E2.62868
G1 X31.900 Y126.972 E2.63577
G1 X32.083 Y126.652 E2.64285
G1 X32.328 Y126.378 E2.64992
G1 X32.624 Y126.161 E2.65699
G1 X32.959 Y126.010 E2.66404
G1 X33.317 Y125.933 E2.67109
G1 X33.683 Y125.933 E2.67814
