; generated by Slic3r 1.3.1-dev (Build (Unknown revision)) on 2021-02-05 at 20:17:28

; external perimeters extrusion width = 0.44mm (2.86mm^3/s)
; perimeters extrusion width = 0.56mm (4.14mm^3/s)
; infill extrusion width = 0.50mm (3.66mm^3/s)
; solid infill extrusion width = 0.56mm (3.10mm^3/s)
; top infill extrusion width = 0.56mm (3.10mm^3/s)

M107
G92 E0
;D3D:START:START
T0
M104 S215 T0

G21
G90
M107
T0
G28
G29
M109 T0 S215 T0
G0 F3000
M107
T0
G92 E0
G0 X0 Y149 Z0.1 F3600
G1 Y49 E6.5 F1200
G0 Z1
G92 E0
; Filament gcode

G21 ; set units to millimeters
G90 ; use absolute coordinates
M82 ; use absolute distances for extrusion
G92 E0
G1 Z0.300 F7800.000
G1 E-2.00000 F2400.00000
G92 E0
G1 X101.932 Y100.446 F7800.000
G1 E2.00000 F2400.00000
G1 F1800.000
G1 X106.036 Y100.446 E2.13596
G1 X108.088 Y104.000 E2.27192
G1 X106.036 Y107.554 E2.40789
G1 X101.932 Y107.554 E2.54385
G1 X99.880 Y104.000 E2.67981
G1 X101.902 Y100.498 E2.81379
G1 X102.085 Y100.711 F7800.000
G1 F1800.000
G1 X105.882 Y100.711 E2.93959
G1 X107.781 Y104.000 E3.06539
G1 X105.882 Y107.289 E3.19119
G1 X102.085 Y107.289 E3.31699
G1 X100.186 Y104.000 E3.44279
G1 X102.055 Y100.763 E3.56660
G1 X102.238 Y100.977 F7800.000
G1 F1800.000
G1 X105.729 Y100.977 E3.68224
G1 X107.474 Y104.000 E3.79788
G1 X105.729 Y107.023 E3.91352
G1 X102.238 Y107.023 E4.02916
G1 X100.493 Y104.000 E4.14480
G1 X102.208 Y101.029 E4.25845
G1 E2.25845 F2400.00000
G92 E0
G1 X101.932 Y49.554 F7800.000
G1 E2.00000 F2400.00000
G1 F1800.000
G1 X99.880 Y46.000 E2.13596
G1 X101.932 Y42.446 E2.27192
G1 X106.036 Y42.446 E2.40789
G1 X108.088 Y46.000 E2.54385
G1 X106.036 Y49.554 E2.67981
G1 X101.992 Y49.554 E2.81378
G1 X102.085 Y49.289 F7800.000
G1 F1800.000
G1 X100.186 Y46.000 E2.93959
G1 X102.085 Y42.711 E3.06539
G1 X105.882 Y42.711 E3.19119
G1 X107.781 Y46.000 E3.31699
G1 X105.882 Y49.289 E3.44279
G1 X102.145 Y49.289 E3.56660
G1 X102.238 Y49.023 F7800.000
G1 F1800.000
G1 X100.493 Y46.000 E3.68224
G1 X102.238 Y42.977 E3.79788
G1 X105.729 Y42.977 E3.91352
G1 X107.474 Y46.000 E4.02916
G1 X105.729 Y49.023 E4.14480
G1 X102.298 Y49.023 E4.25845
G1 E2.25845 F2400.00000
G92 E0
G1 X100.984 Y51.360 F7800.000
G1 E2.00000 F2400.00000
G1 F1800.000
G1 X102.083 Y51.849 E2.03985
G1 X103.191 Y52.085 E2.07738
G1 X104.249 Y52.624 E2.11672
G1 X105.102 Y53.476 E2.15668
G1 X105.650 Y54.551 E2.19663
G1 X105.830 Y55.687 E2.23475
G1 X105.830 Y94.313 E3.51438
G1 X105.650 Y95.449 E3.55250
G1 X105.102 Y96.524 E3.59246
G1 X104.249 Y97.376 E3.63241
G1 X103.191 Y97.915 E3.67175
G1 X102.083 Y98.151 E3.70929
G1 X100.984 Y98.640 E3.74914
G1 X99.813 Y99.491 E3.79711
G1 X99.008 Y100.385 E3.83695
G1 X98.407 Y101.427 E3.87680
G1 X97.885 Y103.032 E3.93272
G1 X97.860 Y103.191 E3.93806
G1 X97.312 Y104.266 E3.97801
G1 X96.460 Y105.119 E4.01797
G1 X95.385 Y105.666 E4.05793
G1 X94.249 Y105.846 E4.09605
G1 X55.719 Y105.846 E5.37253
G1 X54.582 Y105.666 E5.41065
G1 X53.508 Y105.119 E5.45060
G1 X52.655 Y104.266 E5.49056
G1 X52.107 Y103.191 E5.53051
G1 X52.082 Y103.032 E5.53585
G1 X51.560 Y101.427 E5.59177
G1 X50.959 Y100.385 E5.63162
G1 X50.154 Y99.491 E5.67146
G1 X48.983 Y98.640 E5.71944
G1 X47.884 Y98.151 E5.75928
G1 X46.776 Y97.915 E5.79682
G1 X45.718 Y97.376 E5.83616
G1 X44.865 Y96.524 E5.87612
G1 X44.317 Y95.449 E5.91607
G1 X44.137 Y94.313 E5.95419
G1 X44.137 Y55.687 E7.23382
G1 X44.317 Y54.551 E7.27194
G1 X44.865 Y53.476 E7.31189
G1 X45.718 Y52.624 E7.35185
G1 X46.776 Y52.085 E7.39119
G1 X47.884 Y51.849 E7.42873
G1 X48.983 Y51.360 E7.46857
G1 X50.154 Y50.509 E7.51654
G1 X50.959 Y49.615 E7.55639
G1 X51.560 Y48.573 E7.59623
G1 X52.082 Y46.968 E7.65216
G1 X52.107 Y46.809 E7.65750
G1 X52.655 Y45.734 E7.69745
G1 X53.508 Y44.881 E7.73741
G1 X54.582 Y44.334 E7.77736
G1 X55.719 Y44.154 E7.81548
G1 X94.249 Y44.154 E9.09196
G1 X95.385 Y44.334 E9.13008
G1 X96.460 Y44.881 E9.17004
G1 X97.312 Y45.734 E9.20999
G1 X97.860 Y46.809 E9.24994
G1 X97.885 Y46.968 E9.25528
G1 X98.407 Y48.573 E9.31121
G1 X99.008 Y49.615 E9.35105
G1 X99.813 Y50.509 E9.39090
G1 X100.936 Y51.324 E9.43688
G1 X100.851 Y51.591 F7800.000
G1 F1800.000
G1 X102.001 Y52.103 E9.47858
G1 X103.102 Y52.337 E9.51588
G1 X104.091 Y52.841 E9.55267
G1 X104.885 Y53.635 E9.58984
G1 X105.394 Y54.634 E9.62701
G1 X105.564 Y55.708 E9.66304
G1 X105.564 Y94.292 E10.94128
G1 X105.394 Y95.366 E10.97732
G1 X104.885 Y96.365 E11.01448
G1 X104.091 Y97.159 E11.05165
G1 X103.102 Y97.663 E11.08844
G1 X102.001 Y97.897 E11.12574
G1 X100.851 Y98.409 E11.16744
G1 X99.634 Y99.293 E11.21726
G1 X98.792 Y100.228 E11.25896
G1 X98.163 Y101.318 E11.30065
G1 X97.626 Y102.970 E11.35819
G1 X97.604 Y103.108 E11.36283
G1 X97.095 Y104.108 E11.39999
G1 X96.302 Y104.901 E11.43717
G1 X95.302 Y105.410 E11.47433
G1 X94.228 Y105.581 E11.51037
G1 X55.740 Y105.581 E12.78546
G1 X54.665 Y105.410 E12.82149
G1 X53.666 Y104.901 E12.85866
G1 X52.872 Y104.108 E12.89583
G1 X52.363 Y103.108 E12.93300
G1 X52.341 Y102.970 E12.93764
G1 X51.804 Y101.318 E12.99518
G1 X51.175 Y100.228 E13.03687
G1 X50.333 Y99.293 E13.07857
G1 X49.116 Y98.409 E13.12839
G1 X47.967 Y97.897 E13.17008
G1 X46.865 Y97.663 E13.20739
G1 X45.876 Y97.159 E13.24417
G1 X45.082 Y96.365 E13.28134
G1 X44.573 Y95.366 E13.31851
G1 X44.403 Y94.292 E13.35454
G1 X44.403 Y55.708 E14.63279
G1 X44.573 Y54.634 E14.66882
G1 X45.082 Y53.635 E14.70599
G1 X45.876 Y52.841 E14.74316
G1 X46.865 Y52.337 E14.77995
G1 X47.967 Y52.103 E14.81725
G1 X49.116 Y51.591 E14.85894
G1 X50.333 Y50.707 E14.90877
G1 X51.175 Y49.772 E14.95046
G1 X51.804 Y48.682 E14.99216
G1 X52.341 Y47.030 E15.04970
G1 X52.363 Y46.892 E15.05434
G1 X52.872 Y45.892 E15.09150
G1 X53.666 Y45.099 E15.12867
G1 X54.665 Y44.590 E15.16584
G1 X55.740 Y44.419 E15.20187
G1 X94.228 Y44.419 E16.47697
G1 X95.302 Y44.590 E16.51300
G1 X96.302 Y45.099 E16.55017
G1 X97.095 Y45.892 E16.58734
G1 X97.604 Y46.892 E16.62450
G1 X97.626 Y47.030 E16.62914
G1 X98.163 Y48.682 E16.68668
G1 X98.792 Y49.772 E16.72838
G1 X99.634 Y50.707 E16.77007
G1 X100.802 Y51.556 E16.81790
G1 X100.717 Y51.822 F7800.000
G1 F1800.000
G1 X101.918 Y52.357 E16.86145
G1 X103.013 Y52.590 E16.89852
G1 X103.933 Y53.059 E16.93275
G1 X104.667 Y53.793 E16.96714
G1 X105.138 Y54.717 E17.00152
G1 X105.299 Y55.729 E17.03546
G1 X105.299 Y94.271 E18.31232
G1 X105.138 Y95.283 E18.34627
G1 X104.667 Y96.207 E18.38065
G1 X103.933 Y96.941 E18.41503
G1 X103.013 Y97.410 E18.44927
G1 X101.918 Y97.643 E18.48634
G1 X100.717 Y98.178 E18.52988
G1 X99.456 Y99.094 E18.58155
G1 X98.576 Y100.071 E18.62510
G1 X97.919 Y101.209 E18.66864
G1 X97.367 Y102.908 E18.72780
G1 X97.348 Y103.025 E18.73173
G1 X96.877 Y103.950 E18.76611
G1 X96.143 Y104.684 E18.80050
G1 X95.219 Y105.155 E18.83488
G1 X94.207 Y105.315 E18.86882
G1 X55.760 Y105.315 E20.14253
G1 X54.748 Y105.155 E20.17648
G1 X53.824 Y104.684 E20.21086
G1 X53.090 Y103.950 E20.24524
G1 X52.619 Y103.025 E20.27962
G1 X52.600 Y102.908 E20.28356
G1 X52.048 Y101.209 E20.34272
G1 X51.391 Y100.071 E20.38626
G1 X50.512 Y99.094 E20.42981
G1 X49.250 Y98.178 E20.48148
G1 X48.049 Y97.643 E20.52502
G1 X46.955 Y97.410 E20.56209
G1 X46.034 Y96.941 E20.59633
G1 X45.300 Y96.207 E20.63071
G1 X44.829 Y95.283 E20.66509
G1 X44.669 Y94.271 E20.69904
G1 X44.669 Y55.729 E21.97589
G1 X44.829 Y54.717 E22.00984
G1 X45.300 Y53.793 E22.04422
G1 X46.034 Y53.059 E22.07860
G1 X46.955 Y52.590 E22.11284
G1 X48.049 Y52.357 E22.14991
G1 X49.250 Y51.822 E22.19345
G1 X50.512 Y50.906 E22.24512
G1 X51.391 Y49.929 E22.28867
G1 X52.048 Y48.791 E22.33221
G1 X52.600 Y47.092 E22.39137
G1 X52.619 Y46.975 E22.39531
G1 X53.090 Y46.050 E22.42969
G1 X53.824 Y45.316 E22.46407
G1 X54.748 Y44.845 E22.49845
G1 X55.760 Y44.685 E22.53240
G1 X94.207 Y44.685 E23.80611
G1 X95.219 Y44.845 E23.84005
G1 X96.143 Y45.316 E23.87443
G1 X96.877 Y46.050 E23.90882
G1 X97.348 Y46.975 E23.94320
G1 X97.367 Y47.092 E23.94713
G1 X97.919 Y48.791 E24.00629
G1 X98.576 Y49.929 E24.04983
G1 X99.456 Y50.906 E24.09338
G1 X100.669 Y51.787 E24.14306
G1 E22.14306 F2400.00000
G92 E0
G1 X50.088 Y46.000 F7800.000
G1 E2.00000 F2400.00000
G1 F1800.000
G1 X48.036 Y49.554 E2.13596
G1 X43.932 Y49.554 E2.27192
G1 X41.880 Y46.000 E2.40789
G1 X43.932 Y42.446 E2.54385
G1 X48.036 Y42.446 E2.67981
G1 X50.058 Y45.948 E2.81378
G1 X49.781 Y46.000 F7800.000
G1 F1800.000
G1 X47.882 Y49.289 E2.93959
G1 X44.085 Y49.289 E3.06539
G1 X42.186 Y46.000 E3.19119
G1 X44.085 Y42.711 E3.31699
G1 X47.882 Y42.711 E3.44279
G1 X49.751 Y45.948 E3.56660
G1 X49.474 Y46.000 F7800.000
G1 F1800.000
G1 X47.729 Y49.023 E3.68224
G1 X44.238 Y49.023 E3.79788
G1 X42.493 Y46.000 E3.91352
G1 X44.238 Y42.977 E4.02916
G1 X47.729 Y42.977 E4.14480
G1 X49.444 Y45.948 E4.25845
G1 E2.25845 F2400.00000
G92 E0
G1 X48.036 Y100.446 F7800.000
G1 E2.00000 F2400.00000
G1 F1800.000
G1 X50.088 Y104.000 E2.13596
G1 X48.036 Y107.554 E2.27192
G1 X43.932 Y107.554 E2.40789
G1 X41.880 Y104.000 E2.54385
G1 X43.932 Y100.446 E2.67981
G1 X47.976 Y100.446 E2.81378
G1 X47.882 Y100.711 F7800.000
G1 F1800.000
G1 X49.781 Y104.000 E2.93959
G1 X47.882 Y107.289 E3.06539
G1 X44.085 Y107.289 E3.19119
G1 X42.186 Y104.000 E3.31699
G1 X44.085 Y100.711 E3.44279
G1 X47.822 Y100.711 E3.56660
G1 X47.729 Y100.977 F7800.000
G1 F1800.000
G1 X49.474 Y104.000 E3.68224
G1 X47.729 Y107.023 E3.79788
G1 X44.238 Y107.023 E3.91352
G1 X42.493 Y104.000 E4.02916
G1 X44.238 Y100.977 E4.14480
G1 X47.669 Y100.977 E4.25845
G1 E2.25845 F2400.00000
G92 E0
G1 X40.846 Y108.963 F7800.000
G1 E2.00000 F2400.00000
G1 F1800.000
G1 X40.713 Y108.664 E2.01086
G1 X40.713 Y41.336 E4.24140
G1 X40.846 Y41.037 E4.25225
G1 X41.090 Y40.817 E4.26311
G1 X41.437 Y40.704 E4.27522
G1 X108.290 Y40.704 E6.49003
G1 X108.727 Y40.750 E6.50459
G1 X109.011 Y40.914 E6.51545
G1 X109.204 Y41.179 E6.52630
G1 X109.287 Y41.573 E6.53964
G1 X109.287 Y108.427 E8.75447
G1 X109.204 Y108.821 E8.76781
G1 X109.011 Y109.086 E8.77866
G1 X108.727 Y109.250 E8.78952
G1 X108.290 Y109.296 E8.80408
G1 X41.437 Y109.296 E11.01889
G1 X41.090 Y109.183 E11.03100
G1 X40.891 Y109.003 E11.03987
G1 X40.626 Y109.123 F7800.000
G1 F1800.000
G1 X40.447 Y108.720 E11.05447
G1 X40.447 Y41.280 E13.28875
G1 X40.626 Y40.877 E13.30335
G1 X40.954 Y40.582 E13.31794
G1 X41.395 Y40.439 E13.33332
G1 X108.304 Y40.439 E15.54999
G1 X108.811 Y40.492 E15.56687
G1 X109.193 Y40.712 E15.58147
G1 X109.452 Y41.069 E15.59607
G1 X109.553 Y41.545 E15.61220
G1 X109.553 Y108.455 E17.82888
G1 X109.452 Y108.931 E17.84501
G1 X109.193 Y109.288 E17.85961
G1 X108.811 Y109.508 E17.87421
G1 X108.304 Y109.561 E17.89110
G1 X41.395 Y109.561 E20.10777
G1 X40.954 Y109.418 E20.12314
G1 X40.671 Y109.163 E20.13575
G1 X40.407 Y109.283 F7800.000
G1 F1800.000
G1 X40.181 Y108.777 E20.15409
G1 X40.181 Y41.223 E22.39211
G1 X40.407 Y40.717 E22.41045
G1 X40.818 Y40.347 E22.42879
G1 X41.353 Y40.173 E22.44742
G1 X108.318 Y40.173 E24.66595
G1 X108.895 Y40.234 E24.68517
G1 X109.374 Y40.511 E24.70351
G1 X109.700 Y40.959 E24.72185
G1 X109.819 Y41.517 E24.74077
G1 X109.819 Y108.483 E26.95930
G1 X109.700 Y109.041 E26.97823
G1 X109.374 Y109.489 E26.99657
G1 X108.895 Y109.766 E27.01491
G1 X108.318 Y109.827 E27.03413
G1 X41.353 Y109.827 E29.25265
G1 X40.818 Y109.653 E29.27129
G1 X40.451 Y109.323 E29.28764
G1 E27.28764 F2400.00000
G92 E0
G1 X48.087 Y107.921 F7800.000
G1 E2.00000 F2400.00000
G1 F1800.000
G1 X52.252 Y103.755 E2.19547
G1 X52.125 Y103.506 E2.20476
G1 X48.601 Y107.030 E2.37015
G1 X49.115 Y106.140 E2.40426
G1 X51.998 Y103.257 E2.53958
G1 X51.955 Y103.171 E2.54276
G1 X51.917 Y102.962 E2.54982
G1 X49.629 Y105.250 E2.65718
G1 X50.143 Y104.360 E2.69129
G1 X51.825 Y102.678 E2.77021
G1 X51.732 Y102.394 E2.78012
G1 X50.193 Y103.933 E2.85236
G1 X50.055 Y103.695 E2.86150
G1 X51.640 Y102.110 E2.93587
G1 X51.548 Y101.826 E2.94578
G1 X49.917 Y103.456 E3.02229
G1 X49.780 Y103.218 E3.03143
G1 X51.455 Y101.542 E3.11006
G1 X51.420 Y101.432 E3.11391
G1 X51.335 Y101.286 E3.11950
G1 X49.642 Y102.979 E3.19897
G1 X49.504 Y102.741 E3.20811
G1 X51.198 Y101.047 E3.28757
G1 X51.060 Y100.809 E3.29671
G1 X49.367 Y102.502 E3.37618
G1 X49.229 Y102.264 E3.38532
G1 X50.922 Y100.570 E3.46479
G1 X50.846 Y100.439 E3.46983
G1 X50.766 Y100.350 E3.47379
G1 X49.091 Y102.025 E3.55240
G1 X48.953 Y101.787 E3.56154
G1 X50.588 Y100.152 E3.63825
G1 X50.410 Y99.954 E3.64709
G1 X48.816 Y101.548 E3.72190
G1 X48.678 Y101.310 E3.73104
G1 X50.232 Y99.756 E3.80395
G1 X50.048 Y99.564 E3.81278
G1 X48.540 Y101.071 E3.88351
G1 X48.403 Y100.833 E3.89265
G1 X49.830 Y99.405 E3.95962
G1 X49.612 Y99.247 E3.96856
G1 X48.265 Y100.594 E4.03176
G1 X48.127 Y100.355 E4.04090
G1 X49.394 Y99.089 E4.10035
G1 X49.176 Y98.930 E4.10928
G1 X47.823 Y100.284 E4.17278
G1 X47.447 Y100.284 E4.18527
G1 X48.953 Y98.768 E4.25616
G1 X48.699 Y98.655 E4.26538
G1 X47.070 Y100.284 E4.34180
G1 X46.694 Y100.284 E4.35429
G1 X48.438 Y98.539 E4.43614
G1 X48.178 Y98.423 E4.44560
G1 X46.318 Y100.284 E4.53289
G1 X45.941 Y100.284 E4.54538
G1 X47.918 Y98.307 E4.63811
G1 X47.610 Y98.239 E4.64858
G1 X45.565 Y100.284 E4.74452
G1 X45.189 Y100.284 E4.75701
G1 X47.299 Y98.173 E4.85605
G1 X46.989 Y98.107 E4.86658
G1 X44.813 Y100.284 E4.96871
G1 X44.436 Y100.284 E4.98120
G1 X46.701 Y98.019 E5.08746
G1 X46.451 Y97.892 E5.09674
G1 X44.060 Y100.284 E5.20895
G1 X43.684 Y100.284 E5.22144
G1 X46.202 Y97.765 E5.33961
G1 X45.953 Y97.638 E5.34890
G1 X40.875 Y102.716 E5.58720
G1 X40.875 Y102.340 E5.59968
G1 X45.704 Y97.511 E5.82629
G1 X45.506 Y97.333 E5.83513
G1 X40.875 Y101.964 E6.05244
G1 X40.875 Y101.588 E6.06492
G1 X45.317 Y97.145 E6.27340
G1 X45.129 Y96.957 E6.28223
G1 X40.875 Y101.211 E6.48188
G1 X40.875 Y100.835 E6.49437
G1 X44.941 Y96.769 E6.68519
G1 X44.753 Y96.581 E6.69402
G1 X40.875 Y100.459 E6.87601
G1 X40.875 Y100.083 E6.88850
G1 X44.625 Y96.332 E7.06450
G1 X44.498 Y96.083 E7.07378
G1 X40.875 Y99.706 E7.24382
G1 X40.875 Y99.330 E7.25630
G1 X44.371 Y95.834 E7.42038
G1 X44.244 Y95.584 E7.42966
G1 X40.875 Y98.954 E7.58778
G1 X40.875 Y98.578 E7.60027
G1 X44.146 Y95.307 E7.75376
G1 X44.094 Y94.982 E7.76467
G1 X40.875 Y98.201 E7.91574
G1 X40.875 Y97.825 E7.92823
G1 X44.043 Y94.657 E8.07689
G1 X43.991 Y94.332 E8.08780
G1 X40.875 Y97.449 E8.23404
G1 X40.875 Y97.073 E8.24653
G1 X43.975 Y93.972 E8.39201
G1 X43.975 Y93.596 E8.40450
G1 X40.875 Y96.696 E8.54998
G1 X40.875 Y96.320 E8.56247
G1 X43.975 Y93.220 E8.70795
G1 X43.975 Y92.844 E8.72044
G1 X40.875 Y95.944 E8.86592
G1 X40.875 Y95.568 E8.87841
G1 X43.975 Y92.467 E9.02389
G1 X43.975 Y92.091 E9.03638
G1 X40.875 Y95.191 E9.18186
G1 X40.875 Y94.815 E9.19435
G1 X43.975 Y91.715 E9.33983
G1 X43.975 Y91.339 E9.35231
G1 X40.875 Y94.439 E9.49780
G1 X40.875 Y94.063 E9.51028
G1 X43.975 Y90.962 E9.65577
G1 X43.975 Y90.586 E9.66825
G1 X40.875 Y93.686 E9.81374
G1 X40.875 Y93.310 E9.82622
G1 X43.975 Y90.210 E9.97171
G1 X43.975 Y89.834 E9.98419
G1 X40.875 Y92.934 E10.12968
G1 X40.875 Y92.558 E10.14216
G1 X43.975 Y89.457 E10.28765
G1 X43.975 Y89.081 E10.30013
G1 X40.875 Y92.181 E10.44561
G1 X40.875 Y91.805 E10.45810
G1 X43.975 Y88.705 E10.60358
G1 X43.975 Y88.329 E10.61607
G1 X40.875 Y91.429 E10.76155
G1 X40.875 Y91.053 E10.77404
G1 X43.975 Y87.952 E10.91952
G1 X43.975 Y87.576 E10.93201
G1 X40.875 Y90.676 E11.07749
G1 X40.875 Y90.300 E11.08998
G1 X43.975 Y87.200 E11.23546
G1 X43.975 Y86.824 E11.24795
G1 X40.875 Y89.924 E11.39343
G1 X40.875 Y89.548 E11.40592
G1 X43.975 Y86.447 E11.55140
G1 X43.975 Y86.071 E11.56388
G1 X40.875 Y89.171 E11.70937
G1 X40.875 Y88.795 E11.72185
G1 X43.975 Y85.695 E11.86734
G1 X43.975 Y85.319 E11.87982
G1 X40.875 Y88.419 E12.02531
G1 X40.875 Y88.042 E12.03779
G1 X43.975 Y84.942 E12.18328
G1 X43.975 Y84.566 E12.19576
G1 X40.875 Y87.666 E12.34125
G1 X40.875 Y87.290 E12.35373
G1 X43.975 Y84.190 E12.49922
G1 X43.975 Y83.814 E12.51170
G1 X40.875 Y86.914 E12.65718
G1 X40.875 Y86.537 E12.66967
G1 X43.975 Y83.437 E12.81515
G1 X43.975 Y83.061 E12.82764
G1 X40.875 Y86.161 E12.97312
G1 X40.875 Y85.785 E12.98561
G1 X43.975 Y82.685 E13.13109
G1 X43.975 Y82.309 E13.14358
G1 X40.875 Y85.409 E13.28906
G1 X40.875 Y85.032 E13.30155
G1 X43.975 Y81.932 E13.44703
G1 X43.975 Y81.556 E13.45952
G1 X40.875 Y84.656 E13.60500
G1 X40.875 Y84.280 E13.61749
G1 X43.975 Y81.180 E13.76297
G1 X43.975 Y80.804 E13.77546
