; generated by Slic3r 1.3.0 on 2021-03-06 at 11:19:27

; external perimeters extrusion width = 0.44mm (2.86mm^3/s)
; perimeters extrusion width = 0.56mm (4.14mm^3/s)
; infill extrusion width = 0.50mm (3.66mm^3/s)
; solid infill extrusion width = 0.56mm (3.10mm^3/s)
; top infill extrusion width = 0.45mm (2.44mm^3/s)

M107
;D3D:START:START
T0
M104 S215 T0

G21
G90
M107
T0
G28
G29
M109 T0 S215 T0
G0 F3000
M107
T0
G92 E0
G0 X0 Y149 Z0.1 F3600
G1 Y49 E6.5 F1200
G0 Z1
G92 E0
; Filament gcode

G21 ; set units to millimeters
G90 ; use absolute coordinates
M82 ; use absolute distances for extrusion
G92 E0
G1 Z0.300 F6000.000
G1 E-2.00000 F1200.00000
G92 E0
G1 Z0.800 F6000.000
G1 X35.739 Y35.586 F6000.000
G1 Z0.300 F6000.000
G1 E2.00000 F1200.00000
G1 F1800
G1 X36.203 Y35.169 E2.02790
G1 X38.641 Y33.761 E2.15380
G1 X39.235 Y33.568 E2.18176
G1 X41.327 Y33.237 E2.27649
G1 X108.327 Y33.237 E5.27339
G1 X109.035 Y33.274 E5.30509
G1 X109.655 Y33.339 E5.33299
G1 X112.333 Y34.209 E5.45894
G1 X112.873 Y34.521 E5.48684
G1 X114.965 Y36.405 E5.61278
G1 X115.333 Y36.911 E5.64075
G1 X116.477 Y39.482 E5.76661
G1 X116.607 Y40.093 E5.79454
G1 X116.755 Y41.500 E5.85784
G1 X116.755 Y108.500 E8.85474
G1 X116.607 Y109.907 E8.91804
G1 X116.477 Y110.518 E8.94596
G1 X115.333 Y113.089 E9.07184
G1 X114.965 Y113.595 E9.09979
G1 X112.873 Y115.479 E9.22572
G1 X112.333 Y115.791 E9.25364
G1 X109.655 Y116.661 E9.37958
G1 X109.035 Y116.726 E9.40748
G1 X108.327 Y116.763 E9.43919
G1 X41.327 Y116.763 E12.43608
G1 X39.234 Y116.431 E12.53087
G1 X38.641 Y116.239 E12.55877
G1 X36.204 Y114.832 E12.68460
G1 X35.739 Y114.414 E12.71258
G1 X34.081 Y112.128 E12.83891
G1 X33.831 Y111.566 E12.86642
G1 X33.245 Y108.812 E12.99236
G1 X33.245 Y41.188 E16.01716
G1 X33.831 Y38.434 E16.14311
G1 X34.085 Y37.864 E16.17104
G1 X35.704 Y35.635 E16.29428
G1 X35.997 Y35.873 F6000.000
G1 F1800
G1 X36.461 Y35.455 E16.32218
G1 X38.760 Y34.128 E16.44091
G1 X39.354 Y33.935 E16.46887
G1 X41.327 Y33.623 E16.55820
G1 X108.327 Y33.623 E19.55510
G1 X108.994 Y33.658 E19.58499
G1 X109.615 Y33.723 E19.61290
G1 X112.140 Y34.543 E19.73167
G1 X112.680 Y34.855 E19.75957
G1 X114.653 Y36.632 E19.87834
G1 X115.021 Y37.138 E19.90631
G1 X116.100 Y39.562 E20.02500
G1 X116.230 Y40.173 E20.05292
G1 X116.369 Y41.500 E20.11262
G1 X116.369 Y108.500 E23.10952
G1 X116.230 Y109.827 E23.16921
G1 X116.100 Y110.438 E23.19714
G1 X115.021 Y112.862 E23.31585
G1 X114.653 Y113.368 E23.34379
G1 X112.680 Y115.145 E23.46255
G1 X112.140 Y115.457 E23.49047
G1 X109.615 Y116.277 E23.60924
G1 X108.994 Y116.342 E23.63714
G1 X108.327 Y116.377 E23.66704
G1 X41.327 Y116.377 E26.66394
G1 X39.353 Y116.065 E26.75333
G1 X38.760 Y115.872 E26.78123
G1 X36.462 Y114.546 E26.89989
G1 X35.997 Y114.127 E26.92786
G1 X34.437 Y111.980 E27.04661
G1 X34.183 Y111.409 E27.07454
G1 X33.631 Y108.812 E27.19331
G1 X33.631 Y41.188 E30.21811
G1 X34.183 Y38.591 E30.33689
G1 X34.437 Y38.020 E30.36481
G1 X35.962 Y35.921 E30.48088
G1 E28.48088 F1200.00000
G92 E0
G1 Z0.800 F6000.000
G1 X101.758 Y100.146 F6000.000
G1 Z0.300 F6000.000
G1 E2.00000 F1200.00000
G1 F1800
G1 X106.209 Y100.146 E2.19906
G1 X108.434 Y104.000 E2.39813
G1 X106.209 Y107.854 E2.59719
G1 X101.758 Y107.854 E2.79626
G1 X99.533 Y104.000 E2.99532
G1 X101.728 Y100.198 E3.19170
G1 X101.981 Y100.531 F6000.000
G1 F1800
G1 X105.986 Y100.531 E3.37085
G1 X107.989 Y104.000 E3.55000
G1 X105.986 Y107.469 E3.72914
G1 X101.981 Y107.469 E3.90829
G1 X99.979 Y104.000 E4.08744
G1 X101.951 Y100.583 E4.26390
G1 X102.204 Y100.917 F6000.000
G1 F1800
G1 X105.764 Y100.917 E4.42313
G1 X107.543 Y104.000 E4.58236
G1 X105.764 Y107.083 E4.74159
G1 X102.204 Y107.083 E4.90082
G1 X100.424 Y104.000 E5.06005
G1 X102.174 Y100.969 E5.21660
G1 X102.208 Y100.517 F6000.000
G1 E3.21660 F1200.00000
G92 E0
G1 Z0.800 F6000.000
G1 X101.758 Y49.854 F6000.000
G1 Z0.300 F6000.000
G1 E2.00000 F1200.00000
G1 F1800
G1 X99.533 Y46.000 E2.19906
G1 X101.758 Y42.146 E2.39813
G1 X106.209 Y42.146 E2.59719
G1 X108.434 Y46.000 E2.79626
G1 X106.209 Y49.854 E2.99532
G1 X101.818 Y49.854 E3.19170
G1 X101.981 Y49.469 F6000.000
G1 F1800
G1 X99.979 Y46.000 E3.37085
G1 X101.981 Y42.531 E3.55000
G1 X105.986 Y42.531 E3.72914
G1 X107.989 Y46.000 E3.90829
G1 X105.986 Y49.469 E4.08744
G1 X102.041 Y49.469 E4.26390
G1 X102.204 Y49.083 F6000.000
G1 F1800
G1 X100.424 Y46.000 E4.42313
G1 X102.204 Y42.917 E4.58236
G1 X105.764 Y42.917 E4.74159
G1 X107.543 Y46.000 E4.90082
G1 X105.764 Y49.083 E5.06005
G1 X102.264 Y49.083 E5.21660
G1 X101.866 Y49.278 F6000.000
G1 E3.21660 F1200.00000
G92 E0
G1 Z0.800 F6000.000
G1 X101.135 Y51.098 F6000.000
G1 Z0.300 F6000.000
G1 E2.00000 F1200.00000
G1 F1800
G1 X102.176 Y51.562 E2.05098
G1 X103.292 Y51.799 E2.10201
G1 X104.428 Y52.378 E2.15902
G1 X105.348 Y53.298 E2.21722
G1 X105.939 Y54.457 E2.27542
G1 X106.130 Y55.664 E2.33006
G1 X106.130 Y94.336 E4.05987
G1 X105.939 Y95.543 E4.11451
G1 X105.348 Y96.702 E4.17271
G1 X104.428 Y97.622 E4.23091
G1 X103.292 Y98.201 E4.28792
G1 X102.176 Y98.438 E4.33895
G1 X101.135 Y98.902 E4.38993
G1 X100.015 Y99.716 E4.45188
G1 X99.252 Y100.562 E4.50285
G1 X98.682 Y101.549 E4.55383
G1 X98.178 Y103.103 E4.62687
G1 X98.149 Y103.285 E4.63515
G1 X97.558 Y104.444 E4.69334
G1 X96.638 Y105.364 E4.75154
G1 X95.479 Y105.955 E4.80973
G1 X94.272 Y106.146 E4.86438
G1 X55.695 Y106.146 E6.58994
G1 X54.488 Y105.955 E6.64458
G1 X53.329 Y105.364 E6.70278
G1 X52.409 Y104.444 E6.76098
G1 X51.818 Y103.285 E6.81916
G1 X51.789 Y103.103 E6.82744
G1 X51.285 Y101.549 E6.90049
G1 X50.715 Y100.562 E6.95146
G1 X49.952 Y99.716 E7.00244
G1 X48.832 Y98.902 E7.06439
G1 X47.791 Y98.438 E7.11537
G1 X46.675 Y98.201 E7.16640
G1 X45.539 Y97.622 E7.22341
G1 X44.619 Y96.702 E7.28161
G1 X44.029 Y95.543 E7.33980
G1 X43.837 Y94.336 E7.39445
G1 X43.837 Y55.664 E9.12425
G1 X44.029 Y54.457 E9.17890
G1 X44.619 Y53.298 E9.23710
G1 X45.539 Y52.378 E9.29530
G1 X46.675 Y51.799 E9.35230
G1 X47.791 Y51.562 E9.40334
G1 X48.832 Y51.098 E9.45432
G1 X49.952 Y50.284 E9.51627
G1 X50.715 Y49.438 E9.56724
G1 X51.285 Y48.451 E9.61822
G1 X51.789 Y46.897 E9.69126
G1 X51.818 Y46.715 E9.69954
G1 X52.409 Y45.556 E9.75773
G1 X53.329 Y44.636 E9.81593
G1 X54.488 Y44.045 E9.87412
G1 X55.695 Y43.854 E9.92877
G1 X94.272 Y43.854 E11.65432
G1 X95.479 Y44.045 E11.70897
G1 X96.638 Y44.636 E11.76717
G1 X97.558 Y45.556 E11.82537
G1 X98.149 Y46.715 E11.88355
G1 X98.178 Y46.897 E11.89183
G1 X98.682 Y48.451 E11.96488
G1 X99.252 Y49.438 E12.01585
G1 X100.015 Y50.284 E12.06683
G1 X101.087 Y51.063 E12.12609
G1 X100.941 Y51.434 F6000.000
G1 F1800
G1 X102.057 Y51.931 E12.18070
G1 X103.163 Y52.166 E12.23127
G1 X104.198 Y52.694 E12.28328
G1 X105.032 Y53.527 E12.33601
G1 X105.567 Y54.578 E12.38875
G1 X105.744 Y55.694 E12.43930
G1 X105.744 Y94.306 E14.16639
G1 X105.567 Y95.422 E14.21695
G1 X105.032 Y96.473 E14.26968
G1 X104.198 Y97.306 E14.32242
G1 X103.163 Y97.834 E14.37442
G1 X102.057 Y98.069 E14.42500
G1 X100.941 Y98.566 E14.47960
G1 X99.755 Y99.427 E14.54518
G1 X98.939 Y100.335 E14.59978
G1 X98.328 Y101.392 E14.65438
G1 X97.802 Y103.012 E14.73059
G1 X97.777 Y103.165 E14.73750
G1 X97.242 Y104.215 E14.79022
G1 X96.409 Y105.049 E14.84296
G1 X95.358 Y105.584 E14.89569
G1 X94.242 Y105.761 E14.94625
G1 X55.725 Y105.761 E16.66909
G1 X54.609 Y105.584 E16.71965
G1 X53.559 Y105.049 E16.77238
G1 X52.725 Y104.215 E16.82511
G1 X52.190 Y103.165 E16.87784
G1 X52.165 Y103.012 E16.88474
G1 X51.639 Y101.392 E16.96096
G1 X51.029 Y100.335 E17.01556
G1 X50.212 Y99.427 E17.07016
G1 X49.026 Y98.566 E17.13573
G1 X47.911 Y98.069 E17.19034
G1 X46.805 Y97.834 E17.24091
G1 X45.769 Y97.306 E17.29292
G1 X44.935 Y96.473 E17.34565
G1 X44.400 Y95.422 E17.39839
G1 X44.223 Y94.306 E17.44895
G1 X44.223 Y55.694 E19.17603
G1 X44.400 Y54.578 E19.22659
G1 X44.935 Y53.527 E19.27932
G1 X45.769 Y52.694 E19.33206
G1 X46.805 Y52.166 E19.38406
G1 X47.911 Y51.931 E19.43464
G1 X49.026 Y51.434 E19.48924
G1 X50.212 Y50.573 E19.55482
G1 X51.029 Y49.665 E19.60942
G1 X51.639 Y48.608 E19.66402
G1 X52.165 Y46.988 E19.74023
G1 X52.190 Y46.835 E19.74714
G1 X52.725 Y45.785 E19.79986
G1 X53.559 Y44.951 E19.85260
G1 X54.609 Y44.416 E19.90533
G1 X55.725 Y44.239 E19.95589
G1 X94.242 Y44.239 E21.67873
G1 X95.358 Y44.416 E21.72929
G1 X96.409 Y44.951 E21.78202
G1 X97.242 Y45.785 E21.83475
G1 X97.777 Y46.835 E21.88748
G1 X97.802 Y46.988 E21.89438
G1 X98.328 Y48.608 E21.97060
G1 X98.939 Y49.665 E22.02520
G1 X99.755 Y50.573 E22.07980
G1 X100.893 Y51.399 E22.14269
G1 X100.748 Y51.770 F6000.000
G1 F1800
G1 X101.937 Y52.300 E22.20092
G1 X103.033 Y52.533 E22.25104
G1 X103.969 Y53.010 E22.29804
G1 X104.716 Y53.757 E22.34531
G1 X105.196 Y54.699 E22.39258
G1 X105.359 Y55.725 E22.43905
G1 X105.359 Y94.275 E24.16342
G1 X105.196 Y95.301 E24.20989
G1 X104.716 Y96.243 E24.25716
G1 X103.969 Y96.990 E24.30443
G1 X103.033 Y97.467 E24.35143
G1 X101.937 Y97.700 E24.40155
G1 X100.748 Y98.230 E24.45978
G1 X99.496 Y99.139 E24.52898
G1 X98.625 Y100.107 E24.58721
G1 X97.974 Y101.234 E24.64544
G1 X97.426 Y102.922 E24.72481
G1 X97.406 Y103.044 E24.73034
G1 X96.926 Y103.985 E24.77761
G1 X96.179 Y104.733 E24.82488
G1 X95.238 Y105.212 E24.87215
G1 X94.212 Y105.375 E24.91862
G1 X55.756 Y105.375 E26.63874
G1 X54.730 Y105.212 E26.68521
G1 X53.788 Y104.733 E26.73248
G1 X53.041 Y103.985 E26.77975
G1 X52.561 Y103.044 E26.82702
G1 X52.542 Y102.922 E26.83255
G1 X51.993 Y101.234 E26.91193
G1 X51.342 Y100.107 E26.97015
G1 X50.471 Y99.139 E27.02838
G1 X49.220 Y98.230 E27.09758
G1 X48.030 Y97.700 E27.15581
G1 X46.934 Y97.467 E27.20593
G1 X45.998 Y96.990 E27.25293
G1 X45.251 Y96.243 E27.30020
G1 X44.771 Y95.301 E27.34747
G1 X44.609 Y94.275 E27.39394
G1 X44.609 Y55.725 E29.11831
G1 X44.771 Y54.699 E29.16478
G1 X45.251 Y53.757 E29.21205
G1 X45.998 Y53.010 E29.25932
G1 X46.934 Y52.533 E29.30632
G1 X48.030 Y52.300 E29.35644
G1 X49.220 Y51.770 E29.41467
G1 X50.471 Y50.861 E29.48387
G1 X51.342 Y49.893 E29.54210
G1 X51.993 Y48.766 E29.60033
G1 X52.542 Y47.078 E29.67970
G1 X52.561 Y46.956 E29.68523
G1 X53.041 Y46.015 E29.73250
G1 X53.788 Y45.267 E29.77977
G1 X54.730 Y44.788 E29.82704
G1 X55.756 Y44.625 E29.87351
G1 X94.212 Y44.625 E31.59363
G1 X95.238 Y44.788 E31.64010
G1 X96.179 Y45.267 E31.68737
G1 X96.926 Y46.015 E31.73464
G1 X97.406 Y46.956 E31.78191
G1 X97.426 Y47.078 E31.78744
G1 X97.974 Y48.766 E31.86682
G1 X98.625 Y49.893 E31.92504
G1 X99.496 Y50.861 E31.98327
G1 X100.699 Y51.735 E32.04979
G1 X101.093 Y51.569 F6000.000
G1 E30.04979 F1200.00000
G92 E0
G1 Z0.800 F6000.000
G1 X50.434 Y46.000 F6000.000
G1 Z0.300 F6000.000
G1 E2.00000 F1200.00000
G1 F1800
G1 X48.209 Y49.854 E2.19906
G1 X43.758 Y49.854 E2.39813
G1 X41.533 Y46.000 E2.59719
G1 X43.758 Y42.146 E2.79626
G1 X48.209 Y42.146 E2.99532
G1 X50.404 Y45.948 E3.19170
G1 X49.989 Y46.000 F6000.000
G1 F1800
G1 X47.986 Y49.469 E3.37085
G1 X43.981 Y49.469 E3.54999
G1 X41.979 Y46.000 E3.72914
G1 X43.981 Y42.531 E3.90829
G1 X47.986 Y42.531 E4.08744
G1 X49.959 Y45.948 E4.26390
G1 X49.543 Y46.000 F6000.000
G1 F1800
G1 X47.764 Y49.083 E4.42313
G1 X44.204 Y49.083 E4.58236
G1 X42.424 Y46.000 E4.74159
G1 X44.204 Y42.917 E4.90082
G1 X47.764 Y42.917 E5.06005
G1 X49.513 Y45.948 E5.21660
G1 X49.850 Y46.257 F6000.000
G1 E3.21660 F1200.00000
G92 E0
G1 Z0.800 F6000.000
G1 X48.209 Y100.146 F6000.000
G1 Z0.300 F6000.000
G1 E2.00000 F1200.00000
G1 F1800
G1 X50.434 Y104.000 E2.19906
G1 X48.209 Y107.854 E2.39813
G1 X43.758 Y107.854 E2.59719
G1 X41.533 Y104.000 E2.79626
G1 X43.758 Y100.146 E2.99532
G1 X48.149 Y100.146 E3.19170
G1 X47.986 Y100.531 F6000.000
G1 F1800
G1 X49.989 Y104.000 E3.37085
G1 X47.986 Y107.469 E3.55000
G1 X43.981 Y107.469 E3.72914
G1 X41.979 Y104.000 E3.90829
G1 X43.981 Y100.531 E4.08744
G1 X47.926 Y100.531 E4.26390
G1 X47.764 Y100.917 F6000.000
G1 F1800
G1 X49.543 Y104.000 E4.42313
G1 X47.764 Y107.083 E4.58236
G1 X44.204 Y107.083 E4.74159
G1 X42.424 Y104.000 E4.90082
G1 X44.204 Y100.917 E5.06005
G1 X47.704 Y100.917 E5.21660
G1 X48.110 Y100.717 F6000.000
G1 E3.21660 F1200.00000
G92 E0
G1 Z0.800 F6000.000
G1 X41.094 Y108.783 F6000.000
G1 Z0.300 F6000.000
G1 E2.00000 F1200.00000
G1 F1800
G1 X41.013 Y108.600 E2.00895
G1 X41.013 Y41.400 E5.01481
G1 X41.094 Y41.217 E5.02377
G1 X41.243 Y41.083 E5.03272
G1 X41.485 Y41.004 E5.04409
G1 X108.275 Y41.004 E8.03159
G1 X108.626 Y41.041 E8.04741
G1 X108.808 Y41.145 E8.05675
G1 X108.923 Y41.304 E8.06556
G1 X108.987 Y41.605 E8.07931
G1 X108.987 Y108.395 E11.06684
G1 X108.923 Y108.696 E11.08058
G1 X108.806 Y108.858 E11.08954
G1 X108.632 Y108.958 E11.09850
G1 X108.275 Y108.996 E11.11459
G1 X41.485 Y108.996 E14.10209
G1 X41.243 Y108.917 E14.11346
G1 X41.139 Y108.823 E14.11973
G1 X40.775 Y109.015 F6000.000
G1 F1800
G1 X40.627 Y108.682 E14.13602
G1 X40.627 Y41.318 E17.14921
G1 X40.775 Y40.985 E17.16550
G1 X41.046 Y40.742 E17.18178
G1 X41.424 Y40.619 E17.19955
G1 X108.295 Y40.619 E20.19069
G1 X108.747 Y40.666 E20.21102
G1 X109.071 Y40.851 E20.22769
G1 X109.284 Y41.144 E20.24390
G1 X109.373 Y41.564 E20.26312
G1 X109.373 Y108.436 E23.25428
G1 X109.284 Y108.856 E23.27350
G1 X109.070 Y109.151 E23.28979
G1 X108.754 Y109.333 E23.30608
G1 X108.295 Y109.381 E23.32674
G1 X41.424 Y109.381 E26.31788
G1 X41.046 Y109.258 E26.33565
G1 X40.820 Y109.055 E26.34925
G1 X40.456 Y109.246 F6000.000
G1 F1800
G1 X40.241 Y108.764 E26.37287
G1 X40.241 Y41.236 E29.39339
G1 X40.456 Y40.754 E29.41701
G1 X40.849 Y40.400 E29.44063
G1 X41.362 Y40.233 E29.46480
G1 X108.315 Y40.233 E32.45958
G1 X108.867 Y40.291 E32.48442
G1 X109.334 Y40.557 E32.50843
G1 X109.644 Y40.983 E32.53202
G1 X109.759 Y41.524 E32.55672
G1 X109.759 Y108.476 E35.55150
G1 X109.644 Y109.017 E35.57620
G1 X109.333 Y109.444 E35.59982
G1 X108.876 Y109.708 E35.62345
G1 X108.315 Y109.767 E35.64868
G1 X41.362 Y109.767 E38.64346
G1 X40.849 Y109.600 E38.66762
G1 X40.501 Y109.287 E38.68856
G1 X40.619 Y108.881 F6000.000
G1 E36.68856 F1200.00000
G92 E0
G1 Z0.800 F6000.000
G1 X41.262 Y104.717 F6000.000
G1 Z0.300 F6000.000
G1 E2.00000 F1200.00000
G1 F1800
G1 X41.262 Y103.283 E2.00804
G1 E0.00804 F1200.00000
G92 E0
G1 Z0.800 F6000.000
G1 X41.262 Y46.717 F6000.000
G1 Z0.300 F6000.000
G1 E2.00000 F1200.00000
G1 F1800
G1 X41.262 Y45.283 E2.00804
G1 X41.085 Y45.052 F6000.000
G1 F1800
G1 X42.701 Y43.435 E2.11038
G1 X43.447 Y42.144 E2.17712
G1 X41.085 Y44.506 E2.32664
G1 X41.085 Y43.960 E2.35107
G1 E0.35107 F1200.00000
G92 E0
G1 Z0.800 F6000.000
G1 X41.104 Y41.758 F6000.000
G1 Z0.300 F6000.000
G1 E2.00000 F1200.00000
G1 F1800
G1 X41.754 Y41.111 E2.04104
G1 X41.859 Y41.076 E2.04602
G1 X42.331 Y41.076 E2.06715
G1 X41.085 Y42.323 E2.14607
G1 X41.085 Y42.869 E2.17049
G1 X42.877 Y41.076 E2.28395
G1 X43.423 Y41.076 E2.30838
G1 X41.085 Y43.415 E2.45638
G1 X41.085 Y43.960 E2.48081
G1 X43.969 Y41.076 E2.66335
G1 X44.514 Y41.076 E2.68778
G1 X43.517 Y42.074 E2.75091
G1 X44.063 Y42.074 E2.77534
G1 X45.060 Y41.076 E2.83847
G1 X45.606 Y41.076 E2.86290
G1 X44.608 Y42.074 E2.92603
G1 X45.154 Y42.074 E2.95046
G1 X46.151 Y41.076 E3.01359
G1 X46.697 Y41.076 E3.03801
G1 X45.700 Y42.074 E3.10115
G1 X46.245 Y42.074 E3.12557
G1 X47.243 Y41.076 E3.18871
G1 X47.788 Y41.076 E3.21313
G1 X46.791 Y42.074 E3.27627
G1 X47.337 Y42.074 E3.30069
G1 X48.334 Y41.076 E3.36382
G1 X48.880 Y41.076 E3.38825
G1 X47.883 Y42.074 E3.45138
G1 X48.118 Y42.074 E3.46192
G1 X48.231 Y42.271 E3.47209
G1 X49.426 Y41.076 E3.54768
G1 X49.971 Y41.076 E3.57210
G1 X48.431 Y42.617 E3.66959
G1 X48.631 Y42.963 E3.68747
G1 X50.517 Y41.076 E3.80686
G1 X51.063 Y41.076 E3.83129
G1 X48.831 Y43.309 E3.97258
G1 X49.030 Y43.655 E3.99046
G1 X51.608 Y41.076 E4.15365
G1 X52.154 Y41.076 E4.17807
G1 X49.230 Y44.000 E4.36316
G1 X49.430 Y44.346 E4.38104
G1 X52.700 Y41.076 E4.58803
G1 X53.246 Y41.076 E4.61245
G1 X49.630 Y44.692 E4.84134
G1 X49.829 Y45.038 E4.85922
G1 X53.791 Y41.076 E5.11001
G1 X54.337 Y41.076 E5.13443
G1 X50.029 Y45.384 E5.40712
G1 X50.229 Y45.730 E5.42500
G1 X54.883 Y41.076 E5.71959
G1 X55.428 Y41.076 E5.74401
G1 X50.429 Y46.076 E6.06050
G1 X50.566 Y46.314 E6.07276
G1 X50.331 Y46.719 E6.09372
G1 X55.974 Y41.076 E6.45090
G1 X56.520 Y41.076 E6.47532
G1 X53.147 Y44.449 E6.68883
G1 X54.054 Y43.987 E6.73440
G1 X54.174 Y43.968 E6.73982
