; generated by Slic3r 1.3.1-dev (Build (Unknown revision)) on 2021-02-07 at 15:43:44

; external perimeters extrusion width = 0.44mm (2.86mm^3/s)
; perimeters extrusion width = 0.56mm (4.14mm^3/s)
; infill extrusion width = 0.50mm (5.48mm^3/s)
; solid infill extrusion width = 0.56mm (3.10mm^3/s)
; top infill extrusion width = 0.45mm (2.44mm^3/s)

M107
G92 E0
;D3D:START:START
T0
M104 S215 T0

G21
G90
M107
T0
G28
G29
M109 T0 S215 T0
G0 F3000
M107
T0
G92 E0
G0 X0 Y149 Z0.1 F3600
G1 Y49 E6.5 F1200
G0 Z1
G92 E0
; Filament gcode

G21 ; set units to millimeters
G90 ; use absolute coordinates
M82 ; use absolute distances for extrusion
G92 E0
G1 Z0.200 F6000.000
G1 E-2.00000 F1200.00000
G92 E0
G1 X28.028 Y64.137 F6000.000
G1 E2.00000 F1200.00000
G1 F1800.000
G1 X72.459 Y26.856 E3.11584
G1 X72.836 Y26.571 E3.12493
G1 X73.703 Y25.987 E3.14504
G1 X74.536 Y25.544 E3.16320
G1 X75.505 Y25.152 E3.18331
G1 X76.412 Y24.892 E3.20146
G1 X77.442 Y24.711 E3.22157
G1 X78.383 Y24.645 E3.23972
G1 X79.428 Y24.681 E3.25983
G1 X80.362 Y24.812 E3.27800
G1 X81.377 Y25.065 E3.29811
G1 X82.263 Y25.388 E3.31626
G1 X83.203 Y25.846 E3.33637
G1 X84.003 Y26.347 E3.35453
G1 X84.827 Y26.990 E3.37464
G1 X85.506 Y27.645 E3.39279
G1 X123.459 Y72.877 E4.52874
G1 X123.987 Y73.659 E4.54690
G1 X124.478 Y74.582 E4.56701
G1 X124.831 Y75.457 E4.58516
G1 X125.119 Y76.462 E4.60527
G1 X125.283 Y77.391 E4.62343
G1 X125.356 Y78.434 E4.64354
G1 X125.323 Y79.377 E4.66170
G1 X125.178 Y80.412 E4.68181
G1 X124.950 Y81.328 E4.69996
G1 X124.592 Y82.310 E4.72007
G1 X124.178 Y83.158 E4.73822
G1 X123.624 Y84.045 E4.75833
G1 X123.043 Y84.789 E4.77649
G1 X122.317 Y85.540 E4.79660
G1 X121.972 Y85.863 E4.80569
G1 X77.541 Y123.144 E5.92153
G1 X77.164 Y123.429 E5.93062
G1 X76.297 Y124.013 E5.95073
G1 X75.464 Y124.456 E5.96889
G1 X74.494 Y124.848 E5.98900
G1 X73.588 Y125.108 E6.00715
G1 X72.558 Y125.289 E6.02726
G1 X71.617 Y125.355 E6.04541
G1 X70.572 Y125.319 E6.06552
G1 X69.638 Y125.188 E6.08369
G1 X68.623 Y124.935 E6.10380
G1 X67.737 Y124.612 E6.12195
G1 X66.797 Y124.154 E6.14206
G1 X65.997 Y123.653 E6.16022
G1 X65.173 Y123.010 E6.18033
G1 X64.494 Y122.355 E6.19848
G1 X26.541 Y77.123 E7.33443
G1 X26.013 Y76.341 E7.35259
G1 X25.522 Y75.418 E7.37270
G1 X25.169 Y74.543 E7.39085
G1 X24.881 Y73.538 E7.41096
G1 X24.717 Y72.609 E7.42912
G1 X24.644 Y71.566 E7.44923
G1 X24.677 Y70.623 E7.46739
G1 X24.822 Y69.588 E7.48750
G1 X25.050 Y68.672 E7.50565
G1 X25.408 Y67.690 E7.52576
G1 X25.822 Y66.842 E7.54392
G1 X26.376 Y65.955 E7.56403
G1 X26.957 Y65.211 E7.58218
G1 X27.683 Y64.460 E7.60229
G1 X27.984 Y64.178 E7.61023
G1 X28.194 Y64.334 F6000.000
G1 F1800.000
G1 X72.624 Y27.052 E8.72607
G1 X72.980 Y26.784 E8.73464
G1 X73.847 Y26.200 E8.75475
G1 X74.633 Y25.782 E8.77188
G1 X75.602 Y25.390 E8.79199
G1 X76.457 Y25.145 E8.80911
G1 X77.486 Y24.964 E8.82922
G1 X78.374 Y24.902 E8.84633
G1 X79.419 Y24.938 E8.86644
G1 X80.300 Y25.062 E8.88357
G1 X81.315 Y25.315 E8.90368
G1 X82.151 Y25.619 E8.92080
G1 X83.090 Y26.077 E8.94091
G1 X83.845 Y26.549 E8.95804
G1 X84.669 Y27.193 E8.97815
G1 X85.309 Y27.811 E8.99526
G1 X123.262 Y73.042 E10.13121
G1 X123.760 Y73.780 E10.14834
G1 X124.251 Y74.703 E10.16845
G1 X124.584 Y75.528 E10.18556
G1 X124.872 Y76.532 E10.20567
G1 X125.027 Y77.409 E10.22280
G1 X125.100 Y78.452 E10.24291
G1 X125.069 Y79.342 E10.26003
G1 X124.923 Y80.377 E10.28014
G1 X124.708 Y81.240 E10.29726
G1 X124.350 Y82.222 E10.31737
G1 X123.960 Y83.022 E10.33449
G1 X123.406 Y83.909 E10.35460
G1 X122.858 Y84.610 E10.37173
G1 X122.132 Y85.362 E10.39184
G1 X121.806 Y85.666 E10.40041
G1 X77.376 Y122.948 E11.51625
G1 X77.020 Y123.216 E11.52482
G1 X76.153 Y123.800 E11.54493
G1 X75.367 Y124.218 E11.56206
G1 X74.398 Y124.610 E11.58217
G1 X73.543 Y124.855 E11.59929
G1 X72.514 Y125.036 E11.61940
G1 X71.626 Y125.098 E11.63651
G1 X70.581 Y125.062 E11.65662
G1 X69.700 Y124.938 E11.67375
G1 X68.685 Y124.685 E11.69386
G1 X67.849 Y124.381 E11.71098
G1 X66.910 Y123.923 E11.73109
G1 X66.155 Y123.451 E11.74822
G1 X65.331 Y122.807 E11.76833
G1 X64.691 Y122.189 E11.78544
G1 X26.738 Y76.958 E12.92139
G1 X26.240 Y76.220 E12.93852
G1 X25.749 Y75.297 E12.95863
G1 X25.416 Y74.472 E12.97574
G1 X25.128 Y73.468 E12.99585
G1 X24.973 Y72.591 E13.01298
G1 X24.900 Y71.548 E13.03309
G1 X24.931 Y70.658 E13.05021
G1 X25.077 Y69.623 E13.07032
G1 X25.292 Y68.760 E13.08744
G1 X25.650 Y67.778 E13.10755
G1 X26.040 Y66.978 E13.12467
G1 X26.594 Y66.091 E13.14478
G1 X27.141 Y65.390 E13.16191
G1 X27.868 Y64.638 E13.18202
G1 X28.150 Y64.375 E13.18943
G1 E11.18943 F1200.00000
G92 E0
G1 X70.356 Y113.844 F6000.000
G1 E2.00000 F1200.00000
G1 F1800.000
G1 X71.267 Y113.583 E2.01823
G1 X72.205 Y113.715 E2.03646
G1 X73.009 Y114.217 E2.05470
G1 X73.539 Y115.002 E2.07293
G1 X73.703 Y115.936 E2.09116
G1 X73.474 Y116.855 E2.10939
G1 X72.890 Y117.602 E2.12762
G1 X72.054 Y118.047 E2.14585
G1 X71.108 Y118.113 E2.16408
G1 X70.218 Y117.789 E2.18232
G1 X69.536 Y117.130 E2.20055
G1 X69.181 Y116.252 E2.21878
G1 X69.214 Y115.305 E2.23701
G1 X69.630 Y114.453 E2.25524
G1 X70.310 Y113.882 E2.27232
G1 X70.479 Y114.076 F6000.000
G1 F1800.000
G1 X71.285 Y113.845 E2.28845
G1 X72.115 Y113.962 E2.30458
G1 X72.826 Y114.406 E2.32071
G1 X73.295 Y115.101 E2.33684
G1 X73.440 Y115.927 E2.35297
G1 X73.238 Y116.740 E2.36910
G1 X72.722 Y117.401 E2.38523
G1 X71.981 Y117.794 E2.40135
G1 X71.145 Y117.853 E2.41748
G1 X70.357 Y117.566 E2.43361
G1 X69.754 Y116.984 E2.44974
G1 X69.440 Y116.206 E2.46587
G1 X69.469 Y115.368 E2.48200
G1 X69.837 Y114.615 E2.49813
G1 X70.433 Y114.115 E2.51310
G1 X70.602 Y114.308 F6000.000
G1 F1800.000
G1 X71.303 Y114.107 E2.52713
G1 X72.025 Y114.208 E2.54116
G1 X72.644 Y114.595 E2.55518
G1 X73.051 Y115.199 E2.56921
G1 X73.178 Y115.917 E2.58324
G1 X73.001 Y116.625 E2.59726
G1 X72.553 Y117.199 E2.61129
G1 X71.909 Y117.542 E2.62532
G1 X71.182 Y117.592 E2.63934
G1 X70.496 Y117.343 E2.65337
G1 X69.972 Y116.837 E2.66740
G1 X69.699 Y116.161 E2.68142
G1 X69.724 Y115.432 E2.69545
G1 X70.044 Y114.777 E2.70947
G1 X70.556 Y114.347 E2.72235
G1 X70.616 Y113.908 F6000.000
G1 E0.72235 F1200.00000
G92 E0
G1 X71.889 Y111.264 F6000.000
G1 E2.00000 F1200.00000
G1 F1800.000
G1 X42.621 Y76.384 E2.87599
G1 X42.508 Y75.740 E2.88858
G1 X41.619 Y74.422 E2.91915
G1 X40.265 Y73.576 E2.94987
G1 X38.821 Y71.855 E2.99308
G1 X78.186 Y38.825 E3.98169
G1 X79.629 Y40.545 E4.02490
G1 X80.228 Y42.026 E4.05562
G1 X81.371 Y43.130 E4.08619
G1 X81.986 Y43.353 E4.09878
G1 X111.254 Y78.234 E4.97477
G1 X109.448 Y79.749 E5.02012
G1 X106.159 Y75.830 E5.11855
G1 X105.644 Y76.261 E5.13148
G1 X108.933 Y80.181 E5.22991
G1 X107.149 Y81.677 E5.27470
G1 X103.861 Y77.758 E5.37313
G1 X103.346 Y78.190 E5.38605
G1 X106.635 Y82.109 E5.48448
G1 X76.508 Y107.389 E6.24110
G1 X73.219 Y103.470 E6.33953
G1 X72.705 Y103.901 E6.35245
G1 X75.993 Y107.821 E6.45088
G1 X74.210 Y109.317 E6.49567
G1 X70.921 Y105.398 E6.59410
G1 X70.406 Y105.830 E6.60703
G1 X73.695 Y109.749 E6.70546
G1 X71.935 Y111.226 E6.74966
G1 X71.921 Y110.902 F6000.000
G1 F1800.000
G1 X42.862 Y76.272 E7.61937
G1 X42.751 Y75.641 E7.63169
G1 X41.802 Y74.233 E7.66436
G1 X40.436 Y73.380 E7.69535
G1 X39.183 Y71.887 E7.73283
G1 X78.154 Y39.187 E8.71155
G1 X79.406 Y40.680 E8.74903
G1 X80.010 Y42.173 E8.78002
G1 X81.231 Y43.352 E8.81269
G1 X81.833 Y43.571 E8.82501
G1 X110.891 Y78.202 E9.69473
G1 X109.479 Y79.387 E9.73019
G1 X106.191 Y75.467 E9.82862
G1 X105.282 Y76.230 E9.85143
G1 X108.571 Y80.149 E9.94986
G1 X107.181 Y81.315 E9.98477
G1 X103.893 Y77.396 E10.08320
G1 X102.984 Y78.158 E10.10601
G1 X106.273 Y82.077 E10.20444
G1 X76.539 Y107.027 E10.95117
G1 X73.251 Y103.107 E11.04960
G1 X72.342 Y103.870 E11.07241
G1 X75.631 Y107.789 E11.17084
G1 X74.241 Y108.955 E11.20574
G1 X70.953 Y105.036 E11.30417
G1 X70.044 Y105.798 E11.32699
G1 X73.333 Y109.717 E11.42542
G1 X71.967 Y110.864 E11.45972
G1 X71.952 Y110.540 F6000.000
G1 F1800.000
G1 X43.104 Y76.159 E12.32317
G1 X42.995 Y75.543 E12.33522
G1 X41.984 Y74.044 E12.36999
G1 X40.607 Y73.183 E12.40124
G1 X39.546 Y71.919 E12.43300
G1 X78.122 Y39.549 E13.40182
G1 X79.183 Y40.814 E13.43358
G1 X79.792 Y42.320 E13.46483
G1 X81.092 Y43.575 E13.49960
G1 X81.680 Y43.789 E13.51165
G1 X110.529 Y78.170 E14.37509
G1 X109.511 Y79.025 E14.40067
G1 X106.222 Y75.105 E14.49910
G1 X104.920 Y76.198 E14.53180
G1 X108.209 Y80.117 E14.63023
G1 X107.213 Y80.953 E14.65524
G1 X103.924 Y77.034 E14.75367
G1 X102.622 Y78.126 E14.78638
G1 X105.911 Y82.046 E14.88481
G1 X76.571 Y106.664 E15.62164
G1 X73.282 Y102.745 E15.72007
G1 X71.980 Y103.838 E15.75278
G1 X75.269 Y107.757 E15.85121
G1 X74.273 Y108.593 E15.87622
G1 X70.984 Y104.674 E15.97465
G1 X69.682 Y105.766 E16.00735
G1 X72.971 Y109.686 E16.10578
G1 X71.998 Y110.501 E16.13020
G1 X71.784 Y110.903 F6000.000
G1 E14.13020 F1200.00000
G92 E0
G1 X35.609 Y73.171 F6000.000
G1 E2.00000 F1200.00000
G1 F1800.000
G1 X34.772 Y73.616 E2.01823
G1 X33.827 Y73.682 E2.03646
G1 X32.936 Y73.358 E2.05469
G1 X32.254 Y72.700 E2.07293
G1 X31.900 Y71.821 E2.09116
G1 X31.933 Y70.874 E2.10939
G1 X32.348 Y70.022 E2.12762
G1 X33.074 Y69.413 E2.14585
G1 X33.985 Y69.152 E2.16409
G1 X34.923 Y69.284 E2.18232
G1 X35.727 Y69.786 E2.20055
G1 X36.257 Y70.572 E2.21878
G1 X36.421 Y71.505 E2.23701
G1 X36.192 Y72.425 E2.25524
G1 X35.646 Y73.124 E2.27232
G1 X35.440 Y72.970 F6000.000
G1 F1800.000
G1 X34.700 Y73.364 E2.28845
G1 X33.863 Y73.422 E2.30458
G1 X33.075 Y73.135 E2.32071
G1 X32.472 Y72.553 E2.33684
G1 X32.158 Y71.776 E2.35297
G1 X32.188 Y70.938 E2.36909
G1 X32.555 Y70.184 E2.38522
G1 X33.197 Y69.645 E2.40135
G1 X34.003 Y69.414 E2.41748
G1 X34.833 Y69.531 E2.43361
G1 X35.544 Y69.975 E2.44974
G1 X36.013 Y70.670 E2.46587
G1 X36.159 Y71.496 E2.48200
G1 X35.956 Y72.309 E2.49813
G1 X35.477 Y72.923 E2.51310
G1 X35.271 Y72.769 F6000.000
G1 F1800.000
G1 X34.627 Y73.111 E2.52713
G1 X33.900 Y73.162 E2.54115
G1 X33.215 Y72.912 E2.55518
G1 X32.690 Y72.406 E2.56921
G1 X32.417 Y71.730 E2.58323
G1 X32.443 Y71.001 E2.59726
G1 X32.762 Y70.346 E2.61129
G1 X33.321 Y69.877 E2.62531
G1 X34.022 Y69.676 E2.63934
G1 X34.744 Y69.778 E2.65337
G1 X35.362 Y70.164 E2.66739
G1 X35.770 Y70.769 E2.68142
G1 X35.896 Y71.487 E2.69545
G1 X35.720 Y72.194 E2.70947
G1 X35.308 Y72.721 E2.72235
G1 X35.340 Y73.163 F6000.000
G1 E0.72235 F1200.00000
G92 E0
G1 X76.685 Y35.418 F6000.000
G1 E2.00000 F1200.00000
G1 F1800.000
G1 X76.330 Y34.540 E2.01823
G1 X76.363 Y33.593 E2.03646
G1 X76.779 Y32.741 E2.05470
G1 X77.505 Y32.132 E2.07293
G1 X78.415 Y31.870 E2.09116
G1 X79.354 Y32.002 E2.10939
G1 X80.158 Y32.504 E2.12762
G1 X80.687 Y33.290 E2.14585
G1 X80.852 Y34.223 E2.16408
G1 X80.623 Y35.143 E2.18232
G1 X80.039 Y35.890 E2.20055
G1 X79.203 Y36.335 E2.21878
G1 X78.257 Y36.401 E2.23701
G1 X77.367 Y36.077 E2.25524
G1 X76.728 Y35.460 E2.27232
G1 X76.903 Y35.271 F6000.000
G1 F1800.000
G1 X76.589 Y34.494 E2.28845
G1 X76.618 Y33.656 E2.30458
G1 X76.986 Y32.903 E2.32071
G1 X77.628 Y32.364 E2.33684
G1 X78.434 Y32.133 E2.35297
G1 X79.264 Y32.249 E2.36909
G1 X79.975 Y32.694 E2.38522
G1 X80.444 Y33.389 E2.40135
G1 X80.589 Y34.214 E2.41748
G1 X80.387 Y35.028 E2.43361
G1 X79.870 Y35.688 E2.44974
G1 X79.130 Y36.082 E2.46587
G1 X78.294 Y36.140 E2.48200
G1 X77.506 Y35.854 E2.49813
G1 X76.946 Y35.313 E2.51310
G1 X77.121 Y35.124 F6000.000
G1 F1800.000
G1 X76.848 Y34.448 E2.52713
G1 X76.873 Y33.720 E2.54115
G1 X77.193 Y33.064 E2.55518
G1 X77.751 Y32.596 E2.56921
G1 X78.452 Y32.395 E2.58323
G1 X79.174 Y32.496 E2.59726
G1 X79.792 Y32.883 E2.61129
G1 X80.200 Y33.487 E2.62531
G1 X80.327 Y34.205 E2.63934
G1 X80.150 Y34.913 E2.65337
G1 X79.701 Y35.487 E2.66739
G1 X79.058 Y35.829 E2.68142
G1 X78.330 Y35.880 E2.69545
G1 X77.645 Y35.631 E2.70947
G1 X77.164 Y35.166 E2.72235
G1 X76.722 Y35.152 F6000.000
G1 E0.72235 F1200.00000
G92 E0
G1 X114.060 Y77.171 F6000.000
G1 E2.00000 F1200.00000
G1 F1800.000
G1 X114.786 Y76.562 E2.01823
G1 X115.697 Y76.301 E2.03646
G1 X116.636 Y76.433 E2.05470
G1 X117.439 Y76.935 E2.07293
G1 X117.969 Y77.721 E2.09116
G1 X118.134 Y78.654 E2.10939
G1 X117.904 Y79.574 E2.12762
G1 X117.321 Y80.320 E2.14585
G1 X116.484 Y80.765 E2.16409
G1 X115.539 Y80.831 E2.18232
G1 X114.648 Y80.507 E2.20055
G1 X113.967 Y79.849 E2.21878
G1 X113.612 Y78.970 E2.23701
G1 X113.645 Y78.023 E2.25524
G1 X114.034 Y77.225 E2.27232
G1 X114.267 Y77.333 F6000.000
G1 F1800.000
G1 X114.910 Y76.794 E2.28845
G1 X115.715 Y76.563 E2.30458
G1 X116.546 Y76.680 E2.32071
G1 X117.257 Y77.124 E2.33684
G1 X117.725 Y77.819 E2.35297
G1 X117.871 Y78.645 E2.36910
G1 X117.668 Y79.458 E2.38523
G1 X117.152 Y80.119 E2.40135
G1 X116.412 Y80.513 E2.41748
G1 X115.576 Y80.571 E2.43361
G1 X114.788 Y80.284 E2.44974
G1 X114.185 Y79.702 E2.46587
G1 X113.871 Y78.925 E2.48200
G1 X113.900 Y78.087 E2.49813
G1 X114.241 Y77.387 E2.51310
G1 X114.474 Y77.495 F6000.000
G1 F1800.000
G1 X115.033 Y77.026 E2.52713
G1 X115.734 Y76.825 E2.54116
G1 X116.456 Y76.927 E2.55518
G1 X117.074 Y77.313 E2.56921
G1 X117.482 Y77.918 E2.58324
G1 X117.608 Y78.636 E2.59726
G1 X117.432 Y79.343 E2.61129
G1 X116.983 Y79.918 E2.62532
G1 X116.339 Y80.260 E2.63934
G1 X115.612 Y80.311 E2.65337
G1 X114.927 Y80.061 E2.66740
G1 X114.403 Y79.555 E2.68142
G1 X114.129 Y78.879 E2.69545
G1 X114.155 Y78.150 E2.70948
G1 X114.448 Y77.549 E2.72235
G1 X114.325 Y77.124 F6000.000
G1 E0.72235 F1200.00000
G92 E0
G1 X116.603 Y74.320 F6000.000
G1 E2.00000 F1200.00000
G1 F1800.000
G1 X117.338 Y74.504 E2.01457
G1 X118.152 Y74.901 E2.03199
G1 X118.865 Y75.458 E2.04942
G1 X119.448 Y76.152 E2.06684
G1 X119.873 Y76.952 E2.08426
G1 X120.123 Y77.822 E2.10169
G1 X120.186 Y78.726 E2.11911
G1 X120.060 Y79.622 E2.13654
G1 X119.750 Y80.474 E2.15396
G1 X119.270 Y81.242 E2.17138
G1 X118.641 Y81.893 E2.18881
G1 X117.890 Y82.400 E2.20623
G1 X117.050 Y82.739 E2.22366
G1 X116.158 Y82.896 E2.24108
G1 X115.906 Y82.887 E2.24594
G1 X113.555 Y84.860 E2.30499
G1 X113.122 Y85.748 E2.32399
G1 X111.905 Y86.769 E2.35455
G1 X110.955 Y87.041 E2.37355
G1 X80.615 Y112.500 E3.13553
G1 X80.182 Y113.388 E3.15453
G1 X78.965 Y114.409 E3.18510
G1 X78.015 Y114.681 E3.20410
G1 X75.664 Y116.654 E3.26315
G1 X75.629 Y116.904 E3.26801
G1 X75.319 Y117.755 E3.28543
G1 X74.839 Y118.523 E3.30286
G1 X74.210 Y119.175 E3.32028
G1 X73.459 Y119.681 E3.33770
G1 X72.620 Y120.020 E3.35513
G1 X71.728 Y120.178 E3.37255
G1 X70.823 Y120.146 E3.38998
G1 X69.944 Y119.927 E3.40740
G1 X69.130 Y119.530 E3.42482
G1 X68.416 Y118.972 E3.44225
G1 X67.834 Y118.279 E3.45967
G1 X67.409 Y117.479 E3.47709
G1 X67.159 Y116.608 E3.49452
G1 X67.106 Y115.853 E3.50909
G1 X37.555 Y80.635 E4.39356
G1 X36.940 Y80.411 E4.40615
G1 X35.797 Y79.308 E4.43672
G1 X35.199 Y77.827 E4.46744
G1 X33.397 Y75.680 E4.52137
G1 X32.662 Y75.496 E4.53594
G1 X31.848 Y75.099 E4.55336
G1 X31.134 Y74.542 E4.57079
G1 X30.552 Y73.848 E4.58821
G1 X30.127 Y73.048 E4.60563
G1 X29.877 Y72.178 E4.62306
G1 X29.814 Y71.274 E4.64048
G1 X29.940 Y70.377 E4.65790
G1 X30.250 Y69.526 E4.67533
G1 X30.730 Y68.758 E4.69275
G1 X31.359 Y68.107 E4.71018
G1 X32.110 Y67.600 E4.72760
G1 X32.950 Y67.261 E4.74502
G1 X33.842 Y67.104 E4.76245
G1 X34.268 Y67.119 E4.77065
G1 X74.312 Y33.518 E5.77632
G1 X74.371 Y33.096 E5.78452
G1 X74.681 Y32.245 E5.80195
G1 X75.161 Y31.477 E5.81937
G1 X75.790 Y30.825 E5.83680
G1 X76.541 Y30.319 E5.85422
G1 X77.380 Y29.980 E5.87164
G1 X78.272 Y29.822 E5.88907
G1 X79.177 Y29.854 E5.90649
G1 X80.056 Y30.073 E5.92391
G1 X80.870 Y30.470 E5.94134
G1 X81.584 Y31.028 E5.95876
G1 X82.166 Y31.721 E5.97619
G1 X82.591 Y32.521 E5.99361
G1 X82.841 Y33.392 E6.01103
G1 X82.894 Y34.147 E6.02560
G1 X84.696 Y36.294 E6.07954
G1 X86.050 Y37.141 E6.11025
G1 X86.938 Y38.458 E6.14082
G1 X87.052 Y39.102 E6.15341
G1 X116.564 Y74.274 E7.03673
G1 X116.746 Y74.091 F6000.000
G1 F1800.000
G1 X117.426 Y74.261 E7.05021
G1 X118.289 Y74.681 E7.06867
G1 X119.045 Y75.272 E7.08714
G1 X119.662 Y76.007 E7.10560
G1 X120.112 Y76.855 E7.12406
G1 X120.377 Y77.777 E7.14253
G1 X120.444 Y78.735 E7.16099
G1 X120.310 Y79.685 E7.17946
G1 X119.982 Y80.587 E7.19792
G1 X119.474 Y81.401 E7.21638
G1 X118.807 Y82.091 E7.23485
G1 X118.011 Y82.628 E7.25331
G1 X117.121 Y82.987 E7.27177
G1 X116.176 Y83.154 E7.29024
G1 X115.996 Y83.148 E7.29372
