; generated by Slic3r 1.3.1-dev (Build (Unknown revision)) on 2020-06-18 at 22:13:21

; external perimeters extrusion width = 0.44mm (2.86mm^3/s)
; perimeters extrusion width = 0.56mm (4.14mm^3/s)
; infill extrusion width = 0.50mm (4.57mm^3/s)
; solid infill extrusion width = 0.56mm (3.10mm^3/s)
; top infill extrusion width = 0.45mm (2.44mm^3/s)

M107
G92 E0
;D3D:START:START
T0
M104 S215 T0

G21
G90
M107
T0
G28
G29
M109 T0 S215 T0
G0 F3000
M107
T0
G92 E0
G0 X0 Y149 Z0.1 F3600
G1 Y49 E6.5 F1200
G0 Z1
G92 E0
; Filament gcode

G21 ; set units to millimeters
G90 ; use absolute coordinates
M82 ; use absolute distances for extrusion
G92 E0
G1 Z0.200 F6000.000
G1 E-2.00000 F1200.00000
G92 E0
G1 Z0.700 F6000.000
G1 X45.256 Y79.518 F6000.000
G1 Z0.200 F6000.000
G1 E2.00000 F1200.00000
G1 F1800.000
G1 X45.467 Y79.454 E2.00425
G1 X45.670 Y79.365 E2.00851
G1 X45.670 Y79.656 E2.01411
G1 X45.274 Y79.649 E2.02173
G1 X45.264 Y79.578 E2.02312
G1 E0.02312 F1200.00000
G92 E0
G1 Z0.700 F6000.000
G1 X45.670 Y70.635 F6000.000
G1 Z0.200 F6000.000
G1 E2.00000 F1200.00000
G1 F1800.000
G1 X45.467 Y70.546 E2.00426
G1 X45.256 Y70.482 E2.00852
G1 X45.274 Y70.351 E2.01105
G1 X45.670 Y70.344 E2.01868
G1 X45.670 Y70.575 E2.02312
G1 E0.02312 F1200.00000
G92 E0
G1 Z0.700 F6000.000
G1 X38.901 Y70.872 F6000.000
G1 Z0.200 F6000.000
G1 E2.00000 F1200.00000
G1 F1800.000
G1 X38.723 Y70.971 E2.00391
G1 X38.121 Y71.404 E2.01818
G1 X37.589 Y71.897 E2.03215
G1 X37.135 Y72.445 E2.04581
G1 X36.771 Y73.038 E2.05922
G1 X36.503 Y73.670 E2.07241
G1 X36.339 Y74.328 E2.08546
G1 X36.284 Y75.000 E2.09844
G1 X36.339 Y75.672 E2.11141
G1 X36.503 Y76.330 E2.12446
G1 X36.771 Y76.962 E2.13766
G1 X37.135 Y77.555 E2.15106
G1 X37.589 Y78.103 E2.16473
G1 X38.121 Y78.596 E2.17869
G1 X38.723 Y79.029 E2.19297
G1 X38.901 Y79.128 E2.19687
G1 X38.869 Y79.244 E2.19920
G1 X36.576 Y79.182 E2.24334
G1 X30.913 Y78.967 E2.35236
G1 X25.781 Y78.707 E2.45121
G1 X20.999 Y78.393 E2.54342
G1 X16.799 Y78.044 E2.62449
G1 X13.110 Y77.656 E2.69585
G1 X9.772 Y77.207 E2.76066
G1 X7.170 Y76.752 E2.81147
G1 X5.082 Y76.259 E2.85275
G1 X3.589 Y75.742 E2.88313
G1 X2.872 Y75.313 E2.89922
G1 X2.698 Y74.998 E2.90613
G1 X2.858 Y74.700 E2.91265
G1 X3.591 Y74.257 E2.92911
G1 X5.082 Y73.741 E2.95947
G1 X7.170 Y73.248 E3.00074
G1 X9.855 Y72.780 E3.05319
G1 X13.013 Y72.356 E3.11449
G1 X16.799 Y71.956 E3.18773
G1 X20.999 Y71.607 E3.26881
G1 X25.781 Y71.293 E3.36101
G1 X30.913 Y71.033 E3.45986
G1 X36.576 Y70.818 E3.56888
G1 X38.869 Y70.756 E3.61302
G1 X38.885 Y70.814 E3.61419
G1 X40.074 Y70.592 F6000.000
G1 F1800.000
G1 X39.498 Y70.834 E3.62621
G1 X38.861 Y71.188 E3.64023
G1 X38.284 Y71.604 E3.65392
G1 X37.776 Y72.075 E3.66725
G1 X37.345 Y72.595 E3.68024
G1 X37.000 Y73.156 E3.69292
G1 X36.747 Y73.751 E3.70536
G1 X36.593 Y74.370 E3.71762
G1 X36.542 Y75.000 E3.72978
G1 X36.593 Y75.630 E3.74195
G1 X36.747 Y76.249 E3.75421
G1 X37.000 Y76.844 E3.76664
G1 X37.345 Y77.405 E3.77933
G1 X37.776 Y77.925 E3.79232
G1 X38.284 Y78.396 E3.80565
G1 X38.861 Y78.812 E3.81933
G1 X39.498 Y79.166 E3.83335
G1 X40.074 Y79.408 E3.84537
G1 X40.047 Y79.534 E3.84784
G1 X36.567 Y79.439 E3.91481
G1 X30.901 Y79.224 E4.02389
G1 X25.766 Y78.964 E4.12281
G1 X20.980 Y78.650 E4.21509
G1 X16.775 Y78.300 E4.29627
G1 X13.080 Y77.911 E4.36775
G1 X9.733 Y77.461 E4.43272
G1 X7.118 Y77.004 E4.48378
G1 X5.010 Y76.506 E4.52545
G1 X3.480 Y75.977 E4.55660
G1 X2.680 Y75.498 E4.57453
G1 X2.410 Y75.007 E4.58532
G1 X2.665 Y74.516 E4.59597
G1 X3.481 Y74.023 E4.61431
G1 X5.010 Y73.494 E4.64544
G1 X7.118 Y72.996 E4.68711
G1 X9.816 Y72.525 E4.73979
G1 X12.983 Y72.100 E4.80126
G1 X16.775 Y71.700 E4.87463
G1 X20.980 Y71.350 E4.95580
G1 X25.766 Y71.036 E5.04808
G1 X30.901 Y70.776 E5.14700
G1 X36.567 Y70.561 E5.25608
G1 X40.047 Y70.466 E5.32305
G1 X40.061 Y70.533 E5.32436
G1 E3.32436 F1200.00000
G92 E0
G1 Z0.700 F6000.000
G1 X78.587 Y70.614 F6000.000
G1 Z0.200 F6000.000
G1 E2.00000 F1200.00000
G1 F1800.000
G1 X84.332 Y70.706 E2.11053
G1 X92.046 Y70.865 E2.25897
G1 X99.611 Y71.052 E2.40457
G1 X107.177 Y71.267 E2.55018
G1 X114.954 Y71.513 E2.69988
G1 X129.993 Y72.052 E2.98938
G1 X146.823 Y72.747 E3.31345
G1 X146.960 Y73.037 E3.31962
G1 X147.166 Y73.673 E3.33250
G1 X147.293 Y74.332 E3.34540
G1 X147.335 Y75.000 E3.35828
G1 X147.293 Y75.668 E3.37116
G1 X147.166 Y76.327 E3.38406
G1 X146.960 Y76.963 E3.39693
G1 X146.823 Y77.253 E3.40311
G1 X129.993 Y77.948 E3.72718
G1 X114.954 Y78.487 E4.01668
G1 X107.425 Y78.725 E4.16160
G1 X99.611 Y78.948 E4.31199
G1 X91.843 Y79.139 E4.46148
G1 X84.332 Y79.294 E4.60603
G1 X78.587 Y79.386 E4.71656
G1 X78.587 Y70.674 E4.88417
G1 X78.330 Y70.353 F6000.000
G1 F1800.000
G1 X84.336 Y70.449 E4.99973
G1 X92.052 Y70.608 E5.14820
G1 X99.618 Y70.795 E5.29381
G1 X107.185 Y71.010 E5.43945
G1 X114.963 Y71.256 E5.58916
G1 X130.002 Y71.795 E5.87868
G1 X146.989 Y72.496 E6.20576
G1 X147.200 Y72.942 E6.21524
G1 X147.416 Y73.609 E6.22874
G1 X147.548 Y74.299 E6.24226
G1 X147.592 Y75.000 E6.25577
G1 X147.548 Y75.701 E6.26927
G1 X147.416 Y76.391 E6.28279
G1 X147.200 Y77.058 E6.29629
G1 X146.989 Y77.504 E6.30578
G1 X130.002 Y78.205 E6.63285
G1 X114.963 Y78.744 E6.92238
G1 X107.433 Y78.982 E7.06731
G1 X99.618 Y79.205 E7.21772
G1 X91.849 Y79.396 E7.36723
G1 X84.336 Y79.551 E7.51180
G1 X78.330 Y79.647 E7.62737
G1 X78.330 Y70.413 E7.80503
G1 X78.073 Y70.350 F6000.000
G1 F1800.000
G1 X45.927 Y70.350 E8.42347
G1 X45.927 Y71.029 E8.43654
G1 X45.378 Y70.787 E8.44808
G1 X44.676 Y70.575 E8.46219
G1 X43.947 Y70.431 E8.47649
G1 X43.200 Y70.359 E8.49091
G1 X42.448 Y70.359 E8.50538
G1 X41.702 Y70.431 E8.51981
G1 X40.973 Y70.575 E8.53411
G1 X40.272 Y70.787 E8.54819
G1 X39.611 Y71.065 E8.56199
G1 X38.999 Y71.406 E8.57546
G1 X38.447 Y71.803 E8.58855
G1 X37.963 Y72.252 E8.60125
G1 X37.554 Y72.745 E8.61356
G1 X37.229 Y73.275 E8.62553
G1 X36.992 Y73.833 E8.63720
G1 X36.848 Y74.412 E8.64867
G1 X36.800 Y75.000 E8.66003
G1 X36.848 Y75.588 E8.67139
G1 X36.992 Y76.167 E8.68285
G1 X37.229 Y76.725 E8.69453
G1 X37.554 Y77.255 E8.70649
G1 X37.963 Y77.748 E8.71881
G1 X38.447 Y78.197 E8.73151
G1 X38.999 Y78.594 E8.74460
G1 X39.611 Y78.935 E8.75806
G1 X40.272 Y79.213 E8.77186
G1 X40.973 Y79.425 E8.78595
G1 X41.702 Y79.569 E8.80025
G1 X42.448 Y79.641 E8.81467
G1 X43.200 Y79.641 E8.82914
G1 X43.947 Y79.569 E8.84357
G1 X44.676 Y79.425 E8.85787
G1 X45.378 Y79.213 E8.87197
G1 X45.927 Y78.971 E8.88352
G1 X45.927 Y79.918 E8.90173
G1 X42.499 Y79.857 E8.96768
G1 X36.559 Y79.696 E9.08201
G1 X30.890 Y79.480 E9.19115
G1 X25.751 Y79.220 E9.29013
G1 X20.961 Y78.906 E9.38250
G1 X16.751 Y78.556 E9.46377
G1 X13.049 Y78.166 E9.53538
G1 X9.693 Y77.715 E9.60052
G1 X7.066 Y77.256 E9.65183
G1 X4.938 Y76.753 E9.69389
G1 X3.371 Y76.211 E9.72580
G1 X2.489 Y75.683 E9.74558
G1 X2.187 Y75.135 E9.75761
G1 X2.150 Y75.029 E9.75978
G1 X2.150 Y74.971 E9.76088
G1 X2.187 Y74.864 E9.76308
G1 X2.472 Y74.333 E9.77467
G1 X3.371 Y73.789 E9.79489
G1 X4.938 Y73.247 E9.82679
G1 X7.066 Y72.744 E9.86886
G1 X9.777 Y72.271 E9.92179
G1 X12.952 Y71.845 E9.98342
G1 X16.751 Y71.444 E10.05691
G1 X20.961 Y71.094 E10.13819
G1 X25.751 Y70.780 E10.23055
G1 X30.890 Y70.520 E10.32953
G1 X36.559 Y70.304 E10.43868
G1 X42.500 Y70.143 E10.55301
G1 X48.789 Y70.032 E10.67404
G1 X55.516 Y69.970 E10.80345
G1 X62.385 Y69.958 E10.93560
G1 X69.481 Y69.993 E11.07212
G1 X76.920 Y70.073 E11.21525
G1 X84.341 Y70.192 E11.35803
G1 X92.058 Y70.351 E11.50652
G1 X99.625 Y70.538 E11.65215
G1 X114.972 Y70.999 E11.94753
G1 X130.012 Y71.539 E12.23708
G1 X147.155 Y72.246 E12.56716
G1 X147.439 Y72.847 E12.57995
G1 X147.665 Y73.545 E12.59408
G1 X147.804 Y74.267 E12.60822
G1 X147.850 Y75.000 E12.62235
G1 X147.804 Y75.733 E12.63648
G1 X147.665 Y76.455 E12.65062
G1 X147.439 Y77.153 E12.66474
G1 X147.155 Y77.754 E12.67754
G1 X130.012 Y78.461 E13.00762
G1 X114.972 Y79.001 E13.29717
G1 X107.441 Y79.239 E13.44212
G1 X99.625 Y79.462 E13.59254
G1 X91.855 Y79.653 E13.74207
G1 X84.341 Y79.808 E13.88667
G1 X78.073 Y79.909 E14.00727
G1 X78.073 Y70.410 E14.19001
G1 X77.995 Y69.958 F6000.000
G1 X78.736 Y70.984 F6000.000
G1 F1800.000
G1 X78.954 Y70.766 E14.19595
G1 X79.312 Y70.772 E14.20286
G1 X78.735 Y71.349 E14.21859
G1 X78.735 Y71.713 E14.22561
G1 X79.671 Y70.778 E14.25112
G1 X80.029 Y70.783 E14.25803
G1 X78.735 Y72.077 E14.29330
G1 X78.735 Y72.442 E14.30032
G1 X80.388 Y70.789 E14.34537
G1 X80.746 Y70.795 E14.35228
G1 X78.735 Y72.806 E14.40710
G1 X78.735 Y73.170 E14.41412
G1 X81.105 Y70.800 E14.47871
G1 X81.463 Y70.806 E14.48562
G1 X78.735 Y73.534 E14.55998
G1 X78.735 Y73.898 E14.56700
G1 X81.822 Y70.812 E14.65113
G1 X82.180 Y70.818 E14.65804
G1 X78.735 Y74.263 E14.75195
G1 X78.735 Y74.627 E14.75897
G1 X82.539 Y70.823 E14.86265
G1 X82.897 Y70.829 E14.86956
G1 X78.735 Y74.991 E14.98301
G1 X78.735 Y75.355 E14.99003
G1 X83.256 Y70.835 E15.11326
G1 X83.614 Y70.841 E15.12017
G1 X78.735 Y75.720 E15.25316
G1 X78.735 Y76.084 E15.26018
G1 X83.973 Y70.846 E15.40295
G1 X84.331 Y70.852 E15.40986
G1 X78.735 Y76.448 E15.56240
G1 X78.735 Y76.812 E15.56942
G1 X84.689 Y70.859 E15.73170
G1 X85.046 Y70.866 E15.73858
G1 X78.735 Y77.177 E15.91059
G1 X78.735 Y77.541 E15.91761
G1 X85.402 Y70.874 E16.09934
G1 X85.759 Y70.881 E16.10622
G1 X78.735 Y77.905 E16.29768
G1 X78.735 Y78.269 E16.30470
G1 X86.116 Y70.888 E16.50589
G1 X86.473 Y70.896 E16.51277
G1 X78.735 Y78.634 E16.72368
G1 X78.735 Y78.998 E16.73071
G1 X86.830 Y70.903 E16.95135
G1 X87.187 Y70.911 E16.95823
G1 X78.865 Y79.232 E17.18505
G1 X79.235 Y79.226 E17.19219
G1 X87.544 Y70.918 E17.41865
G1 X87.900 Y70.925 E17.42553
G1 X79.606 Y79.220 E17.65162
G1 X79.976 Y79.214 E17.65876
G1 X88.257 Y70.933 E17.88450
G1 X88.614 Y70.940 E17.89138
G1 X80.346 Y79.208 E18.11675
G1 X80.716 Y79.202 E18.12388
G1 X88.971 Y70.947 E18.34889
G1 X89.328 Y70.955 E18.35577
G1 X81.086 Y79.196 E18.58042
G1 X81.456 Y79.190 E18.58756
G1 X89.685 Y70.962 E18.81184
G1 X90.042 Y70.970 E18.81872
G1 X81.827 Y79.185 E19.04265
G1 X82.197 Y79.179 E19.04978
G1 X90.398 Y70.977 E19.27334
G1 X90.755 Y70.984 E19.28022
G1 X82.567 Y79.173 E19.50342
G1 X82.937 Y79.167 E19.51056
G1 X91.112 Y70.992 E19.73339
G1 X91.469 Y70.999 E19.74027
G1 X83.307 Y79.161 E19.96275
G1 X83.677 Y79.155 E19.96988
G1 X91.826 Y71.006 E20.19199
G1 X92.183 Y71.014 E20.19887
G1 X84.048 Y79.149 E20.42062
G1 X84.419 Y79.142 E20.42777
G1 X92.538 Y71.023 E20.64909
G1 X92.894 Y71.032 E20.65594
G1 X84.791 Y79.135 E20.87681
G1 X85.162 Y79.127 E20.88398
G1 X93.249 Y71.040 E21.10440
G1 X93.604 Y71.049 E21.11126
G1 X85.534 Y79.119 E21.33123
G1 X85.906 Y79.112 E21.33840
G1 X93.960 Y71.058 E21.55792
G1 X94.315 Y71.067 E21.56478
G1 X86.278 Y79.104 E21.78385
G1 X86.650 Y79.096 E21.79102
G1 X94.671 Y71.075 E22.00965
G1 X95.026 Y71.084 E22.01650
G1 X87.022 Y79.089 E22.23468
G1 X87.394 Y79.081 E22.24185
G1 X95.382 Y71.093 E22.45959
G1 X95.737 Y71.102 E22.46644
G1 X87.766 Y79.073 E22.68372
G1 X88.138 Y79.066 E22.69089
G1 X96.093 Y71.111 E22.90773
G1 X96.448 Y71.119 E22.91458
G1 X88.510 Y79.058 E23.13097
G1 X88.881 Y79.050 E23.13813
G1 X96.804 Y71.128 E23.35407
G1 X97.159 Y71.137 E23.36093
G1 X89.253 Y79.043 E23.57642
G1 X89.625 Y79.035 E23.58358
G1 X97.514 Y71.146 E23.79863
G1 X97.870 Y71.155 E23.80548
G1 X89.997 Y79.027 E24.02007
G1 X90.369 Y79.020 E24.02724
G1 X98.225 Y71.163 E24.24139
G1 X98.581 Y71.172 E24.24824
G1 X90.741 Y79.012 E24.46193
G1 X91.113 Y79.004 E24.46910
G1 X98.936 Y71.181 E24.68235
G1 X99.292 Y71.190 E24.68921
G1 X91.485 Y78.997 E24.90200
G1 X91.857 Y78.988 E24.90918
G1 X99.647 Y71.198 E25.12152
G1 X100.001 Y71.209 E25.12835
G1 X92.231 Y78.979 E25.34015
G1 X92.604 Y78.970 E25.34735
G1 X100.355 Y71.219 E25.55862
G1 X100.708 Y71.230 E25.56543
G1 X92.978 Y78.961 E25.77616
G1 X93.351 Y78.952 E25.78336
G1 X101.062 Y71.241 E25.99354
G1 X101.416 Y71.251 E26.00036
G1 X93.724 Y78.942 E26.21000
G1 X94.098 Y78.933 E26.21720
G1 X101.769 Y71.262 E26.42631
G1 X102.123 Y71.272 E26.43313
G1 X94.471 Y78.924 E26.64169
G1 X94.845 Y78.915 E26.64889
G1 X102.476 Y71.283 E26.85691
G1 X102.830 Y71.294 E26.86373
G1 X95.218 Y78.905 E27.07121
G1 X95.592 Y78.896 E27.07841
G1 X103.184 Y71.304 E27.28535
G1 X103.537 Y71.315 E27.29217
G1 X95.965 Y78.887 E27.49857
G1 X96.339 Y78.878 E27.50577
G1 X103.891 Y71.325 E27.71163
G1 X104.245 Y71.336 E27.71845
G1 X96.712 Y78.869 E27.92377
G1 X97.086 Y78.859 E27.93097
G1 X104.598 Y71.347 E28.13575
G1 X104.952 Y71.357 E28.14257
G1 X97.459 Y78.850 E28.34680
G1 X97.832 Y78.841 E28.35400
G1 X105.305 Y71.368 E28.55770
G1 X105.659 Y71.379 E28.56452
G1 X98.206 Y78.832 E28.76768
G1 X98.579 Y78.822 E28.77488
G1 X106.013 Y71.389 E28.97749
G1 X106.366 Y71.400 E28.98431
G1 X98.953 Y78.813 E29.18639
G1 X99.326 Y78.804 E29.19359
G1 X106.720 Y71.410 E29.39513
G1 X107.074 Y71.421 E29.40194
G1 X99.701 Y78.794 E29.60292
G1 X100.075 Y78.783 E29.61015
G1 X107.427 Y71.432 E29.81054
G1 X107.781 Y71.442 E29.81736
G1 X100.450 Y78.773 E30.01717
G1 X100.825 Y78.762 E30.02440
G1 X108.134 Y71.453 E30.22364
G1 X108.488 Y71.463 E30.23045
G1 X101.200 Y78.751 E30.42911
G1 X101.575 Y78.741 E30.43634
G1 X108.842 Y71.474 E30.63441
G1 X109.195 Y71.485 E30.64123
G1 X101.950 Y78.730 E30.83872
G1 X102.325 Y78.719 E30.84595
G1 X109.549 Y71.495 E31.04286
G1 X109.903 Y71.506 E31.04968
G1 X102.700 Y78.709 E31.24602
G1 X103.075 Y78.698 E31.25324
G1 X110.256 Y71.517 E31.44900
G1 X110.610 Y71.527 E31.45582
G1 X103.450 Y78.687 E31.65099
G1 X103.824 Y78.677 E31.65822
G1 X110.963 Y71.538 E31.85281
G1 X111.317 Y71.548 E31.85963
G1 X104.199 Y78.666 E32.05364
G1 X104.574 Y78.655 E32.06087
G1 X111.671 Y71.559 E32.25430
G1 X112.024 Y71.570 E32.26112
G1 X104.949 Y78.645 E32.45398
G1 X105.324 Y78.634 E32.46120
G1 X112.378 Y71.580 E32.65348
G1 X112.732 Y71.591 E32.66030
G1 X105.699 Y78.623 E32.85199
G1 X106.074 Y78.613 E32.85922
G1 X113.085 Y71.601 E33.05033
G1 X113.439 Y71.612 E33.05715
G1 X106.449 Y78.602 E33.24768
G1 X106.824 Y78.591 E33.25491
G1 X113.792 Y71.623 E33.44486
G1 X114.146 Y71.633 E33.45168
G1 X107.199 Y78.581 E33.64105
G1 X107.574 Y78.569 E33.64830
G1 X114.500 Y71.644 E33.83707
G1 X114.853 Y71.654 E33.84389
G1 X107.951 Y78.557 E34.03204
G1 X108.327 Y78.545 E34.03930
G1 X115.206 Y71.666 E34.22681
G1 X115.558 Y71.679 E34.23359
G1 X108.703 Y78.533 E34.42044
G1 X109.079 Y78.522 E34.42770
G1 X115.909 Y71.691 E34.61388
G1 X116.261 Y71.704 E34.62066
G1 X109.455 Y78.510 E34.80617
G1 X109.831 Y78.498 E34.81343
G1 X116.613 Y71.716 E34.99827
G1 X116.964 Y71.729 E35.00505
G1 X110.207 Y78.486 E35.18923
G1 X110.583 Y78.474 E35.19648
G1 X117.316 Y71.742 E35.37999
G1 X117.667 Y71.754 E35.38677
G1 X110.960 Y78.462 E35.56961
G1 X111.336 Y78.450 E35.57687
G1 X118.019 Y71.767 E35.75904
G1 X118.371 Y71.780 E35.76582
G1 X111.712 Y78.438 E35.94732
G1 X112.088 Y78.426 E35.95458
G1 X118.722 Y71.792 E36.13541
G1 X119.074 Y71.805 E36.14219
G1 X112.464 Y78.414 E36.32236
G1 X112.840 Y78.403 E36.32961
G1 X119.426 Y71.817 E36.50911
G1 X119.777 Y71.830 E36.51589
G1 X113.216 Y78.391 E36.69473
G1 X113.593 Y78.379 E36.70198
G1 X120.129 Y71.843 E36.88014
G1 X120.480 Y71.855 E36.88692
G1 X113.969 Y78.367 E37.06442
G1 X114.345 Y78.355 E37.07167
G1 X120.832 Y71.868 E37.24850
G1 X121.184 Y71.880 E37.25528
G1 X114.721 Y78.343 E37.43144
G1 X115.098 Y78.330 E37.43871
G1 X121.535 Y71.893 E37.61417
G1 X121.887 Y71.906 E37.62095
G1 X115.476 Y78.317 E37.79570
G1 X115.854 Y78.303 E37.80298
G1 X122.238 Y71.918 E37.97701
G1 X122.590 Y71.931 E37.98380
G1 X116.232 Y78.289 E38.15711
G1 X116.609 Y78.276 E38.16440
G1 X122.942 Y71.944 E38.33701
G1 X123.293 Y71.956 E38.34379
G1 X116.987 Y78.262 E38.51568
G1 X117.365 Y78.249 E38.52296
G1 X123.645 Y71.969 E38.69414
G1 X123.997 Y71.981 E38.70092
G1 X117.743 Y78.235 E38.87139
G1 X118.121 Y78.222 E38.87867
G1 X124.348 Y71.994 E39.04843
G1 X124.700 Y72.007 E39.05521
G1 X118.498 Y78.208 E39.22424
G1 X118.876 Y78.194 E39.23153
G1 X125.051 Y72.019 E39.39985
G1 X125.403 Y72.032 E39.40664
G1 X119.254 Y78.181 E39.57425
G1 X119.632 Y78.167 E39.58153
G1 X125.755 Y72.044 E39.74843
G1 X126.106 Y72.057 E39.75521
G1 X120.010 Y78.154 E39.92140
G1 X120.387 Y78.140 E39.92868
G1 X126.458 Y72.070 E40.09415
G1 X126.810 Y72.082 E40.10093
G1 X120.765 Y78.127 E40.26569
