; generated by Slic3r 1.3.0 on 2020-05-02 at 22:00:05

; external perimeters extrusion width = 0.44mm (2.86mm^3/s)
; perimeters extrusion width = 0.56mm (4.14mm^3/s)
; infill extrusion width = 0.50mm (5.48mm^3/s)
; solid infill extrusion width = 0.56mm (3.10mm^3/s)
; top infill extrusion width = 0.45mm (2.44mm^3/s)

M107
;D3D:START:START
T0
M104 S215 T0

G21
G90
M107
T0
G28
G29
M109 T0 S215 T0
G0 F3000
M107
T0
G92 E0
G0 X0 Y149 Z0.1 F3600
G1 Y49 E6.5 F1200
G0 Z1
G92 E0
; Filament gcode

G21 ; set units to millimeters
G90 ; use absolute coordinates
M82 ; use absolute distances for extrusion
G92 E0
G1 Z0.200 F6000.000
G1 E-2.00000 F1200.00000
G92 E0
G1 X28.035 Y28.596 F6000.000
G1 E2.00000 F1200.00000
G1 F1800
G1 X29.688 Y27.681 E2.03636
G1 X31.000 Y27.486 E2.06188
G1 X119.667 Y27.486 E3.76771
G1 X121.515 Y27.881 E3.80406
G1 X123.039 Y28.999 E3.84042
G1 X123.972 Y30.642 E3.87678
G1 X124.181 Y32.000 E3.90321
G1 X124.181 Y55.048 E4.34662
G1 X123.514 Y118.048 E5.55872
G1 X123.099 Y119.891 E5.59507
G1 X121.965 Y121.404 E5.63143
G1 X120.312 Y122.319 E5.66779
G1 X119.000 Y122.514 E5.69331
G1 X30.333 Y122.514 E7.39914
G1 X28.485 Y122.119 E7.43549
G1 X26.961 Y121.001 E7.47185
G1 X26.028 Y119.358 E7.50821
G1 X25.819 Y118.000 E7.53464
G1 X25.819 Y94.952 E7.97805
G1 X26.486 Y31.952 E9.19015
G1 X26.901 Y30.109 E9.22650
G1 X27.999 Y28.644 E9.26171
G1 X28.285 Y28.721 F6000.000
G1 F1800
G1 X29.917 Y27.883 E9.29700
G1 X31.000 Y27.743 E9.31800
G1 X119.667 Y27.743 E11.02383
G1 X121.458 Y28.138 E11.05913
G1 X122.917 Y29.251 E11.09442
G1 X123.772 Y30.874 E11.12972
G1 X123.924 Y32.000 E11.15158
G1 X123.924 Y55.045 E11.59493
G1 X123.257 Y118.045 E12.80703
G1 X122.843 Y119.832 E12.84233
G1 X121.715 Y121.279 E12.87762
G1 X120.083 Y122.117 E12.91292
G1 X119.000 Y122.257 E12.93392
G1 X30.333 Y122.257 E14.63975
G1 X28.542 Y121.862 E14.67504
G1 X27.083 Y120.749 E14.71034
G1 X26.228 Y119.126 E14.74563
G1 X26.076 Y118.000 E14.76749
G1 X26.076 Y94.955 E15.21085
G1 X26.743 Y31.955 E16.42295
G1 X27.157 Y30.168 E16.45825
G1 X28.248 Y28.768 E16.49239
G1 E14.49239 F1200.00000
G92 E0
G1 X108.682 Y108.449 F6000.000
G1 E2.00000 F1200.00000
G1 F1800
G1 X108.889 Y108.254 E2.00547
G1 X109.119 Y108.087 E2.01094
G1 X109.387 Y107.940 E2.01681
G1 X109.880 Y107.779 E2.02679
G1 X110.210 Y107.736 E2.03320
G1 X110.729 Y107.768 E2.04320
G1 X111.032 Y107.845 E2.04922
G1 X111.298 Y107.950 E2.05472
G1 X111.547 Y108.087 E2.06019
G1 X111.777 Y108.254 E2.06566
G1 X111.985 Y108.449 E2.07113
G1 X112.166 Y108.668 E2.07661
G1 X112.319 Y108.909 E2.08208
G1 X112.440 Y109.166 E2.08755
G1 X112.528 Y109.437 E2.09303
G1 X112.581 Y109.716 E2.09851
G1 X112.599 Y110.000 E2.10398
G1 X112.581 Y110.284 E2.10945
G1 X112.528 Y110.563 E2.11492
G1 X112.440 Y110.834 E2.12040
G1 X112.319 Y111.091 E2.12587
G1 X112.166 Y111.332 E2.13134
G1 X111.985 Y111.551 E2.13682
G1 X111.777 Y111.746 E2.14229
G1 X111.547 Y111.913 E2.14776
G1 X111.298 Y112.050 E2.15323
G1 X111.033 Y112.155 E2.15871
G1 X110.758 Y112.225 E2.16419
G1 X110.475 Y112.261 E2.16966
G1 X110.191 Y112.261 E2.17513
G1 X109.908 Y112.225 E2.18063
G1 X109.605 Y112.146 E2.18664
G1 X109.136 Y111.925 E2.19662
G1 X108.889 Y111.746 E2.20249
G1 X108.682 Y111.551 E2.20796
G1 X108.501 Y111.332 E2.21343
G1 X108.348 Y111.091 E2.21891
G1 X108.226 Y110.833 E2.22441
G1 X108.131 Y110.535 E2.23042
G1 X108.064 Y110.000 E2.24080
G1 X108.131 Y109.465 E2.25117
G1 X108.226 Y109.167 E2.25718
G1 X108.348 Y108.909 E2.26268
G1 X108.501 Y108.668 E2.26816
G1 X108.644 Y108.495 E2.27248
G1 X108.870 Y108.625 F6000.000
G1 F1800
G1 X109.053 Y108.453 E2.27733
G1 X109.257 Y108.305 E2.28218
G1 X109.489 Y108.177 E2.28727
G1 X109.937 Y108.031 E2.29633
G1 X110.219 Y107.994 E2.30180
G1 X110.689 Y108.023 E2.31087
G1 X110.953 Y108.090 E2.31610
G1 X111.188 Y108.183 E2.32097
G1 X111.409 Y108.305 E2.32582
G1 X111.613 Y108.453 E2.33067
G1 X111.797 Y108.625 E2.33552
G1 X111.958 Y108.820 E2.34037
G1 X112.093 Y109.033 E2.34522
G1 X112.200 Y109.261 E2.35007
G1 X112.278 Y109.501 E2.35492
G1 X112.325 Y109.748 E2.35978
G1 X112.341 Y110.000 E2.36463
G1 X112.325 Y110.252 E2.36947
G1 X112.278 Y110.499 E2.37433
G1 X112.200 Y110.739 E2.37918
G1 X112.093 Y110.967 E2.38403
G1 X111.958 Y111.180 E2.38888
G1 X111.797 Y111.375 E2.39373
G1 X111.613 Y111.547 E2.39858
G1 X111.409 Y111.695 E2.40343
G1 X111.188 Y111.817 E2.40828
G1 X110.954 Y111.910 E2.41313
G1 X110.709 Y111.972 E2.41799
G1 X110.459 Y112.004 E2.42284
G1 X110.207 Y112.004 E2.42769
G1 X109.956 Y111.972 E2.43256
G1 X109.693 Y111.904 E2.43779
G1 X109.268 Y111.703 E2.44684
G1 X109.053 Y111.547 E2.45193
G1 X108.870 Y111.375 E2.45678
G1 X108.709 Y111.180 E2.46163
G1 X108.574 Y110.967 E2.46649
G1 X108.466 Y110.738 E2.47135
G1 X108.383 Y110.480 E2.47658
G1 X108.323 Y110.000 E2.48588
G1 X108.383 Y109.520 E2.49518
G1 X108.466 Y109.262 E2.50041
G1 X108.574 Y109.033 E2.50527
G1 X108.709 Y108.820 E2.51013
G1 X108.831 Y108.672 E2.51383
G1 X109.057 Y108.802 F6000.000
G1 F1800
G1 X109.218 Y108.651 E2.51805
G1 X109.395 Y108.522 E2.52228
G1 X109.592 Y108.414 E2.52660
G1 X109.994 Y108.283 E2.53473
G1 X110.228 Y108.253 E2.53927
G1 X110.650 Y108.279 E2.54740
G1 X110.874 Y108.335 E2.55185
G1 X111.079 Y108.416 E2.55608
G1 X111.271 Y108.522 E2.56031
G1 X111.449 Y108.651 E2.56454
G1 X111.609 Y108.802 E2.56877
G1 X111.749 Y108.971 E2.57300
G1 X111.867 Y109.157 E2.57723
G1 X111.961 Y109.356 E2.58146
G1 X112.029 Y109.565 E2.58569
G1 X112.070 Y109.781 E2.58991
G1 X112.084 Y110.000 E2.59414
G1 X112.070 Y110.219 E2.59837
G1 X112.029 Y110.435 E2.60260
G1 X111.961 Y110.644 E2.60683
G1 X111.867 Y110.843 E2.61106
G1 X111.749 Y111.029 E2.61529
G1 X111.609 Y111.198 E2.61952
G1 X111.449 Y111.349 E2.62374
G1 X111.271 Y111.478 E2.62797
G1 X111.079 Y111.584 E2.63220
G1 X110.874 Y111.665 E2.63643
G1 X110.661 Y111.719 E2.64066
G1 X110.443 Y111.747 E2.64489
G1 X110.223 Y111.747 E2.64911
G1 X110.005 Y111.719 E2.65335
G1 X109.781 Y111.661 E2.65780
G1 X109.399 Y111.481 E2.66593
G1 X109.218 Y111.349 E2.67024
G1 X109.057 Y111.198 E2.67447
G1 X108.917 Y111.029 E2.67870
G1 X108.799 Y110.843 E2.68293
G1 X108.706 Y110.644 E2.68717
G1 X108.635 Y110.424 E2.69162
G1 X108.582 Y110.000 E2.69983
G1 X108.635 Y109.576 E2.70805
G1 X108.706 Y109.356 E2.71250
G1 X108.799 Y109.157 E2.71673
G1 X109.019 Y108.848 E2.72402
G1 X108.994 Y108.591 F6000.000
G1 E0.72402 F1200.00000
G92 E0
G1 X102.581 Y109.716 F6000.000
G1 E2.00000 F1200.00000
G1 F1800
G1 X102.599 Y110.000 E2.00547
G1 X102.581 Y110.284 E2.01094
G1 X102.528 Y110.563 E2.01642
G1 X102.440 Y110.834 E2.02189
G1 X102.319 Y111.091 E2.02736
G1 X102.166 Y111.332 E2.03284
G1 X101.985 Y111.551 E2.03831
G1 X101.777 Y111.746 E2.04379
G1 X101.547 Y111.913 E2.04926
G1 X101.298 Y112.050 E2.05473
G1 X101.033 Y112.155 E2.06020
G1 X100.758 Y112.225 E2.06568
G1 X100.475 Y112.261 E2.07115
G1 X100.191 Y112.261 E2.07662
G1 X99.908 Y112.225 E2.08212
G1 X99.605 Y112.146 E2.08814
G1 X99.136 Y111.925 E2.09811
G1 X98.889 Y111.746 E2.10398
G1 X98.682 Y111.551 E2.10945
G1 X98.501 Y111.332 E2.11493
G1 X98.348 Y111.091 E2.12041
G1 X98.226 Y110.833 E2.12590
G1 X98.131 Y110.535 E2.13191
G1 X98.064 Y110.000 E2.14229
G1 X98.131 Y109.465 E2.15267
G1 X98.226 Y109.167 E2.15868
G1 X98.348 Y108.909 E2.16418
G1 X98.501 Y108.668 E2.16965
G1 X98.682 Y108.449 E2.17513
G1 X98.889 Y108.254 E2.18060
G1 X99.119 Y108.087 E2.18607
G1 X99.387 Y107.940 E2.19194
G1 X99.880 Y107.779 E2.20192
G1 X100.210 Y107.736 E2.20833
G1 X100.729 Y107.768 E2.21833
G1 X101.032 Y107.845 E2.22435
G1 X101.298 Y107.950 E2.22984
G1 X101.547 Y108.087 E2.23532
G1 X101.777 Y108.254 E2.24079
G1 X101.985 Y108.449 E2.24626
G1 X102.166 Y108.668 E2.25174
G1 X102.319 Y108.909 E2.25721
G1 X102.440 Y109.166 E2.26268
G1 X102.528 Y109.437 E2.26816
G1 X102.570 Y109.657 E2.27248
G1 X102.325 Y109.748 F6000.000
G1 F1800
G1 X102.341 Y110.000 E2.27733
G1 X102.325 Y110.252 E2.28218
G1 X102.278 Y110.499 E2.28703
G1 X102.200 Y110.739 E2.29188
G1 X102.093 Y110.967 E2.29673
G1 X101.958 Y111.180 E2.30158
G1 X101.797 Y111.375 E2.30644
G1 X101.613 Y111.547 E2.31129
G1 X101.409 Y111.695 E2.31614
G1 X101.188 Y111.817 E2.32099
G1 X100.954 Y111.910 E2.32584
G1 X100.709 Y111.972 E2.33069
G1 X100.459 Y112.004 E2.33554
G1 X100.207 Y112.004 E2.34039
G1 X99.956 Y111.972 E2.34526
G1 X99.693 Y111.904 E2.35049
G1 X99.268 Y111.703 E2.35954
G1 X99.053 Y111.547 E2.36464
G1 X98.870 Y111.375 E2.36949
G1 X98.709 Y111.180 E2.37434
G1 X98.574 Y110.967 E2.37919
G1 X98.466 Y110.738 E2.38406
G1 X98.383 Y110.480 E2.38929
G1 X98.323 Y110.000 E2.39858
G1 X98.383 Y109.520 E2.40788
G1 X98.466 Y109.262 E2.41311
G1 X98.574 Y109.033 E2.41798
G1 X98.709 Y108.820 E2.42283
G1 X98.870 Y108.625 E2.42768
G1 X99.053 Y108.453 E2.43253
G1 X99.257 Y108.305 E2.43738
G1 X99.489 Y108.177 E2.44248
G1 X99.937 Y108.031 E2.45153
G1 X100.219 Y107.994 E2.45701
G1 X100.689 Y108.023 E2.46607
G1 X100.953 Y108.090 E2.47130
G1 X101.188 Y108.183 E2.47617
G1 X101.409 Y108.305 E2.48102
G1 X101.613 Y108.453 E2.48587
G1 X101.797 Y108.625 E2.49072
G1 X101.958 Y108.820 E2.49557
G1 X102.093 Y109.033 E2.50043
G1 X102.200 Y109.261 E2.50527
G1 X102.278 Y109.501 E2.51013
G1 X102.314 Y109.690 E2.51383
G1 X102.070 Y109.781 F6000.000
G1 F1800
G1 X102.084 Y110.000 E2.51805
G1 X102.070 Y110.219 E2.52228
G1 X102.029 Y110.435 E2.52651
G1 X101.961 Y110.644 E2.53074
G1 X101.867 Y110.843 E2.53497
G1 X101.749 Y111.029 E2.53920
G1 X101.609 Y111.198 E2.54343
G1 X101.449 Y111.349 E2.54765
G1 X101.271 Y111.478 E2.55188
G1 X101.079 Y111.584 E2.55611
G1 X100.874 Y111.665 E2.56034
G1 X100.661 Y111.719 E2.56457
G1 X100.443 Y111.747 E2.56880
G1 X100.223 Y111.747 E2.57303
G1 X100.005 Y111.719 E2.57726
G1 X99.781 Y111.661 E2.58171
G1 X99.399 Y111.481 E2.58984
G1 X99.218 Y111.349 E2.59416
G1 X99.057 Y111.198 E2.59838
G1 X98.917 Y111.029 E2.60261
G1 X98.799 Y110.843 E2.60684
G1 X98.706 Y110.644 E2.61108
G1 X98.635 Y110.424 E2.61553
G1 X98.582 Y110.000 E2.62374
G1 X98.635 Y109.576 E2.63196
G1 X98.706 Y109.356 E2.63641
G1 X98.799 Y109.157 E2.64064
G1 X98.917 Y108.971 E2.64487
G1 X99.057 Y108.802 E2.64910
G1 X99.218 Y108.651 E2.65333
G1 X99.395 Y108.522 E2.65756
G1 X99.592 Y108.414 E2.66188
G1 X99.994 Y108.283 E2.67001
G1 X100.228 Y108.253 E2.67455
G1 X100.650 Y108.279 E2.68268
G1 X100.874 Y108.335 E2.68713
G1 X101.079 Y108.416 E2.69136
G1 X101.271 Y108.522 E2.69559
G1 X101.449 Y108.651 E2.69982
G1 X101.609 Y108.802 E2.70405
G1 X101.749 Y108.971 E2.70828
G1 X101.867 Y109.157 E2.71251
G1 X101.961 Y109.356 E2.71673
G1 X102.059 Y109.722 E2.72402
G1 X102.272 Y109.866 F6000.000
G1 E0.72402 F1200.00000
G92 E0
G1 X92.599 Y110.000 F6000.000
G1 E2.00000 F1200.00000
G1 F1800
G1 X92.581 Y110.284 E2.00547
G1 X92.528 Y110.563 E2.01095
G1 X92.440 Y110.834 E2.01642
G1 X92.319 Y111.091 E2.02189
G1 X92.166 Y111.332 E2.02737
G1 X91.985 Y111.551 E2.03284
G1 X91.777 Y111.746 E2.03831
G1 X91.547 Y111.913 E2.04379
G1 X91.298 Y112.050 E2.04926
G1 X91.033 Y112.155 E2.05473
G1 X90.758 Y112.225 E2.06021
G1 X90.475 Y112.261 E2.06568
G1 X90.191 Y112.261 E2.07115
G1 X89.908 Y112.225 E2.07665
G1 X89.605 Y112.146 E2.08267
G1 X89.136 Y111.925 E2.09264
G1 X88.889 Y111.746 E2.09851
G1 X88.682 Y111.551 E2.10398
G1 X88.501 Y111.332 E2.10946
G1 X88.348 Y111.091 E2.11493
G1 X88.227 Y110.834 E2.12041
G1 X88.139 Y110.563 E2.12588
G1 X88.086 Y110.284 E2.13135
G1 X88.068 Y110.000 E2.13683
G1 X88.086 Y109.716 E2.14230
G1 X88.139 Y109.437 E2.14777
G1 X88.227 Y109.166 E2.15325
G1 X88.348 Y108.909 E2.15872
G1 X88.501 Y108.668 E2.16420
G1 X88.682 Y108.449 E2.16967
G1 X88.889 Y108.254 E2.17514
G1 X89.119 Y108.087 E2.18061
G1 X89.387 Y107.940 E2.18648
G1 X89.880 Y107.779 E2.19646
G1 X90.210 Y107.736 E2.20287
G1 X90.729 Y107.768 E2.21287
G1 X91.032 Y107.845 E2.21889
G1 X91.298 Y107.950 E2.22439
G1 X91.547 Y108.087 E2.22986
G1 X91.777 Y108.254 E2.23533
G1 X91.985 Y108.449 E2.24080
G1 X92.166 Y108.668 E2.24628
G1 X92.330 Y108.926 E2.25215
G1 X92.521 Y109.408 E2.26213
G1 X92.581 Y109.715 E2.26814
G1 X92.595 Y109.940 E2.27248
G1 X92.341 Y110.000 F6000.000
G1 F1800
G1 X92.325 Y110.252 E2.27733
G1 X92.278 Y110.499 E2.28218
G1 X92.200 Y110.739 E2.28704
G1 X92.093 Y110.967 E2.29189
G1 X91.958 Y111.180 E2.29674
G1 X91.797 Y111.375 E2.30159
G1 X91.613 Y111.547 E2.30644
G1 X91.409 Y111.695 E2.31129
G1 X91.188 Y111.817 E2.31614
G1 X90.954 Y111.910 E2.32099
G1 X90.709 Y111.972 E2.32585
G1 X90.459 Y112.004 E2.33070
G1 X90.207 Y112.004 E2.33554
G1 X89.956 Y111.972 E2.34041
G1 X89.693 Y111.904 E2.34565
G1 X89.268 Y111.703 E2.35470
G1 X89.054 Y111.547 E2.35979
G1 X88.870 Y111.375 E2.36464
G1 X88.709 Y111.180 E2.36949
G1 X88.574 Y110.967 E2.37435
G1 X88.466 Y110.739 E2.37920
G1 X88.388 Y110.499 E2.38405
G1 X88.341 Y110.252 E2.38890
G1 X88.325 Y110.000 E2.39375
G1 X88.341 Y109.748 E2.39860
G1 X88.388 Y109.501 E2.40345
G1 X88.466 Y109.261 E2.40830
G1 X88.574 Y109.033 E2.41315
G1 X88.709 Y108.820 E2.41800
G1 X88.870 Y108.625 E2.42286
G1 X89.054 Y108.453 E2.42771
G1 X89.257 Y108.305 E2.43256
G1 X89.489 Y108.177 E2.43765
G1 X89.937 Y108.031 E2.44670
G1 X90.219 Y107.994 E2.45218
G1 X90.689 Y108.023 E2.46124
G1 X90.953 Y108.090 E2.46648
G1 X91.188 Y108.183 E2.47134
G1 X91.409 Y108.305 E2.47620
G1 X91.613 Y108.453 E2.48104
G1 X91.797 Y108.625 E2.48589
G1 X91.958 Y108.820 E2.49075
G1 X92.100 Y109.043 E2.49584
G1 X92.273 Y109.481 E2.50489
G1 X92.325 Y109.748 E2.51013
G1 X92.337 Y109.940 E2.51384
G1 X92.084 Y110.000 F6000.000
G1 F1800
G1 X92.070 Y110.219 E2.51806
G1 X92.029 Y110.435 E2.52229
G1 X91.961 Y110.644 E2.52652
G1 X91.867 Y110.843 E2.53075
G1 X91.749 Y111.029 E2.53498
G1 X91.609 Y111.198 E2.53921
G1 X91.449 Y111.349 E2.54344
G1 X91.271 Y111.478 E2.54767
G1 X91.079 Y111.584 E2.55189
G1 X90.874 Y111.665 E2.55612
G1 X90.661 Y111.719 E2.56035
G1 X90.443 Y111.747 E2.56458
G1 X90.223 Y111.747 E2.56881
G1 X90.005 Y111.719 E2.57304
G1 X89.781 Y111.661 E2.57749
G1 X89.399 Y111.481 E2.58562
G1 X89.218 Y111.349 E2.58994
G1 X89.057 Y111.198 E2.59417
G1 X88.917 Y111.029 E2.59840
G1 X88.799 Y110.843 E2.60263
G1 X88.706 Y110.644 E2.60686
G1 X88.638 Y110.435 E2.61108
G1 X88.597 Y110.219 E2.61531
G1 X88.583 Y110.000 E2.61954
G1 X88.597 Y109.781 E2.62377
G1 X88.638 Y109.565 E2.62800
G1 X88.706 Y109.356 E2.63223
G1 X88.799 Y109.157 E2.63646
G1 X88.917 Y108.971 E2.64069
G1 X89.057 Y108.802 E2.64491
G1 X89.218 Y108.651 E2.64914
G1 X89.395 Y108.522 E2.65337
G1 X89.592 Y108.414 E2.65769
G1 X89.994 Y108.283 E2.66582
G1 X90.228 Y108.253 E2.67036
G1 X90.650 Y108.279 E2.67849
G1 X90.874 Y108.335 E2.68294
G1 X91.079 Y108.416 E2.68717
G1 X91.271 Y108.522 E2.69140
G1 X91.449 Y108.651 E2.69563
G1 X91.609 Y108.802 E2.69986
G1 X91.749 Y108.971 E2.70409
G1 X91.870 Y109.161 E2.70841
G1 X92.026 Y109.553 E2.71653
G1 X92.080 Y109.940 E2.72405
G1 X92.274 Y110.110 F6000.000
G1 E0.72405 F1200.00000
G92 E0
G1 X82.599 Y110.000 F6000.000
G1 E2.00000 F1200.00000
G1 F1800
G1 X82.581 Y110.284 E2.00547
G1 X82.528 Y110.563 E2.01095
G1 X82.440 Y110.834 E2.01642
G1 X82.319 Y111.091 E2.02189
G1 X82.166 Y111.332 E2.02737
G1 X81.985 Y111.551 E2.03284
G1 X81.777 Y111.746 E2.03831
G1 X81.547 Y111.913 E2.04379
G1 X81.298 Y112.050 E2.04926
G1 X81.033 Y112.155 E2.05473
G1 X80.758 Y112.225 E2.06021
G1 X80.475 Y112.261 E2.06568
G1 X80.191 Y112.261 E2.07115
G1 X79.908 Y112.225 E2.07665
G1 X79.605 Y112.146 E2.08267
G1 X79.136 Y111.925 E2.09264
G1 X78.889 Y111.746 E2.09851
G1 X78.682 Y111.551 E2.10398
G1 X78.501 Y111.332 E2.10946
G1 X78.348 Y111.091 E2.11493
G1 X78.227 Y110.834 E2.12041
G1 X78.139 Y110.563 E2.12588
G1 X78.086 Y110.284 E2.13135
G1 X78.068 Y110.000 E2.13683
G1 X78.086 Y109.716 E2.14230
G1 X78.139 Y109.437 E2.14777
G1 X78.227 Y109.166 E2.15325
G1 X78.348 Y108.909 E2.15872
G1 X78.501 Y108.668 E2.16420
G1 X78.682 Y108.449 E2.16967
G1 X78.889 Y108.254 E2.17514
G1 X79.119 Y108.087 E2.18061
G1 X79.387 Y107.940 E2.18648
G1 X79.880 Y107.779 E2.19646
G1 X80.210 Y107.736 E2.20287
G1 X80.729 Y107.768 E2.21287
G1 X81.032 Y107.845 E2.21889
G1 X81.298 Y107.950 E2.22439
G1 X81.547 Y108.087 E2.22986
G1 X81.777 Y108.254 E2.23533
G1 X81.985 Y108.449 E2.24080
G1 X82.166 Y108.668 E2.24628
G1 X82.330 Y108.926 E2.25215
G1 X82.521 Y109.408 E2.26213
