; generated by Slic3r 1.3.0 on 2020-07-23 at 22:41:06

; external perimeters extrusion width = 0.42mm (4.00mm^3/s)
; perimeters extrusion width = 0.40mm (5.03mm^3/s)
; infill extrusion width = 0.42mm (6.93mm^3/s)
; solid infill extrusion width = 0.42mm (2.13mm^3/s)
; top infill extrusion width = 0.42mm (1.60mm^3/s)

; external perimeters extrusion width = 0.42mm (4.00mm^3/s)
; perimeters extrusion width = 0.40mm (5.03mm^3/s)
; infill extrusion width = 0.42mm (6.93mm^3/s)
; solid infill extrusion width = 0.42mm (2.13mm^3/s)
; top infill extrusion width = 0.42mm (1.60mm^3/s)

;D3D:START:START
T0
M104 S215 T0

G21
G90
M107
T0
G28
G29
M109 T0 S215 T0
G0 F3000
M107
T0
G92 E0
G0 X0 Y149 Z0.1 F3600
G1 Y49 E6.5 F1200
G0 Z1
G92 E0
; Filament gcode

G21 ; set units to millimeters
G90 ; use absolute coordinates
M82 ; use absolute distances for extrusion
G92 E0
G1 Z0.300 F6000.000
G1 E-0.50000 F1200.00000
G92 E0
G1 X52.652 Y69.982 F6000.000
G1 E0.50000 F1200.00000
G1 F1080
G1 X53.256 Y69.554 E0.52002
G1 X54.276 Y69.013 E0.55122
G1 X55.234 Y68.655 E0.57888
G1 X55.834 Y68.477 E0.59580
G1 X57.128 Y68.191 E0.63164
G1 X57.505 Y68.124 E0.64199
G1 X59.369 Y67.885 E0.69278
G1 X61.446 Y67.733 E0.74910
G1 X63.604 Y67.659 E0.80749
G1 X66.117 Y67.643 E0.87543
G1 X68.844 Y67.682 E0.94916
G1 X74.460 Y67.863 E1.10108
G1 X77.438 Y67.995 E1.18167
G1 X80.468 Y68.155 E1.26371
G1 X86.314 Y68.510 E1.42205
G1 X95.314 Y69.115 E1.66595
G1 X97.121 Y69.639 E1.71680
G1 X98.552 Y70.859 E1.76765
G1 X99.354 Y72.560 E1.81849
G1 X99.471 Y73.575 E1.84612
G1 X99.471 Y75.552 E1.89955
G1 X99.076 Y77.390 E1.95040
G1 X97.959 Y78.904 E2.00125
G1 X95.747 Y79.960 E2.06754
G1 X92.165 Y80.534 E2.16560
G1 X89.488 Y80.915 E2.23872
G1 X86.641 Y81.279 E2.31631
G1 X83.667 Y81.612 E2.39723
G1 X80.696 Y81.891 E2.47791
G1 X77.512 Y82.128 E2.56423
G1 X74.534 Y82.283 E2.64484
G1 X71.476 Y82.356 E2.72756
G1 X68.495 Y82.318 E2.80815
G1 X65.661 Y82.166 E2.88488
G1 X63.016 Y81.903 E2.95675
G1 X60.595 Y81.537 E3.02295
G1 X58.424 Y81.075 E3.08297
G1 X56.513 Y80.522 E3.13676
G1 X56.090 Y80.374 E3.14886
G1 X54.844 Y79.865 E3.18525
G1 X54.239 Y79.562 E3.20356
G1 X53.353 Y79.031 E3.23149
G1 X52.420 Y78.287 E3.26375
G1 X51.906 Y77.749 E3.28385
G1 X50.804 Y75.766 E3.34520
G1 X50.668 Y75.232 E3.36008
G1 X50.596 Y73.353 E3.41093
G1 X50.970 Y72.189 E3.44399
G1 X51.209 Y71.692 E3.45891
G1 X52.613 Y70.028 E3.51778
G1 X52.788 Y70.174 F6000.000
G1 F1080
G1 X53.392 Y69.746 E3.53779
G1 X54.358 Y69.234 E3.56735
G1 X55.316 Y68.875 E3.59501
G1 X55.885 Y68.707 E3.61104
G1 X57.179 Y68.421 E3.64688
G1 X57.536 Y68.358 E3.65668
G1 X59.386 Y68.120 E3.70711
G1 X61.454 Y67.968 E3.76317
G1 X63.733 Y67.892 E3.82483
G1 X66.203 Y67.879 E3.89162
G1 X68.837 Y67.918 E3.96283
G1 X74.451 Y68.099 E4.11470
G1 X77.427 Y68.231 E4.19524
G1 X80.454 Y68.391 E4.27719
G1 X86.299 Y68.745 E4.43551
G1 X95.298 Y69.350 E4.67936
G1 X97.052 Y69.870 E4.72883
G1 X98.424 Y71.082 E4.77830
G1 X99.236 Y73.575 E4.84921
G1 X99.236 Y75.552 E4.90264
G1 X98.840 Y77.338 E4.95211
G1 X97.728 Y78.792 E5.00159
G1 X95.703 Y79.729 E5.06193
G1 X92.132 Y80.300 E5.15970
G1 X89.458 Y80.682 E5.23272
G1 X86.615 Y81.045 E5.31021
G1 X83.645 Y81.377 E5.39103
G1 X80.674 Y81.657 E5.47170
G1 X77.500 Y81.893 E5.55776
G1 X74.522 Y82.048 E5.63837
G1 X71.470 Y82.120 E5.72090
G1 X68.498 Y82.082 E5.80126
G1 X65.674 Y81.930 E5.87773
G1 X63.040 Y81.669 E5.94930
G1 X60.631 Y81.304 E6.01517
G1 X58.474 Y80.845 E6.07480
G1 X56.579 Y80.296 E6.12812
G1 X56.180 Y80.156 E6.13958
G1 X54.934 Y79.647 E6.17598
G1 X54.360 Y79.359 E6.19332
G1 X53.474 Y78.829 E6.22125
G1 X52.590 Y78.124 E6.25181
G1 X52.076 Y77.587 E6.27191
G1 X51.033 Y75.707 E6.33003
G1 X50.896 Y75.174 E6.34491
G1 X50.837 Y73.345 E6.39438
G1 X51.182 Y72.291 E6.42438
G1 X51.421 Y71.794 E6.43929
G1 X52.749 Y70.220 E6.49497
G1 E5.99497 F1200.00000
G92 E0
G1 X80.864 Y76.732 F6000.000
G1 E0.50000 F1200.00000
G1 F1080
G1 X80.864 Y73.309 E0.59255
G1 X81.425 Y73.342 E0.60775
G1 X81.425 Y76.679 E0.69798
G1 X80.924 Y76.726 E0.71159
G1 E0.21159 F1200.00000
G92 E0
G1 X70.465 Y76.048 F6000.000
G1 E0.50000 F1200.00000
G1 F1080
G1 X70.113 Y76.026 E0.50954
G1 X69.930 Y75.979 E0.51463
G1 X69.615 Y75.831 E0.52404
G1 X69.466 Y75.723 E0.52901
G1 X69.333 Y75.597 E0.53397
G1 X69.128 Y75.316 E0.54338
G1 X69.048 Y75.145 E0.54848
G1 X68.960 Y74.804 E0.55801
G1 X68.960 Y74.446 E0.56768
G1 X69.049 Y74.100 E0.57735
G1 X69.219 Y73.791 E0.58688
G1 X69.336 Y73.649 E0.59185
G1 X69.470 Y73.524 E0.59682
G1 X69.764 Y73.337 E0.60623
G1 X69.939 Y73.268 E0.61132
G1 X70.285 Y73.202 E0.62086
G1 X70.637 Y73.224 E0.63039
G1 X70.820 Y73.271 E0.63549
G1 X71.135 Y73.419 E0.64490
G1 X71.287 Y73.530 E0.64999
G1 X71.526 Y73.783 E0.65940
G1 X71.627 Y73.942 E0.66450
G1 X71.755 Y74.266 E0.67390
G1 X71.790 Y74.451 E0.67900
G1 X71.790 Y74.799 E0.68841
G1 X71.755 Y74.984 E0.69350
G1 X71.627 Y75.308 E0.70291
G1 X71.526 Y75.467 E0.70801
G1 X71.287 Y75.720 E0.71741
G1 X71.135 Y75.831 E0.72251
G1 X70.816 Y75.981 E0.73205
G1 X70.523 Y76.037 E0.74009
G1 E0.24009 F1200.00000
G92 E0
G1 X61.516 Y75.981 F6000.000
G1 E0.50000 F1200.00000
G1 F1080
G1 X61.165 Y76.048 E0.50967
G1 X60.813 Y76.026 E0.51920
G1 X60.630 Y75.979 E0.52430
G1 X60.315 Y75.831 E0.53371
G1 X60.033 Y75.597 E0.54362
G1 X59.828 Y75.316 E0.55303
G1 X59.748 Y75.145 E0.55812
G1 X59.660 Y74.804 E0.56766
G1 X59.660 Y74.446 E0.57733
G1 X59.749 Y74.100 E0.58699
G1 X59.919 Y73.791 E0.59653
G1 X60.170 Y73.523 E0.60644
G1 X60.464 Y73.337 E0.61585
G1 X60.639 Y73.268 E0.62095
G1 X60.985 Y73.202 E0.63048
G1 X61.337 Y73.224 E0.64002
G1 X61.520 Y73.271 E0.64512
G1 X61.835 Y73.419 E0.65452
G1 X61.987 Y73.530 E0.65962
G1 X62.226 Y73.783 E0.66903
G1 X62.402 Y74.105 E0.67894
G1 X62.490 Y74.446 E0.68848
G1 X62.490 Y74.799 E0.69802
G1 X62.455 Y74.984 E0.70311
G1 X62.327 Y75.308 E0.71252
G1 X62.226 Y75.467 E0.71761
G1 X61.987 Y75.720 E0.72702
G1 X61.835 Y75.831 E0.73212
G1 X61.570 Y75.956 E0.74003
G1 X58.616 Y75.681 F6000.000
G1 F1080
G1 X58.265 Y75.748 E0.74970
G1 X57.913 Y75.726 E0.75923
G1 X57.730 Y75.679 E0.76433
G1 X57.415 Y75.531 E0.77374
G1 X57.133 Y75.297 E0.78365
G1 X56.928 Y75.016 E0.79306
G1 X56.848 Y74.845 E0.79816
G1 X56.760 Y74.504 E0.80769
G1 X56.760 Y74.146 E0.81736
G1 X56.849 Y73.800 E0.82702
G1 X57.019 Y73.491 E0.83656
G1 X57.136 Y73.349 E0.84153
G1 X57.270 Y73.224 E0.84650
G1 X57.568 Y73.035 E0.85603
G1 X57.903 Y72.925 E0.86557
G1 X58.090 Y72.902 E0.87066
G1 X58.437 Y72.924 E0.88007
G1 X58.620 Y72.971 E0.88517
G1 X58.935 Y73.119 E0.89458
G1 X59.087 Y73.230 E0.89967
G1 X59.326 Y73.483 E0.90908
G1 X59.427 Y73.642 E0.91417
G1 X59.555 Y73.966 E0.92358
G1 X59.590 Y74.151 E0.92868
G1 X59.590 Y74.499 E0.93808
G1 X59.555 Y74.684 E0.94318
G1 X59.427 Y75.008 E0.95259
G1 X59.211 Y75.304 E0.96250
G1 X58.939 Y75.529 E0.97204
G1 X58.670 Y75.656 E0.98008
G1 E0.48008 F1200.00000
G92 E0
G1 X94.850 Y75.424 F6000.000
G1 E0.50000 F1200.00000
G1 F1080
G1 X91.510 Y75.959 E0.59145
G1 X88.900 Y76.332 E0.66274
G1 X86.126 Y76.687 E0.73835
G1 X83.232 Y77.011 E0.81708
G1 X80.264 Y77.290 E0.89769
G1 X77.269 Y77.513 E0.97888
G1 X74.296 Y77.668 E1.05937
G1 X71.372 Y77.736 E1.13846
G1 X68.563 Y77.697 E1.21441
G1 X65.918 Y77.551 E1.28601
G1 X63.484 Y77.306 E1.35215
G1 X61.302 Y76.970 E1.41186
G1 X59.407 Y76.560 E1.46427
G1 X57.832 Y76.094 E1.50868
G1 X56.604 Y75.591 E1.54456
G1 X55.745 Y75.077 E1.57163
G1 X55.272 Y74.583 E1.59012
G1 X55.159 Y74.141 E1.60246
G1 X55.357 Y73.729 E1.61481
G1 X55.913 Y73.335 E1.63324
G1 X56.842 Y72.987 E1.66006
G1 X58.119 Y72.705 E1.69543
G1 X59.717 Y72.493 E1.73902
G1 X61.608 Y72.351 E1.79027
G1 X63.759 Y72.277 E1.84848
G1 X66.874 Y72.275 E1.93268
G1 X68.715 Y72.302 E1.98246
G1 X71.444 Y72.379 E2.05629
G1 X77.232 Y72.612 E2.21289
G1 X80.198 Y72.769 E2.29319
G1 X86.025 Y73.122 E2.45103
G1 X94.850 Y73.716 E2.69017
G1 X94.850 Y75.364 E2.73473
G1 X94.614 Y75.223 F6000.000
G1 F1080
G1 X94.614 Y74.889 E2.74375
G1 X94.217 Y75.287 E2.75893
G1 X93.820 Y75.350 E2.76981
G1 X94.614 Y74.556 E2.80018
G1 X94.614 Y74.223 E2.80919
G1 X93.423 Y75.414 E2.85474
G1 X93.027 Y75.477 E2.86561
G1 X94.571 Y73.933 E2.92468
G1 X94.259 Y73.912 E2.93315
G1 X92.630 Y75.541 E2.99545
G1 X92.233 Y75.605 E3.00633
G1 X93.946 Y73.891 E3.07187
G1 X93.634 Y73.870 E3.08033
G1 X91.836 Y75.668 E3.14911
G1 X91.440 Y75.731 E3.15996
G1 X93.322 Y73.849 E3.23195
G1 X93.009 Y73.828 E3.24041
G1 X91.051 Y75.787 E3.31533
G1 X90.662 Y75.842 E3.32595
G1 X92.697 Y73.807 E3.40379
G1 X92.385 Y73.786 E3.41226
G1 X90.273 Y75.898 E3.49303
G1 X89.884 Y75.953 E3.50365
G1 X92.072 Y73.765 E3.58735
G1 X91.760 Y73.744 E3.59581
G1 X89.495 Y76.009 E3.68244
G1 X89.106 Y76.064 E3.69306
G1 X91.448 Y73.723 E3.78261
G1 X91.136 Y73.702 E3.79108
G1 X88.720 Y76.117 E3.88346
G1 X88.338 Y76.166 E3.89388
G1 X90.823 Y73.681 E3.98894
G1 X90.511 Y73.660 E3.99740
G1 X87.956 Y76.215 E4.09514
G1 X87.573 Y76.264 E4.10556
G1 X90.199 Y73.639 E4.20597
G1 X89.886 Y73.618 E4.21443
G1 X87.191 Y76.313 E4.31752
G1 X86.809 Y76.362 E4.32794
G1 X89.574 Y73.597 E4.43370
G1 X89.262 Y73.576 E4.44216
G1 X86.427 Y76.411 E4.55060
G1 X86.045 Y76.459 E4.56099
G1 X88.949 Y73.555 E4.67207
G1 X88.637 Y73.534 E4.68053
G1 X85.670 Y76.501 E4.79401
G1 X85.295 Y76.543 E4.80423
G1 X88.325 Y73.513 E4.92012
G1 X88.012 Y73.492 E4.92859
G1 X84.919 Y76.585 E5.04689
G1 X84.544 Y76.627 E5.05711
G1 X87.700 Y73.471 E5.17782
G1 X87.388 Y73.450 E5.18629
G1 X84.169 Y76.669 E5.30942
G1 X83.793 Y76.711 E5.31963
G1 X87.076 Y73.429 E5.44517
G1 X86.763 Y73.408 E5.45363
G1 X83.418 Y76.753 E5.58158
G1 X83.046 Y76.792 E5.59170
G1 X86.451 Y73.387 E5.72193
G1 X86.139 Y73.366 E5.73040
G1 X82.678 Y76.826 E5.86276
G1 X82.310 Y76.861 E5.87276
G1 X85.825 Y73.346 E6.00721
G1 X85.511 Y73.327 E6.01572
G1 X81.942 Y76.896 E6.15223
G1 X81.574 Y76.930 E6.16222
G1 X81.606 Y76.898 E6.16345
G1 X81.238 Y76.933 E6.17344
G1 X81.206 Y76.965 E6.17467
G1 X80.838 Y77.000 E6.18466
G1 X80.870 Y76.968 E6.18589
G1 X80.628 Y76.991 E6.19245
G1 X80.628 Y76.876 E6.19554
G1 X80.470 Y77.034 E6.20160
G1 X80.105 Y77.066 E6.21151
G1 X80.628 Y76.543 E6.23152
G1 X80.628 Y76.210 E6.24053
G1 X79.745 Y77.093 E6.27432
G1 X79.385 Y77.120 E6.28408
G1 X80.628 Y75.876 E6.33164
G1 X80.628 Y75.543 E6.34066
G1 X79.025 Y77.146 E6.40199
G1 X78.665 Y77.173 E6.41176
G1 X80.628 Y75.210 E6.48686
G1 X80.628 Y74.876 E6.49588
G1 X78.304 Y77.200 E6.58476
G1 X77.944 Y77.227 E6.59452
G1 X80.628 Y74.543 E6.69718
G1 X80.628 Y74.210 E6.70619
G1 X77.584 Y77.254 E6.82262
G1 X77.225 Y77.280 E6.83237
G1 X80.628 Y73.876 E6.96254
G1 X80.628 Y73.543 E6.97155
G1 X76.873 Y77.298 E7.11518
G1 X76.521 Y77.316 E7.12470
G1 X80.628 Y73.210 E7.28177
G1 E6.78177 F1200.00000
G92 E0
G1 X81.661 Y76.844 F6000.000
G1 E0.50000 F1200.00000
G1 F1080
G1 X85.197 Y73.308 E0.63525
G1 X84.882 Y73.289 E0.64376
G1 X81.661 Y76.511 E0.76699
G1 X81.661 Y76.177 E0.77600
G1 X84.568 Y73.270 E0.88721
G1 X84.254 Y73.251 E0.89573
G1 X81.661 Y75.844 E0.99492
G1 X81.661 Y75.511 E1.00393
G1 X83.940 Y73.231 E1.09110
G1 X83.625 Y73.212 E1.09961
G1 X81.661 Y75.177 E1.17476
G1 X81.661 Y74.844 E1.18378
G1 X83.311 Y73.193 E1.24690
G1 X82.997 Y73.174 E1.25542
G1 X81.661 Y74.511 E1.30653
G1 X81.661 Y74.177 E1.31554
G1 X82.683 Y73.155 E1.35463
G1 X82.368 Y73.136 E1.36315
G1 X81.661 Y73.844 E1.39021
G1 X81.661 Y73.511 E1.39923
G1 X82.054 Y73.117 E1.41428
G1 X81.740 Y73.098 E1.42279
G1 X81.661 Y73.177 E1.42582
G1 X81.661 Y73.119 E1.42739
G1 X81.400 Y73.104 E1.43443
G1 X81.425 Y73.079 E1.43539
G1 X81.111 Y73.060 E1.44391
G1 X81.086 Y73.086 E1.44488
G1 X80.771 Y73.067 E1.45341
G1 X80.797 Y73.041 E1.45441
G1 X80.483 Y73.022 E1.46293
G1 X76.170 Y77.335 E1.62788
G1 X75.818 Y77.353 E1.63741
G1 X80.168 Y73.003 E1.80379
G1 X79.852 Y72.986 E1.81236
G1 X75.467 Y77.371 E1.98008
G1 X75.115 Y77.390 E1.98960
G1 X79.535 Y72.970 E2.15866
G1 X79.219 Y72.953 E2.16724
G1 X74.763 Y77.408 E2.33764
G1 X74.412 Y77.426 E2.34716
G1 X78.902 Y72.936 E2.51890
G1 X78.585 Y72.919 E2.52748
G1 X74.067 Y77.438 E2.70030
G1 X73.725 Y77.446 E2.70954
G1 X78.269 Y72.903 E2.88330
G1 X77.952 Y72.886 E2.89188
G1 X73.384 Y77.454 E3.06659
G1 X73.043 Y77.462 E3.07582
G1 X77.636 Y72.869 E3.25147
G1 X77.319 Y72.852 E3.26004
G1 X72.702 Y77.470 E3.43664
G1 X72.361 Y77.477 E3.44587
G1 X77.000 Y72.838 E3.62330
G1 X76.679 Y72.825 E3.63198
G1 X72.019 Y77.485 E3.81021
G1 X71.678 Y77.493 E3.81944
G1 X76.359 Y72.812 E3.99847
G1 X76.039 Y72.800 E4.00714
G1 X71.338 Y77.500 E4.18691
G1 X71.009 Y77.495 E4.19581
G1 X75.718 Y72.787 E4.37590
G1 X75.398 Y72.774 E4.38457
G1 X70.681 Y77.491 E4.56499
G1 X70.352 Y77.486 E4.57388
G1 X75.077 Y72.761 E4.75461
G1 X74.757 Y72.748 E4.76329
G1 X70.023 Y77.482 E4.94434
G1 X69.695 Y77.477 E4.95323
G1 X71.031 Y76.140 E5.00435
G1 X70.889 Y76.207 E5.00860
G1 X70.570 Y76.268 E5.01738
G1 X69.366 Y77.472 E5.06345
G1 X69.037 Y77.468 E5.07234
G1 X70.235 Y76.270 E5.11816
G1 X70.076 Y76.260 E5.12248
G1 X69.945 Y76.226 E5.12612
G1 X68.708 Y77.463 E5.17342
G1 X68.571 Y77.461 E5.17715
G1 X68.387 Y77.451 E5.18212
G1 X69.705 Y76.134 E5.23251
G1 X69.480 Y76.025 E5.23926
G1 X68.071 Y77.434 E5.29315
G1 X67.755 Y77.416 E5.30171
G1 X69.297 Y75.874 E5.36070
G1 X69.125 Y75.713 E5.36708
G1 X67.439 Y77.399 E5.43157
G1 X67.123 Y77.382 E5.44013
G1 X68.985 Y75.520 E5.51134
G1 X68.864 Y75.308 E5.51794
G1 X66.993 Y77.179 E5.58951
G1 X66.993 Y76.846 E5.59852
G1 X68.782 Y75.057 E5.66695
G1 X68.724 Y74.781 E5.67457
G1 X66.993 Y76.512 E5.74080
G1 X66.993 Y76.179 E5.74982
G1 X68.724 Y74.447 E5.81605
G1 X68.831 Y74.007 E5.82829
G1 X66.993 Y75.846 E5.89860
G1 X66.993 Y75.512 E5.90761
G1 X69.933 Y72.572 E6.02008
G1 X69.609 Y72.563 E6.02885
G1 X66.993 Y75.179 E6.12892
G1 X66.993 Y74.846 E6.13793
G1 X69.285 Y72.553 E6.22560
G1 X68.961 Y72.544 E6.23437
G1 X66.993 Y74.512 E6.30964
G1 X66.993 Y74.179 E6.31866
G1 X68.636 Y72.536 E6.38149
G1 X68.307 Y72.531 E6.39038
G1 X66.993 Y73.846 E6.44064
G1 X66.993 Y73.512 E6.44966
G1 X67.979 Y72.527 E6.48736
G1 X67.650 Y72.522 E6.49625
G1 X66.993 Y73.179 E6.52139
G1 X66.993 Y72.846 E6.53040
G1 X67.322 Y72.517 E6.54297
G1 X66.993 Y72.512 E6.55186
G1 X68.831 Y74.007 F6000.000
G1 F1080
G1 X69.027 Y73.651 E6.56285
G1 X69.319 Y73.341 E6.57438
G1 X69.656 Y73.126 E6.58520
G1 X69.749 Y73.090 E6.58789
G1 X70.258 Y72.581 E6.60734
G1 X70.582 Y72.590 E6.61612
G1 X70.192 Y72.980 E6.63102
G1 X70.271 Y72.965 E6.63317
G1 X70.524 Y72.981 E6.64006
G1 X70.906 Y72.599 E6.65465
G1 X71.230 Y72.608 E6.66342
G1 X70.813 Y73.026 E6.67938
G1 X71.052 Y73.119 E6.68633
G1 X71.553 Y72.619 E6.70549
G1 X71.873 Y72.632 E6.71416
G1 X71.275 Y73.230 E6.73703
G1 X71.464 Y73.374 E6.74346
G1 X72.194 Y72.645 E6.77136
G1 X72.514 Y72.657 E6.78003
G1 X71.626 Y73.546 E6.81401
G1 X71.772 Y73.732 E6.82043
G1 X72.835 Y72.670 E6.86105
G1 X73.155 Y72.683 E6.86972
G1 X71.884 Y73.954 E6.91831
G1 X71.979 Y74.193 E6.92526
G1 X73.475 Y72.696 E6.98249
G1 X73.796 Y72.709 E6.99116
G1 X72.026 Y74.479 E7.05887
G1 X72.026 Y74.813 E7.06788
G1 X74.116 Y72.722 E7.14785
G1 X74.437 Y72.735 E7.15652
G1 X71.890 Y75.281 E7.25390
G1 E6.75390 F1200.00000
G92 E0
G1 X66.757 Y77.362 F6000.000
G1 E0.50000 F1200.00000
G1 F1080
G1 X66.757 Y77.027 E0.50909
G1 X66.440 Y77.344 E0.52128
G1 X66.123 Y77.327 E0.52991
G1 X66.757 Y76.692 E0.55429
G1 X66.757 Y76.357 E0.56338
G1 X65.811 Y77.304 E0.59973
G1 X65.507 Y77.273 E0.60803
G1 X66.757 Y76.023 E0.65606
G1 X66.757 Y75.688 E0.66515
G1 X65.203 Y77.242 E0.72485
G1 X64.899 Y77.212 E0.73315
G1 X66.757 Y75.353 E0.80453
G1 X66.757 Y75.018 E0.81362
G1 X64.595 Y77.181 E0.89668
G1 X64.291 Y77.150 E0.90497
G1 X66.757 Y74.684 E0.99971
G1 X66.757 Y74.349 E1.00880
G1 X63.987 Y77.120 E1.11521
G1 X63.683 Y77.089 E1.12350
G1 X66.757 Y74.014 E1.24159
G1 X66.757 Y73.680 E1.25068
G1 X63.385 Y77.052 E1.38020
G1 X63.095 Y77.007 E1.38817
G1 X66.757 Y73.345 E1.52884
G1 X66.757 Y73.010 E1.53793
G1 X62.805 Y76.963 E1.68974
G1 X62.515 Y76.918 E1.69771
G1 X66.757 Y72.675 E1.86066
G1 X66.757 Y72.510 E1.86515
G1 X66.587 Y72.511 E1.86976
G1 X62.224 Y76.874 E2.03733
G1 X61.934 Y76.829 E2.04530
G1 X66.252 Y72.511 E2.21115
G1 X65.917 Y72.511 E2.22025
G1 X61.644 Y76.784 E2.38437
G1 X61.354 Y76.740 E2.39235
G1 X65.582 Y72.511 E2.55475
