; generated by Slic3r 1.3.0 on 2020-07-17 at 17:31:39

; external perimeters extrusion width = 0.44mm (2.86mm^3/s)
; perimeters extrusion width = 0.56mm (4.14mm^3/s)
; infill extrusion width = 0.50mm (5.48mm^3/s)
; solid infill extrusion width = 0.56mm (3.10mm^3/s)
; top infill extrusion width = 0.45mm (2.44mm^3/s)

M107
;D3D:START:START
T0
M104 S215 T0

G21
G90
M107
T0
G28
G29
M109 T0 S215 T0
G0 F3000
M107
T0
G92 E0
G0 X0 Y149 Z0.1 F3600
G1 Y49 E6.5 F1200
G0 Z1
G92 E0
; Filament gcode

G21 ; set units to millimeters
G90 ; use absolute coordinates
M82 ; use absolute distances for extrusion
G92 E0
G1 Z0.200 F6000.000
G1 E-2.00000 F1200.00000
G92 E0
G1 X48.928 Y46.269 F6000.000
G1 E2.00000 F1200.00000
G1 F1800
G1 X50.338 Y45.011 E2.03636
G1 X51.633 Y44.518 E2.06302
G1 X55.070 Y43.797 E2.13058
G1 X56.099 Y43.653 E2.15057
G1 X57.275 Y43.569 E2.17326
G1 X101.928 Y43.262 E3.03234
G1 X103.779 Y43.645 E3.06870
G1 X105.310 Y44.753 E3.10505
G1 X106.254 Y46.390 E3.14141
G1 X106.472 Y47.776 E3.16842
G1 X106.472 Y72.776 E3.64938
G1 X106.374 Y73.712 E3.66747
G1 X101.999 Y94.372 E4.07376
G1 X101.230 Y96.097 E4.11011
G1 X99.821 Y97.357 E4.14647
G1 X98.584 Y97.838 E4.17200
G1 X63.715 Y105.767 E4.85996
G1 X63.335 Y105.836 E4.86739
G1 X57.153 Y106.695 E4.98746
G1 X56.532 Y106.738 E4.99944
G1 X55.428 Y106.738 E5.02067
G1 X54.490 Y106.639 E5.03883
G1 X53.410 Y106.410 E5.06007
G1 X52.513 Y106.118 E5.07821
G1 X51.504 Y105.669 E5.09945
G1 X50.687 Y105.197 E5.11761
G1 X49.793 Y104.548 E5.13886
G1 X49.093 Y103.917 E5.15700
G1 X48.192 Y102.907 E5.18303
G1 X44.984 Y98.922 E5.28145
G1 X44.133 Y97.235 E5.31781
G1 X43.986 Y96.171 E5.33847
G1 X43.528 Y70.327 E5.83576
G1 X43.626 Y69.308 E5.85545
G1 X48.157 Y47.994 E6.27465
G1 X48.903 Y46.324 E6.30986
G1 X49.167 Y46.378 F6000.000
G1 F1800
G1 X50.559 Y45.182 E6.34515
G1 X51.687 Y44.769 E6.36826
G1 X55.116 Y44.050 E6.43566
G1 X56.128 Y43.908 E6.45534
G1 X57.281 Y43.826 E6.47756
G1 X101.930 Y43.519 E7.33657
G1 X103.724 Y43.903 E7.37187
G1 X105.190 Y45.005 E7.40716
G1 X106.056 Y46.623 E7.44246
G1 X106.215 Y47.776 E7.46486
G1 X106.215 Y72.776 E7.94583
G1 X106.123 Y73.658 E7.96289
G1 X101.748 Y94.318 E8.36917
G1 X100.990 Y95.989 E8.40447
G1 X99.599 Y97.186 E8.43976
G1 X98.527 Y97.587 E8.46179
G1 X63.658 Y105.516 E9.14975
G1 X63.300 Y105.582 E9.15676
G1 X57.118 Y106.440 E9.27683
G1 X56.532 Y106.481 E9.28813
G1 X55.428 Y106.481 E9.30936
G1 X54.543 Y106.388 E9.32648
G1 X53.463 Y106.158 E9.34772
G1 X52.617 Y105.883 E9.36483
G1 X51.609 Y105.434 E9.38607
G1 X50.838 Y104.989 E9.40320
G1 X49.945 Y104.340 E9.42444
G1 X49.284 Y103.745 E9.44155
G1 X48.393 Y102.746 E9.46731
G1 X45.184 Y98.761 E9.56573
G1 X44.368 Y97.118 E9.60103
G1 X44.243 Y96.167 E9.61948
G1 X43.785 Y70.322 E10.11678
G1 X43.878 Y69.361 E10.13535
G1 X48.408 Y48.048 E10.55455
G1 X49.142 Y46.432 E10.58869
G1 E8.58869 F1200.00000
G92 E0
G1 X58.240 Y96.735 F6000.000
G1 E2.00000 F1200.00000
G1 F1800
G1 X58.203 Y97.445 E2.01368
G1 X57.948 Y98.109 E2.02736
G1 X57.501 Y98.661 E2.04103
G1 X56.904 Y99.049 E2.05471
G1 X56.218 Y99.233 E2.06839
G1 X55.508 Y99.195 E2.08207
G1 X54.844 Y98.941 E2.09575
G1 X54.291 Y98.493 E2.10943
G1 X53.904 Y97.897 E2.12311
G1 X53.720 Y97.210 E2.13678
G1 X53.757 Y96.500 E2.15046
G1 X54.012 Y95.836 E2.16414
G1 X54.460 Y95.284 E2.17782
G1 X55.056 Y94.897 E2.19149
G1 X55.717 Y94.719 E2.20467
G1 X56.448 Y94.748 E2.21875
G1 X57.116 Y95.005 E2.23251
G1 X57.669 Y95.452 E2.24619
G1 X58.056 Y96.048 E2.25987
G1 X58.225 Y96.677 E2.27239
G1 X57.981 Y96.762 F6000.000
G1 F1800
G1 X57.948 Y97.391 E2.28450
G1 X57.723 Y97.979 E2.29661
G1 X57.327 Y98.468 E2.30873
G1 X56.799 Y98.811 E2.32084
G1 X56.190 Y98.974 E2.33295
G1 X55.562 Y98.941 E2.34506
G1 X54.974 Y98.715 E2.35717
G1 X54.485 Y98.319 E2.36928
G1 X54.142 Y97.791 E2.38140
G1 X53.979 Y97.183 E2.39351
G1 X54.012 Y96.554 E2.40562
G1 X54.238 Y95.967 E2.41773
G1 X54.634 Y95.477 E2.42984
G1 X55.162 Y95.134 E2.44195
G1 X55.746 Y94.978 E2.45359
G1 X56.396 Y95.003 E2.46610
G1 X56.986 Y95.230 E2.47827
G1 X57.475 Y95.626 E2.49038
G1 X57.818 Y96.154 E2.50249
G1 X57.966 Y96.704 E2.51345
G1 X57.722 Y96.790 F6000.000
G1 F1800
G1 X57.694 Y97.337 E2.52399
G1 X57.497 Y97.849 E2.53454
G1 X57.152 Y98.275 E2.54508
G1 X56.693 Y98.573 E2.55563
G1 X56.163 Y98.715 E2.56617
G1 X55.616 Y98.686 E2.57672
G1 X55.104 Y98.490 E2.58726
G1 X54.678 Y98.145 E2.59781
G1 X54.380 Y97.685 E2.60835
G1 X54.238 Y97.156 E2.61890
G1 X54.267 Y96.608 E2.62944
G1 X54.463 Y96.097 E2.63999
G1 X54.808 Y95.671 E2.65053
G1 X55.268 Y95.372 E2.66107
G1 X55.775 Y95.236 E2.67118
G1 X56.343 Y95.259 E2.68213
G1 X56.856 Y95.455 E2.69269
G1 X57.282 Y95.800 E2.70323
G1 X57.581 Y96.260 E2.71378
G1 X57.707 Y96.732 E2.72317
G1 X58.088 Y96.952 F6000.000
G1 E0.72317 F1200.00000
G92 E0
G1 X58.110 Y90.331 F6000.000
G1 E2.00000 F1200.00000
G1 F1800
G1 X57.400 Y90.294 E2.01368
G1 X56.736 Y90.039 E2.02736
G1 X56.183 Y89.592 E2.04103
G1 X55.796 Y88.996 E2.05471
G1 X55.612 Y88.309 E2.06839
G1 X55.649 Y87.599 E2.08207
G1 X55.904 Y86.935 E2.09575
G1 X56.352 Y86.383 E2.10942
G1 X56.948 Y85.995 E2.12310
G1 X57.614 Y85.817 E2.13637
G1 X58.341 Y85.847 E2.15037
G1 X59.008 Y86.104 E2.16412
G1 X59.561 Y86.551 E2.17780
G1 X59.948 Y87.147 E2.19148
G1 X60.132 Y87.834 E2.20516
G1 X60.095 Y88.544 E2.21883
G1 X59.840 Y89.208 E2.23251
G1 X59.393 Y89.760 E2.24619
G1 X58.796 Y90.148 E2.25987
G1 X58.168 Y90.316 E2.27239
G1 X58.082 Y90.073 F6000.000
G1 F1800
G1 X57.454 Y90.040 E2.28450
G1 X56.866 Y89.814 E2.29661
G1 X56.377 Y89.418 E2.30873
G1 X56.034 Y88.890 E2.32084
G1 X55.871 Y88.282 E2.33295
G1 X55.904 Y87.653 E2.34506
G1 X56.130 Y87.065 E2.35717
G1 X56.526 Y86.576 E2.36928
G1 X57.054 Y86.233 E2.38139
G1 X57.642 Y86.076 E2.39312
G1 X58.288 Y86.103 E2.40556
G1 X58.878 Y86.329 E2.41771
G1 X59.367 Y86.725 E2.42982
G1 X59.710 Y87.253 E2.44193
G1 X59.873 Y87.861 E2.45405
G1 X59.840 Y88.490 E2.46616
G1 X59.615 Y89.078 E2.47827
G1 X59.219 Y89.567 E2.49038
G1 X58.691 Y89.910 E2.50249
G1 X58.140 Y90.057 E2.51345
G1 X58.055 Y89.814 F6000.000
G1 F1800
G1 X57.508 Y89.785 E2.52399
G1 X56.996 Y89.589 E2.53454
G1 X56.570 Y89.244 E2.54508
G1 X56.272 Y88.784 E2.55563
G1 X56.130 Y88.255 E2.56617
G1 X56.159 Y87.707 E2.57672
G1 X56.355 Y87.196 E2.58726
G1 X56.700 Y86.770 E2.59781
G1 X57.160 Y86.471 E2.60835
G1 X57.671 Y86.334 E2.61854
G1 X58.236 Y86.358 E2.62941
G1 X58.748 Y86.554 E2.63997
G1 X59.174 Y86.899 E2.65052
G1 X59.473 Y87.359 E2.66106
G1 X59.614 Y87.888 E2.67161
G1 X59.586 Y88.436 E2.68215
G1 X59.389 Y88.947 E2.69269
G1 X59.044 Y89.373 E2.70324
G1 X58.585 Y89.672 E2.71378
G1 X58.113 Y89.798 E2.72317
G1 X57.893 Y90.179 F6000.000
G1 E0.72317 F1200.00000
G92 E0
G1 X59.292 Y81.393 F6000.000
G1 E2.00000 F1200.00000
G1 F1800
G1 X58.628 Y81.138 E2.01368
G1 X58.075 Y80.691 E2.02736
G1 X57.688 Y80.095 E2.04104
G1 X57.504 Y79.408 E2.05471
G1 X57.541 Y78.698 E2.06839
G1 X57.796 Y78.034 E2.08207
G1 X58.244 Y77.482 E2.09575
G1 X58.840 Y77.094 E2.10943
G1 X59.501 Y76.917 E2.12260
G1 X60.232 Y76.946 E2.13668
G1 X60.900 Y77.202 E2.15044
G1 X61.453 Y77.650 E2.16412
G1 X61.840 Y78.246 E2.17780
G1 X62.024 Y78.933 E2.19148
G1 X61.987 Y79.643 E2.20515
G1 X61.732 Y80.307 E2.21883
G1 X61.285 Y80.859 E2.23251
G1 X60.688 Y81.246 E2.24619
G1 X60.002 Y81.430 E2.25987
G1 X59.352 Y81.396 E2.27239
G1 X59.346 Y81.139 F6000.000
G1 F1800
G1 X58.758 Y80.913 E2.28450
G1 X58.269 Y80.517 E2.29661
G1 X57.926 Y79.989 E2.30873
G1 X57.763 Y79.381 E2.32084
G1 X57.796 Y78.752 E2.33295
G1 X58.022 Y78.164 E2.34506
G1 X58.418 Y77.675 E2.35717
G1 X58.946 Y77.332 E2.36928
G1 X59.530 Y77.176 E2.38092
G1 X60.180 Y77.201 E2.39343
G1 X60.770 Y77.428 E2.40560
G1 X61.259 Y77.824 E2.41771
G1 X61.602 Y78.352 E2.42982
G1 X61.765 Y78.960 E2.44193
G1 X61.732 Y79.589 E2.45404
G1 X61.507 Y80.176 E2.46616
G1 X61.110 Y80.666 E2.47827
G1 X60.583 Y81.009 E2.49038
G1 X59.974 Y81.171 E2.50249
G1 X59.406 Y81.142 E2.51345
G1 X59.400 Y80.884 F6000.000
G1 F1800
G1 X58.888 Y80.688 E2.52399
G1 X58.462 Y80.343 E2.53454
G1 X58.164 Y79.883 E2.54508
G1 X58.022 Y79.353 E2.55563
G1 X58.051 Y78.806 E2.56617
G1 X58.247 Y78.294 E2.57672
G1 X58.592 Y77.868 E2.58726
G1 X59.052 Y77.570 E2.59781
G1 X59.559 Y77.434 E2.60791
G1 X60.127 Y77.456 E2.61886
G1 X60.640 Y77.653 E2.62942
G1 X61.066 Y77.998 E2.63997
G1 X61.365 Y78.458 E2.65051
G1 X61.506 Y78.987 E2.66106
G1 X61.478 Y79.535 E2.67160
G1 X61.281 Y80.046 E2.68215
G1 X60.936 Y80.472 E2.69269
G1 X60.477 Y80.771 E2.70323
G1 X59.947 Y80.913 E2.71378
G1 X59.460 Y80.887 E2.72317
G1 X59.132 Y81.181 F6000.000
G1 E0.72317 F1200.00000
G92 E0
G1 X66.505 Y80.335 F6000.000
G1 E2.00000 F1200.00000
G1 F1800
G1 X62.202 Y100.578 E2.39813
G1 X59.436 Y99.990 E2.45254
G1 X59.066 Y100.400 E2.46317
G1 X58.286 Y100.967 E2.48172
G1 X57.405 Y101.359 E2.50027
G1 X56.462 Y101.560 E2.51882
G1 X55.498 Y101.560 E2.53737
G1 X54.555 Y101.359 E2.55592
G1 X53.674 Y100.967 E2.57447
G1 X52.894 Y100.400 E2.59302
G1 X52.249 Y99.684 E2.61157
G1 X51.767 Y98.849 E2.63012
G1 X51.469 Y97.932 E2.64867
G1 X51.411 Y97.386 E2.65922
G1 X49.239 Y95.808 E2.71088
G1 X53.542 Y75.565 E3.10901
G1 X56.308 Y76.153 E3.16342
G1 X56.678 Y75.743 E3.17405
G1 X57.458 Y75.176 E3.19260
G1 X58.339 Y74.784 E3.21115
G1 X59.282 Y74.583 E3.22970
G1 X60.246 Y74.583 E3.24825
G1 X61.189 Y74.784 E3.26680
G1 X62.070 Y75.176 E3.28535
G1 X62.850 Y75.743 E3.30390
G1 X63.495 Y76.459 E3.32245
G1 X63.978 Y77.294 E3.34100
G1 X64.276 Y78.211 E3.35955
G1 X64.333 Y78.757 E3.37010
G1 X66.456 Y80.300 E3.42061
G1 X66.791 Y80.226 F6000.000
G1 F1800
G1 X62.400 Y100.882 E3.82689
G1 X59.528 Y100.272 E3.88340
G1 X59.239 Y100.592 E3.89169
G1 X58.415 Y101.191 E3.91128
G1 X57.485 Y101.605 E3.93086
G1 X56.489 Y101.817 E3.95045
G1 X55.471 Y101.817 E3.97004
G1 X54.475 Y101.605 E3.98963
G1 X53.545 Y101.191 E4.00922
G1 X52.721 Y100.592 E4.02881
G1 X52.040 Y99.836 E4.04840
G1 X51.531 Y98.954 E4.06799
G1 X51.216 Y97.985 E4.08758
G1 X51.168 Y97.527 E4.09645
G1 X48.953 Y95.917 E4.14912
G1 X53.344 Y75.261 E4.55541
G1 X56.217 Y75.871 E4.61191
G1 X56.505 Y75.551 E4.62020
G1 X57.329 Y74.952 E4.63979
G1 X58.259 Y74.538 E4.65938
G1 X59.255 Y74.326 E4.67897
G1 X60.273 Y74.326 E4.69856
G1 X61.269 Y74.538 E4.71815
G1 X62.199 Y74.952 E4.73774
G1 X63.023 Y75.551 E4.75733
G1 X63.705 Y76.307 E4.77692
G1 X64.214 Y77.189 E4.79651
G1 X64.528 Y78.158 E4.81610
G1 X64.577 Y78.616 E4.82497
G1 X66.743 Y80.190 E4.87648
G1 X67.077 Y80.116 F6000.000
G1 F1800
G1 X62.598 Y101.187 E5.29093
G1 X59.619 Y100.554 E5.34952
G1 X59.412 Y100.784 E5.35547
G1 X58.545 Y101.415 E5.37611
G1 X57.565 Y101.851 E5.39673
G1 X56.516 Y102.074 E5.41736
G1 X55.444 Y102.074 E5.43799
G1 X54.395 Y101.851 E5.45862
G1 X53.416 Y101.415 E5.47925
G1 X52.548 Y100.784 E5.49988
G1 X51.831 Y99.987 E5.52051
G1 X51.294 Y99.059 E5.54114
G1 X50.963 Y98.039 E5.56177
G1 X50.924 Y97.668 E5.56896
G1 X48.667 Y96.027 E5.62264
G1 X53.146 Y74.956 E6.03708
G1 X56.125 Y75.589 E6.09567
G1 X56.332 Y75.359 E6.10163
G1 X57.200 Y74.728 E6.12226
G1 X58.179 Y74.292 E6.14289
G1 X59.228 Y74.069 E6.16352
G1 X60.300 Y74.069 E6.18415
G1 X61.349 Y74.292 E6.20477
G1 X62.329 Y74.728 E6.22540
G1 X63.196 Y75.359 E6.24603
G1 X63.914 Y76.156 E6.26666
G1 X64.450 Y77.084 E6.28729
G1 X64.781 Y78.104 E6.30792
G1 X64.820 Y78.475 E6.31511
G1 X67.029 Y80.081 E6.36763
G1 X66.763 Y80.363 F6000.000
G1 E4.36763 F1200.00000
G92 E0
G1 X61.582 Y80.875 F6000.000
G1 E2.00000 F1200.00000
G1 F1800
G1 X64.148 Y78.309 E2.07047
G1 X64.132 Y78.156 E2.07346
G1 X64.083 Y78.007 E2.07651
G1 X62.038 Y80.052 E2.13268
G1 X62.132 Y79.806 E2.13780
G1 X62.144 Y79.578 E2.14222
G1 X63.993 Y77.730 E2.19300
G1 X63.903 Y77.453 E2.19866
G1 X62.165 Y79.191 E2.24642
G1 X62.174 Y79.015 E2.24985
G1 X62.132 Y78.857 E2.25302
G1 X63.795 Y77.194 E2.29870
G1 X63.660 Y76.961 E2.30392
G1 X62.054 Y78.568 E2.34804
G1 X61.976 Y78.278 E2.35386
G1 X63.526 Y76.729 E2.39642
G1 X63.391 Y76.497 E2.40163
G1 X61.839 Y78.049 E2.44426
G1 X61.694 Y77.826 E2.44941
G1 X63.217 Y76.304 E2.49123
G1 X63.043 Y76.111 E2.49628
G1 X61.550 Y77.604 E2.53730
G1 X61.352 Y77.435 E2.54235
G1 X62.869 Y75.917 E2.58402
G1 X62.786 Y75.826 E2.58642
G1 X62.675 Y75.745 E2.58910
G1 X61.149 Y77.270 E2.63100
G1 X60.946 Y77.106 E2.63607
G1 X62.462 Y75.590 E2.67771
G1 X62.249 Y75.436 E2.68281
G1 X60.689 Y76.997 E2.72569
G1 X60.423 Y76.895 E2.73121
G1 X62.034 Y75.284 E2.77546
G1 X61.780 Y75.171 E2.78086
G1 X60.152 Y76.799 E2.82558
G1 X59.799 Y76.785 E2.83244
G1 X61.526 Y75.058 E2.87988
G1 X61.272 Y74.945 E2.88528
G1 X59.446 Y76.771 E2.93545
G1 X59.363 Y76.768 E2.93706
G1 X58.979 Y76.871 E2.94478
G1 X60.980 Y74.870 E2.99974
G1 X60.677 Y74.806 E3.00575
G1 X58.318 Y77.165 E3.07055
G1 X57.960 Y77.397 E3.07883
G1 X57.457 Y78.026 E3.09449
G1 E1.09449 F1200.00000
G92 E0
G1 X53.631 Y75.979 F6000.000
G1 E2.00000 F1200.00000
G1 F1800
G1 X53.849 Y75.761 E2.00599
G1 X54.152 Y75.826 E2.01200
G1 X53.532 Y76.446 E2.02904
G1 X53.432 Y76.912 E2.03829
G1 X54.455 Y75.890 E2.06637
G1 X54.757 Y75.954 E2.07238
G1 X53.333 Y77.378 E2.11149
G1 X53.234 Y77.844 E2.12074
G1 X55.060 Y76.019 E2.17089
G1 X55.363 Y76.083 E2.17690
G1 X53.135 Y78.310 E2.23808
G1 X53.036 Y78.776 E2.24733
G1 X55.665 Y76.147 E2.31955
G1 X55.968 Y76.211 E2.32556
G1 X52.937 Y79.243 E2.40882
G1 X52.838 Y79.709 E2.41807
G1 X56.271 Y76.276 E2.51237
G1 X56.509 Y76.326 E2.51710
G1 X56.960 Y75.826 E2.53018
G1 X57.428 Y75.486 E2.54141
G1 X52.739 Y80.175 E2.67020
G1 X52.640 Y80.641 E2.67945
G1 X58.225 Y75.055 E2.83288
G1 X58.528 Y74.921 E2.83930
G1 X58.781 Y74.867 E2.84433
G1 X52.541 Y81.107 E3.01573
G1 X52.442 Y81.573 E3.02498
G1 X59.247 Y74.768 E3.21191
G1 X59.418 Y74.731 E3.21531
G1 X59.650 Y74.731 E3.21982
G1 X52.343 Y82.039 E3.42055
G1 X52.244 Y82.505 E3.42980
G1 X60.017 Y74.731 E3.64333
G1 X60.375 Y74.741 E3.65027
G1 X52.145 Y82.971 E3.87633
G1 X52.045 Y83.438 E3.88559
G1 X57.675 Y77.808 E4.04021
G1 X57.446 Y78.404 E4.05260
G1 X51.946 Y83.904 E4.20367
G1 X51.847 Y84.370 E4.21292
G1 X57.380 Y78.837 E4.36489
G1 X57.360 Y79.224 E4.37242
G1 X51.748 Y84.836 E4.52656
G1 X51.649 Y85.302 E4.53581
G1 X57.412 Y79.540 E4.69409
G1 X57.489 Y79.829 E4.69991
G1 X51.550 Y85.768 E4.86305
G1 X51.451 Y86.234 E4.87230
G1 X57.573 Y80.112 E5.04046
G1 X57.717 Y80.335 E5.04561
G1 X51.352 Y86.700 E5.22046
G1 X51.253 Y87.166 E5.22972
G1 X57.862 Y80.557 E5.41125
G1 X58.013 Y80.774 E5.41637
G1 X51.154 Y87.633 E5.60478
G1 X51.055 Y88.099 E5.61403
G1 X58.216 Y80.938 E5.81072
G1 X58.418 Y81.102 E5.81579
G1 X50.956 Y88.565 E6.02078
G1 X50.857 Y89.031 E6.03003
G1 X58.626 Y81.262 E6.24343
G1 X58.891 Y81.364 E6.24895
G1 X50.757 Y89.497 E6.47235
G1 X50.658 Y89.963 E6.48161
G1 X59.156 Y81.466 E6.71502
G1 X59.347 Y81.539 E6.71898
G1 X59.445 Y81.544 E6.72089
G1 X50.559 Y90.429 E6.96496
G1 X50.460 Y90.895 E6.97421
G1 X59.794 Y81.562 E7.23058
G1 X60.144 Y81.578 E7.23740
G1 X50.361 Y91.362 E7.50612
G1 X50.262 Y91.828 E7.51537
G1 X60.646 Y81.444 E7.80058
G1 X60.903 Y81.375 E7.80576
G1 X61.412 Y81.045 E7.81755
G1 X56.325 Y86.132 E7.95728
G1 X56.733 Y85.867 E7.96673
G1 X57.039 Y85.785 E7.97288
G1 X64.183 Y78.641 E8.16910
G1 X64.198 Y78.788 E8.17198
G1 X64.316 Y78.874 E8.17482
G1 X57.521 Y85.670 E8.36147
G1 X57.874 Y85.684 E8.36832
G1 X64.529 Y79.029 E8.55113
G1 X64.742 Y79.183 E8.55623
G1 X58.226 Y85.699 E8.73520
G1 X58.285 Y85.701 E8.73634
G1 X58.506 Y85.786 E8.74094
G1 X64.954 Y79.338 E8.91806
G1 X65.167 Y79.492 E8.92316
G1 X58.771 Y85.888 E9.09884
G1 X59.035 Y85.991 E9.10434
G1 X65.379 Y79.647 E9.27861
G1 X65.592 Y79.801 E9.28372
G1 X59.237 Y86.156 E9.45826
G1 X59.440 Y86.320 E9.46333
G1 X65.804 Y79.956 E9.63813
G1 X66.017 Y80.110 E9.64324
G1 X59.643 Y86.484 E9.81831
G1 X59.788 Y86.706 E9.82346
G1 X66.230 Y80.265 E10.00039
G1 X66.328 Y80.336 E10.00276
G1 X66.275 Y80.587 E10.00773
G1 X59.933 Y86.929 E10.18193
G1 X60.077 Y87.151 E10.18708
G1 X66.176 Y81.053 E10.35460
G1 X66.077 Y81.519 E10.36385
G1 X60.155 Y87.441 E10.52652
G1 X60.232 Y87.730 E10.53234
G1 X65.978 Y81.985 E10.69015
G1 X65.878 Y82.451 E10.69941
G1 X60.275 Y88.055 E10.85333
G1 X60.254 Y88.442 E10.86086
G1 X65.779 Y82.917 E11.01262
G1 X65.680 Y83.383 E11.02188
G1 X60.168 Y88.895 E11.17328
G1 X59.956 Y89.447 E11.18476
