; generated by Slic3r 1.3.1-dev (Build (Unknown revision)) on 2020-06-19 at 09:12:11

; external perimeters extrusion width = 0.44mm (2.86mm^3/s)
; perimeters extrusion width = 0.56mm (4.14mm^3/s)
; infill extrusion width = 0.50mm (3.66mm^3/s)
; solid infill extrusion width = 0.56mm (3.10mm^3/s)
; top infill extrusion width = 0.45mm (2.44mm^3/s)

M107
G92 E0
;D3D:START:START
T0
M104 S215 T0

G21
G90
M107
T0
G28
G29
M109 T0 S215 T0
G0 F3000
M107
T0
G92 E0
G0 X0 Y149 Z0.1 F3600
G1 Y49 E6.5 F1200
G0 Z1
G92 E0
; Filament gcode

G21 ; set units to millimeters
G90 ; use absolute coordinates
M82 ; use absolute distances for extrusion
G92 E0
G1 Z0.200 F6000.000
G1 E-2.00000 F1200.00000
G92 E0
G1 Z0.700 F6000.000
G1 X1.500 Y33.486 F6000.000
G1 Z0.200 F6000.000
G1 E2.00000 F1200.00000
G1 F1800.000
G1 X146.500 Y33.486 E4.78960
G1 X148.739 Y33.883 E4.83335
G1 X150.705 Y35.025 E4.87710
G1 X152.159 Y36.774 E4.92085
G1 X152.985 Y39.382 E4.97349
G1 X154.985 Y60.382 E5.37933
G1 X155.014 Y61.000 E5.39122
G1 X155.014 Y89.000 E5.92991
G1 X154.985 Y89.618 E5.94180
G1 X152.985 Y110.618 E6.34764
G1 X152.377 Y112.809 E6.39139
G1 X151.054 Y114.658 E6.43514
G1 X149.175 Y115.940 E6.47889
G1 X146.500 Y116.514 E6.53153
G1 X1.500 Y116.514 E9.32113
G1 X-0.739 Y116.117 E9.36488
G1 X-2.705 Y114.975 E9.40863
G1 X-4.159 Y113.226 E9.45238
G1 X-5.014 Y110.000 E9.51659
G1 X-5.014 Y40.000 E10.86329
G1 X-4.617 Y37.761 E10.90704
G1 X-3.475 Y35.795 E10.95079
G1 X-1.726 Y34.341 E10.99454
G1 X1.442 Y33.501 E11.05760
G1 X1.500 Y33.743 F6000.000
G1 F1800.000
G1 X146.500 Y33.743 E13.84720
G1 X148.693 Y34.140 E13.89007
G1 X150.607 Y35.280 E13.93294
G1 X152.001 Y37.019 E13.97581
G1 X152.729 Y39.407 E14.02384
G1 X154.729 Y60.407 E14.42968
G1 X154.757 Y61.000 E14.44111
G1 X154.757 Y89.000 E14.97979
G1 X154.729 Y89.593 E14.99121
G1 X152.729 Y110.593 E15.39705
G1 X152.126 Y112.738 E15.43992
G1 X150.810 Y114.536 E15.48280
G1 X148.946 Y115.759 E15.52567
G1 X146.500 Y116.257 E15.57370
G1 X1.500 Y116.257 E18.36330
G1 X-0.693 Y115.860 E18.40617
G1 X-2.607 Y114.720 E18.44904
G1 X-4.001 Y112.981 E18.49191
G1 X-4.757 Y110.000 E18.55109
G1 X-4.757 Y40.000 E19.89779
G1 X-4.360 Y37.807 E19.94066
G1 X-3.220 Y35.893 E19.98353
G1 X-1.481 Y34.499 E20.02640
G1 X1.442 Y33.758 E20.08442
G1 E18.08442 F1200.00000
G92 E0
G1 Z0.700 F6000.000
G1 X131.250 Y79.995 F6000.000
G1 Z0.200 F6000.000
G1 E2.00000 F1200.00000
G1 F1800.000
G1 X131.268 Y79.718 E2.00534
G1 X131.320 Y79.441 E2.01077
G1 X131.407 Y79.172 E2.01621
G1 X131.528 Y78.916 E2.02166
G1 X131.679 Y78.677 E2.02709
G1 X131.859 Y78.460 E2.03252
G1 X132.065 Y78.266 E2.03796
G1 X132.295 Y78.100 E2.04341
G1 X132.542 Y77.964 E2.04884
G1 X132.805 Y77.860 E2.05427
G1 X133.078 Y77.790 E2.05970
G1 X133.359 Y77.754 E2.06515
G1 X143.641 Y77.754 E2.26297
G1 X143.922 Y77.790 E2.26842
G1 X144.195 Y77.860 E2.27385
G1 X144.458 Y77.964 E2.27928
G1 X144.705 Y78.100 E2.28471
G1 X144.935 Y78.266 E2.29016
G1 X145.141 Y78.460 E2.29560
G1 X145.321 Y78.677 E2.30103
G1 X145.472 Y78.916 E2.30646
G1 X145.593 Y79.172 E2.31191
G1 X145.680 Y79.441 E2.31734
G1 X145.732 Y79.718 E2.32277
G1 X145.750 Y79.995 E2.32812
G1 X145.750 Y100.005 E2.71308
G1 X145.732 Y100.282 E2.71842
G1 X145.680 Y100.559 E2.72385
G1 X145.593 Y100.828 E2.72929
G1 X145.472 Y101.084 E2.73474
G1 X145.321 Y101.323 E2.74016
G1 X145.141 Y101.540 E2.74560
G1 X144.935 Y101.734 E2.75104
G1 X144.705 Y101.900 E2.75648
G1 X144.458 Y102.036 E2.76192
G1 X144.196 Y102.140 E2.76735
G1 X143.922 Y102.210 E2.77278
G1 X143.641 Y102.246 E2.77822
G1 X133.359 Y102.246 E2.97605
G1 X133.078 Y102.210 E2.98150
G1 X132.804 Y102.140 E2.98692
G1 X132.542 Y102.036 E2.99236
G1 X132.295 Y101.900 E2.99779
G1 X132.065 Y101.734 E3.00324
G1 X131.859 Y101.540 E3.00867
G1 X131.679 Y101.323 E3.01411
G1 X131.528 Y101.084 E3.01954
G1 X131.407 Y100.828 E3.02498
G1 X131.320 Y100.559 E3.03042
G1 X131.268 Y100.282 E3.03585
G1 X131.250 Y100.005 E3.04120
G1 X131.250 Y80.055 E3.42500
G1 X131.016 Y79.846 F6000.000
G1 E1.42500 F1200.00000
G92 E0
G1 Z0.700 F6000.000
G1 X133.078 Y72.210 F6000.000
G1 Z0.200 F6000.000
G1 E2.00000 F1200.00000
G1 F1800.000
G1 X132.805 Y72.140 E2.00543
G1 X132.542 Y72.036 E2.01086
G1 X132.295 Y71.900 E2.01629
G1 X132.065 Y71.734 E2.02174
G1 X131.859 Y71.540 E2.02718
G1 X131.679 Y71.323 E2.03261
G1 X131.528 Y71.084 E2.03804
G1 X131.407 Y70.828 E2.04349
G1 X131.320 Y70.559 E2.04893
G1 X131.268 Y70.282 E2.05436
G1 X131.250 Y70.005 E2.05970
G1 X131.250 Y49.995 E2.44466
G1 X131.268 Y49.718 E2.45000
G1 X131.320 Y49.441 E2.45543
G1 X131.407 Y49.172 E2.46087
G1 X131.528 Y48.916 E2.46632
G1 X131.679 Y48.677 E2.47175
G1 X131.859 Y48.460 E2.47718
G1 X132.065 Y48.266 E2.48262
G1 X132.295 Y48.100 E2.48807
G1 X132.542 Y47.964 E2.49350
G1 X132.804 Y47.860 E2.49893
G1 X133.078 Y47.790 E2.50436
G1 X133.359 Y47.754 E2.50981
G1 X143.641 Y47.754 E2.70763
G1 X143.922 Y47.790 E2.71308
G1 X144.196 Y47.860 E2.71851
G1 X144.458 Y47.964 E2.72394
G1 X144.705 Y48.100 E2.72937
G1 X144.935 Y48.266 E2.73482
G1 X145.141 Y48.460 E2.74026
G1 X145.321 Y48.677 E2.74569
G1 X145.472 Y48.916 E2.75112
G1 X145.593 Y49.172 E2.75656
G1 X145.680 Y49.441 E2.76201
G1 X145.732 Y49.718 E2.76743
G1 X145.750 Y49.995 E2.77278
G1 X145.750 Y70.005 E3.15774
G1 X145.732 Y70.282 E3.16308
G1 X145.680 Y70.559 E3.16851
G1 X145.593 Y70.828 E3.17395
G1 X145.472 Y71.084 E3.17940
G1 X145.321 Y71.323 E3.18482
G1 X145.141 Y71.540 E3.19026
G1 X144.935 Y71.734 E3.19570
G1 X144.705 Y71.900 E3.20114
G1 X144.458 Y72.036 E3.20658
G1 X144.195 Y72.140 E3.21201
G1 X143.922 Y72.210 E3.21744
G1 X143.641 Y72.246 E3.22288
G1 X133.359 Y72.246 E3.42071
G1 X133.137 Y72.218 E3.42500
G1 X132.898 Y72.428 F6000.000
G1 E1.42500 F1200.00000
G92 E0
G1 Z0.700 F6000.000
G1 X125.529 Y78.526 F6000.000
G1 Z0.200 F6000.000
G1 E2.00000 F1200.00000
G1 F1800.000
G1 X125.697 Y78.792 E2.00605
G1 X125.832 Y79.077 E2.01211
G1 X125.929 Y79.377 E2.01818
G1 X125.988 Y79.686 E2.02423
G1 X126.007 Y79.987 E2.03004
G1 X126.007 Y100.013 E2.41531
G1 X125.988 Y100.314 E2.42112
G1 X125.929 Y100.623 E2.42716
G1 X125.832 Y100.923 E2.43324
G1 X125.697 Y101.208 E2.43931
G1 X125.529 Y101.474 E2.44535
G1 X125.328 Y101.717 E2.45141
G1 X125.099 Y101.932 E2.45747
G1 X124.843 Y102.118 E2.46354
G1 X124.568 Y102.269 E2.46959
G1 X124.275 Y102.385 E2.47565
G1 X123.971 Y102.463 E2.48170
G1 X123.658 Y102.503 E2.48777
G1 X113.342 Y102.503 E2.68622
G1 X113.029 Y102.463 E2.69229
G1 X112.725 Y102.385 E2.69834
G1 X112.432 Y102.269 E2.70439
G1 X112.157 Y102.118 E2.71044
G1 X111.901 Y101.932 E2.71651
G1 X111.672 Y101.717 E2.72258
G1 X111.471 Y101.474 E2.72864
G1 X111.303 Y101.208 E2.73468
G1 X111.168 Y100.923 E2.74075
G1 X111.071 Y100.623 E2.74682
G1 X111.012 Y100.314 E2.75286
G1 X110.993 Y100.013 E2.75867
G1 X110.993 Y79.987 E3.14395
G1 X111.012 Y79.686 E3.14976
G1 X111.071 Y79.377 E3.15580
G1 X111.168 Y79.077 E3.16187
G1 X111.303 Y78.792 E3.16794
G1 X111.471 Y78.526 E3.17398
G1 X111.672 Y78.283 E3.18004
G1 X111.901 Y78.068 E3.18611
G1 X112.157 Y77.882 E3.19218
G1 X112.432 Y77.731 E3.19823
G1 X112.725 Y77.615 E3.20428
G1 X113.030 Y77.537 E3.21034
G1 X113.342 Y77.497 E3.21640
G1 X123.658 Y77.497 E3.41485
G1 X123.970 Y77.537 E3.42092
G1 X124.275 Y77.615 E3.42697
G1 X124.568 Y77.731 E3.43303
G1 X124.843 Y77.882 E3.43908
G1 X125.099 Y78.068 E3.44515
G1 X125.328 Y78.283 E3.45121
G1 X125.491 Y78.480 E3.45612
G1 X125.321 Y78.677 F6000.000
G1 F1800.000
G1 X125.472 Y78.916 E3.46155
G1 X125.593 Y79.172 E3.46699
G1 X125.680 Y79.441 E3.47243
G1 X125.732 Y79.718 E3.47786
G1 X125.750 Y79.995 E3.48320
G1 X125.750 Y100.005 E3.86816
G1 X125.732 Y100.282 E3.87351
G1 X125.680 Y100.559 E3.87894
G1 X125.593 Y100.828 E3.88438
G1 X125.472 Y101.084 E3.88982
G1 X125.321 Y101.323 E3.89525
G1 X125.141 Y101.540 E3.90068
G1 X124.935 Y101.734 E3.90612
G1 X124.705 Y101.900 E3.91157
G1 X124.458 Y102.036 E3.91700
G1 X124.195 Y102.140 E3.92243
G1 X123.922 Y102.210 E3.92786
G1 X123.641 Y102.246 E3.93331
G1 X113.359 Y102.246 E4.13114
G1 X113.078 Y102.210 E4.13658
G1 X112.804 Y102.140 E4.14201
G1 X112.542 Y102.036 E4.14744
G1 X112.295 Y101.900 E4.15287
G1 X112.065 Y101.734 E4.15832
G1 X111.859 Y101.540 E4.16376
G1 X111.679 Y101.323 E4.16919
G1 X111.528 Y101.084 E4.17462
G1 X111.407 Y100.828 E4.18007
G1 X111.320 Y100.559 E4.18551
G1 X111.268 Y100.282 E4.19094
G1 X111.250 Y100.005 E4.19628
G1 X111.250 Y79.995 E4.58124
G1 X111.268 Y79.718 E4.58658
G1 X111.320 Y79.441 E4.59201
G1 X111.407 Y79.172 E4.59745
G1 X111.528 Y78.916 E4.60290
G1 X111.679 Y78.677 E4.60833
G1 X111.859 Y78.460 E4.61376
G1 X112.065 Y78.266 E4.61920
G1 X112.295 Y78.100 E4.62465
G1 X112.542 Y77.964 E4.63008
G1 X112.805 Y77.860 E4.63551
G1 X113.078 Y77.790 E4.64094
G1 X113.359 Y77.754 E4.64639
G1 X123.641 Y77.754 E4.84421
G1 X123.922 Y77.790 E4.84966
G1 X124.195 Y77.860 E4.85509
G1 X124.458 Y77.964 E4.86052
G1 X124.705 Y78.100 E4.86595
G1 X124.935 Y78.266 E4.87140
G1 X125.141 Y78.460 E4.87684
G1 X125.282 Y78.631 E4.88112
G1 X125.601 Y78.648 F6000.000
G1 E2.88112 F1200.00000
G92 E0
G1 Z0.700 F6000.000
G1 X110.367 Y84.261 F6000.000
G1 Z0.200 F6000.000
G1 E2.00000 F1200.00000
G1 F1800.000
G1 X110.449 Y84.513 E2.00511
G1 X110.510 Y85.000 E2.01455
G1 X110.449 Y85.487 E2.02399
G1 X110.367 Y85.739 E2.02910
G1 X110.254 Y85.979 E2.03420
G1 X109.973 Y86.366 E2.04339
G1 X109.771 Y86.556 E2.04873
G1 X109.356 Y86.819 E2.05819
G1 X108.889 Y86.971 E2.06762
G1 X108.625 Y87.004 E2.07274
G1 X108.375 Y87.004 E2.07756
G1 X108.124 Y86.972 E2.08243
G1 X107.880 Y86.910 E2.08727
G1 X107.633 Y86.812 E2.09237
G1 X107.218 Y86.549 E2.10183
G1 X106.883 Y86.191 E2.11126
G1 X106.741 Y85.968 E2.11635
G1 X106.633 Y85.739 E2.12121
G1 X106.551 Y85.487 E2.12632
G1 X106.490 Y85.000 E2.13576
G1 X106.551 Y84.513 E2.14520
G1 X106.633 Y84.261 E2.15031
G1 X106.746 Y84.021 E2.15542
G1 X107.027 Y83.635 E2.16460
G1 X107.229 Y83.444 E2.16994
G1 X107.644 Y83.181 E2.17940
G1 X108.111 Y83.029 E2.18884
G1 X108.374 Y82.996 E2.19395
G1 X108.626 Y82.996 E2.19878
G1 X108.876 Y83.028 E2.20364
G1 X109.120 Y83.090 E2.20849
G1 X109.366 Y83.188 E2.21358
G1 X109.782 Y83.451 E2.22304
G1 X110.117 Y83.809 E2.23247
G1 X110.259 Y84.032 E2.23756
G1 X110.341 Y84.206 E2.24127
G1 X110.128 Y84.356 F6000.000
G1 F1800.000
G1 X110.197 Y84.569 E2.24559
G1 X110.251 Y85.000 E2.25395
G1 X110.197 Y85.431 E2.26230
G1 X110.128 Y85.644 E2.26662
G1 X110.032 Y85.848 E2.27095
G1 X109.779 Y86.195 E2.27921
G1 X109.612 Y86.352 E2.28361
G1 X109.245 Y86.584 E2.29197
G1 X108.833 Y86.719 E2.30032
G1 X108.609 Y86.747 E2.30465
G1 X108.391 Y86.747 E2.30886
G1 X108.172 Y86.719 E2.31310
G1 X107.960 Y86.665 E2.31732
G1 X107.751 Y86.582 E2.32164
G1 X107.384 Y86.349 E2.33000
G1 X107.087 Y86.033 E2.33834
G1 X106.966 Y85.843 E2.34266
G1 X106.872 Y85.644 E2.34690
G1 X106.803 Y85.431 E2.35122
G1 X106.749 Y85.000 E2.35957
G1 X106.803 Y84.569 E2.36792
G1 X106.872 Y84.356 E2.37225
G1 X106.968 Y84.152 E2.37657
G1 X107.221 Y83.805 E2.38483
G1 X107.388 Y83.648 E2.38924
G1 X107.755 Y83.415 E2.39760
G1 X108.167 Y83.281 E2.40594
G1 X108.391 Y83.253 E2.41028
G1 X108.609 Y83.253 E2.41449
G1 X108.828 Y83.281 E2.41873
G1 X109.040 Y83.335 E2.42295
G1 X109.249 Y83.418 E2.42727
G1 X109.616 Y83.651 E2.43563
G1 X109.913 Y83.967 E2.44397
G1 X110.102 Y84.301 E2.45136
G1 X110.350 Y84.388 F6000.000
G1 E0.45136 F1200.00000
G92 E0
G1 Z0.700 F6000.000
G1 X106.007 Y79.987 F6000.000
G1 Z0.200 F6000.000
G1 E2.00000 F1200.00000
G1 F1800.000
G1 X106.007 Y100.013 E2.38528
G1 X105.988 Y100.314 E2.39109
G1 X105.929 Y100.623 E2.39713
G1 X105.832 Y100.923 E2.40320
G1 X105.697 Y101.208 E2.40927
G1 X105.529 Y101.474 E2.41531
G1 X105.328 Y101.717 E2.42137
G1 X105.099 Y101.932 E2.42744
G1 X104.843 Y102.118 E2.43351
G1 X104.568 Y102.269 E2.43956
G1 X104.275 Y102.385 E2.44561
G1 X103.971 Y102.463 E2.45166
G1 X103.658 Y102.503 E2.45773
G1 X93.342 Y102.503 E2.65618
G1 X93.030 Y102.463 E2.66224
G1 X92.725 Y102.385 E2.66830
G1 X92.432 Y102.269 E2.67436
G1 X92.156 Y102.118 E2.68041
G1 X91.901 Y101.932 E2.68648
G1 X91.672 Y101.717 E2.69254
G1 X91.471 Y101.474 E2.69859
G1 X91.302 Y101.208 E2.70465
G1 X91.168 Y100.923 E2.71071
G1 X91.071 Y100.624 E2.71677
G1 X91.012 Y100.314 E2.72283
G1 X90.993 Y100.013 E2.72864
G1 X90.993 Y79.987 E3.11391
G1 X91.012 Y79.686 E3.11972
G1 X91.071 Y79.376 E3.12578
G1 X91.168 Y79.077 E3.13184
G1 X91.302 Y78.792 E3.13790
G1 X91.471 Y78.526 E3.14395
G1 X91.672 Y78.283 E3.15001
G1 X91.901 Y78.068 E3.15607
G1 X92.156 Y77.883 E3.16213
G1 X92.432 Y77.731 E3.16819
G1 X92.725 Y77.615 E3.17425
G1 X93.030 Y77.537 E3.18031
G1 X93.342 Y77.497 E3.18637
G1 X103.658 Y77.497 E3.38481
G1 X103.970 Y77.537 E3.39088
G1 X104.275 Y77.615 E3.39693
G1 X104.568 Y77.731 E3.40299
G1 X104.843 Y77.882 E3.40904
G1 X105.099 Y78.068 E3.41511
G1 X105.328 Y78.283 E3.42117
G1 X105.529 Y78.526 E3.42723
G1 X105.697 Y78.792 E3.43328
G1 X105.832 Y79.077 E3.43935
G1 X105.929 Y79.377 E3.44542
G1 X105.988 Y79.686 E3.45146
G1 X106.003 Y79.927 E3.45611
G1 X105.750 Y79.995 F6000.000
G1 F1800.000
G1 X105.750 Y100.005 E3.84107
G1 X105.732 Y100.282 E3.84642
G1 X105.680 Y100.559 E3.85185
G1 X105.593 Y100.828 E3.85729
G1 X105.472 Y101.084 E3.86273
G1 X105.321 Y101.323 E3.86816
G1 X105.141 Y101.540 E3.87360
G1 X104.935 Y101.734 E3.87903
G1 X104.705 Y101.900 E3.88448
G1 X104.458 Y102.036 E3.88991
G1 X104.195 Y102.140 E3.89534
G1 X103.922 Y102.210 E3.90077
G1 X103.641 Y102.246 E3.90622
G1 X93.359 Y102.246 E4.10405
G1 X93.078 Y102.210 E4.10948
G1 X92.805 Y102.140 E4.11492
G1 X92.542 Y102.036 E4.12035
G1 X92.294 Y101.900 E4.12579
G1 X92.066 Y101.734 E4.13123
G1 X91.860 Y101.540 E4.13667
G1 X91.680 Y101.323 E4.14210
G1 X91.528 Y101.084 E4.14754
G1 X91.408 Y100.828 E4.15297
G1 X91.320 Y100.560 E4.15841
G1 X91.267 Y100.282 E4.16385
G1 X91.250 Y100.005 E4.16919
G1 X91.250 Y79.995 E4.55415
G1 X91.267 Y79.718 E4.55949
G1 X91.320 Y79.440 E4.56493
G1 X91.408 Y79.172 E4.57037
G1 X91.528 Y78.916 E4.57580
G1 X91.680 Y78.677 E4.58124
G1 X91.860 Y78.460 E4.58668
G1 X92.066 Y78.266 E4.59211
G1 X92.294 Y78.100 E4.59755
G1 X92.542 Y77.964 E4.60299
G1 X92.805 Y77.860 E4.60842
G1 X93.078 Y77.790 E4.61386
G1 X93.359 Y77.754 E4.61930
G1 X103.641 Y77.754 E4.81712
G1 X103.922 Y77.790 E4.82257
G1 X104.195 Y77.860 E4.82800
G1 X104.458 Y77.964 E4.83343
G1 X104.705 Y78.100 E4.83886
G1 X104.935 Y78.266 E4.84431
G1 X105.141 Y78.460 E4.84974
G1 X105.321 Y78.677 E4.85518
G1 X105.472 Y78.916 E4.86061
G1 X105.593 Y79.172 E4.86605
G1 X105.680 Y79.441 E4.87149
G1 X105.732 Y79.718 E4.87692
G1 X105.746 Y79.935 E4.88111
G1 X106.105 Y80.180 F6000.000
G1 E2.88111 F1200.00000
G92 E0
G1 Z0.700 F6000.000
G1 X90.445 Y84.501 F6000.000
G1 Z0.200 F6000.000
G1 E2.00000 F1200.00000
G1 F1800.000
G1 X90.492 Y84.748 E2.00485
G1 X90.508 Y85.000 E2.00970
G1 X90.492 Y85.252 E2.01455
G1 X90.445 Y85.499 E2.01941
G1 X90.367 Y85.739 E2.02426
G1 X90.260 Y85.967 E2.02911
G1 X90.124 Y86.180 E2.03396
G1 X89.964 Y86.375 E2.03881
G1 X89.780 Y86.547 E2.04366
G1 X89.576 Y86.695 E2.04851
G1 X89.355 Y86.817 E2.05336
G1 X89.121 Y86.910 E2.05821
G1 X88.876 Y86.972 E2.06307
G1 X88.626 Y87.004 E2.06792
G1 X88.374 Y87.004 E2.07277
G1 X88.124 Y86.972 E2.07762
G1 X87.879 Y86.910 E2.08247
G1 X87.645 Y86.817 E2.08732
G1 X87.424 Y86.695 E2.09217
G1 X87.220 Y86.547 E2.09702
G1 X87.036 Y86.375 E2.10187
G1 X86.876 Y86.180 E2.10672
G1 X86.740 Y85.967 E2.11158
G1 X86.633 Y85.739 E2.11643
G1 X86.555 Y85.499 E2.12128
G1 X86.508 Y85.252 E2.12613
G1 X86.492 Y85.000 E2.13098
G1 X86.508 Y84.748 E2.13583
G1 X86.555 Y84.501 E2.14068
G1 X86.633 Y84.261 E2.14553
G1 X86.740 Y84.033 E2.15038
G1 X86.876 Y83.820 E2.15523
G1 X87.036 Y83.626 E2.16008
G1 X87.220 Y83.453 E2.16494
G1 X87.424 Y83.305 E2.16979
G1 X87.645 Y83.183 E2.17464
G1 X87.880 Y83.090 E2.17949
G1 X88.124 Y83.028 E2.18434
G1 X88.374 Y82.996 E2.18919
G1 X88.626 Y82.996 E2.19404
G1 X88.876 Y83.028 E2.19889
G1 X89.120 Y83.090 E2.20374
G1 X89.355 Y83.183 E2.20860
G1 X89.576 Y83.305 E2.21345
G1 X89.780 Y83.453 E2.21830
G1 X89.964 Y83.626 E2.22315
G1 X90.124 Y83.820 E2.22800
G1 X90.260 Y84.033 E2.23285
G1 X90.367 Y84.261 E2.23770
G1 X90.426 Y84.444 E2.24140
G1 X90.195 Y84.565 F6000.000
G1 F1800.000
