; generated by Slic3r 1.3.0 on 2020-07-15 at 14:31:19

; external perimeters extrusion width = 0.44mm (2.86mm^3/s)
; perimeters extrusion width = 0.56mm (4.14mm^3/s)
; infill extrusion width = 0.50mm (3.66mm^3/s)
; solid infill extrusion width = 0.56mm (3.10mm^3/s)
; top infill extrusion width = 0.45mm (2.44mm^3/s)

M107
;D3D:START:START
T0
M104 S215 T0

G21
G90
M107
T0
G28
G29
M109 T0 S215 T0
G0 F3000
M107
T0
G92 E0
G0 X0 Y149 Z0.1 F3600
G1 Y49 E6.5 F1200
G0 Z1
G92 E0
; Filament gcode

G21 ; set units to millimeters
G90 ; use absolute coordinates
M82 ; use absolute distances for extrusion
G92 E0
G1 Z0.200 F6000.000
G1 E-2.00000 F1200.00000
G92 E0
G1 Z0.700 F6000.000
G1 X20.429 Y108.619 F6000.000
G1 Z0.200 F6000.000
G1 E2.00000 F1200.00000
G1 F1800
G1 X113.411 Y23.088 E4.43056
G1 X115.328 Y21.864 E4.47431
G1 X117.549 Y21.374 E4.51806
G1 X118.953 Y21.467 E4.54513
G1 X125.846 Y22.683 E4.67980
G1 X127.982 Y23.463 E4.72355
G1 X129.720 Y24.929 E4.76730
G1 X130.848 Y26.904 E4.81105
G1 X131.158 Y30.058 E4.87204
G1 X129.562 Y39.124 E5.04914
G1 X129.038 Y40.773 E5.08241
G1 X119.126 Y61.779 E5.52927
G1 X116.129 Y67.925 E5.66082
G1 X115.916 Y68.327 E5.66957
G1 X112.539 Y74.176 E5.79951
G1 X112.298 Y74.561 E5.80825
G1 X108.521 Y80.160 E5.93819
G1 X108.254 Y80.528 E5.94693
G1 X104.096 Y85.850 E6.07687
G1 X103.804 Y86.198 E6.08560
G1 X99.284 Y91.218 E6.21555
G1 X98.968 Y91.545 E6.22430
G1 X94.110 Y96.236 E6.35423
G1 X93.772 Y96.540 E6.36298
G1 X88.598 Y100.882 E6.49292
G1 X88.240 Y101.162 E6.50166
G1 X82.776 Y105.131 E6.63159
G1 X82.399 Y105.386 E6.64034
G1 X76.672 Y108.965 E6.77028
G1 X76.278 Y109.192 E6.77902
G1 X70.315 Y112.363 E6.90896
G1 X33.890 Y130.476 E7.69159
G1 X30.989 Y131.157 E7.74890
G1 X24.839 Y131.157 E7.86722
G1 X22.600 Y130.760 E7.91097
G1 X20.634 Y129.618 E7.95472
G1 X19.180 Y127.869 E7.99847
G1 X18.325 Y124.643 E8.06268
G1 X18.325 Y113.413 E8.27873
G1 X18.722 Y111.174 E8.32248
G1 X20.396 Y108.669 E8.38044
G1 X20.603 Y108.808 F6000.000
G1 F1800
G1 X113.585 Y23.277 E10.81100
G1 X115.468 Y22.085 E10.85387
G1 X117.649 Y21.628 E10.89674
G1 X118.908 Y21.720 E10.92103
G1 X125.802 Y22.936 E11.05570
G1 X127.892 Y23.708 E11.09858
G1 X129.580 Y25.163 E11.14145
G1 X130.650 Y27.117 E11.18432
G1 X130.904 Y30.021 E11.24039
G1 X129.309 Y39.080 E11.41735
G1 X128.805 Y40.663 E11.44931
G1 X118.894 Y61.669 E11.89618
G1 X115.898 Y67.812 E12.02766
G1 X115.693 Y68.198 E12.03607
G1 X112.316 Y74.047 E12.16600
G1 X112.085 Y74.417 E12.17440
G1 X108.308 Y80.017 E12.30434
G1 X108.051 Y80.370 E12.31274
G1 X103.893 Y85.692 E12.44267
G1 X103.613 Y86.026 E12.45107
G1 X99.093 Y91.046 E12.58101
G1 X98.790 Y91.360 E12.58941
G1 X93.932 Y96.051 E12.71934
G1 X93.607 Y96.343 E12.72775
G1 X88.433 Y100.685 E12.85769
G1 X88.089 Y100.954 E12.86608
G1 X82.625 Y104.924 E12.99602
G1 X82.263 Y105.168 E13.00442
G1 X76.536 Y108.747 E13.13436
G1 X76.157 Y108.965 E13.14275
G1 X70.194 Y112.136 E13.27269
G1 X33.775 Y130.246 E14.05519
G1 X30.989 Y130.900 E14.11024
G1 X24.839 Y130.900 E14.22856
G1 X22.647 Y130.503 E14.27143
G1 X20.732 Y129.363 E14.31430
G1 X19.338 Y127.625 E14.35717
G1 X18.582 Y124.643 E14.41634
G1 X18.582 Y113.413 E14.63239
G1 X18.979 Y111.220 E14.67527
G1 X20.570 Y108.858 E14.73006
G1 E12.73006 F1200.00000
G92 E0
G1 Z0.700 F6000.000
G1 X30.325 Y115.532 F6000.000
G1 Z0.200 F6000.000
G1 E2.00000 F1200.00000
G1 F1800
G1 X30.325 Y123.979 E2.16252
G1 X25.504 Y123.979 E2.25528
G1 X25.504 Y114.077 E2.44577
G1 X30.325 Y114.077 E2.53854
G1 X30.325 Y114.507 E2.54681
G1 X34.777 Y114.196 E2.63267
G1 X41.347 Y113.273 E2.76030
G1 X47.840 Y111.893 E2.88801
G1 X54.219 Y110.064 E3.01568
G1 X60.455 Y107.794 E3.14335
G1 X66.517 Y105.095 E3.27101
G1 X72.376 Y101.980 E3.39868
G1 X77.146 Y98.999 E3.50690
G1 X78.004 Y98.463 E3.52636
G1 X83.373 Y94.562 E3.65402
G1 X88.456 Y90.297 E3.78169
G1 X93.230 Y85.687 E3.90936
G1 X97.670 Y80.755 E4.03703
G1 X101.756 Y75.526 E4.16470
G1 X105.467 Y70.024 E4.29238
G1 X108.785 Y64.278 E4.42003
G1 X111.693 Y58.315 E4.54766
G1 X114.180 Y52.160 E4.67537
G1 X116.231 Y45.848 E4.80306
G1 X117.836 Y39.410 E4.93071
G1 X118.661 Y34.732 E5.02209
G1 X117.484 Y33.618 E5.05326
G1 X118.360 Y28.652 E5.15028
G1 X123.946 Y29.637 E5.25939
G1 X122.608 Y37.222 E5.40758
G1 X120.986 Y36.933 E5.43928
G1 X119.549 Y35.578 E5.47728
G1 X118.836 Y39.623 E5.55630
G1 X117.213 Y46.131 E5.68534
G1 X115.140 Y52.510 E5.81438
G1 X112.628 Y58.729 E5.94342
G1 X109.687 Y64.758 E6.07246
G1 X106.334 Y70.566 E6.20151
G1 X102.583 Y76.127 E6.33055
G1 X98.453 Y81.413 E6.45959
G1 X93.965 Y86.397 E6.58863
G1 X89.140 Y91.056 E6.71767
G1 X84.002 Y95.368 E6.84671
G1 X78.576 Y99.310 E6.97576
G1 X72.888 Y102.865 E7.10480
G1 X71.851 Y103.416 E7.12737
G1 X66.965 Y106.014 E7.23384
G1 X60.838 Y108.742 E7.36288
G1 X54.535 Y111.036 E7.49192
G1 X48.087 Y112.885 E7.62096
G1 X41.526 Y114.279 E7.75000
G1 X34.884 Y115.213 E7.87905
G1 X30.385 Y115.527 E7.96581
G1 X30.582 Y115.771 F6000.000
G1 F1800
G1 X30.582 Y124.236 E8.12866
G1 X25.247 Y124.236 E8.23132
G1 X25.247 Y113.820 E8.43170
G1 X30.582 Y113.820 E8.53436
G1 X30.582 Y114.232 E8.54228
G1 X34.751 Y113.940 E8.62266
G1 X41.302 Y113.020 E8.74994
G1 X47.778 Y111.643 E8.87731
G1 X54.139 Y109.819 E9.00463
G1 X60.358 Y107.555 E9.13195
G1 X66.404 Y104.864 E9.25927
G1 X72.248 Y101.757 E9.38660
G1 X77.010 Y98.781 E9.49464
G1 X77.860 Y98.250 E9.51392
G1 X83.214 Y94.360 E9.64125
G1 X88.284 Y90.106 E9.76857
G1 X93.045 Y85.508 E9.89589
G1 X97.473 Y80.590 E10.02321
G1 X101.548 Y75.375 E10.15054
G1 X105.249 Y69.888 E10.27787
G1 X108.558 Y64.157 E10.40518
G1 X111.458 Y58.211 E10.53246
G1 X113.938 Y52.072 E10.65983
G1 X115.983 Y45.777 E10.78717
G1 X117.584 Y39.357 E10.91448
G1 X118.383 Y34.824 E11.00303
G1 X117.207 Y33.709 E11.03420
G1 X118.152 Y28.354 E11.13882
G1 X124.243 Y29.428 E11.25783
G1 X122.817 Y37.520 E11.41591
G1 X120.865 Y37.173 E11.45405
G1 X119.719 Y36.092 E11.48435
G1 X119.087 Y39.676 E11.55437
G1 X117.460 Y46.202 E11.68376
G1 X115.382 Y52.598 E11.81314
G1 X112.863 Y58.834 E11.94253
G1 X109.914 Y64.878 E12.07192
G1 X106.552 Y70.703 E12.20130
G1 X102.791 Y76.278 E12.33069
G1 X98.650 Y81.578 E12.46008
G1 X94.150 Y86.576 E12.58946
G1 X89.312 Y91.248 E12.71885
G1 X84.161 Y95.571 E12.84824
G1 X78.720 Y99.524 E12.97762
G1 X73.016 Y103.088 E13.10701
G1 X71.972 Y103.643 E13.12976
G1 X67.078 Y106.245 E13.23640
G1 X60.934 Y108.980 E13.36579
G1 X54.614 Y111.281 E13.49517
G1 X48.149 Y113.134 E13.62456
G1 X41.571 Y114.533 E13.75395
G1 X34.911 Y115.469 E13.88333
G1 X30.642 Y115.767 E13.96566
G1 X30.839 Y116.011 F6000.000
G1 F1800
G1 X30.839 Y124.493 E14.12884
G1 X24.989 Y124.493 E14.24139
G1 X24.989 Y113.563 E14.45167
G1 X30.839 Y113.563 E14.56421
G1 X30.839 Y113.956 E14.57177
G1 X34.724 Y113.684 E14.64668
G1 X41.257 Y112.766 E14.77362
G1 X47.715 Y111.394 E14.90064
G1 X54.060 Y109.574 E15.02762
G1 X60.262 Y107.317 E15.15459
G1 X66.292 Y104.633 E15.28157
G1 X72.119 Y101.534 E15.40855
G1 X76.874 Y98.563 E15.51641
G1 X77.717 Y98.036 E15.53553
G1 X83.056 Y94.157 E15.66250
G1 X88.112 Y89.914 E15.78948
G1 X92.860 Y85.330 E15.91646
G1 X97.276 Y80.425 E16.04344
G1 X101.340 Y75.224 E16.17041
G1 X105.031 Y69.751 E16.29740
G1 X108.330 Y64.036 E16.42437
G1 X111.223 Y58.106 E16.55130
G1 X113.696 Y51.984 E16.67833
G1 X115.736 Y45.706 E16.80532
G1 X117.332 Y39.303 E16.93228
G1 X118.106 Y34.915 E17.01800
G1 X116.930 Y33.801 E17.04917
G1 X117.943 Y28.056 E17.16140
G1 X124.541 Y29.220 E17.29030
G1 X123.025 Y37.819 E17.45828
G1 X120.744 Y37.412 E17.50285
G1 X119.890 Y36.606 E17.52545
G1 X119.339 Y39.730 E17.58647
G1 X117.708 Y46.273 E17.71621
G1 X115.624 Y52.686 E17.84594
G1 X113.098 Y58.938 E17.97567
G1 X110.142 Y64.999 E18.10540
G1 X106.770 Y70.839 E18.23514
G1 X102.999 Y76.429 E18.36487
G1 X98.847 Y81.743 E18.49460
G1 X94.335 Y86.754 E18.62433
G1 X89.485 Y91.439 E18.75406
G1 X84.319 Y95.773 E18.88380
G1 X78.863 Y99.737 E19.01353
G1 X73.145 Y103.310 E19.14326
G1 X72.093 Y103.870 E19.16618
G1 X67.191 Y106.476 E19.27299
G1 X61.030 Y109.219 E19.40273
G1 X54.694 Y111.525 E19.53246
G1 X48.212 Y113.384 E19.66219
G1 X41.616 Y114.786 E19.79192
G1 X34.938 Y115.724 E19.92165
G1 X30.899 Y116.007 E19.99954
G1 X30.440 Y116.026 F6000.000
G1 X30.177 Y115.409 F6000.000
G1 F1800
G1 X25.652 Y119.935 E20.12353
G1 X25.652 Y120.301 E20.13062
G1 X30.177 Y115.775 E20.25461
G1 X30.177 Y116.141 E20.26170
G1 X25.652 Y120.667 E20.38568
G1 X25.652 Y121.033 E20.39278
G1 X30.177 Y116.508 E20.51676
G1 X30.177 Y116.874 E20.52385
G1 X25.652 Y121.399 E20.64784
G1 X25.652 Y121.765 E20.65493
G1 X30.177 Y117.240 E20.77892
G1 X30.177 Y117.606 E20.78601
G1 X25.652 Y122.131 E20.91000
G1 X25.652 Y122.498 E20.91709
G1 X30.177 Y117.972 E21.04107
G1 X30.177 Y118.338 E21.04817
G1 X25.652 Y122.864 E21.17215
G1 X25.652 Y123.230 E21.17924
G1 X30.177 Y118.704 E21.30323
G1 X30.177 Y119.070 E21.31032
G1 X25.652 Y123.596 E21.43431
G1 X25.652 Y123.831 E21.43886
G1 X25.783 Y123.831 E21.44140
G1 X30.177 Y119.436 E21.56180
G1 X30.177 Y119.802 E21.56889
G1 X26.149 Y123.831 E21.67926
G1 X26.515 Y123.831 E21.68635
G1 X30.177 Y120.168 E21.78670
G1 X30.177 Y120.534 E21.79379
G1 X26.881 Y123.831 E21.88410
G1 X27.247 Y123.831 E21.89119
G1 X30.177 Y120.901 E21.97147
G1 X30.177 Y121.267 E21.97857
G1 X27.613 Y123.831 E22.04882
G1 X27.979 Y123.831 E22.05591
G1 X30.177 Y121.633 E22.11614
G1 X30.177 Y121.999 E22.12323
G1 X28.345 Y123.831 E22.17343
G1 X28.711 Y123.831 E22.18052
G1 X30.177 Y122.365 E22.22068
G1 X30.177 Y122.731 E22.22778
G1 X29.077 Y123.831 E22.25791
G1 X29.443 Y123.831 E22.26500
G1 X30.177 Y123.097 E22.28511
G1 X30.177 Y123.463 E22.29220
G1 X29.809 Y123.831 E22.30228
G1 E20.30228 F1200.00000
G92 E0
G1 Z0.700 F6000.000
G1 X25.652 Y114.443 F6000.000
G1 Z0.200 F6000.000
G1 E2.00000 F1200.00000
G1 F1800
G1 X25.870 Y114.225 E2.00598
G1 X26.236 Y114.225 E2.01307
G1 X25.652 Y114.810 E2.02908
G1 X25.652 Y115.176 E2.03617
G1 X26.602 Y114.225 E2.06222
G1 X26.968 Y114.225 E2.06931
G1 X25.652 Y115.542 E2.10538
G1 X25.652 Y115.908 E2.11247
G1 X27.334 Y114.225 E2.15857
G1 X27.700 Y114.225 E2.16566
G1 X25.652 Y116.274 E2.22179
G1 X25.652 Y116.640 E2.22889
G1 X28.067 Y114.225 E2.29504
G1 X28.433 Y114.225 E2.30214
G1 X25.652 Y117.006 E2.37832
G1 X25.652 Y117.372 E2.38542
G1 X28.799 Y114.225 E2.47163
G1 X29.165 Y114.225 E2.47873
G1 X25.652 Y117.738 E2.57497
G1 X25.652 Y118.105 E2.58206
G1 X29.531 Y114.225 E2.68834
G1 X29.897 Y114.225 E2.69543
G1 X25.652 Y118.471 E2.81174
G1 X25.652 Y118.837 E2.81883
G1 X30.177 Y114.311 E2.94282
G1 X30.181 Y114.674 E2.94984
G1 X25.652 Y119.203 E3.07392
G1 X25.652 Y119.569 E3.08101
G1 X30.574 Y114.646 E3.21587
G1 X30.968 Y114.619 E3.22351
G1 X30.203 Y115.384 E3.24448
G1 X30.596 Y115.356 E3.25212
G1 X31.361 Y114.591 E3.27308
G1 X31.755 Y114.564 E3.28073
G1 X30.990 Y115.329 E3.30169
G1 X31.383 Y115.301 E3.30933
G1 X32.149 Y114.536 E3.33030
G1 X32.542 Y114.509 E3.33794
G1 X31.777 Y115.274 E3.35890
G1 X32.171 Y115.246 E3.36655
G1 X32.936 Y114.481 E3.38751
G1 X33.330 Y114.454 E3.39515
G1 X32.564 Y115.219 E3.41612
G1 X32.958 Y115.191 E3.42376
G1 X33.723 Y114.426 E3.44472
G1 X34.117 Y114.399 E3.45237
G1 X33.352 Y115.164 E3.47333
G1 X33.745 Y115.136 E3.48097
G1 X34.510 Y114.371 E3.50194
G1 X34.904 Y114.344 E3.50958
G1 X34.139 Y115.109 E3.53054
G1 X34.532 Y115.081 E3.53819
G1 X35.329 Y114.284 E3.56002
G1 X35.755 Y114.225 E3.56835
G1 X34.941 Y115.039 E3.59066
G1 X35.367 Y114.979 E3.59899
G1 X36.181 Y114.165 E3.62131
G1 X36.607 Y114.105 E3.62964
G1 X35.792 Y114.919 E3.65195
G1 X36.218 Y114.859 E3.66029
G1 X37.033 Y114.045 E3.68260
G1 X37.459 Y113.985 E3.69093
G1 X36.644 Y114.800 E3.71325
G1 X37.070 Y114.740 E3.72158
G1 X37.885 Y113.925 E3.74389
G1 X38.311 Y113.865 E3.75222
G1 X37.496 Y114.680 E3.77454
G1 X37.922 Y114.620 E3.78287
G1 X38.737 Y113.806 E3.80518
G1 X39.163 Y113.746 E3.81352
G1 X38.348 Y114.560 E3.83583
G1 X38.774 Y114.500 E3.84416
G1 X39.589 Y113.686 E3.86648
G1 X40.014 Y113.626 E3.87481
G1 X39.200 Y114.440 E3.89712
G1 X39.626 Y114.381 E3.90545
G1 X40.440 Y113.566 E3.92777
G1 X40.866 Y113.506 E3.93610
G1 X40.052 Y114.321 E3.95841
G1 X40.478 Y114.261 E3.96674
G1 X41.292 Y113.446 E3.98906
G1 X41.738 Y113.367 E3.99783
G1 X40.904 Y114.201 E4.02069
G1 X41.330 Y114.141 E4.02902
G1 X42.203 Y113.268 E4.05295
G1 X42.668 Y113.169 E4.06216
G1 X41.791 Y114.046 E4.08619
G1 X42.256 Y113.947 E4.09539
G1 X43.133 Y113.070 E4.11943
G1 X43.598 Y112.971 E4.12863
G1 X42.721 Y113.849 E4.15267
G1 X43.185 Y113.750 E4.16187
G1 X44.063 Y112.873 E4.18590
G1 X44.528 Y112.774 E4.19511
G1 X43.650 Y113.651 E4.21914
G1 X44.115 Y113.552 E4.22835
G1 X44.992 Y112.675 E4.25238
G1 X45.457 Y112.576 E4.26159
G1 X44.580 Y113.453 E4.28561
G1 X45.045 Y113.354 E4.29482
G1 X45.922 Y112.477 E4.31885
G1 X46.387 Y112.379 E4.32806
G1 X45.510 Y113.256 E4.35209
G1 X45.975 Y113.157 E4.36129
G1 X46.852 Y112.280 E4.38532
G1 X47.317 Y112.181 E4.39453
G1 X46.440 Y113.058 E4.41856
G1 X46.905 Y112.959 E4.42776
G1 X47.782 Y112.082 E4.45179
G1 X48.271 Y111.959 E4.46157
G1 X47.370 Y112.860 E4.48626
G1 X47.834 Y112.762 E4.49547
G1 X48.784 Y111.812 E4.52149
G1 X49.298 Y111.665 E4.53184
G1 X48.339 Y112.623 E4.55809
G1 X48.853 Y112.476 E4.56844
G1 X49.811 Y111.517 E4.59469
G1 X50.324 Y111.370 E4.60503
G1 X49.366 Y112.329 E4.63129
G1 X49.879 Y112.181 E4.64163
G1 X50.837 Y111.223 E4.66789
G1 X51.351 Y111.076 E4.67823
G1 X50.392 Y112.034 E4.70449
G1 X50.906 Y111.887 E4.71483
G1 X51.864 Y110.929 E4.74108
G1 X52.377 Y110.781 E4.75143
G1 X51.419 Y111.740 E4.77768
G1 X51.932 Y111.593 E4.78803
G1 X52.890 Y110.634 E4.81428
G1 X53.404 Y110.487 E4.82463
G1 X52.445 Y111.445 E4.85088
G1 X52.959 Y111.298 E4.86123
G1 X53.917 Y110.340 E4.88748
G1 X54.433 Y110.190 E4.89789
G1 X53.472 Y111.151 E4.92422
G1 X53.985 Y111.004 E4.93457
G1 X55.009 Y109.980 E4.96261
G1 X55.584 Y109.771 E4.97447
G1 X54.517 Y110.838 E5.00371
G1 X55.092 Y110.629 E5.01558
G1 X56.160 Y109.561 E5.04482
G1 X56.735 Y109.352 E5.05669
G1 X55.668 Y110.419 E5.08593
G1 X56.244 Y110.210 E5.09779
G1 X57.311 Y109.142 E5.12703
G1 X57.886 Y108.933 E5.13890
G1 X56.819 Y110.000 E5.16814
G1 X57.395 Y109.791 E5.18001
G1 X58.462 Y108.723 E5.20925
G1 X59.038 Y108.514 E5.22111
G1 X57.970 Y109.581 E5.25036
G1 X58.546 Y109.372 E5.26222
G1 X59.613 Y108.304 E5.29146
G1 X60.189 Y108.095 E5.30333
G1 X59.121 Y109.162 E5.33257
G1 X59.697 Y108.953 E5.34444
G1 X60.780 Y107.870 E5.37410
G1 X61.440 Y107.576 E5.38809
G1 X60.273 Y108.743 E5.42006
G1 X60.632 Y108.612 E5.42747
G1 X60.880 Y108.502 E5.43272
G1 X62.099 Y107.283 E5.46614
G1 X62.759 Y106.989 E5.48013
G1 X61.540 Y108.209 E5.51354
G1 X62.200 Y107.915 E5.52753
G1 X63.419 Y106.695 E5.56095
G1 X64.079 Y106.401 E5.57494
G1 X62.859 Y107.621 E5.60835
G1 X63.519 Y107.327 E5.62234
G1 X64.739 Y106.108 E5.65576
G1 X65.399 Y105.814 E5.66975
G1 X64.179 Y107.033 E5.70316
G1 X64.839 Y106.740 E5.71715
G1 X66.059 Y105.520 E5.75056
G1 X66.718 Y105.226 E5.76456
G1 X65.499 Y106.446 E5.79797
G1 X66.159 Y106.152 E5.81196
G1 X67.496 Y104.814 E5.84861
G1 X68.278 Y104.399 E5.86576
G1 X66.833 Y105.844 E5.90536
G1 X67.614 Y105.429 E5.92251
G1 X69.060 Y103.983 E5.96212
G1 X69.842 Y103.567 E5.97927
G1 X68.396 Y105.013 E6.01888
G1 X69.178 Y104.597 E6.03603
G1 X70.623 Y103.152 E6.07563
G1 X71.405 Y102.736 E6.09278
G1 X69.960 Y104.182 E6.13239
G1 X70.741 Y103.766 E6.14954
G1 X72.187 Y102.320 E6.18915
G1 X72.614 Y102.093 E6.19852
G1 X73.057 Y101.817 E6.20863
G1 X71.523 Y103.350 E6.25065
G1 X72.305 Y102.935 E6.26780
G1 X74.033 Y101.207 E6.31514
G1 X75.009 Y100.597 E6.33743
G1 X73.195 Y102.411 E6.38712
G1 X74.171 Y101.801 E6.40941
G1 X75.984 Y99.987 E6.45910
G1 X76.960 Y99.377 E6.48139
G1 X75.147 Y101.191 E6.53107
G1 X76.123 Y100.581 E6.55337
G1 X77.936 Y98.768 E6.60305
G1 X78.257 Y98.567 E6.61038
G1 X79.156 Y97.914 E6.63190
G1 X77.098 Y99.971 E6.68826
G1 X78.074 Y99.362 E6.71055
G1 X80.494 Y96.942 E6.77685
G1 X81.833 Y95.969 E6.80890
G1 X79.321 Y98.481 E6.87774
G1 X80.659 Y97.509 E6.90979
G1 X83.172 Y94.996 E6.97863
G1 X83.640 Y94.656 E6.98984
G1 X85.119 Y93.415 E7.02725
G1 X81.998 Y96.536 E7.11277
G1 X83.337 Y95.563 E7.14482
G1 X87.395 Y91.505 E7.25600
G1 X88.738 Y90.379 E7.28995
