; generated by Slic3r 1.3.1-dev (Build (Unknown revision)) on 2020-10-02 at 17:01:18

; external perimeters extrusion width = 0.44mm (2.86mm^3/s)
; perimeters extrusion width = 0.56mm (4.14mm^3/s)
; infill extrusion width = 0.50mm (3.66mm^3/s)
; solid infill extrusion width = 0.56mm (3.10mm^3/s)
; top infill extrusion width = 0.45mm (2.44mm^3/s)

M107
G92 E0
;D3D:START:START
T0
M104 S215 T0

G21
G90
M107
T0
G28
G29
M109 T0 S215 T0
G0 F3000
M107
T0
G92 E0
G0 X0 Y149 Z0.1 F3600
G1 Y49 E6.5 F1200
G0 Z1
G92 E0
; Filament gcode

G21 ; set units to millimeters
G90 ; use absolute coordinates
M82 ; use absolute distances for extrusion
G92 E0
G1 Z0.300 F6000.000
G1 E-2.00000 F1200.00000
G92 E0
G1 Z0.800 F6000.000
G1 X51.270 Y55.699 F6000.000
G1 Z0.300 F6000.000
G1 E2.00000 F1200.00000
G1 F1800.000
G1 X53.028 Y54.187 E2.10372
G1 X55.193 Y53.356 E2.20744
G1 X56.500 Y53.229 E2.26617
G1 X76.563 Y53.229 E3.16360
G1 X95.857 Y54.238 E4.02778
G1 X98.118 Y54.755 E4.13150
G1 X100.071 Y56.004 E4.23523
G1 X101.488 Y57.840 E4.33895
G1 X102.271 Y61.000 E4.48458
G1 X102.271 Y89.000 E5.73701
G1 X101.874 Y91.285 E5.84074
G1 X100.730 Y93.301 E5.94446
G1 X98.972 Y94.813 E6.04818
G1 X95.857 Y95.762 E6.19381
G1 X76.921 Y96.762 E7.04202
G1 X56.500 Y96.771 E7.95543
G1 X54.215 Y96.374 E8.05915
G1 X52.199 Y95.230 E8.16287
G1 X50.687 Y93.472 E8.26659
G1 X49.856 Y91.307 E8.37031
G1 X49.729 Y90.000 E8.42904
G1 X49.729 Y60.000 E9.77093
G1 X50.126 Y57.715 E9.87465
G1 X51.241 Y55.751 E9.97569
G1 X51.653 Y55.843 F6000.000
G1 F1800.000
G1 X53.396 Y54.419 E10.07639
G1 X56.500 Y53.614 E10.21981
G1 X76.563 Y53.614 E11.11724
G1 X95.837 Y54.623 E11.98052
G1 X98.029 Y55.136 E12.08122
G1 X99.907 Y56.378 E12.18192
G1 X101.237 Y58.195 E12.28262
G1 X101.886 Y61.000 E12.41141
G1 X101.886 Y89.000 E13.66384
G1 X101.489 Y91.216 E13.76454
G1 X100.347 Y93.157 E13.86524
G1 X98.604 Y94.581 E13.96595
G1 X95.837 Y95.377 E14.09473
G1 X76.900 Y96.377 E14.94294
G1 X56.500 Y96.386 E15.85544
G1 X54.284 Y95.989 E15.95614
G1 X52.343 Y94.847 E16.05684
G1 X50.919 Y93.104 E16.15754
G1 X50.114 Y90.000 E16.30096
G1 X50.114 Y60.000 E17.64286
G1 X50.511 Y57.784 E17.74356
G1 X51.622 Y55.895 E17.84158
G1 E15.84158 F1200.00000
G92 E0
G1 Z0.800 F6000.000
G1 X75.953 Y89.389 F6000.000
G1 Z0.300 F6000.000
G1 E2.00000 F1200.00000
G1 F1800.000
G1 X57.111 Y89.389 E2.84281
G1 X57.111 Y88.611 E2.87764
G1 X75.953 Y88.611 E3.72045
G1 X75.953 Y89.329 E3.75260
G1 X76.338 Y89.775 F6000.000
G1 F1800.000
G1 X56.725 Y89.775 E4.62991
G1 X56.725 Y88.225 E4.69924
G1 X76.338 Y88.225 E5.57654
G1 X76.338 Y89.715 E5.64319
G1 X75.939 Y89.764 F6000.000
G1 E3.64319 F1200.00000
G92 E0
G1 Z0.800 F6000.000
G1 X75.953 Y61.389 F6000.000
G1 Z0.300 F6000.000
G1 E2.00000 F1200.00000
G1 F1800.000
G1 X57.111 Y61.389 E2.84281
G1 X57.111 Y60.611 E2.87764
G1 X75.953 Y60.611 E3.72045
G1 X75.953 Y61.329 E3.75260
G1 X76.338 Y61.775 F6000.000
G1 F1800.000
G1 X56.725 Y61.775 E4.62991
G1 X56.725 Y60.225 E4.69924
G1 X76.338 Y60.225 E5.57654
G1 X76.338 Y61.715 E5.64319
G1 X75.939 Y61.764 F6000.000
G1 X75.760 Y61.000 F6000.000
G1 F1800.000
G1 X57.303 Y61.000 E6.34703
G1 E4.34703 F1200.00000
G92 E0
G1 Z0.800 F6000.000
G1 X57.303 Y89.000 F6000.000
G1 Z0.300 F6000.000
G1 E2.00000 F1200.00000
G1 F1800.000
G1 X75.760 Y89.000 E2.70384
G1 E0.70384 F1200.00000
G92 E0
G1 Z0.800 F6000.000
G1 X80.725 Y61.775 F6000.000
G1 Z0.300 F6000.000
G1 E2.00000 F1200.00000
G1 F1800.000
G1 X80.725 Y61.225 E2.02460
G1 X95.275 Y61.225 E2.67542
G1 X95.275 Y61.775 E2.70002
G1 X80.785 Y61.775 E3.34816
G1 X80.921 Y61.426 F6000.000
G1 X80.918 Y61.500 F6000.000
G1 F1800.000
G1 X95.082 Y61.500 E3.51246
G1 E1.51246 F1200.00000
G92 E0
G1 Z0.800 F6000.000
G1 X80.725 Y88.225 F6000.000
G1 Z0.300 F6000.000
G1 E2.00000 F1200.00000
G1 F1800.000
G1 X95.275 Y88.225 E2.65082
G1 X95.275 Y88.775 E2.67542
G1 X80.725 Y88.775 E3.32624
G1 X80.725 Y88.285 E3.34816
G1 X81.125 Y88.230 F6000.000
G1 X80.918 Y88.500 F6000.000
G1 F1800.000
G1 X95.082 Y88.500 E3.51246
G1 Z0.500 F6000.000
G1 E1.51246 F1200.00000
G92 E0
G1 Z1.000 F6000.000
G1 X75.991 Y88.677 F6000.000
G1 Z0.500 F6000.000
G1 E2.00000 F1200.00000
G1 F1800.000
G1 X75.991 Y89.323 E2.02582
G1 X57.177 Y89.323 E2.77811
G1 X57.177 Y88.677 E2.80394
G1 X75.931 Y88.677 E3.55383
G1 X76.448 Y88.220 F6000.000
G1 F2160.000
G1 X76.448 Y89.780 E3.60173
G1 X56.720 Y89.780 E4.20750
G1 X56.720 Y88.220 E4.25541
G1 X76.388 Y88.220 E4.85934
G1 X76.257 Y88.572 F6000.000
G1 X76.500 Y88.220 F6000.000
G1 F2160.000
G1 X76.500 Y61.780 E5.45905
G1 X75.991 Y61.323 F6000.000
G1 F1800.000
G1 X57.177 Y61.323 E6.21134
G1 X57.177 Y60.677 E6.23716
G1 X75.991 Y60.677 E6.98945
G1 X75.991 Y61.263 E7.01288
G1 X76.448 Y61.780 F6000.000
G1 F2160.000
G1 X56.720 Y61.780 E7.61865
G1 X56.720 Y60.220 E7.66655
G1 X76.448 Y60.220 E8.27233
G1 X76.448 Y61.720 E8.31839
G1 X76.048 Y61.769 F6000.000
G1 E6.31839 F1200.00000
G92 E0
G1 Z1.000 F6000.000
G1 X56.584 Y61.780 F6000.000
G1 Z0.500 F6000.000
G1 E2.00000 F1200.00000
G1 F2160.000
G1 X56.584 Y88.220 E2.25595
G1 X57.436 Y89.000 F6000.000
G1 F1200.000
G1 X75.733 Y89.000 E2.37742
G1 E0.37742 F1200.00000
G92 E0
G1 Z1.000 F6000.000
G1 X75.733 Y61.000 F6000.000
G1 Z0.500 F6000.000
G1 E2.00000 F1200.00000
G1 F1200.000
G1 X57.436 Y61.000 E2.12146
G1 E0.12146 F1200.00000
G92 E0
G1 Z1.000 F6000.000
G1 X80.720 Y61.780 F6000.000
G1 Z0.500 F6000.000
G1 E2.00000 F1200.00000
G1 F1800.000
G1 X80.720 Y61.220 E2.01720
G1 X95.280 Y61.220 E2.46428
G1 X95.280 Y61.780 E2.48147
G1 X80.780 Y61.780 E2.92671
G1 X80.916 Y61.431 F6000.000
G1 X80.949 Y61.500 F6000.000
G1 F1200.000
G1 X95.051 Y61.500 E2.99215
G1 E0.99215 F1200.00000
G92 E0
G1 Z1.000 F6000.000
G1 X80.720 Y88.220 F6000.000
G1 Z0.500 F6000.000
G1 E2.00000 F1200.00000
G1 F1800.000
G1 X95.280 Y88.220 E2.44708
G1 X95.280 Y88.780 E2.46428
G1 X80.720 Y88.780 E2.91136
G1 X80.720 Y88.280 E2.92671
G1 X81.120 Y88.225 F6000.000
G1 X80.949 Y88.500 F6000.000
G1 F1200.000
G1 X95.051 Y88.500 E2.99215
G1 Z0.700 F6000.000
G1 E0.99215 F1200.00000
G92 E0
G1 Z1.200 F6000.000
G1 X76.075 Y88.677 F6000.000
G1 Z0.700 F6000.000
G1 E2.00000 F1200.00000
G1 F1800.000
G1 X76.075 Y89.323 E2.02582
G1 X57.177 Y89.323 E2.78146
G1 X57.177 Y88.677 E2.80729
G1 X76.015 Y88.677 E3.56052
G1 X76.532 Y88.220 F6000.000
G1 F2160.000
G1 X76.532 Y89.780 E3.60843
G1 X56.720 Y89.780 E4.21677
G1 X56.720 Y88.220 E4.26467
G1 X76.472 Y88.220 E4.87117
G1 X76.341 Y88.572 F6000.000
G1 X76.500 Y88.220 F6000.000
G1 F2160.000
G1 X76.500 Y61.780 E5.81323
G1 X76.075 Y61.323 F6000.000
G1 F1800.000
G1 X57.177 Y61.323 E6.56887
G1 X57.177 Y60.677 E6.59470
G1 X76.075 Y60.677 E7.35033
G1 X76.075 Y61.263 E7.37376
G1 X76.532 Y61.780 F6000.000
G1 F2160.000
G1 X56.720 Y61.780 E7.98210
G1 X56.720 Y60.220 E8.03000
G1 X76.532 Y60.220 E8.63835
G1 X76.532 Y61.720 E8.68441
G1 X76.132 Y61.770 F6000.000
G1 E6.68441 F1200.00000
G92 E0
G1 Z1.200 F6000.000
G1 X56.626 Y61.780 F6000.000
G1 Z0.700 F6000.000
G1 E2.00000 F1200.00000
G1 F2160.000
G1 X56.626 Y88.220 E2.42712
G1 X57.436 Y89.000 F6000.000
G1 F1200.000
G1 X75.816 Y89.000 E2.54914
G1 E0.54914 F1200.00000
G92 E0
G1 Z1.200 F6000.000
G1 X75.816 Y61.000 F6000.000
G1 Z0.700 F6000.000
G1 E2.00000 F1200.00000
G1 F1200.000
G1 X57.436 Y61.000 E2.12202
G1 E0.12202 F1200.00000
G92 E0
G1 Z1.200 F6000.000
G1 X80.720 Y61.780 F6000.000
G1 Z0.700 F6000.000
G1 E2.00000 F1200.00000
G1 F1800.000
G1 X80.720 Y61.220 E2.01720
G1 X95.280 Y61.220 E2.46428
G1 X95.280 Y61.780 E2.48147
G1 X80.780 Y61.780 E2.92671
G1 X80.916 Y61.431 F6000.000
G1 X80.949 Y61.500 F6000.000
G1 F1200.000
G1 X95.051 Y61.500 E2.99215
G1 E0.99215 F1200.00000
G92 E0
G1 Z1.200 F6000.000
G1 X80.720 Y88.220 F6000.000
G1 Z0.700 F6000.000
G1 E2.00000 F1200.00000
G1 F1800.000
G1 X95.280 Y88.220 E2.44708
G1 X95.280 Y88.780 E2.46428
G1 X80.720 Y88.780 E2.91136
G1 X80.720 Y88.280 E2.92671
G1 X81.120 Y88.225 F6000.000
G1 X80.949 Y88.500 F6000.000
G1 F1200.000
G1 X95.051 Y88.500 E2.99215
G1 Z0.900 F6000.000
G1 E0.99215 F1200.00000
G92 E0
G1 Z1.400 F6000.000
G1 X76.157 Y88.677 F6000.000
G1 Z0.900 F6000.000
G1 E2.00000 F1200.00000
G1 F1800.000
G1 X76.157 Y89.323 E2.02582
G1 X57.177 Y89.323 E2.78475
G1 X57.177 Y88.677 E2.81058
G1 X76.097 Y88.677 E3.56710
G1 X76.614 Y88.220 F6000.000
G1 F2160.000
G1 X76.614 Y89.780 E3.61501
G1 X56.720 Y89.780 E4.22588
G1 X56.720 Y88.220 E4.27378
G1 X76.554 Y88.220 E4.88281
G1 X76.423 Y88.572 F6000.000
G1 X76.500 Y88.220 F6000.000
G1 F2160.000
G1 X76.500 Y61.780 E6.16135
G1 X76.157 Y61.323 F6000.000
G1 F1800.000
G1 X57.177 Y61.323 E6.92028
G1 X57.177 Y60.677 E6.94610
G1 X76.157 Y60.677 E7.70503
G1 X76.157 Y61.263 E7.72845
G1 X76.614 Y61.780 F6000.000
G1 F2160.000
G1 X56.720 Y61.780 E8.33933
G1 X56.720 Y60.220 E8.38723
G1 X76.614 Y60.220 E8.99810
G1 X76.614 Y61.720 E9.04416
G1 X76.214 Y61.770 F6000.000
G1 E7.04416 F1200.00000
G92 E0
G1 Z1.400 F6000.000
G1 X56.667 Y61.780 F6000.000
G1 Z0.900 F6000.000
G1 E2.00000 F1200.00000
G1 F2160.000
G1 X56.667 Y88.220 E2.59538
G1 X57.436 Y89.000 F6000.000
G1 F1200.000
G1 X75.899 Y89.000 E2.71795
G1 E0.71795 F1200.00000
G92 E0
G1 Z1.400 F6000.000
G1 X75.899 Y61.000 F6000.000
G1 Z0.900 F6000.000
G1 E2.00000 F1200.00000
G1 F1200.000
G1 X57.436 Y61.000 E2.12256
G1 E0.12256 F1200.00000
G92 E0
G1 Z1.400 F6000.000
G1 X80.720 Y61.780 F6000.000
G1 Z0.900 F6000.000
G1 E2.00000 F1200.00000
G1 F1800.000
G1 X80.720 Y61.220 E2.01720
G1 X95.280 Y61.220 E2.46428
G1 X95.280 Y61.780 E2.48147
G1 X80.780 Y61.780 E2.92671
G1 X80.916 Y61.431 F6000.000
G1 X80.949 Y61.500 F6000.000
G1 F1200.000
G1 X95.051 Y61.500 E2.99215
G1 E0.99215 F1200.00000
G92 E0
G1 Z1.400 F6000.000
G1 X80.720 Y88.220 F6000.000
G1 Z0.900 F6000.000
G1 E2.00000 F1200.00000
G1 F1800.000
G1 X95.280 Y88.220 E2.44708
G1 X95.280 Y88.780 E2.46428
G1 X80.720 Y88.780 E2.91136
G1 X80.720 Y88.280 E2.92671
G1 X81.120 Y88.225 F6000.000
G1 X80.949 Y88.500 F6000.000
G1 F1200.000
G1 X95.051 Y88.500 E2.99215
M106 S255
G1 Z1.100 F6000.000
G1 E0.99215 F1200.00000
G92 E0
G1 Z1.600 F6000.000
G1 X76.239 Y88.677 F6000.000
G1 Z1.100 F6000.000
G1 E2.00000 F1200.00000
G1 F1800.000
G1 X76.239 Y89.323 E2.02582
G1 X57.177 Y89.323 E2.78803
G1 X57.177 Y88.677 E2.81386
G1 X76.179 Y88.677 E3.57366
G1 E1.57366 F1200.00000
G92 E0
G1 Z1.600 F6000.000
G1 X76.239 Y61.323 F6000.000
G1 Z1.100 F6000.000
G1 E2.00000 F1200.00000
G1 F1800.000
G1 X57.177 Y61.323 E2.76221
G1 X57.177 Y60.677 E2.78803
G1 X76.239 Y60.677 E3.55024
G1 X76.239 Y61.263 E3.57366
G1 X76.304 Y61.780 F6000.000
G1 F2160.000
G1 X56.720 Y61.780 E4.17501
G1 X56.720 Y60.220 E4.22291
G1 X76.696 Y60.220 E4.83630
G1 X76.696 Y89.780 E5.74397
G1 X56.720 Y89.780 E6.35736
G1 X56.720 Y88.220 E6.40526
G1 X76.304 Y88.220 E7.00661
G1 X76.304 Y61.840 E7.81663
G1 X76.388 Y61.389 F6000.000
G1 E5.81663 F1200.00000
G92 E0
G1 Z1.600 F6000.000
G1 X56.708 Y88.220 F6000.000
G1 Z1.100 F6000.000
G1 E2.00000 F1200.00000
G1 F2160.000
G1 X56.708 Y61.780 E2.76316
G1 X57.436 Y61.000 F6000.000
G1 F1200.000
G1 X75.981 Y61.000 E2.88627
G1 E0.88627 F1200.00000
G92 E0
G1 Z1.600 F6000.000
G1 X75.981 Y89.000 F6000.000
G1 Z1.100 F6000.000
G1 E2.00000 F1200.00000
G1 F1200.000
G1 X57.436 Y89.000 E2.12311
G1 E0.12311 F1200.00000
G92 E0
G1 Z1.600 F6000.000
G1 X80.720 Y61.780 F6000.000
G1 Z1.100 F6000.000
G1 E2.00000 F1200.00000
G1 F1800.000
G1 X80.720 Y61.220 E2.01720
G1 X95.280 Y61.220 E2.46428
G1 X95.280 Y61.780 E2.48147
G1 X80.780 Y61.780 E2.92671
G1 X80.916 Y61.431 F6000.000
G1 X80.949 Y61.500 F6000.000
G1 F1200.000
G1 X95.051 Y61.500 E2.99215
G1 E0.99215 F1200.00000
G92 E0
G1 Z1.600 F6000.000
G1 X80.720 Y88.220 F6000.000
G1 Z1.100 F6000.000
G1 E2.00000 F1200.00000
G1 F1800.000
G1 X95.280 Y88.220 E2.44708
G1 X95.280 Y88.780 E2.46428
G1 X80.720 Y88.780 E2.91136
G1 X80.720 Y88.280 E2.92671
G1 X81.120 Y88.225 F6000.000
G1 X80.949 Y88.500 F6000.000
G1 F1200.000
G1 X95.051 Y88.500 E2.99215
G1 Z1.300 F6000.000
G1 E0.99215 F1200.00000
G92 E0
G1 Z1.800 F6000.000
G1 X76.321 Y88.677 F6000.000
G1 Z1.300 F6000.000
G1 E2.00000 F1200.00000
G1 F1800.000
G1 X76.321 Y89.323 E2.02582
G1 X57.177 Y89.323 E2.79131
G1 X57.177 Y88.677 E2.81714
G1 X76.261 Y88.677 E3.58023
G1 E1.58023 F1200.00000
G92 E0
G1 Z1.800 F6000.000
G1 X76.321 Y61.323 F6000.000
G1 Z1.300 F6000.000
G1 E2.00000 F1200.00000
G1 F1800.000
G1 X57.177 Y61.323 E2.76549
G1 X57.177 Y60.677 E2.79131
G1 X76.321 Y60.677 E3.55680
G1 X76.321 Y61.263 E3.58023
G1 X76.222 Y61.780 F6000.000
G1 F2160.000
G1 X56.720 Y61.780 E4.17905
G1 X56.720 Y60.220 E4.22695
G1 X76.778 Y60.220 E4.84286
G1 X76.778 Y89.780 E5.75053
G1 X56.720 Y89.780 E6.36644
G1 X56.720 Y88.220 E6.41434
G1 X76.222 Y88.220 E7.01317
G1 X76.222 Y61.840 E7.82319
G1 X76.306 Y61.389 F6000.000
G1 E5.82319 F1200.00000
G92 E0
G1 Z1.800 F6000.000
G1 X56.749 Y88.220 F6000.000
G1 Z1.300 F6000.000
G1 E2.00000 F1200.00000
G1 F2160.000
G1 X56.749 Y61.780 E2.93094
G1 X57.436 Y61.000 F6000.000
G1 F1200.000
G1 X76.063 Y61.000 E3.05459
G1 X76.500 Y61.551 F6000.000
G1 F1200.000
G1 X76.500 Y88.449 E3.17201
G1 X76.063 Y89.000 F6000.000
G1 F1200.000
G1 X57.436 Y89.000 E3.29567
G1 E1.29567 F1200.00000
G92 E0
G1 Z1.800 F6000.000
G1 X80.720 Y61.780 F6000.000
G1 Z1.300 F6000.000
G1 E2.00000 F1200.00000
G1 F1800.000
G1 X80.720 Y61.220 E2.01720
G1 X95.280 Y61.220 E2.46428
G1 X95.280 Y61.780 E2.48147
G1 X80.780 Y61.780 E2.92671
G1 X80.916 Y61.431 F6000.000
G1 X80.949 Y61.500 F6000.000
G1 F1200.000
G1 X95.051 Y61.500 E2.99215
G1 E0.99215 F1200.00000
G92 E0
G1 Z1.800 F6000.000
G1 X80.720 Y88.220 F6000.000
G1 Z1.300 F6000.000
G1 E2.00000 F1200.00000
G1 F1800.000
G1 X95.280 Y88.220 E2.44708
G1 X95.280 Y88.780 E2.46428
G1 X80.720 Y88.780 E2.91136
G1 X80.720 Y88.280 E2.92671
G1 X81.120 Y88.225 F6000.000
G1 X80.949 Y88.500 F6000.000
G1 F1200.000
G1 X95.051 Y88.500 E2.99215
G1 Z1.500 F6000.000
G1 E0.99215 F1200.00000
G92 E0
G1 Z2.000 F6000.000
G1 X76.403 Y88.677 F6000.000
G1 Z1.500 F6000.000
G1 E2.00000 F1200.00000
G1 F1800.000
G1 X76.403 Y89.323 E2.02582
G1 X57.177 Y89.323 E2.79459
G1 X57.177 Y88.677 E2.82042
G1 X76.343 Y88.677 E3.58679
G1 E1.58679 F1200.00000
G92 E0
G1 Z2.000 F6000.000
G1 X76.403 Y61.323 F6000.000
G1 Z1.500 F6000.000
G1 E2.00000 F1200.00000
G1 F1800.000
G1 X57.177 Y61.323 E2.76877
G1 X57.177 Y60.677 E2.79459
G1 X76.403 Y60.677 E3.56336
G1 X76.403 Y61.263 E3.58679
G1 X76.140 Y61.780 F6000.000
G1 F2160.000
G1 X56.720 Y61.780 E4.18309
G1 X56.720 Y60.220 E4.23099
G1 X76.860 Y60.220 E4.84942
G1 X76.860 Y89.780 E5.75709
G1 X56.720 Y89.780 E6.37552
G1 X56.720 Y88.220 E6.42342
G1 X76.140 Y88.220 E7.01973
G1 X76.140 Y61.840 E7.82975
G1 X76.224 Y61.389 F6000.000
G1 E5.82975 F1200.00000
G92 E0
G1 Z2.000 F6000.000
G1 X56.790 Y88.220 F6000.000
G1 Z1.500 F6000.000
G1 E2.00000 F1200.00000
G1 F2160.000
G1 X56.790 Y61.780 E3.09871
G1 X57.436 Y61.000 F6000.000
G1 F1200.000
G1 X76.145 Y61.000 E3.22291
G1 X76.500 Y61.551 F6000.000
G1 F1200.000
G1 X76.500 Y88.449 E3.68165
G1 X76.145 Y89.000 F6000.000
G1 F1200.000
G1 X57.436 Y89.000 E3.80585
G1 E1.80585 F1200.00000
G92 E0
G1 Z2.000 F6000.000
G1 X80.720 Y61.780 F6000.000
G1 Z1.500 F6000.000
G1 E2.00000 F1200.00000
G1 F1800.000
G1 X80.720 Y61.220 E2.01720
G1 X95.280 Y61.220 E2.46428
G1 X95.280 Y61.780 E2.48147
G1 X80.780 Y61.780 E2.92671
G1 X80.916 Y61.431 F6000.000
G1 X80.949 Y61.500 F6000.000
G1 F1200.000
G1 X95.051 Y61.500 E2.99215
G1 E0.99215 F1200.00000
G92 E0
G1 Z2.000 F6000.000
G1 X80.720 Y88.220 F6000.000
G1 Z1.500 F6000.000
G1 E2.00000 F1200.00000
G1 F1800.000
G1 X95.280 Y88.220 E2.44708
G1 X95.280 Y88.780 E2.46428
G1 X80.720 Y88.780 E2.91136
G1 X80.720 Y88.280 E2.92671
G1 X81.120 Y88.225 F6000.000
G1 X80.949 Y88.500 F6000.000
G1 F1200.000
G1 X95.051 Y88.500 E2.99215
G1 Z1.700 F6000.000
G1 E0.99215 F1200.00000
G92 E0
G1 Z2.200 F6000.000
G1 X76.483 Y88.677 F6000.000
G1 Z1.700 F6000.000
G1 E2.00000 F1200.00000
G1 F1800.000
G1 X76.483 Y89.323 E2.02582
G1 X57.177 Y89.323 E2.79778
G1 X57.177 Y88.677 E2.82361
G1 X76.423 Y88.677 E3.59317
G1 E1.59317 F1200.00000
G92 E0
G1 Z2.200 F6000.000
G1 X76.483 Y61.323 F6000.000
G1 Z1.700 F6000.000
G1 E2.00000 F1200.00000
G1 F1800.000
G1 X57.177 Y61.323 E2.77196
G1 X57.177 Y60.677 E2.79778
