; generated by Slic3r 1.3.1-dev (Build (Unknown revision)) on 2020-06-19 at 09:05:51

; external perimeters extrusion width = 0.44mm (2.86mm^3/s)
; perimeters extrusion width = 0.56mm (4.14mm^3/s)
; infill extrusion width = 0.50mm (3.66mm^3/s)
; solid infill extrusion width = 0.56mm (3.10mm^3/s)
; top infill extrusion width = 0.45mm (2.44mm^3/s)

M107
G92 E0
;D3D:START:START
T0
M104 S215 T0

G21
G90
M107
T0
G28
G29
M109 T0 S215 T0
G0 F3000
M107
T0
G92 E0
G0 X0 Y149 Z0.1 F3600
G1 Y49 E6.5 F1200
G0 Z1
G92 E0
; Filament gcode

G21 ; set units to millimeters
G90 ; use absolute coordinates
M82 ; use absolute distances for extrusion
G92 E0
G1 Z0.200 F6000.000
G1 E-2.00000 F1200.00000
G92 E0
G1 Z0.700 F6000.000
G1 X1.500 Y33.486 F6000.000
G1 Z0.200 F6000.000
G1 E2.00000 F1200.00000
G1 F1800.000
G1 X144.500 Y33.486 E4.75112
G1 X146.739 Y33.883 E4.79487
G1 X148.705 Y35.025 E4.83862
G1 X150.159 Y36.774 E4.88237
G1 X150.959 Y39.156 E4.93073
G1 X154.959 Y69.783 E5.52495
G1 X155.014 Y70.627 E5.54121
G1 X155.014 Y79.373 E5.70948
G1 X154.959 Y80.217 E5.72574
G1 X150.959 Y110.844 E6.31997
G1 X150.276 Y113.012 E6.36372
G1 X148.888 Y114.814 E6.40747
G1 X146.966 Y116.029 E6.45122
G1 X144.500 Y116.514 E6.49957
G1 X1.500 Y116.514 E9.25069
G1 X-0.739 Y116.117 E9.29444
G1 X-2.705 Y114.975 E9.33819
G1 X-4.159 Y113.226 E9.38194
G1 X-5.014 Y110.000 E9.44615
G1 X-5.014 Y40.000 E10.79285
G1 X-4.617 Y37.761 E10.83660
G1 X-3.475 Y35.795 E10.88035
G1 X-1.726 Y34.341 E10.92410
G1 X1.442 Y33.501 E10.98716
G1 X1.500 Y33.743 F6000.000
G1 F1800.000
G1 X144.500 Y33.743 E13.73828
G1 X146.693 Y34.140 E13.78115
G1 X148.607 Y35.280 E13.82402
G1 X150.001 Y37.019 E13.86690
G1 X150.704 Y39.190 E13.91080
G1 X154.704 Y69.817 E14.50503
G1 X154.757 Y70.627 E14.52065
G1 X154.757 Y79.373 E14.68891
G1 X154.704 Y80.183 E14.70453
G1 X150.704 Y110.810 E15.29876
G1 X150.027 Y112.933 E15.34163
G1 X148.649 Y114.684 E15.38450
G1 X146.744 Y115.841 E15.42737
G1 X144.500 Y116.257 E15.47128
G1 X1.500 Y116.257 E18.22240
G1 X-0.693 Y115.860 E18.26527
G1 X-2.607 Y114.720 E18.30814
G1 X-4.001 Y112.981 E18.35101
G1 X-4.757 Y110.000 E18.41019
G1 X-4.757 Y40.000 E19.75689
G1 X-4.360 Y37.807 E19.79976
G1 X-3.220 Y35.893 E19.84263
G1 X-1.481 Y34.499 E19.88551
G1 X1.442 Y33.758 E19.94353
G1 E17.94353 F1200.00000
G92 E0
G1 Z0.700 F6000.000
G1 X61.135 Y102.503 F6000.000
G1 Z0.200 F6000.000
G1 E2.00000 F1200.00000
G1 F1800.000
G1 X56.342 Y102.503 E2.09219
G1 X56.030 Y102.463 E2.09825
G1 X55.725 Y102.385 E2.10431
G1 X55.432 Y102.269 E2.11037
G1 X55.156 Y102.118 E2.11643
G1 X54.901 Y101.932 E2.12249
G1 X54.672 Y101.717 E2.12855
G1 X54.471 Y101.474 E2.13461
G1 X54.302 Y101.208 E2.14066
G1 X54.168 Y100.923 E2.14672
G1 X54.071 Y100.624 E2.15278
G1 X54.012 Y100.314 E2.15884
G1 X53.993 Y100.013 E2.16465
G1 X53.993 Y79.987 E2.54992
G1 X54.012 Y79.686 E2.55573
G1 X54.071 Y79.376 E2.56179
G1 X54.168 Y79.077 E2.56785
G1 X54.302 Y78.792 E2.57391
G1 X54.471 Y78.526 E2.57997
G1 X54.672 Y78.283 E2.58603
G1 X54.901 Y78.068 E2.59209
G1 X55.156 Y77.883 E2.59815
G1 X55.432 Y77.731 E2.60420
G1 X55.725 Y77.615 E2.61026
G1 X56.030 Y77.537 E2.61632
G1 X56.342 Y77.497 E2.62238
G1 X66.658 Y77.497 E2.82083
G1 X66.970 Y77.537 E2.82689
G1 X67.275 Y77.615 E2.83294
G1 X67.568 Y77.731 E2.83900
G1 X67.844 Y77.883 E2.84506
G1 X68.099 Y78.068 E2.85112
G1 X68.328 Y78.283 E2.85718
G1 X68.529 Y78.526 E2.86324
G1 X68.698 Y78.792 E2.86930
G1 X68.832 Y79.077 E2.87536
G1 X68.929 Y79.376 E2.88142
G1 X68.988 Y79.686 E2.88748
G1 X69.007 Y79.987 E2.89329
G1 X69.007 Y100.013 E3.27855
G1 X68.988 Y100.314 E3.28437
G1 X68.929 Y100.624 E3.29042
G1 X68.832 Y100.923 E3.29648
G1 X68.698 Y101.208 E3.30254
G1 X68.529 Y101.474 E3.30860
G1 X68.328 Y101.717 E3.31466
G1 X68.099 Y101.932 E3.32072
G1 X67.844 Y102.118 E3.32678
G1 X67.568 Y102.269 E3.33284
G1 X67.275 Y102.385 E3.33890
G1 X66.970 Y102.463 E3.34495
G1 X66.658 Y102.503 E3.35101
G1 X61.862 Y102.503 E3.44327
G1 X61.845 Y102.638 E3.44589
G1 X61.948 Y102.664 E3.44792
G1 X62.256 Y102.809 E3.45447
G1 X62.528 Y103.035 E3.46127
G1 X62.728 Y103.310 E3.46782
G1 X62.868 Y103.662 E3.47511
G1 X62.910 Y104.000 E3.48166
G1 X62.868 Y104.338 E3.48821
G1 X62.809 Y104.518 E3.49186
G1 X62.728 Y104.690 E3.49551
G1 X62.536 Y104.955 E3.50182
G1 X62.388 Y105.094 E3.50571
G1 X62.112 Y105.269 E3.51201
G1 X61.923 Y105.344 E3.51591
G1 X61.589 Y105.407 E3.52246
G1 X61.249 Y105.386 E3.52902
G1 X61.052 Y105.336 E3.53291
G1 X60.744 Y105.191 E3.53947
G1 X60.472 Y104.965 E3.54627
G1 X60.272 Y104.690 E3.55282
G1 X60.132 Y104.338 E3.56010
G1 X60.090 Y104.000 E3.56665
G1 X60.132 Y103.662 E3.57321
G1 X60.272 Y103.310 E3.58049
G1 X60.464 Y103.045 E3.58679
G1 X60.612 Y102.906 E3.59069
G1 X60.888 Y102.731 E3.59699
G1 X61.148 Y102.643 E3.60226
G1 X61.140 Y102.563 E3.60381
G1 X61.149 Y102.904 F6000.000
G1 F1800.000
G1 X61.428 Y102.851 E3.60927
G1 X61.711 Y102.869 E3.61473
G1 X61.860 Y102.907 E3.61769
G1 X62.117 Y103.028 E3.62315
G1 X62.339 Y103.212 E3.62870
G1 X62.506 Y103.441 E3.63416
G1 X62.616 Y103.718 E3.63989
G1 X62.651 Y104.000 E3.64535
G1 X62.616 Y104.282 E3.65081
G1 X62.506 Y104.558 E3.65654
G1 X62.342 Y104.784 E3.66190
G1 X62.230 Y104.890 E3.66487
G1 X61.994 Y105.039 E3.67023
G1 X61.851 Y105.096 E3.67320
G1 X61.572 Y105.149 E3.67866
G1 X61.289 Y105.131 E3.68412
G1 X61.140 Y105.093 E3.68708
G1 X60.883 Y104.972 E3.69254
G1 X60.661 Y104.788 E3.69809
G1 X60.494 Y104.558 E3.70355
G1 X60.430 Y104.423 E3.70642
G1 X60.384 Y104.282 E3.70929
G1 X60.349 Y104.000 E3.71475
G1 X60.384 Y103.718 E3.72021
G1 X60.430 Y103.577 E3.72308
G1 X60.494 Y103.441 E3.72595
G1 X60.658 Y103.216 E3.73132
G1 X60.770 Y103.110 E3.73428
G1 X61.006 Y102.961 E3.73965
G1 X61.093 Y102.926 E3.74146
G1 X61.214 Y102.628 F6000.000
G1 E1.74146 F1200.00000
G92 E0
G1 Z0.700 F6000.000
G1 X56.359 Y102.246 F6000.000
G1 Z0.200 F6000.000
G1 E2.00000 F1200.00000
G1 F1800.000
G1 X56.078 Y102.210 E2.00544
G1 X55.805 Y102.140 E2.01087
G1 X55.542 Y102.036 E2.01631
G1 X55.294 Y101.900 E2.02174
G1 X55.066 Y101.734 E2.02718
G1 X54.860 Y101.540 E2.03262
G1 X54.680 Y101.323 E2.03806
G1 X54.528 Y101.084 E2.04349
G1 X54.408 Y100.828 E2.04893
G1 X54.320 Y100.560 E2.05437
G1 X54.267 Y100.282 E2.05980
G1 X54.250 Y100.005 E2.06515
G1 X54.250 Y79.995 E2.45010
G1 X54.267 Y79.718 E2.45545
G1 X54.320 Y79.440 E2.46088
G1 X54.408 Y79.172 E2.46632
G1 X54.528 Y78.916 E2.47176
G1 X54.680 Y78.677 E2.47719
G1 X54.860 Y78.460 E2.48263
G1 X55.066 Y78.266 E2.48807
G1 X55.294 Y78.100 E2.49351
G1 X55.542 Y77.964 E2.49894
G1 X55.805 Y77.860 E2.50438
G1 X56.078 Y77.790 E2.50981
G1 X56.359 Y77.754 E2.51525
G1 X66.641 Y77.754 E2.71308
G1 X66.922 Y77.790 E2.71851
G1 X67.195 Y77.860 E2.72395
G1 X67.458 Y77.964 E2.72938
G1 X67.706 Y78.100 E2.73482
G1 X67.934 Y78.266 E2.74026
G1 X68.140 Y78.460 E2.74569
G1 X68.320 Y78.677 E2.75113
G1 X68.472 Y78.916 E2.75657
G1 X68.592 Y79.172 E2.76200
G1 X68.680 Y79.440 E2.76744
G1 X68.733 Y79.718 E2.77288
G1 X68.750 Y79.995 E2.77822
G1 X68.750 Y100.005 E3.16318
G1 X68.733 Y100.282 E3.16852
G1 X68.680 Y100.560 E3.17396
G1 X68.592 Y100.828 E3.17940
G1 X68.472 Y101.084 E3.18483
G1 X68.320 Y101.323 E3.19027
G1 X68.140 Y101.540 E3.19571
G1 X67.934 Y101.734 E3.20114
G1 X67.706 Y101.900 E3.20658
G1 X67.458 Y102.036 E3.21202
G1 X67.195 Y102.140 E3.21745
G1 X66.922 Y102.210 E3.22289
G1 X66.641 Y102.246 E3.22833
G1 X56.419 Y102.246 E3.42500
G1 X56.198 Y102.478 F6000.000
G1 E1.42500 F1200.00000
G92 E0
G1 Z0.700 F6000.000
G1 X61.236 Y76.885 F6000.000
G1 Z0.200 F6000.000
G1 E2.00000 F1200.00000
G1 F1800.000
G1 X60.912 Y76.780 E2.00655
G1 X60.734 Y76.683 E2.01045
G1 X60.472 Y76.465 E2.01700
G1 X60.272 Y76.190 E2.02355
G1 X60.132 Y75.838 E2.03084
G1 X60.090 Y75.500 E2.03739
G1 X60.132 Y75.162 E2.04394
G1 X60.272 Y74.810 E2.05123
G1 X60.472 Y74.535 E2.05778
G1 X60.734 Y74.317 E2.06433
G1 X60.912 Y74.220 E2.06822
G1 X61.223 Y74.119 E2.07453
G1 X61.424 Y74.093 E2.07843
G1 X61.764 Y74.115 E2.08498
G1 X62.088 Y74.220 E2.09153
G1 X62.266 Y74.317 E2.09543
G1 X62.528 Y74.535 E2.10198
G1 X62.728 Y74.810 E2.10853
G1 X62.868 Y75.162 E2.11581
G1 X62.910 Y75.500 E2.12237
G1 X62.868 Y75.838 E2.12892
G1 X62.728 Y76.190 E2.13620
G1 X62.528 Y76.465 E2.14275
G1 X62.266 Y76.683 E2.14931
G1 X62.088 Y76.780 E2.15320
G1 X61.777 Y76.881 E2.15951
G1 X61.576 Y76.907 E2.16340
G1 X61.296 Y76.889 E2.16880
G1 X61.284 Y76.631 F6000.000
G1 F1800.000
G1 X61.014 Y76.543 E2.17426
G1 X60.880 Y76.469 E2.17722
G1 X60.661 Y76.288 E2.18268
G1 X60.494 Y76.058 E2.18814
G1 X60.384 Y75.782 E2.19387
G1 X60.349 Y75.500 E2.19933
G1 X60.384 Y75.218 E2.20479
G1 X60.494 Y74.942 E2.21052
G1 X60.661 Y74.712 E2.21598
G1 X60.880 Y74.531 E2.22144
G1 X61.014 Y74.457 E2.22440
G1 X61.280 Y74.371 E2.22977
G1 X61.432 Y74.351 E2.23273
G1 X61.716 Y74.369 E2.23819
G1 X61.986 Y74.457 E2.24365
G1 X62.120 Y74.531 E2.24661
G1 X62.339 Y74.712 E2.25207
G1 X62.506 Y74.942 E2.25753
G1 X62.616 Y75.218 E2.26326
G1 X62.651 Y75.500 E2.26872
G1 X62.616 Y75.782 E2.27418
G1 X62.506 Y76.058 E2.27991
G1 X62.339 Y76.288 E2.28537
G1 X62.120 Y76.469 E2.29083
G1 X61.986 Y76.543 E2.29379
G1 X61.720 Y76.629 E2.29916
G1 X61.568 Y76.649 E2.30212
G1 X61.344 Y76.635 E2.30643
G1 X61.095 Y76.842 F6000.000
G1 E0.30643 F1200.00000
G92 E0
G1 Z0.700 F6000.000
G1 X52.964 Y83.626 F6000.000
G1 Z0.200 F6000.000
G1 E2.00000 F1200.00000
G1 F1800.000
G1 X53.124 Y83.820 E2.00485
G1 X53.260 Y84.033 E2.00970
G1 X53.367 Y84.261 E2.01455
G1 X53.445 Y84.501 E2.01940
G1 X53.492 Y84.748 E2.02425
G1 X53.508 Y85.000 E2.02911
G1 X53.492 Y85.252 E2.03396
G1 X53.445 Y85.499 E2.03881
G1 X53.367 Y85.739 E2.04366
G1 X53.260 Y85.967 E2.04851
G1 X53.124 Y86.180 E2.05336
G1 X52.964 Y86.375 E2.05821
G1 X52.780 Y86.547 E2.06306
G1 X52.576 Y86.695 E2.06792
G1 X52.355 Y86.817 E2.07277
G1 X52.121 Y86.910 E2.07762
G1 X51.876 Y86.972 E2.08247
G1 X51.626 Y87.004 E2.08732
G1 X51.374 Y87.004 E2.09217
G1 X51.124 Y86.972 E2.09702
G1 X50.879 Y86.910 E2.10187
G1 X50.645 Y86.817 E2.10672
G1 X50.424 Y86.695 E2.11157
G1 X50.220 Y86.547 E2.11642
G1 X50.036 Y86.375 E2.12128
G1 X49.876 Y86.180 E2.12613
G1 X49.740 Y85.967 E2.13098
G1 X49.633 Y85.739 E2.13583
G1 X49.555 Y85.499 E2.14068
G1 X49.508 Y85.252 E2.14553
G1 X49.492 Y85.000 E2.15038
G1 X49.508 Y84.748 E2.15523
G1 X49.555 Y84.501 E2.16009
G1 X49.633 Y84.261 E2.16493
G1 X49.740 Y84.033 E2.16979
G1 X49.876 Y83.820 E2.17464
G1 X50.036 Y83.626 E2.17949
G1 X50.220 Y83.453 E2.18434
G1 X50.424 Y83.305 E2.18919
G1 X50.645 Y83.183 E2.19404
G1 X50.880 Y83.090 E2.19889
G1 X51.124 Y83.028 E2.20374
G1 X51.374 Y82.996 E2.20859
G1 X51.626 Y82.996 E2.21345
G1 X51.876 Y83.028 E2.21830
G1 X52.120 Y83.090 E2.22315
G1 X52.355 Y83.183 E2.22800
G1 X52.576 Y83.305 E2.23285
G1 X52.780 Y83.453 E2.23770
G1 X52.920 Y83.584 E2.24140
G1 X52.776 Y83.802 F6000.000
G1 F1800.000
G1 X52.916 Y83.971 E2.24563
G1 X53.034 Y84.157 E2.24986
G1 X53.127 Y84.356 E2.25408
G1 X53.195 Y84.565 E2.25831
G1 X53.237 Y84.781 E2.26254
G1 X53.250 Y85.000 E2.26677
G1 X53.237 Y85.219 E2.27100
G1 X53.195 Y85.435 E2.27523
G1 X53.127 Y85.644 E2.27946
G1 X53.034 Y85.843 E2.28368
G1 X52.916 Y86.029 E2.28792
G1 X52.776 Y86.198 E2.29214
G1 X52.616 Y86.349 E2.29637
G1 X52.438 Y86.478 E2.30060
G1 X52.245 Y86.584 E2.30483
G1 X52.041 Y86.665 E2.30906
G1 X51.828 Y86.719 E2.31329
G1 X51.610 Y86.747 E2.31751
G1 X51.390 Y86.747 E2.32174
G1 X51.172 Y86.719 E2.32597
G1 X50.959 Y86.665 E2.33020
G1 X50.755 Y86.584 E2.33443
G1 X50.562 Y86.478 E2.33866
G1 X50.384 Y86.349 E2.34289
G1 X50.224 Y86.198 E2.34712
G1 X50.084 Y86.029 E2.35134
G1 X49.966 Y85.843 E2.35557
G1 X49.873 Y85.644 E2.35980
G1 X49.805 Y85.435 E2.36403
G1 X49.763 Y85.219 E2.36826
G1 X49.750 Y85.000 E2.37249
G1 X49.763 Y84.781 E2.37672
G1 X49.805 Y84.565 E2.38095
G1 X49.873 Y84.356 E2.38517
G1 X49.966 Y84.157 E2.38940
G1 X50.084 Y83.971 E2.39363
G1 X50.224 Y83.802 E2.39786
G1 X50.384 Y83.651 E2.40209
G1 X50.562 Y83.522 E2.40632
G1 X50.755 Y83.416 E2.41055
G1 X50.959 Y83.335 E2.41478
G1 X51.172 Y83.281 E2.41900
G1 X51.390 Y83.253 E2.42323
G1 X51.610 Y83.253 E2.42746
G1 X51.828 Y83.281 E2.43169
G1 X52.041 Y83.335 E2.43592
G1 X52.245 Y83.416 E2.44015
G1 X52.438 Y83.522 E2.44438
G1 X52.732 Y83.761 E2.45166
G1 X52.990 Y83.752 F6000.000
G1 E0.45166 F1200.00000
G92 E0
G1 Z0.700 F6000.000
G1 X49.007 Y79.987 F6000.000
G1 Z0.200 F6000.000
G1 E2.00000 F1200.00000
G1 F1800.000
G1 X49.007 Y100.013 E2.38527
G1 X48.988 Y100.314 E2.39108
G1 X48.929 Y100.624 E2.39714
G1 X48.832 Y100.923 E2.40320
G1 X48.698 Y101.208 E2.40926
G1 X48.529 Y101.474 E2.41531
G1 X48.328 Y101.717 E2.42137
G1 X48.099 Y101.932 E2.42743
G1 X47.844 Y102.118 E2.43349
G1 X47.568 Y102.269 E2.43955
G1 X47.275 Y102.385 E2.44561
G1 X46.970 Y102.463 E2.45167
G1 X46.658 Y102.503 E2.45773
G1 X36.342 Y102.503 E2.65617
G1 X36.030 Y102.463 E2.66223
G1 X35.725 Y102.385 E2.66829
G1 X35.432 Y102.269 E2.67435
G1 X35.156 Y102.118 E2.68041
G1 X34.901 Y101.932 E2.68647
G1 X34.672 Y101.717 E2.69253
G1 X34.471 Y101.474 E2.69859
G1 X34.302 Y101.208 E2.70464
G1 X34.168 Y100.923 E2.71070
G1 X34.071 Y100.624 E2.71676
G1 X34.012 Y100.314 E2.72282
G1 X33.993 Y100.013 E2.72863
G1 X33.993 Y79.987 E3.11390
G1 X34.012 Y79.686 E3.11971
G1 X34.071 Y79.376 E3.12577
G1 X34.168 Y79.077 E3.13183
G1 X34.302 Y78.792 E3.13789
G1 X34.471 Y78.526 E3.14395
G1 X34.672 Y78.283 E3.15001
G1 X34.901 Y78.068 E3.15607
G1 X35.156 Y77.883 E3.16213
G1 X35.432 Y77.731 E3.16818
G1 X35.725 Y77.615 E3.17424
G1 X36.030 Y77.537 E3.18030
G1 X36.342 Y77.497 E3.18636
G1 X46.658 Y77.497 E3.38481
G1 X46.970 Y77.537 E3.39087
G1 X47.275 Y77.615 E3.39692
G1 X47.568 Y77.731 E3.40298
G1 X47.844 Y77.883 E3.40904
G1 X48.099 Y78.068 E3.41510
G1 X48.328 Y78.283 E3.42116
G1 X48.529 Y78.526 E3.42722
G1 X48.698 Y78.792 E3.43328
G1 X48.832 Y79.077 E3.43934
G1 X48.929 Y79.376 E3.44540
G1 X48.988 Y79.686 E3.45145
G1 X49.003 Y79.927 E3.45611
G1 X48.750 Y79.995 F6000.000
G1 F1800.000
G1 X48.750 Y100.005 E3.84107
G1 X48.733 Y100.282 E3.84641
G1 X48.680 Y100.560 E3.85185
G1 X48.592 Y100.828 E3.85729
G1 X48.472 Y101.084 E3.86272
G1 X48.320 Y101.323 E3.86816
G1 X48.140 Y101.540 E3.87360
G1 X47.934 Y101.734 E3.87903
G1 X47.706 Y101.900 E3.88447
G1 X47.458 Y102.036 E3.88991
G1 X47.195 Y102.140 E3.89534
G1 X46.922 Y102.210 E3.90078
G1 X46.641 Y102.246 E3.90622
G1 X36.359 Y102.246 E4.10404
G1 X36.078 Y102.210 E4.10948
G1 X35.805 Y102.140 E4.11491
G1 X35.542 Y102.036 E4.12035
G1 X35.294 Y101.900 E4.12579
G1 X35.066 Y101.734 E4.13122
G1 X34.860 Y101.540 E4.13666
G1 X34.680 Y101.323 E4.14210
G1 X34.528 Y101.084 E4.14753
G1 X34.408 Y100.828 E4.15297
G1 X34.320 Y100.560 E4.15841
G1 X34.267 Y100.282 E4.16384
G1 X34.250 Y100.005 E4.16919
G1 X34.250 Y79.995 E4.55414
G1 X34.267 Y79.718 E4.55949
G1 X34.320 Y79.440 E4.56493
G1 X34.408 Y79.172 E4.57036
G1 X34.528 Y78.916 E4.57580
G1 X34.680 Y78.677 E4.58124
G1 X34.860 Y78.460 E4.58667
G1 X35.066 Y78.266 E4.59211
G1 X35.294 Y78.100 E4.59755
G1 X35.542 Y77.964 E4.60298
G1 X35.805 Y77.860 E4.60842
G1 X36.078 Y77.790 E4.61386
G1 X36.359 Y77.754 E4.61929
G1 X46.641 Y77.754 E4.81712
G1 X46.922 Y77.790 E4.82255
G1 X47.195 Y77.860 E4.82799
G1 X47.458 Y77.964 E4.83342
G1 X47.706 Y78.100 E4.83886
G1 X47.934 Y78.266 E4.84430
G1 X48.140 Y78.460 E4.84974
G1 X48.320 Y78.677 E4.85517
G1 X48.472 Y78.916 E4.86061
G1 X48.592 Y79.172 E4.86605
G1 X48.680 Y79.440 E4.87148
G1 X48.733 Y79.718 E4.87692
G1 X48.746 Y79.935 E4.88111
G1 X49.105 Y80.181 F6000.000
G1 E2.88111 F1200.00000
G92 E0
G1 Z0.700 F6000.000
G1 X33.445 Y84.501 F6000.000
G1 Z0.200 F6000.000
G1 E2.00000 F1200.00000
G1 F1800.000
G1 X33.492 Y84.748 E2.00485
G1 X33.508 Y85.000 E2.00970
G1 X33.492 Y85.252 E2.01455
G1 X33.445 Y85.499 E2.01941
G1 X33.367 Y85.739 E2.02426
G1 X33.260 Y85.967 E2.02911
G1 X33.124 Y86.180 E2.03396
G1 X32.964 Y86.375 E2.03881
G1 X32.780 Y86.547 E2.04366
G1 X32.576 Y86.695 E2.04851
G1 X32.355 Y86.817 E2.05336
G1 X32.121 Y86.910 E2.05821
G1 X31.876 Y86.972 E2.06307
G1 X31.626 Y87.004 E2.06792
G1 X31.374 Y87.004 E2.07277
G1 X31.124 Y86.972 E2.07762
G1 X30.879 Y86.910 E2.08247
G1 X30.645 Y86.817 E2.08732
G1 X30.424 Y86.695 E2.09217
G1 X30.220 Y86.547 E2.09702
G1 X30.036 Y86.375 E2.10187
