; generated by Slic3r 1.3.0 on 2021-02-09 at 20:40:26

; external perimeters extrusion width = 0.44mm (2.86mm^3/s)
; perimeters extrusion width = 0.56mm (4.14mm^3/s)
; infill extrusion width = 0.50mm (5.48mm^3/s)
; solid infill extrusion width = 0.56mm (3.10mm^3/s)
; top infill extrusion width = 0.45mm (2.44mm^3/s)

M107
;D3D:START:START
T0
M104 S215 T0

G21
G90
M107
T0
G28
G29
M109 T0 S215 T0
G0 F3000
M107
T0
G92 E0
G0 X0 Y149 Z0.1 F3600
G1 Y49 E6.5 F1200
G0 Z1
G92 E0
; Filament gcode

G21 ; set units to millimeters
G90 ; use absolute coordinates
M82 ; use absolute distances for extrusion
G92 E0
G1 Z0.200 F6000.000
G1 E-2.00000 F1200.00000
G92 E0
G1 X66.232 Y60.315 F6000.000
G1 E2.00000 F1200.00000
G1 F1800
G1 X68.149 Y58.808 E2.04692
G1 X68.799 Y58.546 E2.06040
G1 X69.669 Y58.245 E2.07810
G1 X70.552 Y57.989 E2.09579
G1 X71.449 Y57.780 E2.11352
G1 X72.355 Y57.619 E2.13122
G1 X73.268 Y57.505 E2.14891
G1 X74.186 Y57.439 E2.16662
G1 X74.872 Y57.421 E2.17982
G1 X75.791 Y57.439 E2.19751
G1 X76.709 Y57.505 E2.21521
G1 X77.623 Y57.619 E2.23293
G1 X78.529 Y57.780 E2.25064
G1 X79.425 Y57.989 E2.26834
G1 X80.309 Y58.245 E2.28604
G1 X81.179 Y58.546 E2.30375
G1 X82.013 Y58.885 E2.32108
G1 X83.075 Y59.391 E2.34371
G1 X83.881 Y59.835 E2.36141
G1 X84.662 Y60.321 E2.37912
G1 X85.417 Y60.847 E2.39682
G1 X86.144 Y61.413 E2.41453
G1 X86.839 Y62.015 E2.43222
G1 X87.503 Y62.653 E2.44995
G1 X87.823 Y62.991 E2.45890
G1 X88.808 Y64.603 E2.49525
G1 X88.967 Y67.024 E2.54192
G1 X84.517 Y87.959 E2.95369
G1 X83.746 Y89.685 E2.99004
G1 X81.828 Y91.192 E3.03696
G1 X81.178 Y91.454 E3.05044
G1 X80.309 Y91.755 E3.06814
G1 X79.653 Y91.950 E3.08131
G1 X78.759 Y92.171 E3.09902
G1 X77.622 Y92.381 E3.12126
G1 X76.944 Y92.471 E3.13442
G1 X76.027 Y92.549 E3.15214
G1 X74.871 Y92.579 E3.17439
G1 X74.187 Y92.561 E3.18755
G1 X73.269 Y92.495 E3.20526
G1 X72.355 Y92.381 E3.22297
G1 X71.461 Y92.222 E3.24045
G1 X70.325 Y91.950 E3.26292
G1 X69.444 Y91.682 E3.28063
G1 X68.579 Y91.369 E3.29833
G1 X67.947 Y91.108 E3.31149
G1 X67.113 Y90.717 E3.32920
G1 X66.097 Y90.165 E3.35145
G1 X65.316 Y89.679 E3.36916
G1 X64.752 Y89.291 E3.38232
G1 X64.018 Y88.736 E3.40003
G1 X63.314 Y88.143 E3.41773
G1 X62.642 Y87.514 E3.43544
G1 X62.155 Y87.009 E3.44894
G1 X61.169 Y85.397 E3.48529
G1 X61.014 Y82.964 E3.53220
G1 X65.461 Y62.041 E3.94372
G1 X66.207 Y60.370 E3.97892
G1 X66.471 Y60.424 F6000.000
G1 F1800
G1 X68.248 Y59.046 E4.02218
G1 X68.885 Y58.788 E4.03540
G1 X69.742 Y58.491 E4.05284
G1 X70.612 Y58.239 E4.07027
G1 X71.496 Y58.033 E4.08774
G1 X72.389 Y57.874 E4.10518
G1 X73.288 Y57.761 E4.12262
G1 X74.193 Y57.696 E4.14007
G1 X74.878 Y57.678 E4.15326
G1 X75.784 Y57.696 E4.17069
G1 X76.689 Y57.761 E4.18814
G1 X77.589 Y57.874 E4.20560
G1 X78.482 Y58.033 E4.22305
G1 X79.365 Y58.239 E4.24049
G1 X80.236 Y58.491 E4.25793
G1 X81.093 Y58.788 E4.27538
G1 X81.915 Y59.123 E4.29245
G1 X82.952 Y59.616 E4.31457
G1 X83.746 Y60.054 E4.33201
G1 X84.517 Y60.533 E4.34945
G1 X85.261 Y61.051 E4.36690
G1 X85.977 Y61.608 E4.38435
G1 X86.662 Y62.201 E4.40179
G1 X87.316 Y62.830 E4.41925
G1 X87.637 Y63.168 E4.42820
G1 X88.583 Y64.739 E4.46349
G1 X88.715 Y66.971 E4.50651
G1 X84.265 Y87.906 E4.91826
G1 X83.506 Y89.576 E4.95356
G1 X81.730 Y90.954 E4.99681
G1 X81.093 Y91.212 E5.01003
G1 X80.236 Y91.509 E5.02747
G1 X79.580 Y91.703 E5.04064
G1 X78.699 Y91.921 E5.05809
G1 X77.589 Y92.126 E5.07982
G1 X76.689 Y92.239 E5.09727
G1 X76.007 Y92.293 E5.11043
G1 X74.877 Y92.322 E5.13216
G1 X74.194 Y92.304 E5.14532
G1 X73.289 Y92.239 E5.16277
G1 X72.389 Y92.126 E5.18023
G1 X71.507 Y91.969 E5.19745
G1 X70.398 Y91.703 E5.21940
G1 X69.530 Y91.440 E5.23685
G1 X68.677 Y91.132 E5.25429
G1 X68.045 Y90.870 E5.26745
G1 X67.224 Y90.485 E5.28491
G1 X66.231 Y89.946 E5.30664
G1 X65.461 Y89.467 E5.32408
G1 X64.897 Y89.079 E5.33725
G1 X64.174 Y88.532 E5.35469
G1 X63.481 Y87.948 E5.37214
G1 X62.819 Y87.328 E5.38959
G1 X62.341 Y86.832 E5.40283
G1 X61.395 Y85.261 E5.43812
G1 X61.265 Y83.017 E5.48136
G1 X65.712 Y62.094 E5.89288
G1 X66.447 Y60.479 E5.92702
G1 E3.92702 F1200.00000
G92 E0
G1 X75.065 Y85.037 F6000.000
G1 E2.00000 F1200.00000
G1 F1800
G1 X74.617 Y85.590 E2.01368
G1 X74.021 Y85.977 E2.02736
G1 X73.334 Y86.161 E2.04103
G1 X72.620 Y86.124 E2.05480
G1 X71.940 Y85.853 E2.06888
G1 X71.408 Y85.422 E2.08205
G1 X71.021 Y84.825 E2.09573
G1 X70.837 Y84.139 E2.10941
G1 X70.874 Y83.429 E2.12309
G1 X71.129 Y82.765 E2.13676
G1 X71.576 Y82.212 E2.15044
G1 X72.173 Y81.825 E2.16412
G1 X72.834 Y81.648 E2.17729
G1 X73.565 Y81.677 E2.19137
G1 X74.233 Y81.933 E2.20513
G1 X74.786 Y82.381 E2.21881
G1 X75.173 Y82.977 E2.23249
G1 X75.357 Y83.664 E2.24617
G1 X75.320 Y84.374 E2.25985
G1 X75.086 Y84.981 E2.27237
G1 X74.839 Y84.907 F6000.000
G1 F1800
G1 X74.443 Y85.396 E2.28448
G1 X73.915 Y85.739 E2.29659
G1 X73.307 Y85.902 E2.30871
G1 X72.676 Y85.869 E2.32087
G1 X72.072 Y85.628 E2.33338
G1 X71.601 Y85.248 E2.34502
G1 X71.259 Y84.720 E2.35713
G1 X71.096 Y84.111 E2.36924
G1 X71.129 Y83.483 E2.38136
G1 X71.354 Y82.895 E2.39347
G1 X71.750 Y82.406 E2.40558
G1 X72.278 Y82.063 E2.41769
G1 X72.863 Y81.906 E2.42933
G1 X73.513 Y81.932 E2.44184
G1 X74.103 Y82.159 E2.45400
G1 X74.592 Y82.555 E2.46612
G1 X74.935 Y83.083 E2.47823
G1 X75.098 Y83.691 E2.49034
G1 X75.065 Y84.319 E2.50245
G1 X74.861 Y84.851 E2.51341
G1 X74.614 Y84.777 F6000.000
G1 F1800
G1 X74.269 Y85.203 E2.52395
G1 X73.809 Y85.502 E2.53450
G1 X73.280 Y85.643 E2.54504
G1 X72.732 Y85.615 E2.55561
G1 X72.203 Y85.404 E2.56655
G1 X71.795 Y85.073 E2.57666
G1 X71.496 Y84.614 E2.58720
G1 X71.355 Y84.084 E2.59775
G1 X71.383 Y83.537 E2.60829
G1 X71.580 Y83.025 E2.61884
G1 X71.925 Y82.599 E2.62938
G1 X72.384 Y82.301 E2.63993
G1 X72.892 Y82.165 E2.65003
G1 X73.460 Y82.187 E2.66098
G1 X73.973 Y82.384 E2.67154
G1 X74.399 Y82.729 E2.68209
G1 X74.697 Y83.189 E2.69263
G1 X74.839 Y83.718 E2.70318
G1 X74.810 Y84.265 E2.71372
G1 X74.635 Y84.721 E2.72311
G1 X74.814 Y85.123 F6000.000
G1 E0.72311 F1200.00000
G92 E0
G1 X76.246 Y78.868 F6000.000
G1 E2.00000 F1200.00000
G1 F1800
G1 X72.268 Y78.022 E2.07824
G1 X71.011 Y74.154 E2.15648
G1 X73.732 Y71.132 E2.23473
G1 X77.710 Y71.978 E2.31297
G1 X78.967 Y75.846 E2.39121
G1 X76.286 Y78.823 E2.46830
G1 X76.154 Y78.586 F6000.000
G1 F1800
G1 X72.466 Y77.802 E2.54083
G1 X71.301 Y74.216 E2.61336
G1 X73.824 Y71.414 E2.68589
G1 X77.511 Y72.198 E2.75842
G1 X78.676 Y75.784 E2.83095
G1 X76.194 Y78.541 E2.90233
G1 X76.062 Y78.303 F6000.000
G1 F1800
G1 X72.665 Y77.581 E2.96915
G1 X71.591 Y74.278 E3.03597
G1 X73.916 Y71.697 E3.10279
G1 X77.313 Y72.419 E3.16960
G1 X78.386 Y75.722 E3.23642
G1 X76.102 Y78.259 E3.30209
G1 X75.979 Y78.694 F6000.000
G1 E1.30209 F1200.00000
G92 E0
G1 X77.420 Y63.631 F6000.000
G1 E2.00000 F1200.00000
G1 F1800
G1 X77.420 Y63.901 E2.00521
G1 X78.017 Y64.131 E2.01752
G1 X78.570 Y64.578 E2.03120
G1 X78.957 Y65.175 E2.04488
G1 X79.141 Y65.861 E2.05856
G1 X79.104 Y66.571 E2.07223
G1 X78.849 Y67.235 E2.08591
G1 X78.401 Y67.788 E2.09959
G1 X77.801 Y68.177 E2.11335
G1 X77.092 Y68.357 E2.12743
G1 X76.408 Y68.322 E2.14061
G1 X75.745 Y68.067 E2.15428
G1 X75.192 Y67.619 E2.16796
G1 X74.805 Y67.023 E2.18164
G1 X74.621 Y66.336 E2.19532
G1 X74.658 Y65.626 E2.20900
G1 X74.903 Y64.987 E2.22217
G1 X75.357 Y64.412 E2.23625
G1 X75.957 Y64.023 E2.25001
G1 X77.362 Y63.646 E2.27800
G1 X77.162 Y63.966 F6000.000
G1 F1800
G1 X77.162 Y64.123 E2.28103
G1 X77.299 Y64.131 E2.28366
G1 X77.887 Y64.356 E2.29578
G1 X78.376 Y64.752 E2.30789
G1 X78.719 Y65.280 E2.32000
G1 X78.882 Y65.889 E2.33211
G1 X78.849 Y66.517 E2.34422
G1 X78.623 Y67.105 E2.35633
G1 X78.227 Y67.594 E2.36844
G1 X77.697 Y67.939 E2.38061
G1 X77.067 Y68.099 E2.39312
G1 X76.462 Y68.067 E2.40476
G1 X75.875 Y67.841 E2.41687
G1 X75.385 Y67.445 E2.42898
G1 X75.043 Y66.917 E2.44109
G1 X74.880 Y66.309 E2.45321
G1 X74.913 Y65.681 E2.46532
G1 X75.129 Y65.116 E2.47696
G1 X75.532 Y64.605 E2.48947
G1 X76.062 Y64.261 E2.50163
G1 X77.104 Y63.981 E2.52239
G1 X76.905 Y64.301 F6000.000
G1 F1800
G1 X76.905 Y64.367 E2.52367
G1 X77.245 Y64.385 E2.53021
G1 X77.757 Y64.582 E2.54076
G1 X78.183 Y64.927 E2.55130
G1 X78.481 Y65.386 E2.56185
G1 X78.623 Y65.916 E2.57239
G1 X78.594 Y66.463 E2.58294
G1 X78.398 Y66.975 E2.59348
G1 X78.053 Y67.401 E2.60403
G1 X77.593 Y67.700 E2.61459
G1 X77.041 Y67.840 E2.62553
G1 X76.517 Y67.812 E2.63564
G1 X76.005 Y67.616 E2.64619
G1 X75.579 Y67.271 E2.65673
G1 X75.280 Y66.811 E2.66728
G1 X75.139 Y66.282 E2.67782
G1 X75.167 Y65.735 E2.68836
G1 X75.355 Y65.244 E2.69847
G1 X75.708 Y64.797 E2.70942
G1 X76.168 Y64.498 E2.71998
G1 X76.847 Y64.316 E2.73351
G1 X76.971 Y64.292 F6000.000
G1 E0.73351 F1200.00000
G92 E0
G1 X70.453 Y63.459 F6000.000
G1 E2.00000 F1200.00000
G1 F1800
G1 X71.156 Y63.205 E2.01438
G1 X71.779 Y63.020 E2.02687
G1 X72.410 Y62.869 E2.03937
G1 X73.049 Y62.750 E2.05186
G1 X73.692 Y62.666 E2.06435
G1 X74.339 Y62.615 E2.07684
G1 X75.000 Y62.598 E2.08954
G1 X75.638 Y62.615 E2.10182
G1 X76.285 Y62.666 E2.11432
G1 X76.929 Y62.750 E2.12681
G1 X77.567 Y62.869 E2.13930
G1 X78.199 Y63.020 E2.15179
G1 X78.821 Y63.205 E2.16428
G1 X79.433 Y63.422 E2.17678
G1 X80.033 Y63.670 E2.18927
G1 X80.619 Y63.949 E2.20176
G1 X81.190 Y64.259 E2.21425
G1 X81.744 Y64.599 E2.22674
G1 X82.279 Y64.966 E2.23923
G1 X82.794 Y65.362 E2.25173
G1 X83.288 Y65.783 E2.26422
G1 X83.826 Y66.302 E2.27860
G1 X79.524 Y86.541 E2.67667
G1 X79.433 Y86.578 E2.67857
G1 X78.821 Y86.795 E2.69106
G1 X78.199 Y86.980 E2.70355
G1 X77.567 Y87.131 E2.71604
G1 X76.929 Y87.250 E2.72853
G1 X76.285 Y87.334 E2.74103
G1 X75.638 Y87.385 E2.75352
G1 X74.989 Y87.402 E2.76601
G1 X74.340 Y87.385 E2.77850
G1 X73.692 Y87.334 E2.79099
G1 X73.049 Y87.250 E2.80348
G1 X72.410 Y87.131 E2.81598
G1 X71.779 Y86.980 E2.82847
G1 X71.156 Y86.795 E2.84096
G1 X70.544 Y86.578 E2.85345
G1 X69.944 Y86.330 E2.86594
G1 X69.358 Y86.051 E2.87844
G1 X68.788 Y85.741 E2.89093
G1 X68.234 Y85.401 E2.90342
G1 X67.699 Y85.034 E2.91591
G1 X67.184 Y84.638 E2.92840
G1 X66.690 Y84.217 E2.94089
G1 X66.151 Y83.698 E2.95528
G1 X70.441 Y63.518 E3.35220
G1 X70.230 Y63.273 F6000.000
G1 F1800
G1 X71.077 Y62.960 E3.36957
G1 X71.712 Y62.772 E3.38232
G1 X72.357 Y62.617 E3.39507
G1 X73.008 Y62.496 E3.40782
G1 X73.666 Y62.410 E3.42057
G1 X74.326 Y62.358 E3.43332
G1 X75.000 Y62.341 E3.44628
G1 X75.651 Y62.358 E3.45882
G1 X76.312 Y62.410 E3.47157
G1 X76.969 Y62.496 E3.48432
G1 X77.621 Y62.617 E3.49708
G1 X78.265 Y62.772 E3.50983
G1 X78.901 Y62.960 E3.52258
G1 X79.526 Y63.181 E3.53533
G1 X80.138 Y63.435 E3.54808
G1 X80.736 Y63.720 E3.56083
G1 X81.319 Y64.037 E3.57358
G1 X81.884 Y64.383 E3.58633
G1 X82.430 Y64.758 E3.59908
G1 X82.956 Y65.162 E3.61183
G1 X83.460 Y65.592 E3.62458
G1 X84.106 Y66.223 E3.64195
G1 X79.748 Y86.727 E4.04523
G1 X79.526 Y86.819 E4.04986
G1 X78.901 Y87.040 E4.06261
G1 X78.265 Y87.228 E4.07536
G1 X77.621 Y87.383 E4.08811
G1 X76.969 Y87.504 E4.10086
G1 X76.312 Y87.590 E4.11361
G1 X75.651 Y87.642 E4.12636
G1 X74.989 Y87.659 E4.13911
G1 X74.326 Y87.642 E4.15186
G1 X73.666 Y87.590 E4.16461
G1 X73.008 Y87.504 E4.17736
G1 X72.357 Y87.383 E4.19012
G1 X71.712 Y87.228 E4.20287
G1 X71.077 Y87.040 E4.21562
G1 X70.452 Y86.819 E4.22837
G1 X69.840 Y86.565 E4.24112
G1 X69.242 Y86.280 E4.25387
G1 X68.659 Y85.963 E4.26662
G1 X68.094 Y85.617 E4.27937
G1 X67.548 Y85.242 E4.29212
G1 X67.022 Y84.838 E4.30487
G1 X66.518 Y84.408 E4.31762
G1 X65.872 Y83.777 E4.33499
G1 X70.218 Y63.332 E4.73712
G1 X70.007 Y63.088 F6000.000
G1 F1800
G1 X70.360 Y62.941 E4.74447
G1 X70.997 Y62.716 E4.75748
G1 X71.646 Y62.524 E4.77049
G1 X72.303 Y62.366 E4.78350
G1 X72.968 Y62.242 E4.79651
G1 X73.639 Y62.154 E4.80952
G1 X74.313 Y62.101 E4.82253
G1 X75.000 Y62.084 E4.83575
G1 X75.665 Y62.101 E4.84855
G1 X76.339 Y62.154 E4.86156
G1 X77.009 Y62.242 E4.87457
G1 X77.674 Y62.366 E4.88758
G1 X78.332 Y62.524 E4.90059
G1 X78.980 Y62.716 E4.91360
G1 X79.618 Y62.941 E4.92661
G1 X80.242 Y63.200 E4.93962
G1 X80.853 Y63.491 E4.95263
G1 X81.447 Y63.814 E4.96564
G1 X82.024 Y64.167 E4.97865
G1 X82.581 Y64.550 E4.99166
G1 X83.117 Y64.962 E5.00467
G1 X83.632 Y65.401 E5.01768
G1 X84.122 Y65.867 E5.03069
G1 X84.385 Y66.144 E5.03805
G1 X79.971 Y86.912 E5.44653
G1 X79.618 Y87.059 E5.45388
G1 X78.980 Y87.284 E5.46689
G1 X78.332 Y87.476 E5.47990
G1 X77.674 Y87.634 E5.49291
G1 X77.009 Y87.758 E5.50592
G1 X76.339 Y87.846 E5.51893
G1 X75.665 Y87.899 E5.53194
G1 X74.989 Y87.917 E5.54495
G1 X74.313 Y87.899 E5.55796
G1 X73.639 Y87.846 E5.57097
G1 X72.968 Y87.758 E5.58398
G1 X72.303 Y87.634 E5.59699
G1 X71.646 Y87.476 E5.61000
G1 X70.997 Y87.284 E5.62301
G1 X70.360 Y87.059 E5.63602
G1 X69.735 Y86.800 E5.64903
G1 X69.125 Y86.509 E5.66204
G1 X68.530 Y86.186 E5.67505
G1 X67.954 Y85.833 E5.68806
G1 X67.397 Y85.450 E5.70107
G1 X66.860 Y85.038 E5.71408
G1 X66.346 Y84.599 E5.72709
G1 X65.855 Y84.133 E5.74010
G1 X65.592 Y83.856 E5.74746
G1 X69.994 Y63.146 E6.15479
G1 X70.369 Y63.210 F6000.000
G1 X70.784 Y63.543 F6000.000
G1 F1800
G1 X70.566 Y63.762 E6.16074
G1 X70.468 Y64.224 E6.16985
G1 X71.354 Y63.337 E6.19402
G1 X71.872 Y63.184 E6.20442
G1 X70.369 Y64.687 E6.24537
G1 X70.271 Y65.149 E6.25449
G1 X72.357 Y63.063 E6.31135
G1 X72.819 Y62.966 E6.32044
G1 X70.173 Y65.612 E6.39256
G1 X70.074 Y66.074 E6.40167
G1 X73.262 Y62.887 E6.48854
G1 X73.681 Y62.832 E6.49670
G1 X69.976 Y66.537 E6.59768
G1 X69.878 Y66.999 E6.60680
G1 X74.085 Y62.792 E6.72147
G1 X74.479 Y62.762 E6.72909
G1 X69.779 Y67.462 E6.85719
G1 X69.681 Y67.924 E6.86630
G1 X74.853 Y62.753 E7.00726
G1 X75.221 Y62.749 E7.01435
G1 X69.583 Y68.387 E7.16802
G1 X69.484 Y68.849 E7.17713
G1 X75.576 Y62.758 E7.34315
G1 X75.921 Y62.777 E7.34982
G1 X69.386 Y69.312 E7.52793
G1 X69.288 Y69.774 E7.53704
G1 X76.259 Y62.804 E7.72704
G1 X76.585 Y62.841 E7.73338
G1 X75.145 Y64.282 E7.77265
G1 X75.742 Y63.894 E7.78636
G1 X75.953 Y63.837 E7.79058
G1 X76.907 Y62.883 E7.81659
G1 X77.219 Y62.936 E7.82267
G1 X76.451 Y63.704 E7.84360
G1 X76.948 Y63.571 E7.85353
G1 X77.526 Y62.993 E7.86927
G1 X77.824 Y63.059 E7.87515
G1 X77.446 Y63.437 E7.88545
G1 X77.567 Y63.405 E7.88788
G1 X77.567 Y63.680 E7.89318
G1 X78.118 Y63.130 E7.90818
G1 X78.404 Y63.208 E7.91390
G1 X77.720 Y63.892 E7.93255
G1 X77.983 Y63.993 E7.93799
G1 X78.685 Y63.291 E7.95712
G1 X78.961 Y63.379 E7.96271
G1 X78.197 Y64.143 E7.98353
G1 X78.398 Y64.306 E7.98852
G1 X79.230 Y63.474 E8.01119
G1 X79.497 Y63.572 E8.01667
G1 X78.600 Y64.469 E8.04113
G1 X78.654 Y64.513 E8.04248
G1 X78.759 Y64.674 E8.04618
G1 X79.754 Y63.678 E8.07333
G1 X80.012 Y63.785 E8.07870
G1 X78.902 Y64.895 E8.10895
G1 X79.045 Y65.116 E8.11403
G1 X80.260 Y63.902 E8.14713
G1 X80.506 Y64.019 E8.15239
G1 X79.141 Y65.385 E8.18961
G1 X79.218 Y65.672 E8.19534
G1 X80.747 Y64.143 E8.23701
G1 X80.983 Y64.271 E8.24219
G1 X79.289 Y65.965 E8.28835
G1 X79.269 Y66.349 E8.29577
G1 X81.217 Y64.401 E8.34885
G1 X81.443 Y64.540 E8.35395
G1 X79.249 Y66.733 E8.41374
G1 X79.023 Y67.324 E8.42593
G1 X81.668 Y64.678 E8.49804
G1 X81.886 Y64.825 E8.50309
G1 X75.363 Y71.348 E8.68090
G1 X75.663 Y71.412 E8.68682
G1 X82.102 Y64.973 E8.86233
G1 X82.314 Y65.125 E8.86736
G1 X75.963 Y71.476 E9.04046
G1 X76.264 Y71.540 E9.04638
G1 X82.520 Y65.283 E9.21691
G1 X82.726 Y65.441 E9.22192
G1 X76.564 Y71.604 E9.38988
G1 X76.865 Y71.667 E9.39580
G1 X82.924 Y65.608 E9.56095
G1 X83.120 Y65.776 E9.56593
G1 X77.165 Y71.731 E9.72824
G1 X77.465 Y71.795 E9.73416
G1 X83.311 Y65.949 E9.89350
G1 X83.497 Y66.128 E9.89847
G1 X77.766 Y71.859 E10.05469
G1 X77.800 Y71.866 E10.05536
G1 X77.879 Y72.110 E10.06030
G1 X83.639 Y66.350 E10.21730
G1 X83.541 Y66.812 E10.22641
G1 X77.968 Y72.385 E10.37830
G1 X78.057 Y72.660 E10.38387
G1 X83.442 Y67.275 E10.53065
G1 X83.344 Y67.737 E10.53976
G1 X78.147 Y72.935 E10.68142
G1 X78.236 Y73.210 E10.68699
G1 X83.246 Y68.200 E10.82354
G1 X83.148 Y68.662 E10.83265
G1 X78.325 Y73.484 E10.96409
G1 X78.415 Y73.759 E10.96966
G1 X83.049 Y69.125 E11.09598
G1 X82.951 Y69.587 E11.10509
G1 X78.504 Y74.034 E11.22630
G1 X78.593 Y74.309 E11.23187
G1 X82.853 Y70.050 E11.34796
G1 X82.754 Y70.512 E11.35707
G1 X78.683 Y74.584 E11.46805
G1 X78.772 Y74.859 E11.47362
G1 X82.656 Y70.975 E11.57948
G1 X82.558 Y71.438 E11.58859
G1 X78.861 Y75.134 E11.68934
