; generated by Slic3r 1.3.0 on 2020-07-23 at 20:28:52

; external perimeters extrusion width = 0.44mm (1.51mm^3/s)
; perimeters extrusion width = 0.56mm (2.15mm^3/s)
; infill extrusion width = 0.50mm (2.87mm^3/s)
; solid infill extrusion width = 0.56mm (1.62mm^3/s)
; top infill extrusion width = 0.45mm (1.29mm^3/s)

M107
;D3D:START:START
T0
M104 S215 T0

G21
G90
M107
T0
G28
G29
M109 T0 S215 T0
G0 F3000
M107
T0
G92 E0
G0 X0 Y149 Z0.1 F3600
G1 Y49 E6.5 F1200
G0 Z1
G92 E0
; Filament gcode

G21 ; set units to millimeters
G90 ; use absolute coordinates
M82 ; use absolute distances for extrusion
G92 E0
G1 Z0.200 F6000.000
G1 E-2.00000 F1200.00000
G92 E0
G1 X56.562 Y51.640 F6000.000
G1 E2.00000 F1200.00000
G1 F1800
G1 X58.205 Y50.707 E2.03636
G1 X59.272 Y50.507 E2.05724
G1 X85.541 Y48.811 E2.56367
G1 X87.410 Y49.087 E2.60003
G1 X89.003 Y50.104 E2.63639
G1 X90.245 Y52.368 E2.68608
G1 X94.833 Y73.736 E3.10654
G1 X94.934 Y74.684 E3.12487
G1 X94.934 Y96.684 E3.54812
G1 X94.538 Y98.532 E3.58448
G1 X93.421 Y100.056 E3.62083
G1 X91.777 Y100.989 E3.65719
G1 X90.030 Y101.181 E3.69101
G1 X59.173 Y98.509 E4.28687
G1 X57.366 Y97.956 E4.32323
G1 X55.944 Y96.711 E4.35959
G1 X55.157 Y94.993 E4.39594
G1 X55.049 Y94.012 E4.41494
G1 X55.049 Y55.012 E5.16525
G1 X55.444 Y53.164 E5.20160
G1 X56.526 Y51.688 E5.23680
G1 X56.813 Y51.762 F6000.000
G1 F1800
G1 X59.288 Y50.764 E5.28815
G1 X85.557 Y49.068 E5.79458
G1 X87.371 Y49.347 E5.82987
G1 X88.898 Y50.363 E5.86517
G1 X89.994 Y52.422 E5.91005
G1 X94.582 Y73.790 E6.33051
G1 X94.677 Y74.684 E6.34779
G1 X94.677 Y96.684 E6.77104
G1 X94.281 Y98.475 E6.80634
G1 X93.169 Y99.934 E6.84163
G1 X91.546 Y100.789 E6.87693
G1 X90.052 Y100.925 E6.90578
G1 X59.196 Y98.253 E7.50164
G1 X57.445 Y97.705 E7.53694
G1 X56.087 Y96.471 E7.57223
G1 X55.306 Y94.012 E7.62187
G1 X55.306 Y55.012 E8.37217
G1 X55.701 Y53.221 E8.40747
G1 X56.777 Y51.809 E8.44161
G1 E6.44161 F1200.00000
G92 E0
G1 X81.166 Y86.848 F6000.000
G1 E2.00000 F1200.00000
G1 F1800
G1 X80.664 Y87.350 E2.01368
G1 X80.030 Y87.673 E2.02736
G1 X79.328 Y87.784 E2.04103
G1 X78.626 Y87.673 E2.05471
G1 X77.992 Y87.350 E2.06839
G1 X77.489 Y86.848 E2.08207
G1 X77.167 Y86.214 E2.09575
G1 X77.055 Y85.512 E2.10943
G1 X77.167 Y84.810 E2.12310
G1 X77.489 Y84.176 E2.13678
G1 X77.992 Y83.674 E2.15046
G1 X78.626 Y83.351 E2.16414
G1 X79.298 Y83.244 E2.17724
G1 X80.025 Y83.348 E2.19138
G1 X80.664 Y83.674 E2.20515
G1 X81.166 Y84.176 E2.21883
G1 X81.489 Y84.810 E2.23251
G1 X81.600 Y85.512 E2.24619
G1 X81.489 Y86.214 E2.25986
G1 X81.193 Y86.794 E2.27239
G1 X80.956 Y86.695 F6000.000
G1 F1800
G1 X80.511 Y87.140 E2.28450
G1 X79.949 Y87.426 E2.29661
G1 X79.328 Y87.524 E2.30872
G1 X78.706 Y87.426 E2.32083
G1 X78.145 Y87.140 E2.33295
G1 X77.700 Y86.695 E2.34506
G1 X77.414 Y86.134 E2.35717
G1 X77.316 Y85.512 E2.36928
G1 X77.414 Y84.890 E2.38139
G1 X77.700 Y84.329 E2.39350
G1 X78.145 Y83.884 E2.40561
G1 X78.706 Y83.598 E2.41773
G1 X79.300 Y83.504 E2.42930
G1 X79.947 Y83.597 E2.44187
G1 X80.511 Y83.884 E2.45404
G1 X80.956 Y84.329 E2.46615
G1 X81.241 Y84.890 E2.47826
G1 X81.340 Y85.512 E2.49037
G1 X81.241 Y86.134 E2.50248
G1 X80.983 Y86.641 E2.51344
G1 X80.745 Y86.542 F6000.000
G1 F1800
G1 X80.358 Y86.929 E2.52399
G1 X79.869 Y87.178 E2.53453
G1 X79.328 Y87.264 E2.54508
G1 X78.786 Y87.178 E2.55562
G1 X78.298 Y86.929 E2.56617
G1 X77.910 Y86.542 E2.57671
G1 X77.662 Y86.053 E2.58725
G1 X77.576 Y85.512 E2.59780
G1 X77.662 Y84.971 E2.60834
G1 X77.910 Y84.482 E2.61889
G1 X78.298 Y84.095 E2.62943
G1 X78.786 Y83.846 E2.63998
G1 X79.302 Y83.764 E2.65002
G1 X79.868 Y83.845 E2.66102
G1 X80.358 Y84.095 E2.67159
G1 X80.745 Y84.482 E2.68214
G1 X80.994 Y84.971 E2.69268
G1 X81.080 Y85.512 E2.70323
G1 X80.994 Y86.053 E2.71377
G1 X80.772 Y86.488 E2.72316
G1 X80.908 Y86.907 F6000.000
G1 E0.72316 F1200.00000
G92 E0
G1 X67.435 Y85.512 F6000.000
G1 E2.00000 F1200.00000
G1 F1800
G1 X67.324 Y86.214 E2.01368
G1 X67.001 Y86.848 E2.02736
G1 X66.498 Y87.350 E2.04103
G1 X65.865 Y87.673 E2.05471
G1 X65.163 Y87.784 E2.06839
G1 X64.461 Y87.673 E2.08207
G1 X63.827 Y87.350 E2.09575
G1 X63.324 Y86.848 E2.10943
G1 X63.002 Y86.214 E2.12310
G1 X62.890 Y85.512 E2.13678
G1 X63.002 Y84.810 E2.15046
G1 X63.324 Y84.176 E2.16414
G1 X63.827 Y83.674 E2.17782
G1 X64.461 Y83.351 E2.19149
G1 X65.133 Y83.244 E2.20459
G1 X65.860 Y83.349 E2.21873
G1 X66.498 Y83.674 E2.23251
G1 X67.001 Y84.176 E2.24619
G1 X67.324 Y84.810 E2.25986
G1 X67.426 Y85.453 E2.27239
G1 X67.175 Y85.512 F6000.000
G1 F1800
G1 X67.076 Y86.134 E2.28450
G1 X66.791 Y86.695 E2.29661
G1 X66.345 Y87.140 E2.30872
G1 X65.785 Y87.426 E2.32083
G1 X65.163 Y87.524 E2.33295
G1 X64.541 Y87.426 E2.34506
G1 X63.980 Y87.140 E2.35717
G1 X63.535 Y86.695 E2.36928
G1 X63.249 Y86.134 E2.38139
G1 X63.151 Y85.512 E2.39350
G1 X63.249 Y84.890 E2.40561
G1 X63.535 Y84.329 E2.41773
G1 X63.980 Y83.884 E2.42984
G1 X64.541 Y83.598 E2.44195
G1 X65.135 Y83.504 E2.45352
G1 X65.782 Y83.597 E2.46609
G1 X66.345 Y83.884 E2.47826
G1 X66.791 Y84.329 E2.49037
G1 X67.076 Y84.890 E2.50248
G1 X67.166 Y85.453 E2.51344
G1 X66.915 Y85.512 F6000.000
G1 F1800
G1 X66.829 Y86.053 E2.52399
G1 X66.580 Y86.542 E2.53453
G1 X66.192 Y86.929 E2.54508
G1 X65.704 Y87.178 E2.55562
G1 X65.163 Y87.264 E2.56617
G1 X64.621 Y87.178 E2.57671
G1 X64.133 Y86.929 E2.58726
G1 X63.745 Y86.542 E2.59780
G1 X63.497 Y86.053 E2.60834
G1 X63.411 Y85.512 E2.61889
G1 X63.497 Y84.971 E2.62943
G1 X63.745 Y84.482 E2.63998
G1 X64.133 Y84.095 E2.65052
G1 X64.621 Y83.846 E2.66107
G1 X65.137 Y83.764 E2.67111
G1 X65.703 Y83.845 E2.68211
G1 X66.192 Y84.095 E2.69268
G1 X66.580 Y84.482 E2.70323
G1 X66.829 Y84.971 E2.71377
G1 X66.905 Y85.453 E2.72316
G1 X67.261 Y85.712 F6000.000
G1 E0.72316 F1200.00000
G92 E0
G1 X60.227 Y77.676 F6000.000
G1 E2.00000 F1200.00000
G1 F1800
G1 X77.926 Y77.676 E2.34051
G1 X85.321 Y76.103 E2.48597
G1 X89.555 Y95.821 E2.87395
G1 X77.926 Y93.348 E3.10267
G1 X60.227 Y93.348 E3.44319
G1 X60.227 Y77.736 E3.74353
G1 X59.970 Y77.419 F6000.000
G1 F1800
G1 X77.899 Y77.419 E4.08847
G1 X85.519 Y75.799 E4.23834
G1 X89.890 Y96.155 E4.63890
G1 X77.899 Y93.605 E4.87473
G1 X59.970 Y93.605 E5.21967
G1 X59.970 Y77.479 E5.52991
G1 X59.713 Y77.162 F6000.000
G1 F1800
G1 X77.872 Y77.162 E5.87928
G1 X85.716 Y75.494 E6.03356
G1 X90.224 Y96.489 E6.44669
G1 X77.872 Y93.862 E6.68964
G1 X59.713 Y93.862 E7.03900
G1 X59.713 Y77.222 E7.35914
G1 X60.101 Y77.260 F6000.000
G1 X60.375 Y78.042 F6000.000
G1 F1800
G1 X60.593 Y77.824 E7.36509
G1 X60.958 Y77.824 E7.37212
G1 X60.375 Y78.407 E7.38801
G1 X60.375 Y78.771 E7.39504
G1 X61.322 Y77.824 E7.42088
G1 X61.687 Y77.824 E7.42791
G1 X60.375 Y79.136 E7.46370
G1 X60.375 Y79.500 E7.47073
G1 X62.051 Y77.824 E7.51645
G1 X62.416 Y77.824 E7.52348
G1 X60.375 Y79.865 E7.57915
G1 X60.375 Y80.229 E7.58618
G1 X62.780 Y77.824 E7.65178
G1 X63.145 Y77.824 E7.65881
G1 X60.375 Y80.594 E7.73436
G1 X60.375 Y80.958 E7.74139
G1 X63.509 Y77.824 E7.82688
G1 X63.874 Y77.824 E7.83391
G1 X60.375 Y81.323 E7.92935
G1 X60.375 Y81.687 E7.93638
G1 X64.238 Y77.824 E8.04175
G1 X64.603 Y77.824 E8.04878
G1 X60.375 Y82.052 E8.16410
G1 X60.375 Y82.416 E8.17113
G1 X64.967 Y77.824 E8.29639
G1 X65.332 Y77.824 E8.30342
G1 X60.375 Y82.781 E8.43862
G1 X60.375 Y83.145 E8.44565
G1 X65.696 Y77.824 E8.59079
G1 X66.061 Y77.824 E8.59782
G1 X60.375 Y83.510 E8.75291
G1 X60.375 Y83.874 E8.75994
G1 X66.425 Y77.824 E8.92496
G1 X66.790 Y77.824 E8.93199
G1 X60.375 Y84.239 E9.10696
G1 X60.375 Y84.603 E9.11399
G1 X67.154 Y77.824 E9.29890
G1 X67.519 Y77.824 E9.30593
G1 X60.375 Y84.968 E9.50079
G1 X60.375 Y85.332 E9.50782
G1 X67.883 Y77.824 E9.71261
G1 X68.247 Y77.824 E9.71964
G1 X60.375 Y85.697 E9.93438
G1 X60.375 Y86.061 E9.94141
G1 X68.612 Y77.824 E10.16608
G1 X68.976 Y77.824 E10.17311
G1 X60.375 Y86.426 E10.40774
G1 X60.375 Y86.790 E10.41477
G1 X63.194 Y83.971 E10.49165
G1 X62.863 Y84.620 E10.50570
G1 X62.854 Y84.675 E10.50677
G1 X60.375 Y87.155 E10.57440
G1 X60.375 Y87.519 E10.58143
G1 X62.786 Y85.108 E10.64719
G1 X62.739 Y85.403 E10.65295
G1 X62.755 Y85.504 E10.65491
G1 X60.375 Y87.884 E10.71983
G1 X60.375 Y88.248 E10.72686
G1 X62.805 Y85.818 E10.79314
G1 X62.855 Y86.133 E10.79929
G1 X60.375 Y88.613 E10.86693
G1 X60.375 Y88.977 E10.87396
G1 X62.965 Y86.387 E10.94462
G1 X63.088 Y86.628 E10.94985
G1 X60.375 Y89.342 E11.02387
G1 X60.375 Y89.706 E11.03090
G1 X63.212 Y86.869 E11.10827
G1 X63.388 Y87.057 E11.11324
G1 X60.375 Y90.071 E11.19544
G1 X60.375 Y90.435 E11.20247
G1 X63.571 Y87.239 E11.28963
G1 X63.753 Y87.422 E11.29461
G1 X60.375 Y90.800 E11.38674
G1 X60.375 Y91.164 E11.39377
G1 X63.984 Y87.554 E11.49223
G1 X64.226 Y87.678 E11.49746
G1 X60.375 Y91.529 E11.60250
G1 X60.375 Y91.893 E11.60953
G1 X64.467 Y87.801 E11.72115
G1 X64.775 Y87.857 E11.72719
G1 X60.375 Y92.257 E11.84722
G1 X60.375 Y92.622 E11.85425
G1 X65.090 Y87.907 E11.98287
G1 X65.272 Y87.936 E11.98642
G1 X65.455 Y87.907 E11.98999
G1 X60.375 Y92.986 E12.12855
G1 X60.375 Y93.200 E12.13266
G1 X60.526 Y93.200 E12.13558
G1 X65.888 Y87.838 E12.28183
G1 X66.054 Y87.812 E12.28508
G1 X66.512 Y87.579 E12.29498
G1 X60.890 Y93.200 E12.44830
G1 X61.255 Y93.200 E12.45533
G1 X76.631 Y77.824 E12.87473
G1 X76.995 Y77.824 E12.88176
G1 X61.619 Y93.200 E13.30115
G1 X61.984 Y93.200 E13.30818
G1 X77.360 Y77.824 E13.72758
G1 X77.724 Y77.824 E13.73461
G1 X62.348 Y93.200 E14.15400
G1 X62.713 Y93.200 E14.16103
G1 X78.096 Y77.817 E14.58062
G1 X78.559 Y77.719 E14.58975
G1 X63.077 Y93.200 E15.01202
G1 X63.442 Y93.200 E15.01905
G1 X79.022 Y77.620 E15.44401
G1 X79.485 Y77.522 E15.45314
G1 X63.806 Y93.200 E15.88078
G1 X64.171 Y93.200 E15.88781
G1 X79.947 Y77.423 E16.31814
G1 X80.410 Y77.325 E16.32727
G1 X64.535 Y93.200 E16.76029
G1 X64.900 Y93.200 E16.76732
G1 X80.873 Y77.226 E17.20302
G1 X81.336 Y77.128 E17.21215
G1 X65.264 Y93.200 E17.65053
G1 X65.629 Y93.200 E17.65756
G1 X81.799 Y77.029 E18.09863
G1 X82.262 Y76.931 E18.10776
G1 X65.993 Y93.200 E18.55152
G1 X66.358 Y93.200 E18.55855
G1 X82.725 Y76.833 E19.00499
G1 X83.188 Y76.734 E19.01412
G1 X66.722 Y93.200 E19.46325
G1 X67.087 Y93.200 E19.47028
G1 X83.651 Y76.636 E19.92210
G1 X84.114 Y76.537 E19.93122
G1 X67.451 Y93.200 E20.38572
G1 X67.816 Y93.200 E20.39275
G1 X84.577 Y76.439 E20.84994
G1 X85.040 Y76.340 E20.85907
G1 X77.889 Y83.491 E21.05412
G1 X78.436 Y83.212 E21.06596
G1 X78.550 Y83.194 E21.06819
G1 X85.271 Y76.474 E21.25149
G1 X85.335 Y76.774 E21.25741
G1 X78.983 Y83.126 E21.43066
G1 X79.187 Y83.093 E21.43464
G1 X79.356 Y83.118 E21.43793
G1 X85.399 Y77.074 E21.60278
G1 X85.464 Y77.374 E21.60869
G1 X79.675 Y83.163 E21.76660
G1 X79.994 Y83.209 E21.77281
G1 X85.528 Y77.674 E21.92378
G1 X85.593 Y77.974 E21.92970
G1 X80.235 Y83.332 E22.07583
G1 X80.477 Y83.455 E22.08106
G1 X85.657 Y78.274 E22.22236
G1 X85.722 Y78.574 E22.22828
G1 X80.716 Y83.580 E22.36482
G1 X80.898 Y83.763 E22.36979
G1 X85.786 Y78.874 E22.50313
G1 X85.850 Y79.174 E22.50904
G1 X81.080 Y83.945 E22.63916
G1 X81.262 Y84.127 E22.64413
G1 X85.915 Y79.475 E22.77104
G1 X85.979 Y79.775 E22.77696
G1 X81.387 Y84.367 E22.90222
G1 X81.510 Y84.608 E22.90744
G1 X86.044 Y80.075 E23.03110
G1 X86.108 Y80.375 E23.03702
G1 X81.630 Y84.853 E23.15918
G1 X81.680 Y85.168 E23.16532
G1 X86.173 Y80.675 E23.28788
G1 X86.237 Y80.975 E23.29379
G1 X81.729 Y85.482 E23.41675
G1 X81.751 Y85.621 E23.41945
G1 X81.713 Y85.863 E23.42418
G1 X86.301 Y81.275 E23.54934
G1 X86.366 Y81.575 E23.55526
G1 X81.644 Y86.296 E23.68404
G1 X81.627 Y86.404 E23.68614
G1 X81.343 Y86.963 E23.69824
G1 X86.430 Y81.875 E23.83702
G1 X86.495 Y82.175 E23.84294
G1 X75.470 Y93.200 E24.14365
G1 X75.834 Y93.200 E24.15068
G1 X86.559 Y82.475 E24.44321
G1 X86.624 Y82.775 E24.44913
G1 X76.199 Y93.200 E24.73348
G1 X76.563 Y93.200 E24.74051
G1 X86.688 Y83.075 E25.01667
G1 X86.752 Y83.375 E25.02259
G1 X76.928 Y93.200 E25.29057
G1 X77.292 Y93.200 E25.29760
G1 X86.817 Y83.675 E25.55739
G1 X86.881 Y83.975 E25.56331
G1 X77.657 Y93.200 E25.81492
G1 X77.844 Y93.200 E25.81854
G1 X77.990 Y93.231 E25.82142
G1 X86.946 Y84.276 E26.06569
G1 X87.010 Y84.576 E26.07161
G1 X78.291 Y93.295 E26.30944
G1 X78.591 Y93.359 E26.31536
G1 X87.075 Y84.876 E26.54675
G1 X87.139 Y85.176 E26.55267
G1 X78.892 Y93.423 E26.77762
G1 X79.193 Y93.487 E26.78355
G1 X87.203 Y85.476 E27.00205
G1 X87.268 Y85.776 E27.00797
G1 X79.493 Y93.551 E27.22004
G1 X79.794 Y93.614 E27.22596
G1 X87.332 Y86.076 E27.43159
G1 X87.397 Y86.376 E27.43751
G1 X80.094 Y93.678 E27.63669
G1 X80.395 Y93.742 E27.64262
G1 X87.461 Y86.676 E27.83536
G1 X87.526 Y86.976 E27.84128
G1 X80.695 Y93.806 E28.02758
G1 X80.996 Y93.870 E28.03351
G1 X87.590 Y87.276 E28.21337
G1 X87.654 Y87.576 E28.21929
G1 X81.297 Y93.934 E28.39271
G1 X81.597 Y93.998 E28.39864
G1 X87.719 Y87.876 E28.56561
G1 X87.783 Y88.176 E28.57153
G1 X81.898 Y94.062 E28.73207
G1 X82.198 Y94.126 E28.73800
G1 X87.848 Y88.476 E28.89209
G1 X87.912 Y88.776 E28.89801
G1 X82.499 Y94.190 E29.04567
G1 X82.799 Y94.254 E29.05159
G1 X87.976 Y89.077 E29.19281
G1 X88.041 Y89.377 E29.19873
G1 X83.100 Y94.318 E29.33350
G1 X83.400 Y94.381 E29.33943
G1 X88.105 Y89.677 E29.46776
G1 X88.170 Y89.977 E29.47368
G1 X83.701 Y94.445 E29.59557
G1 X84.002 Y94.509 E29.60150
G1 X88.234 Y90.277 E29.71695
G1 X88.299 Y90.577 E29.72287
G1 X84.302 Y94.573 E29.83188
G1 X84.603 Y94.637 E29.83780
G1 X88.363 Y90.877 E29.94037
G1 X88.427 Y91.177 E29.94629
G1 X84.903 Y94.701 E30.04242
G1 X85.204 Y94.765 E30.04834
G1 X88.492 Y91.477 E30.13803
G1 X88.556 Y91.777 E30.14395
G1 X85.504 Y94.829 E30.22719
G1 X85.805 Y94.893 E30.23312
G1 X88.621 Y92.077 E30.30993
G1 X88.685 Y92.377 E30.31584
G1 X86.106 Y94.957 E30.38621
G1 X86.406 Y95.021 E30.39213
G1 X88.750 Y92.677 E30.45606
G1 X88.814 Y92.977 E30.46198
G1 X86.707 Y95.085 E30.51946
G1 X87.007 Y95.149 E30.52538
G1 X88.878 Y93.277 E30.57642
G1 X88.943 Y93.577 E30.58234
G1 X87.308 Y95.212 E30.62694
G1 X87.608 Y95.276 E30.63287
G1 X89.007 Y93.877 E30.67103
G1 X89.072 Y94.178 E30.67695
G1 X87.909 Y95.340 E30.70866
G1 X88.209 Y95.404 E30.71459
G1 X89.136 Y94.478 E30.73986
G1 X89.201 Y94.778 E30.74578
G1 X88.510 Y95.468 E30.76462
G1 X88.811 Y95.532 E30.77054
G1 X89.265 Y95.078 E30.78294
G1 X89.329 Y95.378 E30.78886
G1 X89.111 Y95.596 E30.79481
G1 E28.79481 F1200.00000
G92 E0
G1 X75.105 Y93.200 F6000.000
G1 E2.00000 F1200.00000
G1 F1800
G1 X80.778 Y87.527 E2.15474
G1 X80.219 Y87.812 E2.16684
G1 X80.112 Y87.829 E2.16893
G1 X74.741 Y93.200 E2.31544
G1 X74.376 Y93.200 E2.32247
G1 X79.679 Y87.897 E2.46711
G1 X79.437 Y87.936 E2.47184
G1 X79.298 Y87.914 E2.47455
G1 X74.012 Y93.200 E2.61873
G1 X73.648 Y93.200 E2.62576
G1 X78.984 Y87.864 E2.77131
G1 X78.669 Y87.814 E2.77746
G1 X73.283 Y93.200 E2.92436
G1 X72.919 Y93.200 E2.93139
G1 X78.424 Y87.694 E3.08156
G1 X78.183 Y87.571 E3.08679
G1 X72.554 Y93.200 E3.24031
G1 X72.190 Y93.200 E3.24734
G1 X77.943 Y87.447 E3.40427
G1 X77.761 Y87.264 E3.40924
G1 X71.825 Y93.200 E3.57114
G1 X71.461 Y93.200 E3.57817
G1 X77.578 Y87.082 E3.74504
G1 X77.396 Y86.900 E3.75001
G1 X71.096 Y93.200 E3.92185
G1 X70.732 Y93.200 E3.92888
G1 X77.270 Y86.661 E4.10724
G1 X77.147 Y86.420 E4.11247
G1 X70.367 Y93.200 E4.29741
G1 X70.003 Y93.200 E4.30444
G1 X77.027 Y86.176 E4.49602
G1 X76.977 Y85.861 E4.50217
G1 X69.638 Y93.200 E4.70234
G1 X69.274 Y93.200 E4.70937
G1 X76.927 Y85.547 E4.91812
G1 X76.904 Y85.403 E4.92093
G1 X76.941 Y85.168 E4.92552
G1 X68.909 Y93.200 E5.14461
G1 X68.545 Y93.200 E5.15164
G1 X77.010 Y84.735 E5.38254
G1 X77.028 Y84.620 E5.38478
G1 X77.307 Y84.073 E5.39662
G1 X68.180 Y93.200 E5.64556
G1 X67.816 Y93.200 E5.65259
G1 E3.65259 F1200.00000
G92 E0
G1 X67.230 Y86.861 F6000.000
G1 E2.00000 F1200.00000
G1 F1800
G1 X76.266 Y77.824 E2.24649
G1 X75.902 Y77.824 E2.25352
G1 X67.489 Y86.237 E2.48299
G1 X67.557 Y85.804 E2.49145
G1 X75.537 Y77.824 E2.70911
G1 X75.173 Y77.824 E2.71614
G1 X67.558 Y85.439 E2.92386
G1 X67.508 Y85.125 E2.93000
G1 X74.808 Y77.824 E3.12913
G1 X74.444 Y77.824 E3.13616
G1 X67.451 Y84.817 E3.32689
G1 X67.328 Y84.575 E3.33212
G1 X74.079 Y77.824 E3.51626
G1 X73.715 Y77.824 E3.52329
G1 X67.205 Y84.334 E3.70085
G1 X67.072 Y84.102 E3.70600
G1 X73.350 Y77.824 E3.87724
G1 X72.986 Y77.824 E3.88427
G1 X66.890 Y83.920 E4.05054
G1 X66.708 Y83.738 E4.05551
