; generated by Slic3r 1.3.0 on 2021-03-05 at 22:48:53

; external perimeters extrusion width = 0.44mm (3.57mm^3/s)
; perimeters extrusion width = 0.56mm (5.17mm^3/s)
; infill extrusion width = 0.50mm (5.48mm^3/s)
; solid infill extrusion width = 0.56mm (3.62mm^3/s)
; top infill extrusion width = 0.56mm (2.07mm^3/s)

M107
;D3D:START:START
T0
M104 S215 T0

G21
G90
M107
T0
G28
G29
M109 T0 S215 T0
G0 F3000
M107
T0
G92 E0
G0 X0 Y149 Z0.1 F3600
G1 Y49 E6.5 F1200
G0 Z1
G92 E0
; Filament gcode

G21 ; set units to millimeters
G90 ; use absolute coordinates
M82 ; use absolute distances for extrusion
G92 E0
G1 E-1.00000 F1200.00000
G92 E0
G1 Z0.200 F6000.000
G1 X9.399 Y65.466 F6000.000
G1 E1.00000 F1200.00000
G1 F1800
G1 X13.562 Y65.026 E1.08233
G1 X18.039 Y64.655 E1.17067
G1 X22.995 Y64.332 E1.26834
G1 X28.405 Y64.059 E1.37488
G1 X34.241 Y63.837 E1.48972
G1 X40.468 Y63.669 E1.61223
G1 X47.050 Y63.553 E1.74170
G1 X53.948 Y63.490 E1.87736
G1 X61.078 Y63.478 E2.01757
G1 X68.486 Y63.514 E2.16327
G1 X76.080 Y63.596 E2.31262
G1 X83.844 Y63.720 E2.46532
G1 X91.667 Y63.881 E2.61920
G1 X99.535 Y64.075 E2.77399
G1 X107.379 Y64.298 E2.92832
G1 X115.196 Y64.545 E3.08212
G1 X122.933 Y64.812 E3.23437
G1 X134.607 Y65.257 E3.46412
G1 X136.829 Y65.742 E3.50885
G1 X138.749 Y66.962 E3.55357
G1 X140.132 Y68.767 E3.59829
G1 X140.864 Y71.766 E3.65901
G1 X140.864 Y78.234 E3.78621
G1 X140.467 Y80.473 E3.83093
G1 X139.324 Y82.439 E3.87565
G1 X137.576 Y83.893 E3.92037
G1 X134.607 Y84.743 E3.98109
G1 X122.933 Y85.188 E4.21084
G1 X115.215 Y85.454 E4.36271
G1 X107.401 Y85.701 E4.51647
G1 X99.511 Y85.925 E4.67169
G1 X91.667 Y86.119 E4.82601
G1 X83.814 Y86.281 E4.98048
G1 X76.114 Y86.404 E5.13192
G1 X68.524 Y86.486 E5.28119
G1 X61.121 Y86.522 E5.42679
G1 X53.948 Y86.510 E5.56785
G1 X47.050 Y86.447 E5.70351
G1 X40.468 Y86.331 E5.83298
G1 X34.241 Y86.163 E5.95549
G1 X28.405 Y85.941 E6.07034
G1 X22.995 Y85.668 E6.17688
G1 X18.039 Y85.345 E6.27455
G1 X13.562 Y84.974 E6.36288
G1 X9.584 Y84.556 E6.44155
G1 X6.113 Y84.093 E6.51043
G1 X3.141 Y83.579 E6.56973
G1 X0.631 Y82.997 E6.62040
G1 X0.001 Y82.813 E6.63331
G1 X-1.531 Y82.283 E6.66519
G1 X-2.750 Y81.714 E6.69164
G1 X-3.673 Y81.161 E6.71281
G1 X-5.389 Y79.669 E6.75753
G1 X-6.062 Y78.655 E6.78146
G1 X-6.372 Y78.078 E6.79434
G1 X-7.080 Y75.917 E6.83906
G1 X-7.003 Y73.645 E6.88378
G1 X-6.373 Y71.923 E6.91984
G1 X-6.062 Y71.345 E6.93274
G1 X-4.653 Y69.560 E6.97747
G1 X-3.672 Y68.839 E7.00140
G1 X-2.750 Y68.286 E7.02256
G1 X-1.531 Y67.717 E7.04901
G1 X0.001 Y67.187 E7.08089
G1 X0.631 Y67.003 E7.09380
G1 X3.141 Y66.421 E7.14447
G1 X6.113 Y65.907 E7.20378
G1 X9.340 Y65.474 E7.26781
G1 X9.433 Y65.721 F6000.000
G1 F1800
G1 X13.584 Y65.283 E7.34989
G1 X18.056 Y64.912 E7.43813
G1 X23.008 Y64.589 E7.53573
G1 X28.415 Y64.316 E7.64220
G1 X34.248 Y64.094 E7.75700
G1 X40.473 Y63.926 E7.87946
G1 X47.053 Y63.810 E8.00888
G1 X53.949 Y63.747 E8.14451
G1 X61.078 Y63.735 E8.28472
G1 X68.522 Y63.771 E8.43110
G1 X76.078 Y63.853 E8.57970
G1 X83.810 Y63.976 E8.73179
G1 X91.660 Y64.138 E8.88621
G1 X99.528 Y64.332 E9.04098
G1 X107.372 Y64.555 E9.19531
G1 X115.188 Y64.802 E9.34910
G1 X122.924 Y65.069 E9.50132
G1 X134.597 Y65.514 E9.73106
G1 X136.773 Y65.997 E9.77488
G1 X138.641 Y67.212 E9.81871
G1 X139.964 Y69.005 E9.86253
G1 X140.606 Y71.766 E9.91828
G1 X140.606 Y78.234 E10.04548
G1 X140.210 Y80.427 E10.08930
G1 X139.070 Y82.341 E10.13313
G1 X137.331 Y83.735 E10.17695
G1 X134.597 Y84.486 E10.23270
G1 X122.924 Y84.931 E10.46245
G1 X115.206 Y85.197 E10.61430
G1 X107.393 Y85.445 E10.76805
G1 X99.505 Y85.668 E10.92323
G1 X91.660 Y85.862 E11.07755
G1 X83.810 Y86.024 E11.23197
G1 X76.110 Y86.147 E11.38342
G1 X68.522 Y86.229 E11.53266
G1 X61.120 Y86.265 E11.67823
G1 X53.949 Y86.253 E11.81925
G1 X47.053 Y86.190 E11.95488
G1 X40.473 Y86.074 E12.08430
G1 X34.248 Y85.906 E12.20677
G1 X28.415 Y85.684 E12.32156
G1 X23.008 Y85.411 E12.42803
G1 X18.056 Y85.088 E12.52563
G1 X13.584 Y84.717 E12.61388
G1 X9.611 Y84.300 E12.69244
G1 X6.147 Y83.838 E12.76117
G1 X3.186 Y83.325 E12.82027
G1 X0.690 Y82.746 E12.87064
G1 X0.085 Y82.570 E12.88304
G1 X-1.447 Y82.040 E12.91492
G1 X-2.618 Y81.494 E12.94033
G1 X-3.541 Y80.940 E12.96149
G1 X-5.217 Y79.472 E13.00532
G1 X-5.836 Y78.534 E13.02742
G1 X-6.145 Y77.957 E13.04030
G1 X-6.832 Y75.837 E13.08413
G1 X-6.732 Y73.611 E13.12795
G1 X-6.146 Y72.044 E13.16084
G1 X-5.836 Y71.466 E13.17374
G1 X-4.449 Y69.722 E13.21756
G1 X-3.540 Y69.059 E13.23968
G1 X-2.618 Y68.506 E13.26084
G1 X-1.447 Y67.960 E13.28624
G1 X0.085 Y67.430 E13.31812
G1 X0.690 Y67.254 E13.33052
G1 X3.186 Y66.675 E13.38090
G1 X6.147 Y66.162 E13.44000
G1 X9.374 Y65.729 E13.50403
G1 E12.50403 F1200.00000
G92 E0
G1 X101.681 Y77.650 F6000.000
G1 E1.00000 F1200.00000
G1 F1800
G1 X101.681 Y72.350 E1.10423
G1 X116.981 Y72.350 E1.40512
G1 X116.981 Y77.650 E1.50935
G1 X101.741 Y77.650 E1.80907
G1 E0.80907 F1200.00000
G92 E0
G1 X36.981 Y77.650 F6000.000
G1 E1.00000 F1200.00000
G1 F1800
G1 X21.681 Y77.650 E1.30089
G1 X21.681 Y72.350 E1.40512
G1 X36.981 Y72.350 E1.70602
G1 X36.981 Y77.590 E1.80907
G1 E0.80907 F1200.00000
G92 E0
G1 X134.051 Y78.095 F6000.000
G1 E1.00000 F1200.00000
G1 F1800
G1 X122.686 Y78.528 E1.22368
G1 X107.190 Y79.041 E1.52858
G1 X99.346 Y79.263 E1.68290
G1 X91.502 Y79.457 E1.83721
G1 X83.707 Y79.618 E1.99054
G1 X76.008 Y79.741 E2.14197
G1 X68.453 Y79.822 E2.29056
G1 X61.089 Y79.858 E2.43539
G1 X53.960 Y79.846 E2.57557
G1 X47.112 Y79.783 E2.71026
G1 X40.586 Y79.668 E2.83862
G1 X34.423 Y79.501 E2.95988
G1 X28.659 Y79.282 E3.07330
G1 X23.333 Y79.012 E3.17819
G1 X18.475 Y78.695 E3.27393
G1 X14.116 Y78.332 E3.35994
G1 X10.284 Y77.929 E3.43572
G1 X7.003 Y77.488 E3.50084
G1 X4.293 Y77.015 E3.55494
G1 X2.173 Y76.513 E3.59777
G1 X0.664 Y75.991 E3.62918
G1 X-0.210 Y75.467 E3.64922
G1 X-0.461 Y75.000 E3.65964
G1 X-0.210 Y74.533 E3.67006
G1 X0.664 Y74.009 E3.69010
G1 X2.173 Y73.487 E3.72152
G1 X4.293 Y72.985 E3.76434
G1 X7.003 Y72.512 E3.81844
G1 X10.284 Y72.071 E3.88356
G1 X14.116 Y71.668 E3.95934
G1 X18.475 Y71.305 E4.04535
G1 X23.333 Y70.988 E4.14109
G1 X28.618 Y70.720 E4.24517
G1 X34.423 Y70.499 E4.35940
G1 X40.586 Y70.332 E4.48066
G1 X47.112 Y70.217 E4.60902
G1 X53.960 Y70.154 E4.74371
G1 X61.100 Y70.142 E4.88411
G1 X68.453 Y70.178 E5.02873
G1 X76.008 Y70.259 E5.17731
G1 X83.707 Y70.382 E5.32874
G1 X91.502 Y70.543 E5.48208
G1 X99.346 Y70.737 E5.63638
G1 X107.190 Y70.959 E5.79070
G1 X114.985 Y71.206 E5.94408
G1 X122.685 Y71.472 E6.09560
G1 X134.051 Y71.905 E6.31928
G1 X133.921 Y72.072 E6.32345
G1 X133.263 Y73.987 E6.36328
G1 X133.263 Y76.013 E6.40310
G1 X133.921 Y77.928 E6.44293
G1 X134.014 Y78.048 E6.44592
G1 X133.624 Y78.009 F6000.000
G1 F1800
G1 X133.624 Y77.700 E6.45200
G1 X133.366 Y76.950 E6.46760
G1 X133.366 Y78.018 E6.48863
G1 X133.109 Y78.028 E6.49370
G1 X133.109 Y76.200 E6.52968
G1 E5.52968 F1200.00000
G92 E0
G1 X133.624 Y72.300 F6000.000
G1 E1.00000 F1200.00000
G1 F1800
G1 X133.624 Y71.991 E1.00608
G1 X133.366 Y71.982 E1.01115
G1 X133.366 Y73.050 E1.03217
G1 X133.109 Y73.800 E1.04778
G1 X133.109 Y71.972 E1.08376
G1 X132.852 Y71.962 E1.08883
G1 X132.852 Y78.038 E1.20841
G1 X132.594 Y78.048 E1.21348
G1 X132.594 Y71.952 E1.33346
G1 X132.337 Y71.942 E1.33852
G1 X132.337 Y78.057 E1.45888
G1 X132.080 Y78.067 E1.46395
G1 X132.080 Y71.933 E1.58469
G1 X131.823 Y71.923 E1.58976
G1 X131.823 Y78.077 E1.71089
G1 X131.565 Y78.087 E1.71596
G1 X131.565 Y71.913 E1.83747
G1 X131.308 Y71.903 E1.84254
G1 X131.308 Y78.097 E1.96444
G1 X131.051 Y78.106 E1.96951
G1 X131.051 Y71.894 E2.09180
G1 X130.793 Y71.884 E2.09686
G1 X130.793 Y78.116 E2.21954
G1 X130.536 Y78.126 E2.22460
G1 X130.536 Y71.874 E2.34766
G1 X130.279 Y71.864 E2.35273
G1 X130.279 Y78.136 E2.47617
G1 X130.021 Y78.146 E2.48124
G1 X130.021 Y71.854 E2.60507
G1 X129.764 Y71.845 E2.61014
G1 X129.764 Y78.155 E2.73435
G1 X129.507 Y78.165 E2.73942
G1 X129.507 Y71.835 E2.86402
G1 X129.250 Y71.825 E2.86909
G1 X129.250 Y78.175 E2.99407
G1 X128.992 Y78.185 E2.99914
G1 X128.992 Y71.815 E3.12451
G1 X128.735 Y71.805 E3.12958
G1 X128.735 Y78.195 E3.25534
G1 X128.478 Y78.204 E3.26040
G1 X128.478 Y71.796 E3.38655
G1 X128.220 Y71.786 E3.39161
G1 X128.220 Y78.214 E3.51814
G1 X127.963 Y78.224 E3.52321
G1 X127.963 Y71.776 E3.65012
G1 X127.706 Y71.766 E3.65519
G1 X127.706 Y78.234 E3.78249
G1 X127.449 Y78.244 E3.78756
G1 X127.449 Y71.756 E3.91524
G1 X127.191 Y71.747 E3.92031
G1 X127.191 Y78.253 E4.04838
G1 X126.934 Y78.263 E4.05345
G1 X126.934 Y71.737 E4.18191
G1 X126.677 Y71.727 E4.18697
G1 X126.677 Y78.273 E4.31582
G1 X126.419 Y78.283 E4.32088
G1 X126.419 Y71.717 E4.45011
G1 X126.162 Y71.707 E4.45518
G1 X126.162 Y78.293 E4.58479
G1 X125.905 Y78.302 E4.58986
G1 X125.905 Y71.698 E4.71986
G1 X125.647 Y71.688 E4.72493
G1 X125.647 Y78.312 E4.85531
G1 X125.390 Y78.322 E4.86038
G1 X125.390 Y71.678 E4.99115
G1 X125.133 Y71.668 E4.99622
G1 X125.133 Y78.332 E5.12737
G1 X124.876 Y78.342 E5.13244
G1 X124.876 Y71.658 E5.26398
G1 X124.618 Y71.649 E5.26905
G1 X124.618 Y78.351 E5.40097
G1 X124.361 Y78.361 E5.40604
G1 X124.361 Y71.639 E5.53835
G1 X124.104 Y71.629 E5.54342
G1 X124.104 Y78.371 E5.67612
G1 X123.846 Y78.381 E5.68119
G1 X123.846 Y71.619 E5.81427
G1 X123.589 Y71.609 E5.81934
G1 X123.589 Y78.391 E5.95281
G1 X123.332 Y78.400 E5.95788
G1 X123.332 Y71.600 E6.09173
G1 X123.075 Y71.590 E6.09680
G1 X123.075 Y78.410 E6.23104
G1 X122.817 Y78.420 E6.23611
G1 X122.817 Y71.580 E6.37073
G1 X122.560 Y71.571 E6.37580
G1 X122.560 Y78.429 E6.51079
G1 X122.303 Y78.438 E6.51586
G1 X122.303 Y71.562 E6.65119
G1 X122.045 Y71.553 E6.65626
G1 X122.045 Y78.446 E6.79194
G1 X121.788 Y78.455 E6.79700
G1 X121.788 Y71.544 E6.93302
G1 X121.531 Y71.535 E6.93809
G1 X121.531 Y78.463 E7.07445
G1 X121.273 Y78.472 E7.07952
G1 X121.273 Y71.526 E7.21623
G1 X121.016 Y71.517 E7.22129
G1 X121.016 Y78.480 E7.35834
G1 X120.759 Y78.489 E7.36341
G1 X120.759 Y71.508 E7.50080
G1 X120.502 Y71.500 E7.50586
G1 X120.502 Y78.497 E7.64360
G1 X120.244 Y78.506 E7.64866
G1 X120.244 Y71.491 E7.78674
G1 X119.987 Y71.482 E7.79181
G1 X119.987 Y78.514 E7.93022
G1 X119.730 Y78.523 E7.93529
G1 X119.730 Y71.473 E8.07405
G1 X119.472 Y71.464 E8.07912
G1 X119.472 Y78.531 E8.21822
G1 X119.215 Y78.540 E8.22329
G1 X119.215 Y71.455 E8.36273
G1 X118.958 Y71.446 E8.36780
G1 X118.958 Y78.548 E8.50759
G1 X118.701 Y78.557 E8.51266
G1 X118.701 Y71.437 E8.65279
G1 X118.443 Y71.428 E8.65785
G1 X118.443 Y78.565 E8.79833
G1 X118.186 Y78.574 E8.80339
G1 X118.186 Y71.420 E8.94421
G1 X117.929 Y71.411 E8.94928
G1 X117.929 Y78.582 E9.09043
G1 X117.671 Y78.591 E9.09550
G1 X117.671 Y71.402 E9.23700
G1 X117.414 Y71.393 E9.24207
G1 X117.414 Y78.599 E9.38391
G1 X117.157 Y78.608 E9.38898
G1 X117.157 Y77.753 E9.40581
G1 X116.900 Y77.753 E9.41087
G1 X116.900 Y78.616 E9.42787
G1 X116.642 Y78.625 E9.43294
G1 X116.642 Y77.753 E9.45011
G1 X116.385 Y77.753 E9.45517
G1 X116.385 Y78.633 E9.47250
G1 X116.128 Y78.642 E9.47757
G1 X116.128 Y77.753 E9.49507
G1 X115.870 Y77.753 E9.50014
G1 X115.870 Y78.650 E9.51780
G1 X115.613 Y78.659 E9.52287
G1 X115.613 Y77.753 E9.54071
G1 X115.356 Y77.753 E9.54577
G1 X115.356 Y78.668 E9.56377
G1 X115.098 Y78.676 E9.56884
G1 X115.098 Y77.753 E9.58701
G1 X114.841 Y77.753 E9.59208
G1 X114.841 Y78.685 E9.61042
G1 X114.584 Y78.693 E9.61548
G1 X114.584 Y77.753 E9.63399
G1 X114.327 Y77.753 E9.63905
G1 X114.327 Y78.702 E9.65773
G1 X114.069 Y78.710 E9.66279
G1 X114.069 Y77.753 E9.68164
G1 X113.812 Y77.753 E9.68670
G1 X113.812 Y78.719 E9.70571
G1 X113.555 Y78.727 E9.71078
G1 X113.555 Y77.753 E9.72995
G1 X113.297 Y77.753 E9.73502
G1 X113.297 Y78.736 E9.75436
G1 X113.040 Y78.744 E9.75943
G1 X113.040 Y77.753 E9.77894
G1 X112.783 Y77.753 E9.78400
G1 X112.783 Y78.753 E9.80368
G1 X112.526 Y78.761 E9.80875
G1 X112.526 Y77.753 E9.82860
G1 X112.268 Y77.753 E9.83366
G1 X112.268 Y78.770 E9.85368
G1 X112.011 Y78.778 E9.85874
G1 X112.011 Y77.753 E9.87892
G1 X111.754 Y77.753 E9.88399
G1 X111.754 Y78.787 E9.90434
G1 X111.496 Y78.795 E9.90940
G1 X111.496 Y77.753 E9.92992
G1 X111.239 Y77.753 E9.93499
G1 X111.239 Y78.804 E9.95567
G1 X110.982 Y78.812 E9.96074
G1 X110.982 Y77.753 E9.98159
G1 X110.724 Y77.753 E9.98665
G1 X110.724 Y78.821 E10.00767
G1 X110.467 Y78.829 E10.01274
G1 X110.467 Y77.753 E10.03393
G1 X110.210 Y77.753 E10.03899
G1 X110.210 Y78.838 E10.06035
G1 X109.953 Y78.846 E10.06541
G1 X109.953 Y77.753 E10.08694
G1 X109.695 Y77.753 E10.09200
G1 X109.695 Y78.855 E10.11369
G1 X109.438 Y78.863 E10.11876
G1 X109.438 Y77.753 E10.14061
G1 X109.181 Y77.753 E10.14568
G1 X109.181 Y78.872 E10.16770
G1 X108.923 Y78.880 E10.17277
G1 X108.923 Y77.753 E10.19496
G1 X108.666 Y77.753 E10.20003
G1 X108.666 Y78.889 E10.22239
G1 X108.409 Y78.897 E10.22745
G1 X108.409 Y77.753 E10.24998
G1 X108.152 Y77.753 E10.25505
G1 X108.152 Y78.906 E10.27774
G1 X107.894 Y78.914 E10.28281
G1 X107.894 Y77.753 E10.30567
G1 X107.637 Y77.753 E10.31074
G1 X107.637 Y78.923 E10.33377
G1 X107.380 Y78.931 E10.33883
G1 X107.380 Y77.753 E10.36203
G1 X107.122 Y77.753 E10.36709
G1 X107.122 Y78.940 E10.39045
G1 X106.865 Y78.947 E10.39552
G1 X106.865 Y77.753 E10.41902
G1 X106.608 Y77.753 E10.42409
G1 X106.608 Y78.954 E10.44774
G1 X106.350 Y78.962 E10.45280
G1 X106.350 Y77.753 E10.47659
G1 X106.093 Y77.753 E10.48166
G1 X106.093 Y78.969 E10.50559
G1 X105.836 Y78.976 E10.51066
G1 X105.836 Y77.753 E10.53474
G1 X105.579 Y77.753 E10.53980
G1 X105.579 Y78.983 E10.56402
G1 X105.321 Y78.991 E10.56909
G1 X105.321 Y77.753 E10.59345
G1 X105.064 Y77.753 E10.59852
G1 X105.064 Y78.998 E10.62303
G1 X104.807 Y79.005 E10.62809
G1 X104.807 Y77.753 E10.65275
G1 X104.549 Y77.753 E10.65781
G1 X104.549 Y79.013 E10.68261
G1 X104.292 Y79.020 E10.68767
G1 X104.292 Y77.753 E10.71261
G1 X104.035 Y77.753 E10.71768
G1 X104.035 Y79.027 E10.74276
G1 X103.778 Y79.035 E10.74783
G1 X103.778 Y77.753 E10.77306
G1 X103.520 Y77.753 E10.77812
G1 X103.520 Y79.042 E10.80349
G1 X103.263 Y79.049 E10.80856
G1 X103.263 Y77.753 E10.83407
G1 X103.006 Y77.753 E10.83914
G1 X103.006 Y79.056 E10.86479
G1 X102.748 Y79.064 E10.86986
G1 X102.748 Y77.753 E10.89566
G1 X102.491 Y77.753 E10.90073
G1 X102.491 Y79.071 E10.92667
G1 X102.234 Y79.078 E10.93174
G1 X102.234 Y77.753 E10.95783
G1 X101.977 Y77.753 E10.96289
G1 X101.977 Y79.086 E10.98913
G1 X101.719 Y79.093 E10.99419
G1 X101.719 Y77.753 E11.02057
G1 X101.462 Y77.753 E11.02563
G1 X101.462 Y79.100 E11.05215
G1 X101.205 Y79.108 E11.05722
G1 X101.205 Y70.892 E11.21891
G1 X100.947 Y70.885 E11.22398
G1 X100.947 Y79.115 E11.38596
G1 X100.690 Y79.122 E11.39102
G1 X100.690 Y70.878 E11.55329
G1 X100.433 Y70.871 E11.55836
G1 X100.433 Y79.129 E11.72091
G1 X100.175 Y79.137 E11.72598
G1 X100.175 Y70.863 E11.88882
G1 X99.918 Y70.856 E11.89389
G1 X99.918 Y79.144 E12.05701
G1 X99.661 Y79.151 E12.06208
G1 X99.661 Y70.849 E12.22550
G1 X99.404 Y70.841 E12.23056
G1 X99.404 Y79.159 E12.39427
G1 X99.146 Y79.165 E12.39933
G1 X99.146 Y70.835 E12.56330
G1 X98.889 Y70.828 E12.56836
G1 X98.889 Y79.172 E12.73258
G1 X98.632 Y79.178 E12.73764
G1 X98.632 Y70.822 E12.90211
G1 X98.374 Y70.816 E12.90717
G1 X98.374 Y79.184 E13.07188
G1 X98.117 Y79.191 E13.07695
G1 X98.117 Y70.809 E13.24192
G1 X97.860 Y70.803 E13.24698
G1 X97.860 Y79.197 E13.41220
G1 X97.603 Y79.203 E13.41726
G1 X97.603 Y70.797 E13.58273
G1 X97.345 Y70.790 E13.58779
G1 X97.345 Y79.210 E13.75351
G1 X97.088 Y79.216 E13.75857
G1 X97.088 Y70.784 E13.92454
G1 X96.831 Y70.778 E13.92961
G1 X96.831 Y79.222 E14.09582
G1 X96.573 Y79.229 E14.10089
G1 X96.573 Y70.771 E14.26735
G1 X96.316 Y70.765 E14.27242
G1 X96.316 Y79.235 E14.43914
G1 X96.059 Y79.242 E14.44420
G1 X96.059 Y70.758 E14.61117
G1 X95.801 Y70.752 E14.61624
G1 X95.801 Y79.248 E14.78345
G1 X95.544 Y79.254 E14.78852
G1 X95.544 Y70.746 E14.95599
G1 X95.287 Y70.739 E14.96105
G1 X95.287 Y79.261 E15.12877
G1 X95.030 Y79.267 E15.13384
G1 X95.030 Y70.733 E15.30180
G1 X94.772 Y70.727 E15.30687
G1 X94.772 Y79.273 E15.47509
G1 X94.515 Y79.280 E15.48015
G1 X94.515 Y70.720 E15.64862
G1 X94.258 Y70.714 E15.65369
G1 X94.258 Y79.286 E15.82241
G1 X94.000 Y79.292 E15.82748
G1 X94.000 Y70.708 E15.99644
G1 X93.743 Y70.701 E16.00151
G1 X93.743 Y79.299 E16.17073
G1 X93.486 Y79.305 E16.17580
