; generated by Slic3r 1.3.0 on 2021-03-06 at 11:48:35

; external perimeters extrusion width = 0.44mm (2.86mm^3/s)
; perimeters extrusion width = 0.56mm (4.14mm^3/s)
; infill extrusion width = 0.50mm (3.66mm^3/s)
; solid infill extrusion width = 0.56mm (3.10mm^3/s)
; top infill extrusion width = 0.45mm (2.44mm^3/s)

M107
;D3D:START:START
T0
M104 S215 T0

G21
G90
M107
T0
G28
G29
M109 T0 S215 T0
G0 F3000
M107
T0
G92 E0
G0 X0 Y149 Z0.1 F3600
G1 Y49 E6.5 F1200
G0 Z1
G92 E0
; Filament gcode

G21 ; set units to millimeters
G90 ; use absolute coordinates
M82 ; use absolute distances for extrusion
G92 E0
G1 Z0.300 F6000.000
G1 E-2.00000 F1200.00000
G92 E0
G1 Z0.800 F6000.000
G1 X58.270 Y57.699 F6000.000
G1 Z0.300 F6000.000
G1 E2.00000 F1200.00000
G1 F1800
G1 X59.671 Y56.416 E2.08496
G1 X77.171 Y44.416 E3.03408
G1 X79.279 Y43.451 E3.13780
G1 X81.000 Y43.229 E3.21541
G1 X84.000 Y43.229 E3.34960
G1 X86.285 Y43.626 E3.45332
G1 X88.301 Y44.770 E3.55704
G1 X89.813 Y46.528 E3.66076
G1 X90.751 Y49.473 E3.79897
G1 X93.251 Y81.473 E5.23468
G1 X93.271 Y82.000 E5.25829
G1 X93.271 Y88.000 E5.52667
G1 X92.874 Y90.285 E5.63039
G1 X91.730 Y92.301 E5.73411
G1 X90.329 Y93.584 E5.81907
G1 X72.829 Y105.584 E6.76820
G1 X70.721 Y106.549 E6.87192
G1 X69.000 Y106.771 E6.94952
G1 X66.000 Y106.771 E7.08371
G1 X63.715 Y106.374 E7.18743
G1 X61.699 Y105.230 E7.29115
G1 X60.187 Y103.472 E7.39487
G1 X59.249 Y100.527 E7.53308
G1 X56.749 Y68.527 E8.96880
G1 X56.729 Y68.000 E8.99241
G1 X56.729 Y62.000 E9.26079
G1 X57.126 Y59.715 E9.36451
G1 X58.241 Y57.751 E9.46554
G1 X58.653 Y57.843 F6000.000
G1 F1800
G1 X59.889 Y56.734 E9.53985
G1 X77.389 Y44.734 E10.48898
G1 X79.441 Y43.808 E10.58968
G1 X81.000 Y43.614 E10.65995
G1 X84.000 Y43.614 E10.79414
G1 X86.216 Y44.011 E10.89484
G1 X88.157 Y45.153 E10.99555
G1 X89.581 Y46.896 E11.09625
G1 X90.366 Y49.503 E11.21801
G1 X92.866 Y81.503 E12.65372
G1 X92.886 Y82.000 E12.67599
G1 X92.886 Y88.000 E12.94437
G1 X92.489 Y90.216 E13.04507
G1 X91.347 Y92.157 E13.14577
G1 X90.111 Y93.266 E13.22008
G1 X72.611 Y105.266 E14.16920
G1 X70.559 Y106.192 E14.26990
G1 X69.000 Y106.386 E14.34018
G1 X66.000 Y106.386 E14.47437
G1 X63.784 Y105.989 E14.57507
G1 X61.843 Y104.847 E14.67577
G1 X60.419 Y103.104 E14.77647
G1 X59.634 Y100.497 E14.89823
G1 X57.134 Y68.497 E16.33395
G1 X57.114 Y68.000 E16.35621
G1 X57.114 Y62.000 E16.62459
G1 X57.511 Y59.784 E16.72529
G1 X58.622 Y57.895 E16.82331
G1 E14.82331 F1200.00000
G92 E0
G1 Z0.800 F6000.000
G1 X68.004 Y90.504 F6000.000
G1 Z0.300 F6000.000
G1 E2.00000 F1200.00000
G1 F1800
G1 X68.004 Y99.004 E2.38020
G1 X66.996 Y99.004 E2.42527
G1 X66.996 Y70.996 E3.67804
G1 X68.004 Y70.996 E3.72311
G1 X68.004 Y79.496 E4.10331
G1 X71.505 Y79.496 E4.25994
G1 X71.550 Y79.669 E4.26793
G1 X71.314 Y79.801 E4.28004
G1 X70.916 Y80.067 E4.30145
G1 X70.540 Y80.364 E4.32287
G1 X70.189 Y80.689 E4.34428
G1 X69.864 Y81.040 E4.36569
G1 X69.567 Y81.416 E4.38711
G1 X69.301 Y81.814 E4.40852
G1 X69.068 Y82.232 E4.42993
G1 X68.867 Y82.667 E4.45135
G1 X68.701 Y83.116 E4.47276
G1 X68.571 Y83.577 E4.49418
G1 X68.478 Y84.046 E4.51559
G1 X68.422 Y84.522 E4.53701
G1 X68.403 Y85.000 E4.55842
G1 X68.422 Y85.478 E4.57983
G1 X68.478 Y85.954 E4.60124
G1 X68.571 Y86.423 E4.62266
G1 X68.701 Y86.884 E4.64407
G1 X68.867 Y87.333 E4.66549
G1 X69.068 Y87.768 E4.68690
G1 X69.301 Y88.186 E4.70831
G1 X69.567 Y88.584 E4.72973
G1 X69.864 Y88.960 E4.75114
G1 X70.189 Y89.311 E4.77256
G1 X70.540 Y89.636 E4.79396
G1 X70.916 Y89.933 E4.81538
G1 X71.309 Y90.195 E4.83651
G1 X71.551 Y90.331 E4.84893
G1 X71.506 Y90.504 E4.85692
G1 X68.064 Y90.504 E5.01089
G1 E3.01089 F1200.00000
G92 E0
G1 Z0.800 F6000.000
G1 X80.408 Y83.504 F6000.000
G1 Z0.300 F6000.000
G1 E2.00000 F1200.00000
G1 F1800
G1 X80.265 Y82.996 E2.02359
G1 X85.504 Y82.996 E2.25792
G1 X85.504 Y83.504 E2.28062
G1 X80.468 Y83.504 E2.50587
G1 E0.50587 F1200.00000
G92 E0
G1 Z0.800 F6000.000
G1 X80.408 Y86.496 F6000.000
G1 Z0.300 F6000.000
G1 E2.00000 F1200.00000
G1 F1800
G1 X85.504 Y86.496 E2.22793
G1 X85.504 Y87.004 E2.25063
G1 X80.265 Y87.004 E2.48497
G1 X80.392 Y86.554 E2.50587
G1 E0.50587 F1200.00000
G92 E0
G1 Z0.800 F6000.000
G1 X68.389 Y90.889 F6000.000
G1 Z0.300 F6000.000
G1 E2.00000 F1200.00000
G1 F1800
G1 X68.389 Y99.389 E2.38020
G1 X66.611 Y99.389 E2.45977
G1 X66.611 Y70.611 E3.74704
G1 X68.389 Y70.611 E3.82660
G1 X68.389 Y79.111 E4.20680
G1 X72.019 Y79.111 E4.36917
G1 X72.526 Y78.924 E4.39331
G1 X73.009 Y78.788 E4.41575
G1 X73.501 Y78.690 E4.43819
G1 X73.999 Y78.631 E4.46063
G1 X74.500 Y78.611 E4.48307
G1 X75.001 Y78.631 E4.50551
G1 X75.499 Y78.690 E4.52795
G1 X75.991 Y78.788 E4.55039
G1 X76.474 Y78.924 E4.57283
G1 X76.945 Y79.097 E4.59526
G1 X77.400 Y79.307 E4.61770
G1 X77.838 Y79.553 E4.64014
G1 X78.255 Y79.831 E4.66258
G1 X78.649 Y80.142 E4.68502
G1 X79.018 Y80.482 E4.70746
G1 X79.358 Y80.851 E4.72990
G1 X79.669 Y81.245 E4.75234
G1 X79.944 Y81.657 E4.77449
G1 X80.453 Y82.611 E4.82286
G1 X85.889 Y82.611 E5.06604
G1 X85.889 Y83.889 E5.12324
G1 X80.098 Y83.889 E5.38230
G1 X79.932 Y83.235 E5.41249
G1 X79.776 Y82.814 E5.43255
G1 X79.589 Y82.407 E5.45261
G1 X79.369 Y82.016 E5.47267
G1 X79.120 Y81.643 E5.49273
G1 X78.843 Y81.291 E5.51279
G1 X78.538 Y80.962 E5.53284
G1 X78.209 Y80.657 E5.55290
G1 X77.857 Y80.380 E5.57296
G1 X77.484 Y80.130 E5.59302
G1 X77.093 Y79.911 E5.61308
G1 X76.686 Y79.724 E5.63313
G1 X76.265 Y79.568 E5.65319
G1 X75.833 Y79.447 E5.67325
G1 X75.393 Y79.359 E5.69331
G1 X74.948 Y79.306 E5.71337
G1 X74.500 Y79.289 E5.73343
G1 X74.052 Y79.306 E5.75349
G1 X73.607 Y79.359 E5.77354
G1 X73.167 Y79.447 E5.79360
G1 X72.735 Y79.568 E5.81366
G1 X72.314 Y79.724 E5.83372
G1 X71.907 Y79.911 E5.85378
G1 X71.516 Y80.130 E5.87383
G1 X71.143 Y80.380 E5.89389
G1 X70.791 Y80.657 E5.91395
G1 X70.462 Y80.962 E5.93401
G1 X70.157 Y81.291 E5.95407
G1 X69.880 Y81.643 E5.97413
G1 X69.630 Y82.016 E5.99419
G1 X69.411 Y82.407 E6.01424
G1 X69.224 Y82.814 E6.03430
G1 X69.068 Y83.235 E6.05436
G1 X68.947 Y83.667 E6.07442
G1 X68.859 Y84.107 E6.09448
G1 X68.806 Y84.552 E6.11454
G1 X68.789 Y85.000 E6.13459
G1 X68.806 Y85.448 E6.15465
G1 X68.859 Y85.893 E6.17471
G1 X68.947 Y86.333 E6.19477
G1 X69.068 Y86.765 E6.21483
G1 X69.224 Y87.186 E6.23489
G1 X69.411 Y87.593 E6.25495
G1 X69.630 Y87.984 E6.27500
G1 X69.880 Y88.357 E6.29506
G1 X70.157 Y88.709 E6.31512
G1 X70.462 Y89.038 E6.33518
G1 X70.791 Y89.343 E6.35523
G1 X71.143 Y89.620 E6.37530
G1 X71.511 Y89.866 E6.39507
G1 X71.907 Y90.088 E6.41539
G1 X72.314 Y90.276 E6.43547
G1 X72.735 Y90.432 E6.45553
G1 X73.167 Y90.553 E6.47558
G1 X73.607 Y90.641 E6.49564
G1 X74.052 Y90.694 E6.51570
G1 X74.500 Y90.711 E6.53576
G1 X74.948 Y90.694 E6.55582
G1 X75.393 Y90.641 E6.57588
G1 X75.833 Y90.553 E6.59593
G1 X76.265 Y90.432 E6.61599
G1 X76.680 Y90.279 E6.63577
G1 X77.092 Y90.089 E6.65609
G1 X77.484 Y89.870 E6.67616
G1 X77.857 Y89.620 E6.69623
G1 X78.209 Y89.343 E6.71628
G1 X78.538 Y89.038 E6.73634
G1 X78.843 Y88.709 E6.75640
G1 X79.120 Y88.357 E6.77646
G1 X79.369 Y87.984 E6.79652
G1 X79.589 Y87.593 E6.81657
G1 X79.776 Y87.186 E6.83663
G1 X79.932 Y86.765 E6.85669
G1 X80.098 Y86.111 E6.88688
G1 X85.889 Y86.111 E7.14595
G1 X85.889 Y87.389 E7.20315
G1 X80.453 Y87.389 E7.44633
G1 X79.944 Y88.343 E7.49469
G1 X79.669 Y88.755 E7.51685
G1 X79.358 Y89.149 E7.53929
G1 X79.018 Y89.518 E7.56173
G1 X78.649 Y89.858 E7.58417
G1 X78.255 Y90.169 E7.60661
G1 X77.838 Y90.447 E7.62904
G1 X77.400 Y90.693 E7.65148
G1 X76.945 Y90.903 E7.67392
G1 X76.474 Y91.076 E7.69636
G1 X75.991 Y91.212 E7.71880
G1 X75.499 Y91.310 E7.74124
G1 X75.001 Y91.369 E7.76368
G1 X74.500 Y91.389 E7.78612
G1 X73.999 Y91.369 E7.80855
G1 X73.501 Y91.310 E7.83099
G1 X73.009 Y91.212 E7.85343
G1 X72.526 Y91.076 E7.87587
G1 X72.019 Y90.889 E7.90002
G1 X68.449 Y90.889 E8.05970
G1 X68.775 Y91.275 F6000.000
G1 F1800
G1 X68.775 Y99.775 E8.43990
G1 X66.225 Y99.775 E8.55396
G1 X66.225 Y70.225 E9.87573
G1 X68.775 Y70.225 E9.98979
G1 X68.775 Y78.725 E10.36999
G1 X71.950 Y78.725 E10.51203
G1 X72.406 Y78.557 E10.53377
G1 X72.918 Y78.412 E10.55757
G1 X73.440 Y78.309 E10.58136
G1 X73.968 Y78.246 E10.60516
G1 X74.500 Y78.225 E10.62895
G1 X75.032 Y78.246 E10.65274
G1 X75.560 Y78.309 E10.67654
G1 X76.082 Y78.412 E10.70033
G1 X76.594 Y78.557 E10.72413
G1 X77.093 Y78.741 E10.74792
G1 X77.576 Y78.964 E10.77172
G1 X78.040 Y79.223 E10.79551
G1 X78.482 Y79.519 E10.81930
G1 X78.900 Y79.848 E10.84310
G1 X79.291 Y80.210 E10.86689
G1 X79.652 Y80.600 E10.89069
G1 X79.981 Y81.018 E10.91448
G1 X80.275 Y81.458 E10.93817
G1 X80.684 Y82.225 E10.97704
G1 X86.275 Y82.225 E11.22712
G1 X86.275 Y84.275 E11.31882
G1 X79.772 Y84.275 E11.60968
G1 X79.678 Y83.757 E11.63324
G1 X79.565 Y83.354 E11.65194
G1 X79.420 Y82.962 E11.67064
G1 X79.245 Y82.582 E11.68935
G1 X79.040 Y82.218 E11.70805
G1 X78.808 Y81.870 E11.72675
G1 X78.549 Y81.542 E11.74545
G1 X78.265 Y81.235 E11.76416
G1 X77.958 Y80.951 E11.78286
G1 X77.630 Y80.692 E11.80156
G1 X77.282 Y80.460 E11.82027
G1 X76.918 Y80.255 E11.83897
G1 X76.538 Y80.080 E11.85767
G1 X76.146 Y79.935 E11.87637
G1 X75.743 Y79.822 E11.89508
G1 X75.333 Y79.740 E11.91378
G1 X74.918 Y79.691 E11.93248
G1 X74.500 Y79.675 E11.95119
G1 X74.082 Y79.691 E11.96989
G1 X73.667 Y79.740 E11.98859
G1 X73.257 Y79.822 E12.00730
G1 X72.854 Y79.935 E12.02600
G1 X72.462 Y80.080 E12.04470
G1 X72.082 Y80.255 E12.06341
G1 X71.718 Y80.460 E12.08210
G1 X71.370 Y80.692 E12.10081
G1 X71.042 Y80.951 E12.11951
G1 X70.735 Y81.235 E12.13822
G1 X70.451 Y81.542 E12.15692
G1 X70.192 Y81.870 E12.17562
G1 X69.960 Y82.218 E12.19433
G1 X69.755 Y82.582 E12.21302
G1 X69.580 Y82.962 E12.23173
G1 X69.435 Y83.354 E12.25043
G1 X69.322 Y83.757 E12.26914
G1 X69.240 Y84.167 E12.28784
G1 X69.191 Y84.582 E12.30654
G1 X69.175 Y85.000 E12.32524
G1 X69.191 Y85.418 E12.34395
G1 X69.240 Y85.833 E12.36265
G1 X69.322 Y86.243 E12.38135
G1 X69.435 Y86.646 E12.40006
G1 X69.580 Y87.038 E12.41876
G1 X69.755 Y87.418 E12.43746
G1 X69.960 Y87.782 E12.45616
G1 X70.192 Y88.130 E12.47487
G1 X70.451 Y88.458 E12.49357
G1 X70.735 Y88.765 E12.51227
G1 X71.042 Y89.049 E12.53098
G1 X71.370 Y89.308 E12.54968
G1 X71.713 Y89.537 E12.56811
G1 X72.082 Y89.745 E12.58708
G1 X72.462 Y89.920 E12.60579
G1 X72.854 Y90.065 E12.62449
G1 X73.257 Y90.178 E12.64319
G1 X73.667 Y90.260 E12.66190
G1 X74.082 Y90.309 E12.68060
G1 X74.500 Y90.325 E12.69930
G1 X74.918 Y90.309 E12.71801
G1 X75.333 Y90.260 E12.73671
G1 X75.743 Y90.178 E12.75541
G1 X76.146 Y90.065 E12.77411
G1 X76.532 Y89.922 E12.79254
G1 X76.917 Y89.745 E12.81151
G1 X77.282 Y89.540 E12.83022
G1 X77.630 Y89.308 E12.84892
G1 X77.958 Y89.049 E12.86763
G1 X78.265 Y88.765 E12.88633
G1 X78.549 Y88.458 E12.90503
G1 X78.808 Y88.130 E12.92374
G1 X79.040 Y87.782 E12.94244
G1 X79.245 Y87.418 E12.96114
G1 X79.420 Y87.038 E12.97984
G1 X79.565 Y86.646 E12.99855
G1 X79.678 Y86.243 E13.01725
G1 X79.772 Y85.725 E13.04081
G1 X86.275 Y85.725 E13.33167
G1 X86.275 Y87.775 E13.42337
G1 X80.684 Y87.775 E13.67345
G1 X80.275 Y88.542 E13.71232
G1 X79.981 Y88.982 E13.73601
G1 X79.652 Y89.400 E13.75980
G1 X79.291 Y89.790 E13.78359
G1 X78.900 Y90.152 E13.80739
G1 X78.482 Y90.481 E13.83118
G1 X78.040 Y90.777 E13.85498
G1 X77.576 Y91.036 E13.87877
G1 X77.093 Y91.259 E13.90257
G1 X76.594 Y91.443 E13.92636
G1 X76.082 Y91.588 E13.95015
G1 X75.560 Y91.691 E13.97395
G1 X75.032 Y91.754 E13.99774
G1 X74.500 Y91.775 E14.02154
G1 X73.968 Y91.754 E14.04533
G1 X73.440 Y91.691 E14.06912
G1 X72.918 Y91.588 E14.09292
G1 X72.406 Y91.443 E14.11671
G1 X71.950 Y91.275 E14.13846
G1 X68.835 Y91.275 E14.27781
G1 X68.375 Y91.269 F6000.000
G1 E12.27781 F1200.00000
G92 E0
G1 Z0.800 F6000.000
G1 X70.845 Y90.147 F6000.000
G1 Z0.300 F6000.000
G1 E2.00000 F1200.00000
G1 F1800
G1 X71.002 Y90.270 E2.00039
G1 X71.072 Y90.292 E2.00053
G1 X71.723 Y90.437 F6000.000
G1 F1800
G1 X72.105 Y90.557 E2.01178
G1 X72.630 Y90.754 E2.02753
G1 X73.088 Y90.883 E2.04087
G1 X73.559 Y90.976 E2.05436
G1 X74.025 Y91.031 E2.06754
G1 X74.494 Y91.050 E2.08071
G1 X74.975 Y91.031 E2.09421
G1 X75.452 Y90.974 E2.10770
G1 X75.918 Y90.881 E2.12104
G1 X76.370 Y90.754 E2.13421
G1 X76.804 Y90.594 E2.14721
G1 X77.247 Y90.391 E2.16088
G1 X77.666 Y90.155 E2.17438
G1 X78.056 Y89.895 E2.18755
G1 X78.425 Y89.604 E2.20073
G1 X78.778 Y89.278 E2.21422
G1 X79.104 Y88.925 E2.22772
G1 X79.395 Y88.556 E2.24089
G1 X79.653 Y88.169 E2.25395
G1 X80.082 Y87.350 E2.27992
G1 X80.067 Y87.327 E2.28067
G1 F1800
G1 X79.981 Y87.197 E2.28342
G1 X80.537 Y86.750 F6000.000
G1 F1800
G1 X85.311 Y86.750 E2.31528
G1 E0.31528 F1200.00000
G92 E0
G1 Z0.800 F6000.000
G1 X85.311 Y83.250 F6000.000
G1 Z0.300 F6000.000
G1 E2.00000 F1200.00000
G1 F1800
G1 X80.537 Y83.250 E2.03186
G1 X79.981 Y82.803 F6000.000
G1 F1800
G1 X80.067 Y82.673 E2.03461
G1 F1800
G1 X80.082 Y82.650 E2.03537
G1 X79.653 Y81.831 E2.06133
G1 X79.395 Y81.444 E2.07439
G1 X79.104 Y81.075 E2.08756
G1 X78.778 Y80.722 E2.10106
G1 X78.425 Y80.396 E2.11455
G1 X78.056 Y80.105 E2.12773
G1 X77.666 Y79.845 E2.14090
G1 X77.247 Y79.609 E2.15440
G1 X76.810 Y79.409 E2.16789
G1 X76.370 Y79.246 E2.18107
G1 X75.918 Y79.119 E2.19424
G1 X75.452 Y79.026 E2.20758
G1 X74.975 Y78.969 E2.22107
G1 X74.494 Y78.950 E2.23457
G1 X74.025 Y78.969 E2.24774
G1 X73.559 Y79.024 E2.26092
G1 X73.088 Y79.117 E2.27441
G1 X72.630 Y79.246 E2.28775
G1 X72.105 Y79.443 E2.30350
G1 X71.722 Y79.563 E2.31477
G1 X71.072 Y79.708 F6000.000
G1 F1800
G1 X71.002 Y79.730 E2.31491
G1 X70.845 Y79.853 E2.31530
G1 E0.31530 F1200.00000
G92 E0
G1 Z0.800 F6000.000
G1 X69.320 Y88.125 F6000.000
G1 Z0.300 F6000.000
G1 E2.00000 F1200.00000
G1 F1800
G1 X69.540 Y88.454 E2.01785
G1 X67.563 Y90.432 E2.14388
G1 X68.112 Y90.432 E2.16865
G1 X69.780 Y88.764 E2.27491
G1 X70.034 Y89.059 E2.29247
G1 X68.662 Y90.432 E2.37994
G1 X69.211 Y90.432 E2.40470
G1 X70.304 Y89.339 E2.47434
G1 X70.589 Y89.603 E2.49186
G1 X69.761 Y90.432 E2.54468
G1 E0.54468 F1200.00000
G92 E0
G1 Z0.800 F6000.000
G1 X67.304 Y98.932 F6000.000
G1 Z0.300 F6000.000
G1 E2.00000 F1200.00000
G1 F1800
G1 X67.932 Y98.304 E2.03998
G1 X67.932 Y97.755 E2.06474
G1 X67.068 Y98.618 E2.11977
G1 X67.068 Y98.069 E2.14453
G1 X67.932 Y97.206 E2.19957
G1 X67.932 Y96.656 E2.22433
G1 X67.068 Y97.520 E2.27936
G1 X67.068 Y96.970 E2.30412
G1 X67.932 Y96.107 E2.35915
G1 X67.932 Y95.557 E2.38391
G1 X67.068 Y96.421 E2.43895
G1 X67.068 Y95.871 E2.46371
G1 X67.932 Y95.008 E2.51874
G1 X67.932 Y94.458 E2.54350
G1 X67.068 Y95.322 E2.59853
G1 X67.068 Y94.772 E2.62329
G1 X67.932 Y93.909 E2.67833
G1 X67.932 Y93.359 E2.70309
G1 X67.068 Y94.223 E2.75812
G1 X67.068 Y93.673 E2.78288
G1 X67.932 Y92.810 E2.83791
G1 X67.932 Y92.261 E2.86268
G1 X67.068 Y93.124 E2.91771
G1 X67.068 Y92.575 E2.94247
G1 X67.932 Y91.711 E2.99750
G1 X67.932 Y91.162 E3.02226
G1 X67.068 Y92.025 E3.07729
G1 X67.068 Y91.476 E3.10206
G1 X67.932 Y90.612 E3.15709
G1 X67.932 Y90.063 E3.18185
G1 X67.068 Y90.926 E3.23688
G1 X67.068 Y90.377 E3.26164
G1 X69.320 Y88.125 E3.40516
G1 X69.119 Y87.776 E3.42329
G1 X67.068 Y89.827 E3.55402
G1 X67.068 Y89.278 E3.57878
G1 X68.936 Y87.410 E3.69782
G1 X68.772 Y87.025 E3.71669
G1 X67.068 Y88.728 E3.82525
G1 X67.068 Y88.179 E3.85001
G1 X68.628 Y86.619 E3.94942
G1 X68.508 Y86.190 E3.96951
G1 X67.068 Y87.630 E4.06126
G1 X67.068 Y87.080 E4.08602
G1 X68.417 Y85.732 E4.17196
G1 X68.356 Y85.243 E4.19416
G1 X67.068 Y86.531 E4.27625
G1 X67.068 Y85.981 E4.30101
G1 X68.332 Y84.718 E4.38155
G1 X68.354 Y84.146 E4.40734
G1 X67.068 Y85.432 E4.48932
G1 X67.068 Y84.882 E4.51408
G1 X68.443 Y83.507 E4.60172
G1 X68.510 Y83.173 E4.61707
G1 X68.620 Y82.781 E4.63544
G1 X67.068 Y84.333 E4.73437
G1 X67.068 Y83.783 E4.75913
G1 X68.976 Y81.875 E4.88074
G1 X69.286 Y81.299 E4.91021
G1 X69.569 Y80.876 E4.93315
G1 X69.884 Y80.476 E4.95610
G1 X70.230 Y80.102 E4.97904
G1 X70.749 Y79.642 E5.01029
G1 X70.709 Y79.593 E5.01313
G1 X67.068 Y83.234 E5.24520
G1 X67.068 Y82.685 E5.26996
G1 X70.185 Y79.568 E5.46857
G1 X69.635 Y79.568 E5.49333
G1 X67.068 Y82.135 E5.65692
G1 X67.068 Y81.586 E5.68168
G1 X69.086 Y79.568 E5.81025
G1 X68.536 Y79.568 E5.83501
G1 X67.068 Y81.036 E5.92857
G1 X67.068 Y80.487 E5.95333
G1 X67.987 Y79.568 E6.01187
G1 X67.932 Y79.568 E6.01434
G1 X67.932 Y79.074 E6.03663
