; generated by Slic3r 1.3.0 on 2020-04-10 at 04:33:59

; external perimeters extrusion width = 0.44mm (2.86mm^3/s)
; perimeters extrusion width = 0.56mm (4.14mm^3/s)
; infill extrusion width = 0.50mm (5.48mm^3/s)
; solid infill extrusion width = 0.56mm (3.10mm^3/s)
; top infill extrusion width = 0.45mm (2.44mm^3/s)

M107
;D3D:START:START
T0
M104 S215 T0

G21
G90
M107
T0
G28
G29
M109 T0 S215 T0
G0 F3000
M107
T0
G92 E0
G0 X0 Y149 Z0.1 F3600
G1 Y49 E6.5 F1200
G0 Z1
G92 E0
; Filament gcode

G21 ; set units to millimeters
G90 ; use absolute coordinates
M82 ; use absolute distances for extrusion
G92 E0
G1 Z0.200 F6000.000
G1 E-2.00000 F1200.00000
G92 E0
G1 X60.074 Y66.928 F6000.000
G1 E2.00000 F1200.00000
G1 F1800
G1 X61.717 Y65.995 E2.03636
G1 X63.075 Y65.786 E2.06279
G1 X86.925 Y65.786 E2.52163
G1 X88.773 Y66.181 E2.55799
G1 X90.297 Y67.299 E2.59434
G1 X91.230 Y68.942 E2.63070
G1 X91.439 Y70.300 E2.65713
G1 X91.439 Y75.500 E2.75717
G1 X91.044 Y77.348 E2.79353
G1 X89.926 Y78.872 E2.82989
G1 X88.478 Y79.739 E2.86236
G1 X77.333 Y83.820 E3.09070
G1 X76.906 Y83.953 E3.09930
G1 X76.193 Y84.113 E3.11335
G1 X75.749 Y84.174 E3.12198
G1 X75.142 Y84.212 E3.13368
G1 X74.412 Y84.189 E3.14773
G1 X73.966 Y84.138 E3.15636
G1 X73.369 Y84.024 E3.16807
G1 X72.669 Y83.821 E3.18209
G1 X61.522 Y79.739 E3.41046
G1 X59.923 Y78.732 E3.44681
G1 X58.876 Y77.158 E3.48317
G1 X58.561 Y75.500 E3.51565
G1 X58.561 Y70.300 E3.61569
G1 X58.956 Y68.452 E3.65204
G1 X60.038 Y66.976 E3.68725
G1 X60.326 Y67.050 F6000.000
G1 F1800
G1 X61.949 Y66.195 E3.72254
G1 X63.075 Y66.043 E3.74440
G1 X86.925 Y66.043 E4.20325
G1 X88.716 Y66.438 E4.23854
G1 X90.175 Y67.551 E4.27384
G1 X91.030 Y69.174 E4.30913
G1 X91.182 Y70.300 E4.33099
G1 X91.182 Y75.500 E4.43103
G1 X90.787 Y77.291 E4.46633
G1 X89.674 Y78.750 E4.50162
G1 X88.389 Y79.497 E4.53022
G1 X77.246 Y83.578 E4.75853
G1 X76.834 Y83.706 E4.76682
G1 X76.153 Y83.859 E4.78025
G1 X75.727 Y83.918 E4.78852
G1 X75.134 Y83.955 E4.79996
G1 X74.436 Y83.933 E4.81339
G1 X74.007 Y83.884 E4.82170
G1 X73.425 Y83.773 E4.83310
G1 X72.756 Y83.579 E4.84650
G1 X61.611 Y79.497 E5.07484
G1 X60.065 Y78.510 E5.11014
G1 X59.077 Y76.964 E5.14543
G1 X58.818 Y75.500 E5.17403
G1 X58.818 Y70.300 E5.27407
G1 X59.213 Y68.509 E5.30936
G1 X60.289 Y67.097 E5.34350
G1 E3.34350 F1200.00000
G92 E0
G1 X76.281 Y78.648 F6000.000
G1 E2.00000 F1200.00000
G1 F1800
G1 X75.968 Y78.860 E2.00727
G1 X75.627 Y79.008 E2.01442
G1 X75.376 Y79.072 E2.01940
G1 X75.120 Y79.105 E2.02437
G1 X74.748 Y79.093 E2.03152
G1 X74.379 Y79.011 E2.03880
G1 X74.032 Y78.860 E2.04607
G1 X73.719 Y78.648 E2.05335
G1 X73.452 Y78.381 E2.06062
G1 X73.240 Y78.068 E2.06790
G1 X73.092 Y77.727 E2.07505
G1 X73.028 Y77.476 E2.08002
G1 X72.995 Y77.220 E2.08500
G1 X73.007 Y76.848 E2.09215
G1 X73.089 Y76.479 E2.09942
G1 X73.237 Y76.138 E2.10657
G1 X73.376 Y75.920 E2.11154
G1 X73.540 Y75.721 E2.11652
G1 X73.819 Y75.475 E2.12367
G1 X74.145 Y75.282 E2.13094
G1 X74.500 Y75.154 E2.13822
G1 X74.874 Y75.095 E2.14549
G1 X75.252 Y75.107 E2.15277
G1 X75.621 Y75.189 E2.16004
G1 X75.968 Y75.340 E2.16732
G1 X76.275 Y75.548 E2.17447
G1 X76.464 Y75.725 E2.17944
G1 X76.629 Y75.925 E2.18442
G1 X76.818 Y76.245 E2.19157
G1 X76.946 Y76.600 E2.19884
G1 X77.005 Y76.974 E2.20611
G1 X76.993 Y77.352 E2.21339
G1 X76.911 Y77.721 E2.22066
G1 X76.760 Y78.068 E2.22794
G1 X76.548 Y78.381 E2.23521
G1 X76.323 Y78.605 E2.24133
G1 X76.116 Y78.449 F6000.000
G1 F1800
G1 X75.843 Y78.634 E2.24767
G1 X75.543 Y78.764 E2.25396
G1 X75.328 Y78.819 E2.25824
G1 X75.108 Y78.847 E2.26251
G1 X74.781 Y78.837 E2.26881
G1 X74.459 Y78.765 E2.27515
G1 X74.157 Y78.634 E2.28148
G1 X73.884 Y78.449 E2.28782
G1 X73.651 Y78.216 E2.29416
G1 X73.466 Y77.943 E2.30050
G1 X73.336 Y77.643 E2.30680
G1 X73.281 Y77.428 E2.31107
G1 X73.253 Y77.208 E2.31534
G1 X73.263 Y76.881 E2.32164
G1 X73.335 Y76.559 E2.32798
G1 X73.465 Y76.259 E2.33427
G1 X73.584 Y76.071 E2.33854
G1 X73.726 Y75.900 E2.34282
G1 X73.971 Y75.684 E2.34911
G1 X74.255 Y75.516 E2.35545
G1 X74.565 Y75.404 E2.36179
G1 X74.890 Y75.353 E2.36813
G1 X75.219 Y75.363 E2.37447
G1 X75.541 Y75.435 E2.38081
G1 X75.843 Y75.566 E2.38715
G1 X76.114 Y75.750 E2.39344
G1 X76.276 Y75.902 E2.39772
G1 X76.418 Y76.073 E2.40199
G1 X76.584 Y76.355 E2.40828
G1 X76.696 Y76.665 E2.41462
G1 X76.747 Y76.990 E2.42096
G1 X76.737 Y77.319 E2.42730
G1 X76.665 Y77.641 E2.43364
G1 X76.534 Y77.943 E2.43998
G1 X76.349 Y78.216 E2.44632
G1 X76.158 Y78.406 E2.45150
G1 X76.171 Y78.774 F6000.000
G1 X76.942 Y78.449 F6000.000
G1 F1800
G1 X76.873 Y78.360 E2.45367
G1 X76.987 Y78.192 E2.45757
G1 X77.156 Y77.801 E2.46578
G1 X77.249 Y77.384 E2.47399
G1 X77.263 Y76.958 E2.48220
G1 X77.196 Y76.536 E2.49041
G1 X77.051 Y76.135 E2.49862
G1 X76.839 Y75.776 E2.50662
G1 X76.651 Y75.549 E2.51230
G1 X76.436 Y75.347 E2.51797
G1 X76.092 Y75.113 E2.52598
G1 X75.701 Y74.944 E2.53419
G1 X75.284 Y74.851 E2.54240
G1 X74.858 Y74.837 E2.55061
G1 X74.436 Y74.904 E2.55882
G1 X74.035 Y75.049 E2.56703
G1 X73.667 Y75.266 E2.57524
G1 X73.355 Y75.541 E2.58324
G1 X73.167 Y75.768 E2.58892
G1 X73.009 Y76.017 E2.59459
G1 X72.844 Y76.399 E2.60260
G1 X72.751 Y76.816 E2.61081
G1 X72.738 Y77.232 E2.61882
G1 X72.775 Y77.525 E2.62449
G1 X72.848 Y77.810 E2.63017
G1 X73.013 Y78.192 E2.63817
G1 X73.128 Y78.361 E2.64210
G1 X73.059 Y78.450 E2.64426
G1 X63.739 Y75.036 E2.83521
G1 X63.739 Y70.964 E2.91355
G1 X86.261 Y70.964 E3.34684
G1 X86.261 Y75.036 E3.42517
G1 X76.998 Y78.428 E3.61495
G1 E1.61495 F1200.00000
G92 E0
G1 X86.518 Y75.216 F6000.000
G1 E2.00000 F1200.00000
G1 F1800
G1 X75.683 Y79.184 E2.22200
G1 X75.411 Y79.253 E2.22739
G1 X75.138 Y79.288 E2.23269
G1 X74.862 Y79.288 E2.23799
G1 X74.596 Y79.254 E2.24316
G1 X74.170 Y79.130 E2.25169
G1 X63.482 Y75.216 E2.47067
G1 X63.482 Y70.707 E2.55740
G1 X86.518 Y70.707 E3.00058
G1 X86.518 Y75.156 E3.08616
G1 X86.775 Y75.395 F6000.000
G1 F1800
G1 X75.759 Y79.429 E3.31186
G1 X75.459 Y79.506 E3.31782
G1 X75.154 Y79.545 E3.32374
G1 X74.846 Y79.545 E3.32966
G1 X74.543 Y79.507 E3.33553
G1 X74.090 Y79.375 E3.34462
G1 X63.225 Y75.395 E3.56722
G1 X63.225 Y70.450 E3.66236
G1 X86.775 Y70.450 E4.11543
G1 X86.775 Y75.335 E4.20941
G1 X86.380 Y75.461 F6000.000
G1 X85.894 Y74.965 F6000.000
G1 F1800
G1 X86.113 Y74.747 E4.21540
G1 X86.113 Y74.381 E4.22250
G1 X85.317 Y75.177 E4.24433
G1 X84.739 Y75.389 E4.25626
G1 X86.113 Y74.014 E4.29394
G1 X86.113 Y73.648 E4.30104
G1 X84.161 Y75.600 E4.35456
G1 X83.583 Y75.812 E4.36649
G1 X86.113 Y73.282 E4.43585
G1 X86.113 Y72.915 E4.44295
G1 X83.005 Y76.024 E4.52816
G1 X82.427 Y76.235 E4.54009
G1 X86.113 Y72.549 E4.64115
G1 X86.113 Y72.183 E4.64825
G1 X81.849 Y76.447 E4.76514
G1 X81.271 Y76.659 E4.77707
G1 X86.113 Y71.817 E4.90982
G1 X86.113 Y71.450 E4.91692
G1 X80.693 Y76.870 E5.06550
G1 X80.115 Y77.082 E5.07743
G1 X86.085 Y71.112 E5.24109
G1 X85.718 Y71.112 E5.24819
G1 X79.537 Y77.294 E5.41765
G1 X78.959 Y77.505 E5.42958
G1 X85.352 Y71.112 E5.60484
G1 X84.986 Y71.112 E5.61194
G1 X78.381 Y77.717 E5.79300
G1 X77.803 Y77.929 E5.80494
G1 X84.619 Y71.112 E5.99180
G1 X84.253 Y71.112 E5.99890
G1 X77.422 Y77.943 E6.18617
G1 X77.311 Y77.907 E6.18843
G1 X77.374 Y77.625 E6.19404
G1 X83.887 Y71.112 E6.37257
G1 X83.520 Y71.112 E6.37968
G1 X77.406 Y77.227 E6.54730
G1 X77.411 Y77.050 E6.55072
G1 X77.385 Y76.882 E6.55403
G1 X83.154 Y71.112 E6.71220
G1 X82.788 Y71.112 E6.71930
G1 X77.332 Y76.568 E6.86885
G1 X77.235 Y76.298 E6.87440
G1 X82.421 Y71.112 E7.01658
G1 X82.055 Y71.112 E7.02368
G1 X77.123 Y76.044 E7.15889
G1 X76.987 Y75.814 E7.16407
G1 X81.689 Y71.112 E7.29297
G1 X81.322 Y71.112 E7.30007
G1 X76.831 Y75.604 E7.42320
G1 X76.656 Y75.412 E7.42823
G1 X80.956 Y71.112 E7.54611
G1 X80.590 Y71.112 E7.55321
G1 X76.464 Y75.238 E7.66632
G1 X76.246 Y75.090 E7.67143
G1 X80.223 Y71.112 E7.78048
G1 X79.857 Y71.112 E7.78758
G1 X76.014 Y74.956 E7.89294
G1 X75.758 Y74.845 E7.89834
G1 X79.491 Y71.112 E8.00067
G1 X79.125 Y71.112 E8.00777
G1 X75.474 Y74.763 E8.10786
G1 X75.168 Y74.702 E8.11390
G1 X78.758 Y71.112 E8.21232
G1 X78.392 Y71.112 E8.21942
G1 X74.813 Y74.691 E8.31754
G1 X74.396 Y74.742 E8.32568
G1 X78.026 Y71.112 E8.42519
G1 X77.659 Y71.112 E8.43229
G1 X73.865 Y74.906 E8.53630
G1 X73.407 Y75.166 E8.54652
G1 X73.061 Y75.471 E8.55545
G1 X72.850 Y75.726 E8.56187
G1 X72.672 Y76.006 E8.56830
G1 X72.601 Y76.170 E8.57177
G1 X71.147 Y77.625 E8.61164
G1 X70.879 Y77.526 E8.61717
G1 X77.293 Y71.112 E8.79301
G1 X76.927 Y71.112 E8.80011
G1 X70.611 Y77.428 E8.97325
G1 X70.342 Y77.330 E8.97879
G1 X76.560 Y71.112 E9.14924
G1 X76.194 Y71.112 E9.15634
G1 X70.074 Y77.232 E9.32410
G1 X69.806 Y77.134 E9.32964
G1 X75.828 Y71.112 E9.49470
G1 X75.461 Y71.112 E9.50181
G1 X69.538 Y77.035 E9.66418
G1 X69.270 Y76.937 E9.66972
G1 X75.095 Y71.112 E9.82940
G1 X74.729 Y71.112 E9.83650
G1 X69.002 Y76.839 E9.99349
G1 X68.734 Y76.741 E9.99903
G1 X74.362 Y71.112 E10.15333
G1 X73.996 Y71.112 E10.16043
G1 X68.466 Y76.643 E10.31204
G1 X68.198 Y76.544 E10.31757
G1 X73.630 Y71.112 E10.46648
G1 X73.263 Y71.112 E10.47359
G1 X67.929 Y76.446 E10.61981
G1 X67.661 Y76.348 E10.62534
G1 X72.897 Y71.112 E10.76887
G1 X72.531 Y71.112 E10.77597
G1 X67.393 Y76.250 E10.91681
G1 X67.125 Y76.151 E10.92235
G1 X72.164 Y71.112 E11.06049
G1 X71.798 Y71.112 E11.06759
G1 X66.857 Y76.053 E11.20305
G1 X66.589 Y75.955 E11.20858
G1 X71.432 Y71.112 E11.34135
G1 X71.066 Y71.112 E11.34845
G1 X66.321 Y75.857 E11.47852
G1 X66.053 Y75.759 E11.48405
G1 X70.699 Y71.112 E11.61143
G1 X70.333 Y71.112 E11.61853
G1 X65.785 Y75.660 E11.74321
G1 X65.516 Y75.562 E11.74875
G1 X69.967 Y71.112 E11.87074
G1 X69.600 Y71.112 E11.87784
G1 X65.248 Y75.464 E11.99714
G1 X64.980 Y75.366 E12.00268
G1 X69.234 Y71.112 E12.11929
G1 X68.868 Y71.112 E12.12639
G1 X64.712 Y75.268 E12.24030
G1 X64.444 Y75.169 E12.24584
G1 X68.501 Y71.112 E12.35706
G1 X68.135 Y71.112 E12.36416
G1 X64.176 Y75.071 E12.47269
G1 X63.908 Y74.973 E12.47823
G1 X67.769 Y71.112 E12.58407
G1 X67.402 Y71.112 E12.59117
G1 X63.887 Y74.627 E12.68753
G1 X63.887 Y74.261 E12.69463
G1 X67.036 Y71.112 E12.78096
G1 X66.670 Y71.112 E12.78806
G1 X63.887 Y73.895 E12.86434
G1 X63.887 Y73.528 E12.87144
G1 X66.303 Y71.112 E12.93767
G1 X65.937 Y71.112 E12.94477
G1 X63.887 Y73.162 E13.00097
G1 X63.887 Y72.796 E13.00807
G1 X65.571 Y71.112 E13.05422
G1 X65.204 Y71.112 E13.06132
G1 X63.887 Y72.429 E13.09743
G1 X63.887 Y72.063 E13.10453
G1 X64.838 Y71.112 E13.13060
G1 X64.472 Y71.112 E13.13770
G1 X63.887 Y71.697 E13.15373
G1 X63.887 Y71.330 E13.16083
G1 X64.105 Y71.112 E13.16681
G1 E11.16681 F1200.00000
G92 E0
G1 X71.147 Y77.625 F6000.000
G1 E2.00000 F1200.00000
G1 F1800
G1 X71.415 Y77.723 E2.00553
G1 X72.644 Y76.494 E2.03923
G1 X72.604 Y76.674 E2.04282
G1 X72.596 Y76.908 E2.04734
G1 X71.683 Y77.821 E2.07238
G1 X71.951 Y77.919 E2.07792
G1 X72.606 Y77.265 E2.09586
G1 X72.660 Y77.577 E2.10200
G1 X72.219 Y78.017 E2.11407
G1 X72.795 Y78.052 F6000.000
G1 F1800
G1 X72.859 Y78.239 E2.11430
G1 X73.175 Y78.510 F6000.000
G1 F1800
G1 X73.685 Y78.799 E2.11455
G1 E0.11455 F1200.00000
G92 E0
G1 X76.317 Y78.797 F6000.000
G1 E2.00000 F1200.00000
G1 F1800
G1 X76.826 Y78.509 E2.00028
G1 X77.151 Y78.235 F6000.000
G1 F1800
G1 X77.225 Y78.005 E2.00077
G1 Z0.400 F6000.000
G1 X76.789 Y76.759 F6000.000
G1 F1800
G1 X76.821 Y77.100 E2.01095
G1 X76.789 Y77.441 E2.02114
G1 X76.693 Y77.770 E2.03132
G1 X76.537 Y78.076 E2.04151
G1 X76.323 Y78.352 E2.05189
G1 X75.979 Y78.636 E2.06516
G1 X75.670 Y78.793 E2.07544
G1 X75.341 Y78.889 E2.08563
G1 X75.000 Y78.921 E2.09581
G1 X74.659 Y78.889 E2.10600
G1 X74.323 Y78.791 E2.11638
G1 X73.932 Y78.575 E2.12965
G1 X73.673 Y78.347 E2.13994
G1 X73.463 Y78.076 E2.15012
G1 X73.307 Y77.770 E2.16031
G1 X73.211 Y77.441 E2.17049
G1 X73.179 Y77.100 E2.18068
G1 X73.211 Y76.759 E2.19086
G1 X73.307 Y76.430 E2.20104
G1 X73.462 Y76.124 E2.21123
G1 X73.673 Y75.853 E2.22141
G1 X73.930 Y75.627 E2.23160
G1 X74.225 Y75.452 E2.24178
G1 X74.550 Y75.335 E2.25207
G1 X74.993 Y75.279 E2.26534
G1 X75.341 Y75.311 E2.27572
G1 X75.670 Y75.407 E2.28591
G1 X75.976 Y75.562 E2.29609
G1 X76.247 Y75.773 E2.30628
G1 X76.471 Y76.027 E2.31636
G1 X76.595 Y76.223 E2.32325
G1 X76.694 Y76.433 E2.33015
G1 X76.772 Y76.701 E2.33845
G1 X77.111 Y76.875 F6000.000
G1 X77.753 Y77.587 F6000.000
G1 F2400
G1 X77.799 Y77.100 E2.35737
G1 X77.750 Y76.575 E2.37776
G1 X77.608 Y76.088 E2.39742
G1 X77.451 Y75.753 E2.41174
G1 X77.252 Y75.440 E2.42606
G1 X76.916 Y75.059 E2.44572
G1 X76.500 Y74.736 E2.46611
G1 X76.031 Y74.497 E2.48650
G1 X75.524 Y74.350 E2.50691
G1 X74.977 Y74.299 E2.52817
G1 X74.321 Y74.382 E2.55375
G1 X73.808 Y74.567 E2.57485
G1 X73.355 Y74.835 E2.59524
G1 X72.959 Y75.184 E2.61563
G1 X72.636 Y75.600 E2.63602
G1 X72.397 Y76.069 E2.65641
G1 X72.250 Y76.575 E2.67680
G1 X72.201 Y77.100 E2.69719
G1 X72.247 Y77.588 E2.71614
G1 X64.269 Y74.666 E3.04490
G1 X64.269 Y71.494 E3.16762
G1 X85.731 Y71.494 E3.99810
G1 X85.731 Y74.666 E4.12082
G1 X77.810 Y77.566 E4.44724
G1 X76.850 Y78.468 F6000.000
G1 F2400
G1 X77.120 Y77.939 E4.47021
G1 X77.240 Y77.527 E4.48681
G1 X77.280 Y77.100 E4.50342
G1 X77.240 Y76.673 E4.52003
G1 X77.123 Y76.271 E4.53622
G1 X76.997 Y76.002 E4.54770
G1 X76.838 Y75.752 E4.55919
G1 X76.561 Y75.438 E4.57538
G1 X76.222 Y75.175 E4.59199
G1 X75.839 Y74.980 E4.60859
G1 X75.427 Y74.860 E4.62521
G1 X74.986 Y74.819 E4.64236
G1 X74.443 Y74.888 E4.66353
G1 X74.029 Y75.037 E4.68055
G1 X73.660 Y75.255 E4.69715
G1 X73.338 Y75.539 E4.71376
G1 X73.075 Y75.878 E4.73037
G1 X72.880 Y76.261 E4.74697
G1 X72.760 Y76.673 E4.76358
G1 X72.720 Y77.100 E4.78019
G1 X72.760 Y77.527 E4.79679
G1 X72.880 Y77.939 E4.81340
G1 X73.150 Y78.469 E4.83641
G1 X63.752 Y75.027 E5.22371
G1 X63.752 Y70.977 E5.38042
G1 X86.248 Y70.977 E6.25091
G1 X86.248 Y75.027 E6.40762
G1 X76.907 Y78.448 E6.79256
G1 X86.705 Y75.346 F6000.000
G1 F2160
G1 X75.738 Y79.362 E7.13961
G1 X75.446 Y79.437 E7.14858
G1 X75.149 Y79.475 E7.15746
G1 X74.851 Y79.475 E7.16634
G1 X74.558 Y79.438 E7.17511
G1 X74.111 Y79.308 E7.18892
G1 X63.295 Y75.346 E7.53122
G1 X63.295 Y70.520 E7.67463
G1 X86.705 Y70.520 E8.37028
G1 X86.705 Y75.286 E8.51191
G1 X86.311 Y75.412 F6000.000
G1 X85.433 Y72.231 F6000.000
G1 F1800
G1 X84.994 Y71.792 E8.53598
G1 X84.261 Y71.792 E8.56441
G1 X85.433 Y72.964 E8.62868
G1 X85.433 Y73.697 E8.65710
G1 X83.528 Y71.792 E8.76158
G1 X82.796 Y71.792 E8.79000
G1 X85.433 Y74.429 E8.93467
G1 X85.433 Y74.524 E8.93832
G1 X84.966 Y74.695 E8.95763
G1 X82.063 Y71.792 E9.11686
G1 X81.330 Y71.792 E9.14528
G1 X84.429 Y74.891 E9.31529
G1 X83.893 Y75.088 E9.33744
G1 X80.597 Y71.792 E9.51822
G1 X79.864 Y71.792 E9.54665
G1 X83.356 Y75.284 E9.73820
G1 X82.820 Y75.481 E9.76036
G1 X79.131 Y71.792 E9.96268
G1 X78.398 Y71.792 E9.99111
G1 X82.283 Y75.677 E10.20421
G1 X81.747 Y75.874 E10.22637
G1 X77.665 Y71.792 E10.45024
G1 X76.932 Y71.792 E10.47867
G1 X81.210 Y76.070 E10.71332
G1 X80.674 Y76.267 E10.73548
G1 X76.199 Y71.792 E10.98091
G1 X75.466 Y71.792 E11.00933
G1 X80.137 Y76.463 E11.26554
G1 X79.601 Y76.659 E11.28769
G1 X74.733 Y71.792 E11.55467
G1 X74.001 Y71.792 E11.58310
G1 X76.443 Y74.235 E11.71709
G1 X75.840 Y74.059 E11.74145
G1 X75.503 Y74.028 E11.75458
G1 X73.268 Y71.792 E11.87720
G1 X72.535 Y71.792 E11.90563
G1 X74.791 Y74.049 E12.02940
G1 X74.419 Y74.096 E12.04396
G1 X74.189 Y74.179 E12.05345
G1 X71.802 Y71.792 E12.18437
G1 X71.069 Y71.792 E12.21280
G1 X73.673 Y74.396 E12.35560
G1 X73.221 Y74.677 E12.37624
G1 X70.336 Y71.792 E12.53447
G1 X69.603 Y71.792 E12.56289
G1 X72.831 Y75.020 E12.73995
G1 X72.505 Y75.427 E12.76017
G1 X68.870 Y71.792 E12.95957
G1 X68.137 Y71.792 E12.98799
G1 X72.238 Y75.893 E13.21292
G1 X72.134 Y76.098 E13.22184
G1 X72.038 Y76.426 E13.23509
G1 X67.404 Y71.792 E13.48926
G1 X66.671 Y71.792 E13.51768
G1 X71.925 Y77.058 E13.80620
G1 X70.789 Y76.642 E13.85314
G1 X65.938 Y71.792 E14.11917
G1 X65.205 Y71.792 E14.14759
G1 X69.632 Y76.218 E14.39038
G1 X68.476 Y75.795 E14.43815
G1 X64.567 Y71.886 E14.65253
G1 X64.567 Y72.619 E14.68096
G1 X67.319 Y75.371 E14.83191
G1 X66.162 Y74.948 E14.87967
G1 X64.567 Y73.352 E14.96719
G1 X64.567 Y74.085 E14.99561
G1 X65.006 Y74.524 E15.01968
G1 E13.01968 F1200.00000
G92 E0
G1 X78.511 Y77.036 F6000.000
G1 E2.00000 F1200.00000
