; generated by Slic3r 1.3.0 on 2020-05-05 at 19:14:17

; external perimeters extrusion width = 0.44mm (3.57mm^3/s)
; perimeters extrusion width = 0.56mm (5.17mm^3/s)
; infill extrusion width = 0.50mm (5.48mm^3/s)
; solid infill extrusion width = 0.56mm (3.62mm^3/s)
; top infill extrusion width = 0.56mm (2.07mm^3/s)

M107
;D3D:START:START
T0
M104 S215 T0

G21
G90
M107
T0
G28
G29
M109 T0 S215 T0
G0 F3000
M107
T0
G92 E0
G0 X0 Y149 Z0.1 F3600
G1 Y49 E6.5 F1200
G0 Z1
G92 E0
; Filament gcode

G21 ; set units to millimeters
G90 ; use absolute coordinates
M82 ; use absolute distances for extrusion
G92 E0
G1 E-1.00000 F1200.00000
G92 E0
G1 Z0.200 F6000.000
G1 X-172.876 Y4.795 F6000.000
G1 E1.00000 F1200.00000
G1 F1800
G1 X326.820 Y22.245 E10.83309
G1 X329.044 Y22.720 E10.87781
G1 X330.969 Y23.930 E10.92253
G1 X332.361 Y25.729 E10.96726
G1 X333.107 Y28.755 E11.02856
G1 X333.103 Y38.983 E11.22969
G1 X329.613 Y138.922 E13.19631
G1 X329.138 Y141.146 E13.24103
G1 X327.928 Y143.071 E13.28575
G1 X326.130 Y144.463 E13.33047
G1 X322.876 Y145.205 E13.39611
G1 X-176.820 Y127.755 E23.22920
G1 X-179.044 Y127.280 E23.27392
G1 X-180.969 Y126.070 E23.31864
G1 X-182.361 Y124.271 E23.36337
G1 X-183.107 Y121.245 E23.42467
G1 X-183.103 Y111.017 E23.62580
G1 X-179.613 Y11.078 E25.59242
G1 X-179.138 Y8.854 E25.63714
G1 X-177.928 Y6.929 E25.68186
G1 X-176.130 Y5.537 E25.72658
G1 X-172.934 Y4.809 E25.79104
G1 X-172.885 Y5.052 F6000.000
G1 F1800
G1 X326.811 Y22.502 E35.62413
G1 X328.989 Y22.975 E35.66795
G1 X330.863 Y24.181 E35.71178
G1 X332.195 Y25.968 E35.75560
G1 X332.850 Y28.755 E35.81192
G1 X332.850 Y38.755 E36.00858
G1 X329.356 Y138.913 E37.97949
G1 X328.883 Y141.090 E38.02331
G1 X327.677 Y142.964 E38.06714
G1 X325.891 Y144.296 E38.11096
G1 X322.885 Y144.948 E38.17145
G1 X-176.811 Y127.498 E48.00454
G1 X-178.989 Y127.025 E48.04836
G1 X-180.863 Y125.819 E48.09219
G1 X-182.195 Y124.032 E48.13601
G1 X-182.850 Y121.245 E48.19233
G1 X-182.846 Y111.026 E48.39328
G1 X-179.356 Y11.087 E50.35990
G1 X-178.883 Y8.910 E50.40372
G1 X-177.677 Y7.036 E50.44755
G1 X-175.891 Y5.704 E50.49137
G1 X-172.943 Y5.065 E50.55068
G1 E49.55068 F1200.00000
G92 E0
G1 X-176.089 Y111.112 F6000.000
G1 E1.00000 F1200.00000
G1 F1800
G1 X-176.438 Y111.100 E1.00687
G1 X-172.958 Y11.461 E2.96758
G1 X326.438 Y28.900 E12.79477
G1 X326.089 Y38.888 E12.99132
G1 X326.438 Y38.900 E12.99819
G1 X322.958 Y138.539 E14.95890
G1 X-176.438 Y121.100 E24.78609
G1 X-176.091 Y111.172 E24.98146
G1 X-176.170 Y110.648 F6000.000
G1 F1800
G1 X-176.170 Y111.006 E24.98850
G1 X-175.913 Y111.015 E24.99356
G1 X-175.913 Y103.286 E25.14556
G1 X-175.656 Y95.924 E25.29043
G1 X-175.656 Y121.024 E25.78406
G1 X-175.399 Y121.033 E25.78912
G1 X-175.399 Y88.563 E26.42770
G1 X-175.142 Y81.201 E26.57257
G1 X-175.142 Y121.042 E27.35612
G1 X-174.885 Y121.051 E27.36117
G1 X-174.885 Y73.839 E28.28968
G1 X-174.628 Y66.477 E28.43455
G1 X-174.628 Y121.060 E29.50800
G1 X-174.371 Y121.069 E29.51306
G1 X-174.371 Y59.115 E30.73148
G1 X-174.114 Y51.753 E30.87635
G1 X-174.114 Y121.078 E32.23972
G1 X-173.856 Y121.087 E32.24478
G1 X-173.856 Y44.392 E33.75312
G1 X-173.599 Y37.030 E33.89798
G1 X-173.599 Y121.096 E35.55127
G1 X-173.342 Y121.105 E35.55633
G1 X-173.342 Y29.668 E37.35458
G1 X-173.085 Y22.306 E37.49945
G1 X-173.085 Y121.114 E39.44266
G1 X-172.828 Y121.123 E39.44772
G1 X-172.828 Y14.944 E41.53588
G1 X-172.710 Y11.572 E41.60224
G1 X-172.571 Y11.577 E41.60498
G1 X-172.571 Y121.132 E43.75954
G1 X-172.314 Y121.141 E43.76460
G1 X-172.314 Y11.586 E45.91916
G1 X-172.057 Y11.595 E45.92422
G1 X-172.057 Y121.150 E48.07877
G1 X-171.800 Y121.159 E48.08383
G1 X-171.800 Y11.604 E50.23839
G1 X-171.543 Y11.613 E50.24345
G1 X-171.543 Y121.168 E52.39801
G1 X-171.286 Y121.177 E52.40307
G1 X-171.286 Y11.622 E54.55763
G1 X-171.029 Y11.631 E54.56269
G1 X-171.029 Y121.186 E56.71725
G1 X-170.771 Y121.195 E56.72231
G1 X-170.771 Y11.640 E58.87687
G1 X-170.514 Y11.649 E58.88193
G1 X-170.514 Y121.204 E61.03649
G1 X-170.257 Y121.213 E61.04155
G1 X-170.257 Y11.658 E63.19611
G1 X-170.000 Y11.667 E63.20117
G1 X-170.000 Y121.222 E65.35572
G1 X-169.743 Y121.231 E65.36078
G1 X-169.743 Y11.676 E67.51534
G1 X-169.486 Y11.685 E67.52040
G1 X-169.486 Y121.240 E69.67496
G1 X-169.229 Y121.249 E69.68002
G1 X-169.229 Y11.694 E71.83458
G1 X-168.972 Y11.703 E71.83964
G1 X-168.972 Y121.258 E73.99420
G1 X-168.715 Y121.267 E73.99926
G1 X-168.715 Y11.712 E76.15382
G1 X-168.458 Y11.721 E76.15888
G1 X-168.458 Y121.276 E78.31344
G1 X-168.201 Y121.285 E78.31850
G1 X-168.201 Y11.730 E80.47306
G1 X-167.944 Y11.739 E80.47812
G1 X-167.944 Y121.294 E82.63268
G1 X-167.686 Y121.303 E82.63773
G1 X-167.686 Y11.748 E84.79229
G1 X-167.429 Y11.757 E84.79735
G1 X-167.429 Y121.312 E86.95191
G1 X-167.172 Y121.321 E86.95697
G1 X-167.172 Y11.766 E89.11153
G1 X-166.915 Y11.775 E89.11659
G1 X-166.915 Y121.330 E91.27115
G1 X-166.658 Y121.339 E91.27621
G1 X-166.658 Y11.784 E93.43077
G1 X-166.401 Y11.793 E93.43583
G1 X-166.401 Y121.348 E95.59039
G1 X-166.144 Y121.357 E95.59545
G1 X-166.144 Y11.802 E97.75001
G1 X-165.887 Y11.811 E97.75507
G1 X-165.887 Y121.365 E99.90963
G1 X-165.630 Y121.374 E99.91468
G1 X-165.630 Y11.820 E102.06924
G1 X-165.373 Y11.829 E102.07430
G1 X-165.373 Y121.383 E104.22886
G1 X-165.116 Y121.392 E104.23392
G1 X-165.116 Y11.838 E106.38848
G1 X-164.859 Y11.847 E106.39354
G1 X-164.859 Y121.401 E108.54810
G1 X-164.601 Y121.410 E108.55316
G1 X-164.601 Y11.856 E110.70772
G1 X-164.344 Y11.865 E110.71278
G1 X-164.344 Y121.419 E112.86734
G1 X-164.087 Y121.428 E112.87240
G1 X-164.087 Y11.873 E115.02696
G1 X-163.830 Y11.882 E115.03202
G1 X-163.830 Y121.437 E117.18658
G1 X-163.573 Y121.446 E117.19163
G1 X-163.573 Y11.891 E119.34619
G1 X-163.316 Y11.900 E119.35125
G1 X-163.316 Y121.455 E121.50581
G1 X-163.059 Y121.464 E121.51087
G1 X-163.059 Y11.909 E123.66543
G1 X-162.802 Y11.918 E123.67049
G1 X-162.802 Y121.473 E125.82505
G1 X-162.545 Y121.482 E125.83011
G1 X-162.545 Y11.927 E127.98467
G1 X-162.288 Y11.936 E127.98973
G1 X-162.288 Y121.491 E130.14429
G1 X-162.031 Y121.500 E130.14935
G1 X-162.031 Y11.945 E132.30391
G1 X-161.774 Y11.954 E132.30897
G1 X-161.774 Y121.509 E134.46353
G1 X-161.516 Y121.518 E134.46858
G1 X-161.516 Y11.963 E136.62314
G1 X-161.259 Y11.972 E136.62820
G1 X-161.259 Y121.527 E138.78276
G1 X-161.002 Y121.536 E138.78782
G1 X-161.002 Y11.981 E140.94238
G1 X-160.745 Y11.990 E140.94744
G1 X-160.745 Y121.545 E143.10200
G1 X-160.488 Y121.554 E143.10706
G1 X-160.488 Y11.999 E145.26162
G1 X-160.231 Y12.008 E145.26668
G1 X-160.231 Y121.563 E147.42124
G1 X-159.974 Y121.572 E147.42630
G1 X-159.974 Y12.017 E149.58086
G1 X-159.717 Y12.026 E149.58592
G1 X-159.717 Y121.581 E151.74048
G1 X-159.460 Y121.590 E151.74553
G1 X-159.460 Y12.035 E153.90009
G1 X-159.203 Y12.044 E153.90515
G1 X-159.203 Y121.599 E156.05971
G1 X-158.946 Y121.608 E156.06477
G1 X-158.946 Y12.053 E158.21933
G1 X-158.689 Y12.062 E158.22439
G1 X-158.689 Y121.617 E160.37895
G1 X-158.431 Y121.626 E160.38401
G1 X-158.431 Y12.071 E162.53857
G1 X-158.174 Y12.080 E162.54363
G1 X-158.174 Y121.635 E164.69819
G1 X-157.917 Y121.644 E164.70325
G1 X-157.917 Y12.089 E166.85781
G1 X-157.660 Y12.098 E166.86287
G1 X-157.660 Y121.653 E169.01743
G1 X-157.403 Y121.662 E169.02248
G1 X-157.403 Y12.107 E171.17704
G1 X-157.146 Y12.116 E171.18210
G1 X-157.146 Y121.671 E173.33666
G1 X-156.889 Y121.680 E173.34172
G1 X-156.889 Y12.125 E175.49628
G1 X-156.632 Y12.134 E175.50134
G1 X-156.632 Y121.689 E177.65590
G1 X-156.375 Y121.698 E177.66096
G1 X-156.375 Y12.143 E179.81552
G1 X-156.118 Y12.152 E179.82058
G1 X-156.118 Y121.707 E181.97514
G1 X-155.861 Y121.716 E181.98020
G1 X-155.861 Y12.161 E184.13476
G1 X-155.604 Y12.170 E184.13982
G1 X-155.604 Y121.725 E186.29438
G1 X-155.346 Y121.734 E186.29943
G1 X-155.346 Y12.179 E188.45399
G1 X-155.089 Y12.188 E188.45905
G1 X-155.089 Y121.743 E190.61361
G1 X-154.832 Y121.752 E190.61867
G1 X-154.832 Y12.197 E192.77323
G1 X-154.575 Y12.206 E192.77829
G1 X-154.575 Y121.761 E194.93285
G1 X-154.318 Y121.769 E194.93791
G1 X-154.318 Y12.215 E197.09247
G1 X-154.061 Y12.224 E197.09753
G1 X-154.061 Y121.778 E199.25209
G1 X-153.804 Y121.787 E199.25715
G1 X-153.804 Y12.233 E201.41171
G1 X-153.547 Y12.242 E201.41677
G1 X-153.547 Y121.796 E203.57133
G1 X-153.290 Y121.805 E203.57638
G1 X-153.290 Y12.251 E205.73094
G1 X-153.033 Y12.260 E205.73600
G1 X-153.033 Y121.814 E207.89056
G1 X-152.776 Y121.823 E207.89562
G1 X-152.776 Y12.269 E210.05018
G1 X-152.519 Y12.277 E210.05524
G1 X-152.519 Y121.832 E212.20980
G1 X-152.261 Y121.841 E212.21486
G1 X-152.261 Y12.286 E214.36942
G1 X-152.004 Y12.295 E214.37448
G1 X-152.004 Y121.850 E216.52904
G1 X-151.747 Y121.859 E216.53410
G1 X-151.747 Y12.304 E218.68866
G1 X-151.490 Y12.313 E218.69372
G1 X-151.490 Y121.868 E220.84828
G1 X-151.233 Y121.877 E220.85334
G1 X-151.233 Y12.322 E223.00789
G1 X-150.976 Y12.331 E223.01295
G1 X-150.976 Y121.886 E225.16751
G1 X-150.719 Y121.895 E225.17257
G1 X-150.719 Y12.340 E227.32713
G1 X-150.462 Y12.349 E227.33219
G1 X-150.462 Y121.904 E229.48675
G1 X-150.205 Y121.913 E229.49181
G1 X-150.205 Y12.358 E231.64637
G1 X-149.948 Y12.367 E231.65143
G1 X-149.948 Y121.922 E233.80599
G1 X-149.691 Y121.931 E233.81105
G1 X-149.691 Y12.376 E235.96561
G1 X-149.434 Y12.385 E235.97067
G1 X-149.434 Y121.940 E238.12523
G1 X-149.176 Y121.949 E238.13029
G1 X-149.176 Y12.394 E240.28484
G1 X-148.919 Y12.403 E240.28990
G1 X-148.919 Y121.958 E242.44446
G1 X-148.662 Y121.967 E242.44952
G1 X-148.662 Y12.412 E244.60408
G1 X-148.405 Y12.421 E244.60914
G1 X-148.405 Y121.976 E246.76370
G1 X-148.148 Y121.985 E246.76876
G1 X-148.148 Y12.430 E248.92332
G1 X-147.891 Y12.439 E248.92838
G1 X-147.891 Y121.994 E251.08294
G1 X-147.634 Y122.003 E251.08800
G1 X-147.634 Y12.448 E253.24256
G1 X-147.377 Y12.457 E253.24762
G1 X-147.377 Y122.012 E255.40218
G1 X-147.120 Y122.021 E255.40724
G1 X-147.120 Y12.466 E257.56180
G1 X-146.863 Y12.475 E257.56685
G1 X-146.863 Y122.030 E259.72141
G1 X-146.606 Y122.039 E259.72647
G1 X-146.606 Y12.484 E261.88103
G1 X-146.348 Y12.493 E261.88609
G1 X-146.349 Y122.048 E264.04065
G1 X-146.091 Y122.057 E264.04571
G1 X-146.091 Y12.502 E266.20027
G1 X-145.834 Y12.511 E266.20533
G1 X-145.834 Y122.066 E268.35989
G1 X-145.577 Y122.075 E268.36495
G1 X-145.577 Y12.520 E270.51951
G1 X-145.320 Y12.529 E270.52457
G1 X-145.320 Y122.084 E272.67913
G1 X-145.063 Y122.093 E272.68419
G1 X-145.063 Y12.538 E274.83875
G1 X-144.806 Y12.547 E274.84380
G1 X-144.806 Y122.102 E276.99836
G1 X-144.549 Y122.111 E277.00342
G1 X-144.549 Y12.556 E279.15798
G1 X-144.292 Y12.565 E279.16304
G1 X-144.292 Y122.120 E281.31760
G1 X-144.035 Y122.129 E281.32266
G1 X-144.035 Y12.574 E283.47722
G1 X-143.778 Y12.583 E283.48228
G1 X-143.778 Y122.138 E285.63684
G1 X-143.521 Y122.147 E285.64190
G1 X-143.521 Y12.592 E287.79646
G1 X-143.263 Y12.601 E287.80152
G1 X-143.263 Y122.156 E289.95608
G1 X-143.006 Y122.165 E289.96114
G1 X-143.006 Y12.610 E292.11570
G1 X-142.749 Y12.619 E292.12075
G1 X-142.749 Y122.173 E294.27531
G1 X-142.492 Y122.182 E294.28037
G1 X-142.492 Y12.628 E296.43493
G1 X-142.235 Y12.637 E296.43999
G1 X-142.235 Y122.191 E298.59455
G1 X-141.978 Y122.200 E298.59961
G1 X-141.978 Y12.646 E300.75417
G1 X-141.721 Y12.655 E300.75923
G1 X-141.721 Y122.209 E302.91379
G1 X-141.464 Y122.218 E302.91885
G1 X-141.464 Y12.664 E305.07341
G1 X-141.207 Y12.672 E305.07847
G1 X-141.207 Y122.227 E307.23303
G1 X-140.950 Y122.236 E307.23809
G1 X-140.950 Y12.681 E309.39265
G1 X-140.693 Y12.690 E309.39770
G1 X-140.693 Y122.245 E311.55226
G1 X-140.436 Y122.254 E311.55732
G1 X-140.436 Y12.699 E313.71188
G1 X-140.178 Y12.708 E313.71694
G1 X-140.178 Y122.263 E315.87150
G1 X-139.921 Y122.272 E315.87656
G1 X-139.921 Y12.717 E318.03112
G1 X-139.664 Y12.726 E318.03618
G1 X-139.664 Y122.281 E320.19074
G1 X-139.407 Y122.290 E320.19580
G1 X-139.407 Y12.735 E322.35036
G1 X-139.150 Y12.744 E322.35542
G1 X-139.150 Y122.299 E324.50998
G1 X-138.893 Y122.308 E324.51504
G1 X-138.893 Y12.753 E326.66960
G1 X-138.636 Y12.762 E326.67465
G1 X-138.636 Y122.317 E328.82921
G1 X-138.379 Y122.326 E328.83427
G1 X-138.379 Y12.771 E330.98883
G1 X-138.122 Y12.780 E330.99389
G1 X-138.122 Y122.335 E333.14845
G1 X-137.865 Y122.344 E333.15351
G1 X-137.865 Y12.789 E335.30807
G1 X-137.608 Y12.798 E335.31313
G1 X-137.608 Y122.353 E337.46769
G1 X-137.351 Y122.362 E337.47275
G1 X-137.351 Y12.807 E339.62731
G1 X-137.093 Y12.816 E339.63237
G1 X-137.093 Y122.371 E341.78693
G1 X-136.836 Y122.380 E341.79199
G1 X-136.836 Y12.825 E343.94655
G1 X-136.579 Y12.834 E343.95160
G1 X-136.579 Y122.389 E346.10616
G1 X-136.322 Y122.398 E346.11122
G1 X-136.322 Y12.843 E348.26578
G1 X-136.065 Y12.852 E348.27084
G1 X-136.065 Y122.407 E350.42540
G1 X-135.808 Y122.416 E350.43046
G1 X-135.808 Y12.861 E352.58502
G1 X-135.551 Y12.870 E352.59008
G1 X-135.551 Y122.425 E354.74464
G1 X-135.294 Y122.434 E354.74970
G1 X-135.294 Y12.879 E356.90426
G1 X-135.037 Y12.888 E356.90932
G1 X-135.037 Y122.443 E359.06388
G1 X-134.780 Y122.452 E359.06894
G1 X-134.780 Y12.897 E361.22350
G1 X-134.523 Y12.906 E361.22855
G1 X-134.523 Y122.461 E363.38311
G1 X-134.266 Y122.470 E363.38817
G1 X-134.266 Y12.915 E365.54273
G1 X-134.008 Y12.924 E365.54779
G1 X-134.008 Y122.479 E367.70235
G1 X-133.751 Y122.488 E367.70741
G1 X-133.751 Y12.933 E369.86197
G1 X-133.494 Y12.942 E369.86703
G1 X-133.494 Y122.497 E372.02159
G1 X-133.237 Y122.506 E372.02665
G1 X-133.237 Y12.951 E374.18121
G1 X-132.980 Y12.960 E374.18627
G1 X-132.980 Y122.515 E376.34083
G1 X-132.723 Y122.524 E376.34589
G1 X-132.723 Y12.969 E378.50045
G1 X-132.466 Y12.978 E378.50550
G1 X-132.466 Y122.533 E380.66006
G1 X-132.209 Y122.542 E380.66512
G1 X-132.209 Y12.987 E382.81968
G1 X-131.952 Y12.996 E382.82474
G1 X-131.952 Y122.551 E384.97930
G1 X-131.695 Y122.560 E384.98436
G1 X-131.695 Y13.005 E387.13892
G1 X-131.438 Y13.014 E387.14398
G1 X-131.438 Y122.568 E389.29854
G1 X-131.181 Y122.577 E389.30360
G1 X-131.181 Y13.023 E391.45816
G1 X-130.923 Y13.032 E391.46322
G1 X-130.923 Y122.586 E393.61778
G1 X-130.666 Y122.595 E393.62284
G1 X-130.666 Y13.041 E395.77740
G1 X-130.409 Y13.050 E395.78246
G1 X-130.409 Y122.604 E397.93701
G1 X-130.152 Y122.613 E397.94207
G1 X-130.152 Y13.059 E400.09663
G1 X-129.895 Y13.068 E400.10169
G1 X-129.895 Y122.622 E402.25625
G1 X-129.638 Y122.631 E402.26131
G1 X-129.638 Y13.076 E404.41587
G1 X-129.381 Y13.085 E404.42093
G1 X-129.381 Y122.640 E406.57549
G1 X-129.124 Y122.649 E406.58055
G1 X-129.124 Y13.094 E408.73511
G1 X-128.867 Y13.103 E408.74017
G1 X-128.867 Y122.658 E410.89473
G1 X-128.610 Y122.667 E410.89979
G1 X-128.610 Y13.112 E413.05435
G1 X-128.353 Y13.121 E413.05941
G1 X-128.353 Y122.676 E415.21396
G1 X-128.096 Y122.685 E415.21902
G1 X-128.096 Y13.130 E417.37358
G1 X-127.838 Y13.139 E417.37864
G1 X-127.838 Y122.694 E419.53320
G1 X-127.581 Y122.703 E419.53826
G1 X-127.581 Y13.148 E421.69282
G1 X-127.324 Y13.157 E421.69788
G1 X-127.324 Y122.712 E423.85244
G1 X-127.067 Y122.721 E423.85750
G1 X-127.067 Y13.166 E426.01206
G1 X-126.810 Y13.175 E426.01712
G1 X-126.810 Y122.730 E428.17168
G1 X-126.553 Y122.739 E428.17674
G1 X-126.553 Y13.184 E430.33130
G1 X-126.296 Y13.193 E430.33636
G1 X-126.296 Y122.748 E432.49091
G1 X-126.039 Y122.757 E432.49597
G1 X-126.039 Y13.202 E434.65053
G1 X-125.782 Y13.211 E434.65559
G1 X-125.782 Y122.766 E436.81015
G1 X-125.525 Y122.775 E436.81521
G1 X-125.525 Y13.220 E438.96977
G1 X-125.268 Y13.229 E438.97483
G1 X-125.268 Y122.784 E441.12939
G1 X-125.011 Y122.793 E441.13445
G1 X-125.011 Y13.238 E443.28901
G1 X-124.753 Y13.247 E443.29407
G1 X-124.753 Y122.802 E445.44863
G1 X-124.496 Y122.811 E445.45369
G1 X-124.496 Y13.256 E447.60825
G1 X-124.239 Y13.265 E447.61331
G1 X-124.239 Y122.820 E449.76787
G1 X-123.982 Y122.829 E449.77292
G1 X-123.982 Y13.274 E451.92748
G1 X-123.725 Y13.283 E451.93254
G1 X-123.725 Y122.838 E454.08710
G1 X-123.468 Y122.847 E454.09216
G1 X-123.468 Y13.292 E456.24672
G1 X-123.211 Y13.301 E456.25178
G1 X-123.211 Y122.856 E458.40634
G1 X-122.954 Y122.865 E458.41140
G1 X-122.954 Y13.310 E460.56596
G1 X-122.697 Y13.319 E460.57102
