; generated by Slic3r 1.3.1-dev (Build (Unknown revision)) on 2020-06-18 at 22:19:24

; external perimeters extrusion width = 0.44mm (2.86mm^3/s)
; perimeters extrusion width = 0.56mm (4.14mm^3/s)
; infill extrusion width = 0.50mm (3.66mm^3/s)
; solid infill extrusion width = 0.56mm (3.10mm^3/s)
; top infill extrusion width = 0.45mm (2.44mm^3/s)

M107
G92 E0
;D3D:START:START
T0
M104 S215 T0

G21
G90
M107
T0
G28
G29
M109 T0 S215 T0
G0 F3000
M107
T0
G92 E0
G0 X0 Y149 Z0.1 F3600
G1 Y49 E6.5 F1200
G0 Z1
G92 E0
; Filament gcode

G21 ; set units to millimeters
G90 ; use absolute coordinates
M82 ; use absolute distances for extrusion
G92 E0
G1 Z0.200 F6000.000
G1 E-2.00000 F1200.00000
G92 E0
G1 Z0.700 F6000.000
G1 X64.651 Y64.289 F6000.000
G1 Z0.200 F6000.000
G1 E2.00000 F1200.00000
G1 F1800.000
G1 X65.134 Y63.843 E2.01266
G1 X66.040 Y63.103 E2.03516
G1 X67.001 Y62.437 E2.05766
G1 X68.012 Y61.848 E2.08016
G1 X68.467 Y61.616 E2.09000
G1 X69.538 Y61.144 E2.11250
G1 X70.155 Y60.917 E2.12516
G1 X71.275 Y60.580 E2.14766
G1 X72.418 Y60.332 E2.17015
G1 X73.577 Y60.175 E2.19265
G1 X74.744 Y60.109 E2.21515
G1 X75.256 Y60.109 E2.22499
G1 X75.913 Y60.135 E2.23765
G1 X77.077 Y60.252 E2.26015
G1 X78.228 Y60.460 E2.28265
G1 X79.358 Y60.759 E2.30515
G1 X80.462 Y61.144 E2.32765
G1 X80.935 Y61.340 E2.33749
G1 X81.988 Y61.848 E2.35999
G1 X82.563 Y62.169 E2.37265
G1 X83.546 Y62.802 E2.39514
G1 X84.477 Y63.510 E2.41764
G1 X84.866 Y63.843 E2.42748
G1 X85.711 Y64.651 E2.44998
G1 X86.157 Y65.134 E2.46264
G1 X86.897 Y66.040 E2.48514
G1 X87.563 Y67.001 E2.50764
G1 X88.152 Y68.012 E2.53014
G1 X88.384 Y68.467 E2.53998
G1 X88.856 Y69.538 E2.56248
G1 X89.083 Y70.155 E2.57514
G1 X89.420 Y71.275 E2.59764
G1 X89.668 Y72.418 E2.62014
G1 X89.825 Y73.577 E2.64264
G1 X89.865 Y74.087 E2.65248
G1 X89.891 Y75.256 E2.67497
G1 X89.865 Y75.913 E2.68764
G1 X89.748 Y77.077 E2.71013
G1 X89.540 Y78.228 E2.73263
G1 X89.241 Y79.358 E2.75513
G1 X88.856 Y80.462 E2.77763
G1 X88.660 Y80.935 E2.78747
G1 X88.152 Y81.988 E2.80997
G1 X87.831 Y82.563 E2.82263
G1 X87.198 Y83.546 E2.84513
G1 X86.490 Y84.477 E2.86763
G1 X86.157 Y84.866 E2.87747
G1 X85.349 Y85.711 E2.89996
G1 X84.866 Y86.157 E2.91263
G1 X83.960 Y86.897 E2.93512
G1 X82.999 Y87.563 E2.95762
G1 X81.988 Y88.152 E2.98012
G1 X81.533 Y88.384 E2.98996
G1 X80.462 Y88.856 E3.01246
G1 X79.845 Y89.083 E3.02512
G1 X78.725 Y89.420 E3.04762
G1 X77.582 Y89.668 E3.07012
G1 X76.423 Y89.825 E3.09262
G1 X75.913 Y89.865 E3.10246
G1 X74.744 Y89.891 E3.12495
G1 X74.087 Y89.865 E3.13762
G1 X72.923 Y89.748 E3.16011
G1 X71.772 Y89.540 E3.18261
G1 X70.642 Y89.241 E3.20511
G1 X69.538 Y88.856 E3.22761
G1 X69.065 Y88.660 E3.23745
G1 X68.012 Y88.152 E3.25995
G1 X67.001 Y87.563 E3.28245
G1 X66.454 Y87.198 E3.29511
G1 X65.523 Y86.490 E3.31761
G1 X65.134 Y86.157 E3.32745
G1 X64.289 Y85.349 E3.34995
G1 X63.843 Y84.866 E3.36261
G1 X63.103 Y83.960 E3.38511
G1 X62.437 Y82.999 E3.40761
G1 X61.848 Y81.988 E3.43010
G1 X61.616 Y81.533 E3.43994
G1 X61.144 Y80.462 E3.46244
G1 X60.917 Y79.845 E3.47510
G1 X60.580 Y78.725 E3.49760
G1 X60.332 Y77.582 E3.52010
G1 X60.175 Y76.423 E3.54260
G1 X60.109 Y75.256 E3.56510
G1 X60.109 Y74.744 E3.57494
G1 X60.135 Y74.087 E3.58760
G1 X60.252 Y72.923 E3.61010
G1 X60.460 Y71.772 E3.63260
G1 X60.759 Y70.642 E3.65509
G1 X61.144 Y69.538 E3.67759
G1 X61.340 Y69.065 E3.68743
G1 X61.848 Y68.012 E3.70993
G1 X62.169 Y67.437 E3.72259
G1 X62.802 Y66.454 E3.74509
G1 X63.510 Y65.523 E3.76759
G1 X63.843 Y65.134 E3.77743
G1 X64.609 Y64.332 E3.79877
G1 X64.826 Y64.478 F6000.000
G1 F1800.000
G1 X65.309 Y64.031 E3.81144
G1 X66.199 Y63.305 E3.83355
G1 X67.144 Y62.650 E3.85566
G1 X68.137 Y62.072 E3.87777
G1 X68.575 Y61.849 E3.88722
G1 X69.627 Y61.386 E3.90933
G1 X70.244 Y61.158 E3.92199
G1 X71.345 Y60.827 E3.94410
G1 X72.468 Y60.584 E3.96621
G1 X73.607 Y60.430 E3.98832
G1 X74.754 Y60.366 E4.01043
G1 X75.246 Y60.366 E4.01988
G1 X75.903 Y60.391 E4.03254
G1 X77.047 Y60.507 E4.05465
G1 X78.177 Y60.713 E4.07676
G1 X79.289 Y61.006 E4.09887
G1 X80.373 Y61.386 E4.12098
G1 X80.827 Y61.574 E4.13044
G1 X81.863 Y62.072 E4.15255
G1 X82.856 Y62.650 E4.17465
G1 X83.403 Y63.016 E4.18732
G1 X84.317 Y63.712 E4.20943
G1 X84.691 Y64.031 E4.21888
G1 X85.522 Y64.826 E4.24099
G1 X85.969 Y65.309 E4.25365
G1 X86.695 Y66.199 E4.27576
G1 X87.350 Y67.144 E4.29787
G1 X87.928 Y68.137 E4.31998
G1 X88.151 Y68.575 E4.32943
G1 X88.614 Y69.627 E4.35154
G1 X88.842 Y70.244 E4.36421
G1 X89.173 Y71.345 E4.38632
G1 X89.416 Y72.468 E4.40843
G1 X89.570 Y73.607 E4.43054
G1 X89.609 Y74.097 E4.43999
G1 X89.634 Y75.246 E4.46210
G1 X89.609 Y75.903 E4.47476
G1 X89.493 Y77.047 E4.49687
G1 X89.287 Y78.177 E4.51898
G1 X88.994 Y79.289 E4.54109
G1 X88.842 Y79.756 E4.55054
G1 X88.426 Y80.827 E4.57265
G1 X87.928 Y81.863 E4.59476
G1 X87.350 Y82.856 E4.61687
G1 X86.984 Y83.403 E4.62953
G1 X86.288 Y84.317 E4.65164
G1 X85.969 Y84.691 E4.66110
G1 X85.174 Y85.522 E4.68321
G1 X84.691 Y85.969 E4.69587
G1 X83.801 Y86.695 E4.71798
G1 X82.856 Y87.350 E4.74009
G1 X81.863 Y87.928 E4.76220
G1 X81.425 Y88.151 E4.77165
G1 X80.373 Y88.614 E4.79376
G1 X79.756 Y88.842 E4.80642
G1 X78.655 Y89.173 E4.82853
G1 X77.532 Y89.416 E4.85064
G1 X76.393 Y89.570 E4.87275
G1 X75.903 Y89.609 E4.88220
G1 X74.754 Y89.634 E4.90431
G1 X74.097 Y89.609 E4.91698
G1 X72.953 Y89.493 E4.93909
G1 X71.823 Y89.287 E4.96120
G1 X70.711 Y88.994 E4.98331
G1 X69.627 Y88.614 E5.00542
G1 X69.173 Y88.426 E5.01487
G1 X68.137 Y87.928 E5.03698
G1 X67.144 Y87.350 E5.05909
G1 X66.597 Y86.984 E5.07175
G1 X65.683 Y86.288 E5.09386
G1 X65.309 Y85.969 E5.10331
G1 X64.478 Y85.174 E5.12542
G1 X64.031 Y84.691 E5.13808
G1 X63.305 Y83.801 E5.16019
G1 X62.650 Y82.856 E5.18231
G1 X62.072 Y81.863 E5.20441
G1 X61.849 Y81.425 E5.21387
G1 X61.386 Y80.373 E5.23598
G1 X61.158 Y79.756 E5.24864
G1 X60.827 Y78.655 E5.27075
G1 X60.584 Y77.532 E5.29286
G1 X60.430 Y76.393 E5.31497
G1 X60.366 Y75.246 E5.33708
G1 X60.366 Y74.754 E5.34653
G1 X60.391 Y74.097 E5.35919
G1 X60.507 Y72.953 E5.38130
G1 X60.713 Y71.823 E5.40341
G1 X61.006 Y70.711 E5.42552
G1 X61.386 Y69.627 E5.44763
G1 X61.574 Y69.173 E5.45709
G1 X62.072 Y68.137 E5.47920
G1 X62.650 Y67.144 E5.50130
G1 X63.016 Y66.597 E5.51397
G1 X63.712 Y65.683 E5.53608
G1 X64.031 Y65.309 E5.54553
G1 X64.783 Y64.521 E5.56648
G1 E3.56648 F1200.00000
G92 E0
G1 Z0.700 F6000.000
G1 X76.725 Y76.473 F6000.000
G1 Z0.200 F6000.000
G1 E2.00000 F1200.00000
G1 F1800.000
G1 X76.343 Y76.827 E2.01001
G1 X76.029 Y77.019 E2.01710
G1 X75.688 Y77.160 E2.02420
G1 X75.191 Y77.259 E2.03395
G1 X74.809 Y77.259 E2.04130
G1 X74.312 Y77.160 E2.05105
G1 X73.959 Y77.014 E2.05840
G1 X73.527 Y76.725 E2.06840
G1 X73.173 Y76.343 E2.07841
G1 X72.981 Y76.029 E2.08550
G1 X72.840 Y75.688 E2.09260
G1 X72.741 Y75.191 E2.10235
G1 X72.741 Y74.809 E2.10970
G1 X72.840 Y74.312 E2.11945
G1 X72.986 Y73.959 E2.12680
G1 X73.275 Y73.527 E2.13681
G1 X73.657 Y73.173 E2.14681
G1 X73.971 Y72.981 E2.15391
G1 X74.312 Y72.840 E2.16100
G1 X74.809 Y72.741 E2.17075
G1 X75.191 Y72.741 E2.17810
G1 X75.688 Y72.840 E2.18785
G1 X76.041 Y72.986 E2.19520
G1 X76.473 Y73.275 E2.20521
G1 X76.827 Y73.657 E2.21521
G1 X77.019 Y73.971 E2.22231
G1 X77.160 Y74.312 E2.22940
G1 X77.259 Y74.809 E2.23916
G1 X77.259 Y75.191 E2.24650
G1 X77.160 Y75.688 E2.25626
G1 X77.014 Y76.041 E2.26360
G1 X76.759 Y76.424 E2.27246
G1 X76.528 Y76.305 F6000.000
G1 F1800.000
G1 X76.187 Y76.621 E2.28139
G1 X75.912 Y76.789 E2.28761
G1 X75.613 Y76.913 E2.29383
G1 X75.166 Y77.002 E2.30260
G1 X74.834 Y77.002 E2.30898
G1 X74.387 Y76.913 E2.31776
G1 X74.081 Y76.786 E2.32413
G1 X73.695 Y76.528 E2.33306
G1 X73.379 Y76.187 E2.34200
G1 X73.211 Y75.912 E2.34822
G1 X73.087 Y75.613 E2.35443
G1 X72.998 Y75.166 E2.36321
G1 X72.998 Y74.834 E2.36959
G1 X73.087 Y74.387 E2.37836
G1 X73.214 Y74.081 E2.38474
G1 X73.472 Y73.695 E2.39367
G1 X73.813 Y73.379 E2.40261
G1 X74.088 Y73.211 E2.40882
G1 X74.387 Y73.087 E2.41504
G1 X74.834 Y72.998 E2.42382
G1 X75.166 Y72.998 E2.43019
G1 X75.613 Y73.087 E2.43897
G1 X75.919 Y73.214 E2.44535
G1 X76.305 Y73.472 E2.45428
G1 X76.621 Y73.813 E2.46321
G1 X76.789 Y74.088 E2.46943
G1 X76.913 Y74.387 E2.47565
G1 X77.002 Y74.834 E2.48443
G1 X77.002 Y75.166 E2.49080
G1 X76.913 Y75.613 E2.49958
G1 X76.786 Y75.919 E2.50595
G1 X76.562 Y76.255 E2.51373
G1 X76.332 Y76.137 F6000.000
G1 F1800.000
G1 X76.031 Y76.415 E2.52159
G1 X75.795 Y76.560 E2.52694
G1 X75.538 Y76.666 E2.53228
G1 X75.140 Y76.745 E2.54008
G1 X74.860 Y76.745 E2.54548
G1 X74.462 Y76.666 E2.55329
G1 X74.203 Y76.559 E2.55868
G1 X73.863 Y76.332 E2.56655
G1 X73.585 Y76.031 E2.57441
G1 X73.440 Y75.795 E2.57975
G1 X73.334 Y75.538 E2.58509
G1 X73.255 Y75.140 E2.59290
G1 X73.255 Y74.860 E2.59829
G1 X73.334 Y74.462 E2.60610
G1 X73.441 Y74.203 E2.61150
G1 X73.668 Y73.863 E2.61936
G1 X73.969 Y73.585 E2.62722
G1 X74.205 Y73.440 E2.63256
G1 X74.462 Y73.334 E2.63790
G1 X74.860 Y73.255 E2.64571
G1 X75.140 Y73.255 E2.65111
G1 X75.538 Y73.334 E2.65891
G1 X75.797 Y73.441 E2.66431
G1 X76.137 Y73.668 E2.67217
G1 X76.415 Y73.969 E2.68003
G1 X76.560 Y74.205 E2.68538
G1 X76.666 Y74.462 E2.69072
G1 X76.745 Y74.860 E2.69852
G1 X76.745 Y75.140 E2.70392
G1 X76.666 Y75.538 E2.71172
G1 X76.559 Y75.797 E2.71712
G1 X76.365 Y76.087 E2.72383
G1 X76.460 Y76.516 F6000.000
G1 E0.72383 F1200.00000
G92 E0
G1 Z0.700 F6000.000
G1 X80.868 Y80.012 F6000.000
G1 Z0.200 F6000.000
G1 E2.00000 F1200.00000
G1 F1800.000
G1 X80.457 Y80.457 E2.01166
G1 X80.012 Y80.868 E2.02332
G1 X79.536 Y81.244 E2.03497
G1 X79.032 Y81.580 E2.04663
G1 X78.504 Y81.876 E2.05829
G1 X77.953 Y82.130 E2.06995
G1 X77.385 Y82.340 E2.08161
G1 X76.802 Y82.504 E2.09326
G1 X76.207 Y82.622 E2.10492
G1 X75.606 Y82.694 E2.11658
G1 X75.000 Y82.717 E2.12824
G1 X74.394 Y82.694 E2.13990
G1 X73.793 Y82.622 E2.15156
G1 X73.198 Y82.504 E2.16321
G1 X72.615 Y82.340 E2.17487
G1 X72.047 Y82.130 E2.18653
G1 X71.496 Y81.876 E2.19819
G1 X70.968 Y81.580 E2.20985
G1 X70.464 Y81.244 E2.22150
G1 X69.988 Y80.868 E2.23316
G1 X69.543 Y80.457 E2.24482
G1 X69.132 Y80.012 E2.25648
G1 X68.756 Y79.536 E2.26814
G1 X68.420 Y79.032 E2.27979
G1 X68.124 Y78.504 E2.29145
G1 X67.870 Y77.953 E2.30311
G1 X67.660 Y77.385 E2.31477
G1 X67.496 Y76.802 E2.32643
G1 X67.378 Y76.207 E2.33808
G1 X67.306 Y75.606 E2.34974
G1 X67.283 Y75.000 E2.36140
G1 X67.306 Y74.394 E2.37306
G1 X67.378 Y73.793 E2.38472
G1 X67.496 Y73.198 E2.39638
G1 X67.660 Y72.615 E2.40803
G1 X67.870 Y72.047 E2.41969
G1 X68.124 Y71.496 E2.43135
G1 X68.420 Y70.968 E2.44301
G1 X68.756 Y70.464 E2.45467
G1 X69.132 Y69.988 E2.46632
G1 X69.543 Y69.543 E2.47798
G1 X69.988 Y69.132 E2.48964
G1 X70.464 Y68.756 E2.50130
G1 X70.968 Y68.420 E2.51296
G1 X71.496 Y68.124 E2.52461
G1 X72.047 Y67.870 E2.53627
G1 X72.615 Y67.660 E2.54793
G1 X73.198 Y67.496 E2.55959
G1 X73.793 Y67.378 E2.57125
G1 X74.394 Y67.306 E2.58290
G1 X75.000 Y67.283 E2.59456
G1 X75.606 Y67.306 E2.60622
G1 X76.207 Y67.378 E2.61788
G1 X76.802 Y67.496 E2.62954
G1 X77.385 Y67.660 E2.64120
G1 X77.953 Y67.870 E2.65285
G1 X78.504 Y68.124 E2.66451
G1 X79.032 Y68.420 E2.67617
G1 X79.536 Y68.756 E2.68783
G1 X80.012 Y69.132 E2.69949
G1 X80.457 Y69.543 E2.71114
G1 X80.868 Y69.988 E2.72280
G1 X81.244 Y70.464 E2.73446
G1 X81.580 Y70.968 E2.74612
G1 X81.876 Y71.496 E2.75778
G1 X82.130 Y72.047 E2.76943
G1 X82.340 Y72.615 E2.78109
G1 X82.504 Y73.198 E2.79275
G1 X82.622 Y73.793 E2.80441
G1 X82.694 Y74.394 E2.81607
G1 X82.717 Y75.000 E2.82772
G1 X82.694 Y75.606 E2.83938
G1 X82.622 Y76.207 E2.85104
G1 X82.504 Y76.802 E2.86270
G1 X82.340 Y77.385 E2.87436
G1 X82.130 Y77.953 E2.88602
G1 X81.876 Y78.504 E2.89767
G1 X81.580 Y79.032 E2.90933
G1 X81.244 Y79.536 E2.92099
G1 X80.906 Y79.965 E2.93149
G1 X81.064 Y80.179 F6000.000
G1 F1800.000
G1 X80.639 Y80.639 E2.94354
G1 X80.179 Y81.064 E2.95559
G1 X79.687 Y81.452 E2.96763
G1 X79.167 Y81.800 E2.97968
G1 X78.620 Y82.106 E2.99173
G1 X78.052 Y82.368 E3.00377
G1 X77.464 Y82.584 E3.01582
G1 X76.862 Y82.754 E3.02787
G1 X76.248 Y82.877 E3.03991
G1 X75.626 Y82.950 E3.05196
G1 X75.000 Y82.975 E3.06401
G1 X74.374 Y82.950 E3.07605
G1 X73.752 Y82.877 E3.08810
G1 X73.138 Y82.754 E3.10015
G1 X72.536 Y82.584 E3.11219
G1 X71.948 Y82.368 E3.12424
G1 X71.380 Y82.106 E3.13629
G1 X70.833 Y81.800 E3.14833
G1 X70.313 Y81.452 E3.16038
G1 X69.821 Y81.064 E3.17243
G1 X69.361 Y80.639 E3.18447
G1 X68.936 Y80.179 E3.19652
G1 X68.548 Y79.687 E3.20857
G1 X68.200 Y79.167 E3.22061
G1 X67.894 Y78.620 E3.23266
G1 X67.632 Y78.052 E3.24471
G1 X67.416 Y77.464 E3.25676
G1 X67.246 Y76.862 E3.26880
G1 X67.123 Y76.248 E3.28085
G1 X67.050 Y75.626 E3.29290
G1 X67.025 Y75.000 E3.30494
G1 X67.050 Y74.374 E3.31699
G1 X67.123 Y73.752 E3.32904
G1 X67.246 Y73.138 E3.34108
G1 X67.416 Y72.536 E3.35313
G1 X67.632 Y71.948 E3.36518
G1 X67.894 Y71.380 E3.37722
G1 X68.200 Y70.833 E3.38927
G1 X68.548 Y70.313 E3.40132
G1 X68.936 Y69.821 E3.41336
G1 X69.361 Y69.361 E3.42541
G1 X69.821 Y68.936 E3.43746
G1 X70.313 Y68.548 E3.44950
G1 X70.833 Y68.200 E3.46155
G1 X71.380 Y67.894 E3.47360
G1 X71.948 Y67.632 E3.48564
G1 X72.536 Y67.416 E3.49769
G1 X73.138 Y67.246 E3.50974
G1 X73.752 Y67.123 E3.52178
G1 X74.374 Y67.050 E3.53383
G1 X75.000 Y67.025 E3.54588
G1 X75.626 Y67.050 E3.55792
G1 X76.248 Y67.123 E3.56997
G1 X76.862 Y67.246 E3.58202
G1 X77.464 Y67.416 E3.59406
G1 X78.052 Y67.632 E3.60611
G1 X78.620 Y67.894 E3.61816
G1 X79.167 Y68.200 E3.63020
G1 X79.687 Y68.548 E3.64225
G1 X80.179 Y68.936 E3.65430
G1 X80.639 Y69.361 E3.66634
G1 X81.064 Y69.821 E3.67839
G1 X81.452 Y70.313 E3.69044
G1 X81.800 Y70.833 E3.70248
G1 X82.106 Y71.380 E3.71453
G1 X82.368 Y71.948 E3.72658
G1 X82.584 Y72.536 E3.73862
G1 X82.754 Y73.138 E3.75067
G1 X82.877 Y73.752 E3.76272
G1 X82.950 Y74.374 E3.77476
G1 X82.975 Y75.000 E3.78681
G1 X82.950 Y75.626 E3.79886
G1 X82.877 Y76.248 E3.81091
G1 X82.754 Y76.862 E3.82295
G1 X82.584 Y77.464 E3.83500
G1 X82.368 Y78.052 E3.84705
G1 X82.106 Y78.620 E3.85909
G1 X81.800 Y79.167 E3.87114
G1 X81.452 Y79.687 E3.88319
G1 X81.101 Y80.132 E3.89408
G1 X81.260 Y80.346 F6000.000
G1 F1800.000
G1 X80.821 Y80.821 E3.90651
G1 X80.346 Y81.260 E3.91895
G1 X79.839 Y81.660 E3.93138
G1 X79.301 Y82.019 E3.94382
G1 X78.737 Y82.335 E3.95625
G1 X78.150 Y82.605 E3.96869
G1 X77.544 Y82.829 E3.98113
G1 X76.922 Y83.005 E3.99356
G1 X76.288 Y83.131 E4.00600
G1 X75.646 Y83.207 E4.01843
G1 X75.000 Y83.232 E4.03087
G1 X74.354 Y83.207 E4.04330
G1 X73.712 Y83.131 E4.05574
G1 X73.078 Y83.005 E4.06817
G1 X72.456 Y82.829 E4.08061
G1 X71.850 Y82.605 E4.09304
G1 X71.263 Y82.335 E4.10548
G1 X70.699 Y82.019 E4.11791
G1 X70.161 Y81.660 E4.13035
G1 X69.654 Y81.260 E4.14279
G1 X69.179 Y80.821 E4.15522
G1 X68.740 Y80.346 E4.16766
G1 X68.340 Y79.839 E4.18009
G1 X67.981 Y79.301 E4.19253
G1 X67.665 Y78.737 E4.20496
G1 X67.395 Y78.150 E4.21740
G1 X67.171 Y77.544 E4.22983
G1 X66.995 Y76.922 E4.24227
G1 X66.869 Y76.288 E4.25470
G1 X66.793 Y75.646 E4.26714
G1 X66.768 Y75.000 E4.27957
G1 X66.793 Y74.354 E4.29201
G1 X66.869 Y73.712 E4.30445
G1 X66.995 Y73.078 E4.31688
G1 X67.171 Y72.456 E4.32932
G1 X67.395 Y71.850 E4.34175
G1 X67.665 Y71.263 E4.35419
G1 X67.981 Y70.699 E4.36662
G1 X68.340 Y70.161 E4.37906
G1 X68.740 Y69.654 E4.39149
G1 X69.179 Y69.179 E4.40393
G1 X69.654 Y68.740 E4.41636
G1 X70.161 Y68.340 E4.42880
G1 X70.699 Y67.981 E4.44123
G1 X71.263 Y67.665 E4.45367
G1 X71.850 Y67.395 E4.46611
G1 X72.456 Y67.171 E4.47854
G1 X73.078 Y66.995 E4.49098
G1 X73.712 Y66.869 E4.50341
G1 X74.354 Y66.793 E4.51585
G1 X75.000 Y66.768 E4.52828
G1 X75.646 Y66.793 E4.54072
G1 X76.288 Y66.869 E4.55315
G1 X76.922 Y66.995 E4.56559
G1 X77.544 Y67.171 E4.57802
G1 X78.150 Y67.395 E4.59046
G1 X78.737 Y67.665 E4.60289
G1 X79.301 Y67.981 E4.61533
G1 X79.839 Y68.340 E4.62777
G1 X80.346 Y68.740 E4.64020
G1 X80.821 Y69.179 E4.65264
G1 X81.260 Y69.654 E4.66507
G1 X81.660 Y70.161 E4.67751
G1 X82.019 Y70.699 E4.68994
G1 X82.335 Y71.263 E4.70238
G1 X82.605 Y71.850 E4.71481
G1 X82.829 Y72.456 E4.72725
G1 X83.005 Y73.078 E4.73968
G1 X83.131 Y73.712 E4.75212
G1 X83.207 Y74.354 E4.76455
G1 X83.232 Y75.000 E4.77699
G1 X83.207 Y75.646 E4.78943
G1 X83.131 Y76.288 E4.80186
G1 X83.005 Y76.922 E4.81430
G1 X82.829 Y77.544 E4.82673
G1 X82.605 Y78.150 E4.83917
