; generated by Slic3r 1.3.1-dev (Build (Unknown revision)) on 2020-06-19 at 09:08:50

; external perimeters extrusion width = 0.44mm (2.86mm^3/s)
; perimeters extrusion width = 0.56mm (4.14mm^3/s)
; infill extrusion width = 0.50mm (3.66mm^3/s)
; solid infill extrusion width = 0.56mm (3.10mm^3/s)
; top infill extrusion width = 0.45mm (2.44mm^3/s)

M107
G92 E0
;D3D:START:START
T0
M104 S215 T0

G21
G90
M107
T0
G28
G29
M109 T0 S215 T0
G0 F3000
M107
T0
G92 E0
G0 X0 Y149 Z0.1 F3600
G1 Y49 E6.5 F1200
G0 Z1
G92 E0
; Filament gcode

G21 ; set units to millimeters
G90 ; use absolute coordinates
M82 ; use absolute distances for extrusion
G92 E0
G1 Z0.200 F6000.000
G1 E-2.00000 F1200.00000
G92 E0
G1 Z0.700 F6000.000
G1 X45.025 Y35.795 F6000.000
G1 Z0.200 F6000.000
G1 E2.00000 F1200.00000
G1 F1800.000
G1 X46.774 Y34.341 E2.04375
G1 X50.000 Y33.486 E2.10796
G1 X100.000 Y33.486 E3.06989
G1 X102.239 Y33.883 E3.11364
G1 X104.205 Y35.025 E3.15739
G1 X105.659 Y36.774 E3.20114
G1 X106.514 Y40.000 E3.26535
G1 X106.514 Y110.000 E4.61205
G1 X106.117 Y112.239 E4.65580
G1 X104.975 Y114.205 E4.69955
G1 X103.226 Y115.659 E4.74330
G1 X100.000 Y116.514 E4.80751
G1 X50.000 Y116.514 E5.76944
G1 X47.761 Y116.117 E5.81319
G1 X45.795 Y114.975 E5.85694
G1 X44.341 Y113.226 E5.90069
G1 X43.486 Y110.000 E5.96490
G1 X43.486 Y40.000 E7.31160
G1 X43.883 Y37.761 E7.35535
G1 X44.995 Y35.846 E7.39795
G1 X45.280 Y35.893 F6000.000
G1 F1800.000
G1 X47.019 Y34.499 E7.44082
G1 X50.000 Y33.743 E7.49999
G1 X100.000 Y33.743 E8.46193
G1 X102.193 Y34.140 E8.50480
G1 X104.107 Y35.280 E8.54767
G1 X105.501 Y37.019 E8.59054
G1 X106.257 Y40.000 E8.64971
G1 X106.257 Y110.000 E9.99642
G1 X105.860 Y112.193 E10.03929
G1 X104.720 Y114.107 E10.08216
G1 X102.981 Y115.501 E10.12503
G1 X100.000 Y116.257 E10.18420
G1 X50.000 Y116.257 E11.14614
G1 X47.807 Y115.860 E11.18901
G1 X45.893 Y114.720 E11.23188
G1 X44.499 Y112.981 E11.27475
G1 X43.743 Y110.000 E11.33392
G1 X43.743 Y40.000 E12.68063
G1 X44.140 Y37.807 E12.72350
G1 X45.249 Y35.944 E12.76521
G1 E10.76521 F1200.00000
G92 E0
G1 Z0.700 F6000.000
G1 X98.247 Y77.086 F6000.000
G1 Z0.200 F6000.000
G1 E2.00000 F1200.00000
G1 F1800.000
G1 X98.247 Y107.914 E2.59309
G1 X85.419 Y107.914 E2.83989
G1 X85.419 Y77.086 E3.43299
G1 X98.187 Y77.086 E3.67863
G1 X97.990 Y77.343 F6000.000
G1 F1800.000
G1 X97.990 Y107.657 E4.26184
G1 X85.676 Y107.657 E4.49874
G1 X85.676 Y77.343 E5.08195
G1 X97.930 Y77.343 E5.31770
G1 X97.733 Y77.600 F6000.000
G1 F1800.000
G1 X97.733 Y107.400 E5.89101
G1 X85.933 Y107.400 E6.11803
G1 X85.933 Y77.600 E6.69134
G1 X97.673 Y77.600 E6.91720
G1 X98.102 Y77.445 F6000.000
G1 E4.91720 F1200.00000
G92 E0
G1 Z0.700 F6000.000
G1 X81.581 Y77.086 F6000.000
G1 Z0.200 F6000.000
G1 E2.00000 F1200.00000
G1 F1800.000
G1 X81.581 Y107.914 E2.59309
G1 X68.753 Y107.914 E2.83989
G1 X68.753 Y77.086 E3.43299
G1 X81.521 Y77.086 E3.67863
G1 X81.324 Y77.343 F6000.000
G1 F1800.000
G1 X81.324 Y107.657 E4.26184
G1 X69.010 Y107.657 E4.49874
G1 X69.010 Y77.343 E5.08195
G1 X81.264 Y77.343 E5.31770
G1 X81.067 Y77.600 F6000.000
G1 F1800.000
G1 X81.067 Y107.400 E5.89101
G1 X69.267 Y107.400 E6.11803
G1 X69.267 Y77.600 E6.69134
G1 X81.007 Y77.600 E6.91720
G1 X81.435 Y77.445 F6000.000
G1 E4.91720 F1200.00000
G92 E0
G1 Z0.700 F6000.000
G1 X64.914 Y77.086 F6000.000
G1 Z0.200 F6000.000
G1 E2.00000 F1200.00000
G1 F1800.000
G1 X64.914 Y107.914 E2.59309
G1 X52.086 Y107.914 E2.83989
G1 X52.086 Y77.086 E3.43299
G1 X64.854 Y77.086 E3.67863
G1 X64.657 Y77.343 F6000.000
G1 F1800.000
G1 X64.657 Y107.657 E4.26184
G1 X52.343 Y107.657 E4.49874
G1 X52.343 Y77.343 E5.08195
G1 X64.597 Y77.343 E5.31770
G1 X64.400 Y77.600 F6000.000
G1 F1800.000
G1 X64.400 Y107.400 E5.89101
G1 X52.600 Y107.400 E6.11803
G1 X52.600 Y77.600 E6.69134
G1 X64.340 Y77.600 E6.91720
G1 X64.769 Y77.445 F6000.000
G1 E4.91720 F1200.00000
G92 E0
G1 Z0.700 F6000.000
G1 X64.914 Y72.914 F6000.000
G1 Z0.200 F6000.000
G1 E2.00000 F1200.00000
G1 F1800.000
G1 X52.086 Y72.914 E2.24680
G1 X52.086 Y42.086 E2.83989
G1 X64.914 Y42.086 E3.08669
G1 X64.914 Y72.854 E3.67863
G1 X64.657 Y72.657 F6000.000
G1 F1800.000
G1 X52.343 Y72.657 E3.91554
G1 X52.343 Y42.343 E4.49874
G1 X64.657 Y42.343 E4.73565
G1 X64.657 Y72.597 E5.31770
G1 X64.400 Y72.400 F6000.000
G1 F1800.000
G1 X52.600 Y72.400 E5.54472
G1 X52.600 Y42.600 E6.11803
G1 X64.400 Y42.600 E6.34504
G1 X64.400 Y72.340 E6.91720
G1 X64.450 Y72.797 F6000.000
G1 E4.91720 F1200.00000
G92 E0
G1 Z0.700 F6000.000
G1 X68.753 Y72.914 F6000.000
G1 Z0.200 F6000.000
G1 E2.00000 F1200.00000
G1 F1800.000
G1 X68.753 Y42.086 E2.59309
G1 X81.581 Y42.086 E2.83989
G1 X81.581 Y72.914 E3.43299
G1 X68.813 Y72.914 E3.67863
G1 X69.010 Y72.657 F6000.000
G1 F1800.000
G1 X69.010 Y42.343 E4.26184
G1 X81.324 Y42.343 E4.49874
G1 X81.324 Y72.657 E5.08195
G1 X69.070 Y72.657 E5.31770
G1 X69.267 Y72.400 F6000.000
G1 F1800.000
G1 X69.267 Y42.600 E5.89101
G1 X81.067 Y42.600 E6.11803
G1 X81.067 Y72.400 E6.69134
G1 X69.327 Y72.400 E6.91720
G1 X68.898 Y72.555 F6000.000
G1 E4.91720 F1200.00000
G92 E0
G1 Z0.700 F6000.000
G1 X85.419 Y72.914 F6000.000
G1 Z0.200 F6000.000
G1 E2.00000 F1200.00000
G1 F1800.000
G1 X85.419 Y42.086 E2.59309
G1 X98.247 Y42.086 E2.83989
G1 X98.247 Y72.914 E3.43299
G1 X85.479 Y72.914 E3.67863
G1 X85.676 Y72.657 F6000.000
G1 F1800.000
G1 X85.676 Y42.343 E4.26184
G1 X97.990 Y42.343 E4.49874
G1 X97.990 Y72.657 E5.08195
G1 X85.736 Y72.657 E5.31770
G1 X85.933 Y72.400 F6000.000
G1 F1800.000
G1 X85.933 Y42.600 E5.89101
G1 X97.733 Y42.600 E6.11803
G1 X97.733 Y72.400 E6.69134
G1 X85.993 Y72.400 E6.91720
G1 X85.565 Y72.555 F6000.000
G1 E4.91720 F1200.00000
G92 E0
G1 Z0.700 F6000.000
G1 X99.336 Y40.664 F6000.000
G1 Z0.200 F6000.000
G1 E2.00000 F1200.00000
G1 F1800.000
G1 X99.336 Y109.336 E3.32115
G1 X50.664 Y109.336 E4.25753
G1 X50.664 Y40.664 E5.57868
G1 X99.276 Y40.664 E6.51390
G1 X99.593 Y40.407 F6000.000
G1 F1800.000
G1 X99.593 Y109.593 E7.84494
G1 X50.407 Y109.593 E8.79121
G1 X50.407 Y40.407 E10.12225
G1 X99.533 Y40.407 E11.06736
G1 X99.850 Y40.150 F6000.000
G1 F1800.000
G1 X99.850 Y109.850 E12.40829
G1 X50.150 Y109.850 E13.36445
G1 X50.150 Y40.150 E14.70539
G1 X99.790 Y40.150 E15.66039
G1 X99.768 Y40.542 F6000.000
G1 E13.66039 F1200.00000
G92 E0
G1 Z0.700 F6000.000
G1 X81.729 Y45.118 F6000.000
G1 Z0.200 F6000.000
G1 E2.00000 F1200.00000
G1 F1800.000
G1 X81.729 Y45.482 E2.00704
G1 X85.271 Y41.940 E2.10369
G1 X85.271 Y42.305 E2.11073
G1 X81.729 Y45.847 E2.20739
G1 X81.729 Y46.212 E2.21442
G1 X85.271 Y42.669 E2.31108
G1 X85.271 Y43.034 E2.31811
G1 X81.729 Y46.576 E2.41477
G1 X81.729 Y46.941 E2.42181
G1 X85.271 Y43.399 E2.51846
G1 X85.271 Y43.763 E2.52550
G1 X81.729 Y47.306 E2.62216
G1 X81.729 Y47.670 E2.62919
G1 X85.271 Y44.128 E2.72585
G1 X85.271 Y44.492 E2.73289
G1 X81.729 Y48.035 E2.82954
G1 X81.729 Y48.399 E2.83658
G1 X85.271 Y44.857 E2.93324
G1 X85.271 Y45.222 E2.94027
G1 X81.729 Y48.764 E3.03693
G1 X81.729 Y49.129 E3.04396
G1 X85.271 Y45.586 E3.14062
G1 X85.271 Y45.951 E3.14766
G1 X81.729 Y49.493 E3.24431
G1 X81.729 Y49.858 E3.25135
G1 X85.271 Y46.316 E3.34801
G1 X85.271 Y46.680 E3.35504
G1 X81.729 Y50.222 E3.45170
G1 X81.729 Y50.587 E3.45874
G1 X85.271 Y47.045 E3.55539
G1 X85.271 Y47.409 E3.56243
G1 X81.729 Y50.952 E3.65909
G1 X81.729 Y51.316 E3.66612
G1 X85.271 Y47.774 E3.76278
G1 X85.271 Y48.139 E3.76981
G1 X81.729 Y51.681 E3.86647
G1 X81.729 Y52.046 E3.87351
G1 X85.271 Y48.503 E3.97016
G1 X85.271 Y48.868 E3.97720
G1 X81.729 Y52.410 E4.07386
G1 X81.729 Y52.775 E4.08089
G1 X85.271 Y49.233 E4.17755
G1 X85.271 Y49.597 E4.18459
G1 X81.729 Y53.139 E4.28124
G1 X81.729 Y53.504 E4.28828
G1 X85.271 Y49.962 E4.38494
G1 X85.271 Y50.326 E4.39197
G1 X81.729 Y53.869 E4.48863
G1 X81.729 Y54.233 E4.49566
G1 X85.271 Y50.691 E4.59232
G1 X85.271 Y51.056 E4.59936
G1 X81.729 Y54.598 E4.69601
G1 X81.729 Y54.963 E4.70305
G1 X85.271 Y51.420 E4.79971
G1 X85.271 Y51.785 E4.80674
G1 X81.729 Y55.327 E4.90340
G1 X81.729 Y55.692 E4.91044
G1 X85.271 Y52.150 E5.00709
G1 X85.271 Y52.514 E5.01413
G1 X81.729 Y56.056 E5.11079
G1 X81.729 Y56.421 E5.11782
G1 X85.271 Y52.879 E5.21448
G1 X85.271 Y53.243 E5.22151
G1 X81.729 Y56.786 E5.31817
G1 X81.729 Y57.150 E5.32521
G1 X85.271 Y53.608 E5.42186
G1 X85.271 Y53.973 E5.42890
G1 X81.729 Y57.515 E5.52556
G1 X81.729 Y57.880 E5.53259
G1 X85.271 Y54.337 E5.62925
G1 X85.271 Y54.702 E5.63629
G1 X81.729 Y58.244 E5.73294
G1 X81.729 Y58.609 E5.73998
G1 X85.271 Y55.067 E5.83664
G1 X85.271 Y55.431 E5.84367
G1 X81.729 Y58.973 E5.94033
G1 X81.729 Y59.338 E5.94736
G1 X85.271 Y55.796 E6.04402
G1 X85.271 Y56.160 E6.05106
G1 X81.729 Y59.703 E6.14771
G1 X81.729 Y60.067 E6.15475
G1 X85.271 Y56.525 E6.25141
G1 X85.271 Y56.890 E6.25844
G1 X81.729 Y60.432 E6.35510
G1 X81.729 Y60.797 E6.36213
G1 X85.271 Y57.254 E6.45879
G1 X85.271 Y57.619 E6.46583
G1 X81.729 Y61.161 E6.56249
G1 X81.729 Y61.526 E6.56952
G1 X85.271 Y57.983 E6.66618
G1 X85.271 Y58.348 E6.67321
G1 X81.729 Y61.890 E6.76987
G1 X81.729 Y62.255 E6.77691
G1 X85.271 Y58.713 E6.87356
G1 X85.271 Y59.077 E6.88060
G1 X81.729 Y62.620 E6.97726
G1 X81.729 Y62.984 E6.98429
G1 X85.271 Y59.442 E7.08095
G1 X85.271 Y59.807 E7.08798
G1 X81.729 Y63.349 E7.18464
G1 X81.729 Y63.714 E7.19168
G1 X85.271 Y60.171 E7.28834
G1 X85.271 Y60.536 E7.29537
G1 X81.729 Y64.078 E7.39203
G1 X81.729 Y64.443 E7.39906
G1 X85.271 Y60.900 E7.49572
G1 X85.271 Y61.265 E7.50276
G1 X81.729 Y64.807 E7.59941
G1 X81.729 Y65.172 E7.60645
G1 X85.271 Y61.630 E7.70311
G1 X85.271 Y61.994 E7.71014
G1 X81.729 Y65.537 E7.80680
G1 X81.729 Y65.901 E7.81383
G1 X85.271 Y62.359 E7.91049
G1 X85.271 Y62.724 E7.91753
G1 X81.729 Y66.266 E8.01419
G1 X81.729 Y66.631 E8.02122
G1 X85.271 Y63.088 E8.11788
G1 X85.271 Y63.453 E8.12491
G1 X81.729 Y66.995 E8.22157
G1 X81.729 Y67.360 E8.22861
G1 X85.271 Y63.817 E8.32526
G1 X85.271 Y64.182 E8.33230
G1 X81.729 Y67.724 E8.42896
G1 X81.729 Y68.089 E8.43599
G1 X85.271 Y64.547 E8.53265
G1 X85.271 Y64.911 E8.53968
G1 X81.729 Y68.454 E8.63634
G1 X81.729 Y68.818 E8.64338
G1 X85.271 Y65.276 E8.74004
G1 X85.271 Y65.641 E8.74707
G1 X81.729 Y69.183 E8.84373
G1 X81.729 Y69.547 E8.85076
G1 X85.271 Y66.005 E8.94742
G1 X85.271 Y66.370 E8.95446
G1 X81.729 Y69.912 E9.05111
G1 X81.729 Y70.277 E9.05815
G1 X85.271 Y66.734 E9.15481
G1 X85.271 Y67.099 E9.16184
G1 X81.729 Y70.641 E9.25850
G1 X81.729 Y71.006 E9.26553
G1 X85.271 Y67.464 E9.36219
G1 X85.271 Y67.828 E9.36923
G1 X81.729 Y71.371 E9.46588
G1 X81.729 Y71.735 E9.47292
G1 X85.271 Y68.193 E9.56958
G1 X85.271 Y68.558 E9.57661
G1 X81.729 Y72.100 E9.67327
G1 X81.729 Y72.464 E9.68031
G1 X85.271 Y68.922 E9.77696
G1 X85.271 Y69.287 E9.78400
G1 X81.729 Y72.829 E9.88066
G1 X81.729 Y73.194 E9.88769
G1 X85.271 Y69.651 E9.98435
G1 X85.271 Y70.016 E9.99138
G1 X78.349 Y76.938 E10.18026
G1 X78.714 Y76.938 E10.18729
G1 X85.271 Y70.381 E10.36622
G1 X85.271 Y70.745 E10.37325
G1 X79.079 Y76.938 E10.54223
G1 X79.443 Y76.938 E10.54926
G1 X85.271 Y71.110 E10.70829
G1 X85.271 Y71.475 E10.71532
G1 X79.808 Y76.938 E10.86440
G1 X80.172 Y76.938 E10.87143
G1 X85.271 Y71.839 E11.01056
G1 X85.271 Y72.204 E11.01760
G1 X80.537 Y76.938 E11.14677
G1 X80.902 Y76.938 E11.15381
G1 X85.271 Y72.568 E11.27304
G1 X85.271 Y72.933 E11.28007
G1 X81.266 Y76.938 E11.38935
G1 X81.631 Y76.938 E11.39639
G1 X85.507 Y73.062 E11.50214
G1 X85.871 Y73.062 E11.50918
G1 X81.729 Y77.205 E11.62221
G1 X81.729 Y77.569 E11.62924
G1 X86.236 Y73.062 E11.75223
G1 X86.600 Y73.062 E11.75926
G1 X81.729 Y77.934 E11.89219
G1 X81.729 Y78.298 E11.89923
G1 X86.965 Y73.062 E12.04211
G1 X87.330 Y73.062 E12.04914
G1 X81.729 Y78.663 E12.20197
G1 X81.729 Y79.028 E12.20901
G1 X87.694 Y73.062 E12.37179
G1 X88.059 Y73.062 E12.37882
G1 X81.729 Y79.392 E12.55155
G1 X81.729 Y79.757 E12.55859
G1 X88.424 Y73.062 E12.74126
G1 X88.788 Y73.062 E12.74830
G1 X81.729 Y80.122 E12.94092
G1 X81.729 Y80.486 E12.94796
G1 X85.271 Y76.944 E13.04462
G1 X85.271 Y77.308 E13.05165
G1 X81.729 Y80.851 E13.14831
G1 X81.729 Y81.215 E13.15535
G1 X85.271 Y77.673 E13.25200
G1 X85.271 Y78.038 E13.25904
G1 X81.729 Y81.580 E13.35570
G1 X81.729 Y81.945 E13.36273
G1 X85.271 Y78.402 E13.45939
G1 X85.271 Y78.767 E13.46642
G1 X81.729 Y82.309 E13.56308
G1 X81.729 Y82.674 E13.57012
G1 X85.271 Y79.132 E13.66677
G1 X85.271 Y79.496 E13.67381
G1 X81.729 Y83.039 E13.77047
G1 X81.729 Y83.403 E13.77750
G1 X85.271 Y79.861 E13.87416
G1 X85.271 Y80.225 E13.88120
G1 X81.729 Y83.768 E13.97785
G1 X81.729 Y84.132 E13.98489
G1 X85.271 Y80.590 E14.08155
G1 X85.271 Y80.955 E14.08858
G1 X81.729 Y84.497 E14.18524
G1 X81.729 Y84.862 E14.19227
G1 X85.271 Y81.319 E14.28893
G1 X85.271 Y81.684 E14.29597
G1 X81.729 Y85.226 E14.39262
G1 X81.729 Y85.591 E14.39966
G1 X85.271 Y82.049 E14.49632
G1 X85.271 Y82.413 E14.50335
G1 X81.729 Y85.955 E14.60001
G1 X81.729 Y86.320 E14.60705
G1 X85.271 Y82.778 E14.70370
G1 X85.271 Y83.142 E14.71074
G1 X81.729 Y86.685 E14.80740
G1 X81.729 Y87.049 E14.81443
G1 X85.271 Y83.507 E14.91109
G1 X85.271 Y83.872 E14.91812
G1 X81.729 Y87.414 E15.01478
G1 X81.729 Y87.779 E15.02182
G1 X85.271 Y84.236 E15.11847
G1 X85.271 Y84.601 E15.12551
G1 X81.729 Y88.143 E15.22217
G1 X81.729 Y88.508 E15.22920
G1 X85.271 Y84.966 E15.32586
G1 X85.271 Y85.330 E15.33289
G1 X81.729 Y88.872 E15.42955
G1 X81.729 Y89.237 E15.43659
G1 X85.271 Y85.695 E15.53325
G1 X85.271 Y86.059 E15.54028
G1 X81.729 Y89.602 E15.63694
G1 X81.729 Y89.966 E15.64397
G1 X85.271 Y86.424 E15.74063
G1 X85.271 Y86.789 E15.74767
G1 X81.729 Y90.331 E15.84432
G1 X81.729 Y90.696 E15.85136
G1 X85.271 Y87.153 E15.94802
G1 X85.271 Y87.518 E15.95505
G1 X81.729 Y91.060 E16.05171
G1 X81.729 Y91.425 E16.05874
G1 X85.271 Y87.883 E16.15540
G1 X85.271 Y88.247 E16.16244
G1 X81.729 Y91.789 E16.25910
G1 X81.729 Y92.154 E16.26613
G1 X85.271 Y88.612 E16.36279
G1 X85.271 Y88.976 E16.36982
G1 X81.729 Y92.519 E16.46648
G1 X81.729 Y92.883 E16.47352
G1 X85.271 Y89.341 E16.57017
G1 X85.271 Y89.706 E16.57721
G1 X81.729 Y93.248 E16.67387
G1 X81.729 Y93.613 E16.68090
G1 X85.271 Y90.070 E16.77756
G1 X85.271 Y90.435 E16.78459
G1 X81.729 Y93.977 E16.88125
G1 X81.729 Y94.342 E16.88829
G1 X85.271 Y90.799 E16.98494
G1 X85.271 Y91.164 E16.99198
G1 X81.729 Y94.706 E17.08864
G1 X81.729 Y95.071 E17.09567
G1 X85.271 Y91.529 E17.19233
G1 X85.271 Y91.893 E17.19937
G1 X81.729 Y95.436 E17.29602
G1 X81.729 Y95.800 E17.30306
G1 X85.271 Y92.258 E17.39972
G1 X85.271 Y92.623 E17.40675
G1 X81.729 Y96.165 E17.50341
G1 X81.729 Y96.530 E17.51044
G1 X85.271 Y92.987 E17.60710
G1 X85.271 Y93.352 E17.61414
G1 X81.729 Y96.894 E17.71079
G1 X81.729 Y97.259 E17.71783
G1 X85.271 Y93.716 E17.81449
G1 X85.271 Y94.081 E17.82152
G1 X81.729 Y97.623 E17.91818
G1 X81.729 Y97.988 E17.92522
G1 X85.271 Y94.446 E18.02187
G1 X85.271 Y94.810 E18.02891
G1 X81.729 Y98.353 E18.12557
G1 X81.729 Y98.717 E18.13260
G1 X85.271 Y95.175 E18.22926
G1 X85.271 Y95.540 E18.23629
G1 X81.729 Y99.082 E18.33295
G1 X81.729 Y99.447 E18.33999
G1 X85.271 Y95.904 E18.43664
G1 X85.271 Y96.269 E18.44368
G1 X81.729 Y99.811 E18.54034
G1 X81.729 Y100.176 E18.54737
G1 X85.271 Y96.633 E18.64403
G1 X85.271 Y96.998 E18.65107
G1 X81.729 Y100.540 E18.74772
G1 X81.729 Y100.905 E18.75476
G1 X85.271 Y97.363 E18.85142
G1 X85.271 Y97.727 E18.85845
G1 X81.729 Y101.270 E18.95511
G1 X81.729 Y101.634 E18.96214
G1 X85.271 Y98.092 E19.05880
G1 X85.271 Y98.457 E19.06584
G1 X81.729 Y101.999 E19.16249
G1 X81.729 Y102.363 E19.16953
G1 X85.271 Y98.821 E19.26619
G1 X85.271 Y99.186 E19.27322
G1 X81.729 Y102.728 E19.36988
G1 X81.729 Y103.093 E19.37691
G1 X85.271 Y99.550 E19.47357
G1 X85.271 Y99.915 E19.48061
G1 X81.729 Y103.457 E19.57727
G1 X81.729 Y103.822 E19.58430
G1 X85.271 Y100.280 E19.68096
G1 X85.271 Y100.644 E19.68799
G1 X81.729 Y104.187 E19.78465
G1 X81.729 Y104.551 E19.79169
G1 X85.271 Y101.009 E19.88834
G1 X85.271 Y101.374 E19.89538
G1 X81.729 Y104.916 E19.99204
G1 X81.729 Y105.280 E19.99907
G1 X85.271 Y101.738 E20.09573
G1 X85.271 Y102.103 E20.10276
G1 X81.729 Y105.645 E20.19942
G1 X81.729 Y106.010 E20.20646
G1 X85.271 Y102.467 E20.30312
G1 X85.271 Y102.832 E20.31015
G1 X81.729 Y106.374 E20.40681
G1 X81.729 Y106.739 E20.41384
G1 X85.271 Y103.197 E20.51050
G1 X85.271 Y103.561 E20.51754
