; generated by Slic3r 1.3.1-dev (Build (Unknown revision)) on 2020-07-24 at 15:55:05

; external perimeters extrusion width = 0.44mm (2.86mm^3/s)
; perimeters extrusion width = 0.56mm (4.14mm^3/s)
; infill extrusion width = 0.50mm (5.48mm^3/s)
; solid infill extrusion width = 0.56mm (3.10mm^3/s)
; top infill extrusion width = 0.45mm (2.44mm^3/s)

M107
G92 E0
;D3D:START:START
T0
M104 S215 T0

G21
G90
M107
T0
G28
G29
M109 T0 S215 T0
G0 F3000
M107
T0
G92 E0
G0 X0 Y149 Z0.1 F3600
G1 Y49 E6.5 F1200
G0 Z1
G92 E0
; Filament gcode

G21 ; set units to millimeters
G90 ; use absolute coordinates
M82 ; use absolute distances for extrusion
G92 E0
G1 Z0.200 F6000.000
G1 E-2.00000 F1200.00000
G92 E0
G1 X66.229 Y60.381 F6000.000
G1 E2.00000 F1200.00000
G1 F1800.000
G1 X68.168 Y58.866 E2.04734
G1 X69.024 Y58.526 E2.06507
G1 X69.799 Y58.265 E2.08080
G1 X71.137 Y57.907 E2.10744
G1 X72.217 Y57.698 E2.12861
G1 X73.027 Y57.587 E2.14433
G1 X74.408 Y57.485 E2.17098
G1 X75.509 Y57.483 E2.19215
G1 X76.608 Y57.549 E2.21334
G1 X77.420 Y57.643 E2.22906
G1 X78.505 Y57.829 E2.25024
G1 X79.849 Y58.160 E2.27687
G1 X80.629 Y58.404 E2.29260
G1 X81.660 Y58.790 E2.31378
G1 X82.919 Y59.367 E2.34042
G1 X83.640 Y59.753 E2.35615
G1 X84.579 Y60.325 E2.37731
G1 X85.708 Y61.127 E2.40395
G1 X86.558 Y61.827 E2.42513
G1 X87.362 Y62.579 E2.44631
G1 X87.804 Y63.039 E2.45859
G1 X88.797 Y64.647 E2.49495
G1 X88.961 Y67.102 E2.54229
G1 X84.542 Y87.893 E2.95122
G1 X83.771 Y89.619 E2.98757
G1 X81.832 Y91.134 E3.03491
G1 X80.976 Y91.474 E3.05265
G1 X80.201 Y91.735 E3.06837
G1 X78.863 Y92.093 E3.09501
G1 X78.062 Y92.255 E3.11074
G1 X76.973 Y92.413 E3.13191
G1 X75.875 Y92.503 E3.15310
G1 X74.491 Y92.517 E3.17972
G1 X73.392 Y92.451 E3.20091
G1 X72.580 Y92.357 E3.21664
G1 X71.495 Y92.171 E3.23781
G1 X70.151 Y91.840 E3.26444
G1 X69.103 Y91.503 E3.28563
G1 X68.340 Y91.210 E3.30136
G1 X67.336 Y90.760 E3.32253
G1 X66.115 Y90.105 E3.34916
G1 X65.421 Y89.675 E3.36489
G1 X64.518 Y89.044 E3.38607
G1 X63.442 Y88.173 E3.41271
G1 X62.840 Y87.620 E3.42843
G1 X62.196 Y86.961 E3.44616
G1 X61.203 Y85.353 E3.48252
G1 X61.039 Y82.898 E3.52986
G1 X65.458 Y62.107 E3.93879
G1 X66.205 Y60.436 E3.97399
G1 X66.469 Y60.490 F6000.000
G1 F1800.000
G1 X68.265 Y59.104 E4.01764
G1 X69.106 Y58.769 E4.03507
G1 X70.138 Y58.431 E4.05594
G1 X70.927 Y58.220 E4.07167
G1 X71.989 Y57.997 E4.09254
G1 X73.328 Y57.814 E4.11855
G1 X74.143 Y57.754 E4.13427
G1 X75.228 Y57.734 E4.15515
G1 X76.578 Y57.805 E4.18116
G1 X77.390 Y57.899 E4.19688
G1 X78.459 Y58.082 E4.21775
G1 X79.772 Y58.405 E4.24376
G1 X80.552 Y58.649 E4.25948
G1 X81.568 Y59.030 E4.28036
G1 X82.798 Y59.593 E4.30637
G1 X83.518 Y59.980 E4.32210
G1 X84.444 Y60.544 E4.34296
G1 X85.546 Y61.327 E4.36898
G1 X86.384 Y62.016 E4.38984
G1 X87.177 Y62.757 E4.41071
G1 X87.618 Y63.217 E4.42299
G1 X88.573 Y64.784 E4.45829
G1 X88.710 Y67.049 E4.50194
G1 X84.291 Y87.840 E4.91087
G1 X83.531 Y89.510 E4.94616
G1 X81.735 Y90.896 E4.98981
G1 X80.894 Y91.231 E5.00724
G1 X80.119 Y91.491 E5.02296
G1 X78.813 Y91.841 E5.04898
G1 X77.748 Y92.047 E5.06984
G1 X76.938 Y92.158 E5.08556
G1 X75.857 Y92.246 E5.10644
G1 X74.505 Y92.260 E5.13245
G1 X73.422 Y92.195 E5.15332
G1 X72.610 Y92.101 E5.16905
G1 X71.541 Y91.918 E5.18991
G1 X70.228 Y91.595 E5.21593
G1 X69.195 Y91.263 E5.23680
G1 X68.432 Y90.970 E5.25253
G1 X67.443 Y90.526 E5.27339
G1 X66.251 Y89.887 E5.29940
G1 X65.556 Y89.456 E5.31513
G1 X64.667 Y88.835 E5.33600
G1 X63.616 Y87.984 E5.36201
G1 X63.014 Y87.430 E5.37774
G1 X62.382 Y86.783 E5.39516
G1 X61.427 Y85.216 E5.43045
G1 X61.290 Y82.951 E5.47411
G1 X65.709 Y62.160 E5.88303
G1 X66.444 Y60.545 E5.91718
G1 E3.91718 F1200.00000
G92 E0
G1 X75.076 Y85.037 F6000.000
G1 E2.00000 F1200.00000
G1 F1800.000
G1 X74.629 Y85.590 E2.01368
G1 X74.032 Y85.977 E2.02736
G1 X73.346 Y86.161 E2.04103
G1 X72.636 Y86.124 E2.05471
G1 X71.972 Y85.869 E2.06839
G1 X71.419 Y85.422 E2.08207
G1 X71.032 Y84.825 E2.09575
G1 X70.848 Y84.139 E2.10943
G1 X70.885 Y83.429 E2.12310
G1 X71.140 Y82.765 E2.13678
G1 X71.587 Y82.212 E2.15046
G1 X72.184 Y81.825 E2.16414
G1 X72.870 Y81.641 E2.17782
G1 X73.580 Y81.678 E2.19150
G1 X74.244 Y81.933 E2.20517
G1 X74.797 Y82.381 E2.21885
G1 X75.184 Y82.977 E2.23253
G1 X75.368 Y83.664 E2.24621
G1 X75.331 Y84.374 E2.25989
G1 X75.097 Y84.981 E2.27241
G1 X74.851 Y84.907 F6000.000
G1 F1800.000
G1 X74.454 Y85.396 E2.28452
G1 X73.926 Y85.739 E2.29663
G1 X73.318 Y85.902 E2.30874
G1 X72.690 Y85.869 E2.32086
G1 X72.102 Y85.644 E2.33297
G1 X71.613 Y85.248 E2.34508
G1 X71.270 Y84.720 E2.35719
G1 X71.107 Y84.111 E2.36930
G1 X71.140 Y83.483 E2.38141
G1 X71.365 Y82.895 E2.39353
G1 X71.762 Y82.406 E2.40564
G1 X72.290 Y82.063 E2.41775
G1 X72.898 Y81.900 E2.42986
G1 X73.526 Y81.933 E2.44197
G1 X74.114 Y82.159 E2.45408
G1 X74.603 Y82.555 E2.46619
G1 X74.946 Y83.083 E2.47831
G1 X75.109 Y83.691 E2.49042
G1 X75.076 Y84.319 E2.50253
G1 X74.872 Y84.851 E2.51349
G1 X74.625 Y84.777 F6000.000
G1 F1800.000
G1 X74.280 Y85.203 E2.52403
G1 X73.821 Y85.502 E2.53458
G1 X73.291 Y85.643 E2.54512
G1 X72.744 Y85.615 E2.55567
G1 X72.232 Y85.418 E2.56621
G1 X71.806 Y85.073 E2.57675
G1 X71.508 Y84.614 E2.58730
G1 X71.366 Y84.084 E2.59784
G1 X71.394 Y83.537 E2.60839
G1 X71.591 Y83.025 E2.61893
G1 X71.936 Y82.599 E2.62948
G1 X72.395 Y82.301 E2.64002
G1 X72.925 Y82.159 E2.65057
G1 X73.472 Y82.188 E2.66111
G1 X73.984 Y82.384 E2.67166
G1 X74.410 Y82.729 E2.68220
G1 X74.708 Y83.189 E2.69275
G1 X74.850 Y83.718 E2.70329
G1 X74.822 Y84.265 E2.71384
G1 X74.647 Y84.721 E2.72323
G1 X74.825 Y85.123 F6000.000
G1 E0.72323 F1200.00000
G92 E0
G1 X75.238 Y77.260 F6000.000
G1 E2.00000 F1200.00000
G1 F1800.000
G1 X74.528 Y77.223 E2.01368
G1 X73.864 Y76.968 E2.02736
G1 X73.311 Y76.521 E2.04103
G1 X72.924 Y75.924 E2.05471
G1 X72.740 Y75.238 E2.06839
G1 X72.777 Y74.528 E2.08207
G1 X73.032 Y73.864 E2.09575
G1 X73.479 Y73.311 E2.10943
G1 X74.076 Y72.924 E2.12310
G1 X74.762 Y72.740 E2.13678
G1 X75.472 Y72.777 E2.15046
G1 X76.136 Y73.032 E2.16414
G1 X76.689 Y73.479 E2.17782
G1 X77.076 Y74.076 E2.19149
G1 X77.260 Y74.762 E2.20517
G1 X77.223 Y75.472 E2.21885
G1 X76.968 Y76.136 E2.23253
G1 X76.521 Y76.689 E2.24621
G1 X75.924 Y77.076 E2.25989
G1 X75.295 Y77.244 E2.27241
G1 X75.210 Y77.001 F6000.000
G1 F1800.000
G1 X74.582 Y76.968 E2.28452
G1 X73.994 Y76.743 E2.29663
G1 X73.505 Y76.346 E2.30874
G1 X73.162 Y75.818 E2.32086
G1 X72.999 Y75.210 E2.33297
G1 X73.032 Y74.582 E2.34508
G1 X73.257 Y73.994 E2.35719
G1 X73.654 Y73.505 E2.36930
G1 X74.182 Y73.162 E2.38141
G1 X74.790 Y72.999 E2.39352
G1 X75.418 Y73.032 E2.40564
G1 X76.006 Y73.257 E2.41775
G1 X76.495 Y73.654 E2.42986
G1 X76.838 Y74.182 E2.44197
G1 X77.001 Y74.790 E2.45408
G1 X76.968 Y75.418 E2.46619
G1 X76.743 Y76.006 E2.47830
G1 X76.346 Y76.495 E2.49042
G1 X75.818 Y76.838 E2.50253
G1 X75.268 Y76.986 E2.51348
G1 X75.183 Y76.742 F6000.000
G1 F1800.000
G1 X74.636 Y76.714 E2.52403
G1 X74.124 Y76.517 E2.53457
G1 X73.698 Y76.172 E2.54512
G1 X73.400 Y75.713 E2.55566
G1 X73.258 Y75.183 E2.56621
G1 X73.286 Y74.636 E2.57675
G1 X73.483 Y74.124 E2.58730
G1 X73.828 Y73.698 E2.59784
G1 X74.287 Y73.400 E2.60839
G1 X74.817 Y73.258 E2.61893
G1 X75.364 Y73.286 E2.62948
G1 X75.876 Y73.483 E2.64002
G1 X76.302 Y73.828 E2.65057
G1 X76.600 Y74.287 E2.66111
G1 X76.742 Y74.817 E2.67166
G1 X76.714 Y75.364 E2.68220
G1 X76.517 Y75.876 E2.69275
G1 X76.172 Y76.302 E2.70329
G1 X75.713 Y76.600 E2.71384
G1 X75.241 Y76.727 E2.72323
G1 X75.020 Y77.108 F6000.000
G1 E0.72323 F1200.00000
G92 E0
G1 X76.420 Y68.322 F6000.000
G1 E2.00000 F1200.00000
G1 F1800.000
G1 X75.756 Y68.067 E2.01368
G1 X75.203 Y67.619 E2.02736
G1 X74.816 Y67.023 E2.04103
G1 X74.632 Y66.336 E2.05471
G1 X74.669 Y65.626 E2.06839
G1 X74.924 Y64.963 E2.08207
G1 X75.371 Y64.410 E2.09575
G1 X75.968 Y64.023 E2.10943
G1 X76.654 Y63.839 E2.12310
G1 X77.364 Y63.876 E2.13678
G1 X78.028 Y64.131 E2.15046
G1 X78.581 Y64.578 E2.16414
G1 X78.968 Y65.175 E2.17782
G1 X79.152 Y65.861 E2.19150
G1 X79.115 Y66.571 E2.20517
G1 X78.860 Y67.235 E2.21885
G1 X78.413 Y67.788 E2.23253
G1 X77.816 Y68.175 E2.24621
G1 X77.130 Y68.359 E2.25989
G1 X76.479 Y68.325 E2.27241
G1 X76.474 Y68.067 F6000.000
G1 F1800.000
G1 X75.886 Y67.841 E2.28452
G1 X75.397 Y67.445 E2.29663
G1 X75.054 Y66.917 E2.30874
G1 X74.891 Y66.309 E2.32086
G1 X74.924 Y65.681 E2.33297
G1 X75.149 Y65.093 E2.34508
G1 X75.546 Y64.603 E2.35719
G1 X76.074 Y64.261 E2.36930
G1 X76.682 Y64.098 E2.38141
G1 X77.310 Y64.131 E2.39353
G1 X77.898 Y64.356 E2.40564
G1 X78.387 Y64.752 E2.41775
G1 X78.730 Y65.280 E2.42986
G1 X78.893 Y65.889 E2.44197
G1 X78.860 Y66.517 E2.45408
G1 X78.635 Y67.105 E2.46619
G1 X78.238 Y67.594 E2.47831
G1 X77.710 Y67.937 E2.49042
G1 X77.102 Y68.100 E2.50253
G1 X76.534 Y68.070 E2.51349
G1 X76.528 Y67.812 F6000.000
G1 F1800.000
G1 X76.016 Y67.616 E2.52403
G1 X75.590 Y67.271 E2.53458
G1 X75.292 Y66.811 E2.54512
G1 X75.150 Y66.282 E2.55567
G1 X75.178 Y65.735 E2.56621
G1 X75.375 Y65.223 E2.57675
G1 X75.720 Y64.797 E2.58730
G1 X76.179 Y64.498 E2.59784
G1 X76.709 Y64.357 E2.60839
G1 X77.256 Y64.385 E2.61893
G1 X77.768 Y64.582 E2.62948
G1 X78.194 Y64.927 E2.64002
G1 X78.492 Y65.386 E2.65057
G1 X78.634 Y65.916 E2.66111
G1 X78.606 Y66.463 E2.67166
G1 X78.409 Y66.975 E2.68220
G1 X78.064 Y67.401 E2.69275
G1 X77.605 Y67.699 E2.70329
G1 X77.075 Y67.841 E2.71384
G1 X76.588 Y67.816 E2.72323
G1 X76.260 Y68.110 F6000.000
G1 E0.72323 F1200.00000
G92 E0
G1 X83.823 Y66.370 F6000.000
G1 E2.00000 F1200.00000
G1 F1800.000
G1 X79.550 Y86.473 E2.39540
G1 X78.569 Y86.821 E2.41542
G1 X77.820 Y87.021 E2.43034
G1 X77.059 Y87.175 E2.44527
G1 X76.291 Y87.280 E2.46019
G1 X75.517 Y87.337 E2.47511
G1 X74.741 Y87.345 E2.49004
G1 X73.967 Y87.304 E2.50496
G1 X73.196 Y87.215 E2.51988
G1 X72.433 Y87.078 E2.53481
G1 X71.679 Y86.893 E2.54973
G1 X70.939 Y86.661 E2.56465
G1 X70.215 Y86.383 E2.57958
G1 X69.510 Y86.060 E2.59450
G1 X68.826 Y85.693 E2.60942
G1 X68.167 Y85.285 E2.62435
G1 X67.535 Y84.835 E2.63927
G1 X66.932 Y84.347 E2.65419
G1 X66.361 Y83.822 E2.66912
G1 X66.177 Y83.630 E2.67423
G1 X70.450 Y63.527 E3.06962
G1 X71.431 Y63.179 E3.08965
G1 X72.180 Y62.979 E3.10457
G1 X72.941 Y62.825 E3.11950
G1 X73.709 Y62.720 E3.13442
G1 X74.483 Y62.663 E3.14934
G1 X75.259 Y62.655 E3.16427
G1 X76.033 Y62.696 E3.17919
G1 X76.804 Y62.785 E3.19411
G1 X77.567 Y62.922 E3.20904
G1 X78.321 Y63.107 E3.22396
G1 X79.061 Y63.339 E3.23888
G1 X79.785 Y63.617 E3.25381
G1 X80.490 Y63.940 E3.26873
G1 X81.174 Y64.307 E3.28365
G1 X81.833 Y64.715 E3.29858
G1 X82.465 Y65.165 E3.31350
G1 X83.068 Y65.653 E3.32842
G1 X83.781 Y66.326 E3.34729
G1 X84.103 Y66.290 F6000.000
G1 F1800.000
G1 X79.773 Y86.659 E3.74793
G1 X79.394 Y86.814 E3.75581
G1 X78.643 Y87.067 E3.77105
G1 X77.878 Y87.272 E3.78628
G1 X77.102 Y87.428 E3.80151
G1 X76.318 Y87.536 E3.81675
G1 X75.528 Y87.594 E3.83198
G1 X74.736 Y87.602 E3.84722
G1 X73.945 Y87.561 E3.86245
G1 X73.159 Y87.470 E3.87769
G1 X72.379 Y87.329 E3.89292
G1 X71.610 Y87.140 E3.90815
G1 X70.855 Y86.904 E3.92339
G1 X70.115 Y86.620 E3.93862
G1 X69.395 Y86.290 E3.95386
G1 X68.698 Y85.916 E3.96909
G1 X68.025 Y85.499 E3.98432
G1 X67.379 Y85.040 E3.99956
G1 X66.764 Y84.542 E4.01479
G1 X66.181 Y84.006 E4.03003
G1 X65.897 Y83.710 E4.03791
G1 X70.227 Y63.341 E4.43854
G1 X70.606 Y63.186 E4.44643
G1 X71.357 Y62.933 E4.46166
G1 X72.122 Y62.728 E4.47690
G1 X72.898 Y62.572 E4.49213
G1 X73.682 Y62.464 E4.50736
G1 X74.472 Y62.406 E4.52260
G1 X75.264 Y62.398 E4.53783
G1 X76.055 Y62.439 E4.55307
G1 X76.841 Y62.530 E4.56830
G1 X77.621 Y62.671 E4.58354
G1 X78.390 Y62.860 E4.59877
G1 X79.145 Y63.096 E4.61400
G1 X79.885 Y63.380 E4.62924
G1 X80.605 Y63.710 E4.64447
G1 X81.302 Y64.084 E4.65971
G1 X81.975 Y64.501 E4.67494
G1 X82.621 Y64.960 E4.69017
G1 X83.236 Y65.458 E4.70541
G1 X83.819 Y65.994 E4.72064
G1 X84.061 Y66.247 E4.72737
G1 E2.72737 F1200.00000
G92 E0
G1 X70.004 Y63.154 F6000.000
G1 E2.00000 F1200.00000
G1 F1800.000
G1 X70.517 Y62.945 E2.01066
G1 X71.282 Y62.687 E2.02620
G1 X72.063 Y62.478 E2.04175
G1 X72.855 Y62.318 E2.05729
G1 X73.656 Y62.208 E2.07284
G1 X74.461 Y62.149 E2.08838
G1 X75.269 Y62.141 E2.10393
G1 X76.076 Y62.183 E2.11947
G1 X76.879 Y62.276 E2.13502
G1 X77.674 Y62.419 E2.15056
G1 X78.459 Y62.612 E2.16611
G1 X79.230 Y62.853 E2.18165
G1 X79.984 Y63.143 E2.19720
G1 X80.719 Y63.479 E2.21274
G1 X81.431 Y63.861 E2.22829
G1 X82.118 Y64.287 E2.24383
G1 X82.776 Y64.755 E2.25938
G1 X83.404 Y65.264 E2.27492
G1 X83.999 Y65.810 E2.29047
G1 X84.383 Y66.210 E2.30113
G1 X79.996 Y86.846 E2.70700
G1 X79.483 Y87.055 E2.71766
G1 X78.718 Y87.313 E2.73320
G1 X77.937 Y87.522 E2.74875
G1 X77.145 Y87.682 E2.76429
G1 X76.344 Y87.792 E2.77984
G1 X75.539 Y87.851 E2.79538
G1 X74.731 Y87.859 E2.81093
G1 X73.924 Y87.817 E2.82647
G1 X73.121 Y87.724 E2.84202
G1 X72.326 Y87.581 E2.85756
G1 X71.541 Y87.388 E2.87311
G1 X70.770 Y87.147 E2.88865
G1 X70.016 Y86.857 E2.90420
G1 X69.281 Y86.521 E2.91974
G1 X68.569 Y86.139 E2.93529
G1 X67.882 Y85.713 E2.95083
G1 X67.224 Y85.245 E2.96637
G1 X66.596 Y84.736 E2.98192
G1 X66.001 Y84.190 E2.99746
G1 X65.617 Y83.790 E3.00812
G1 X69.991 Y63.213 E3.41284
G1 X70.382 Y63.283 F6000.000
G1 X70.563 Y63.830 F6000.000
G1 F1800.000
G1 X70.781 Y63.612 E3.41883
G1 X71.350 Y63.411 E3.43056
G1 X70.463 Y64.297 E3.45492
G1 X70.364 Y64.763 E3.46419
G1 X71.883 Y63.245 E3.50593
G1 X72.381 Y63.113 E3.51594
G1 X70.265 Y65.230 E3.57410
G1 X70.166 Y65.696 E3.58337
G1 X72.841 Y63.021 E3.65689
G1 X73.286 Y62.943 E3.66566
G1 X70.067 Y66.162 E3.75412
G1 X69.968 Y66.629 E3.76338
G1 X73.711 Y62.885 E3.86626
G1 X74.117 Y62.847 E3.87418
G1 X69.869 Y67.095 E3.99092
G1 X69.769 Y67.561 E4.00019
G1 X74.513 Y62.818 E4.13055
G1 X74.890 Y62.808 E4.13787
G1 X69.670 Y68.028 E4.28131
G1 X69.571 Y68.494 E4.29058
G1 X75.261 Y62.804 E4.44694
G1 X75.616 Y62.817 E4.45384
G1 X69.472 Y68.960 E4.62269
G1 X69.373 Y69.427 E4.63195
G1 X75.965 Y62.835 E4.81310
G1 X76.303 Y62.864 E4.81970
G1 X69.274 Y69.893 E5.01286
G1 X69.175 Y70.360 E5.02213
G1 X74.806 Y64.728 E5.17688
G1 X74.577 Y65.324 E5.18928
G1 X69.076 Y70.826 E5.34046
G1 X68.976 Y71.292 E5.34973
G1 X74.508 Y65.761 E5.50174
G1 X74.488 Y66.148 E5.50928
G1 X68.877 Y71.759 E5.66347
G1 X68.778 Y72.225 E5.67273
G1 X74.539 Y66.465 E5.83103
G1 X74.616 Y66.754 E5.83686
G1 X68.679 Y72.691 E6.00001
G1 X68.580 Y73.158 E6.00928
G1 X74.699 Y67.038 E6.17744
G1 X74.844 Y67.261 E6.18260
G1 X68.481 Y73.624 E6.35746
G1 X68.382 Y74.090 E6.36673
G1 X74.988 Y67.484 E6.54828
G1 X75.139 Y67.701 E6.55341
G1 X68.283 Y74.557 E6.74182
G1 X68.183 Y75.023 E6.75109
G1 X75.342 Y67.865 E6.94780
G1 X75.545 Y68.029 E6.95288
G1 X68.084 Y75.489 E7.15789
G1 X67.985 Y75.956 E7.16715
G1 X75.751 Y68.190 E7.38057
G1 X76.017 Y68.291 E7.38610
G1 X67.886 Y76.422 E7.60953
G1 X67.787 Y76.888 E7.61880
G1 X76.282 Y68.393 E7.85225
G1 X76.474 Y68.467 E7.85626
G1 X76.570 Y68.472 E7.85812
G1 X67.688 Y77.355 E8.10222
G1 X67.589 Y77.821 E8.11149
G1 X76.919 Y68.490 E8.36790
G1 X77.269 Y68.508 E8.37471
G1 X67.490 Y78.287 E8.64347
G1 X67.390 Y78.754 E8.65273
G1 X77.771 Y68.373 E8.93800
G1 X78.031 Y68.304 E8.94324
G1 X78.535 Y67.976 E8.95491
G1 X73.448 Y73.063 E9.09471
G1 X73.861 Y72.795 E9.10428
G1 X74.165 Y72.714 E9.11039
G1 X81.951 Y64.928 E9.32436
G1 X82.165 Y65.080 E9.32948
G1 X74.654 Y72.592 E9.53589
G1 X75.003 Y72.610 E9.54268
G1 X82.380 Y65.233 E9.74541
G1 X82.585 Y65.395 E9.75049
G1 X75.352 Y72.628 E9.94926
G1 X75.417 Y72.632 E9.95054
G1 X75.633 Y72.714 E9.95503
G1 X82.788 Y65.559 E10.15165
G1 X82.991 Y65.724 E10.15673
G1 X75.898 Y72.816 E10.35163
G1 X76.162 Y72.920 E10.35714
G1 X83.180 Y65.901 E10.55001
G1 X83.369 Y66.080 E10.55506
G1 X76.365 Y73.084 E10.74753
G1 X76.568 Y73.248 E10.75260
G1 X83.557 Y66.259 E10.94467
G1 X83.651 Y66.348 E10.94717
G1 X83.601 Y66.583 E10.95184
G1 X76.771 Y73.413 E11.13953
G1 X76.916 Y73.635 E11.14468
G1 X83.502 Y67.049 E11.32566
G1 X83.403 Y67.516 E11.33492
G1 X77.061 Y73.857 E11.50920
G1 X77.205 Y74.080 E11.51436
G1 X83.303 Y67.982 E11.68195
G1 X83.204 Y68.448 E11.69122
G1 X77.283 Y74.370 E11.85395
G1 X77.360 Y74.659 E11.85978
G1 X83.105 Y68.915 E12.01765
G1 X83.006 Y69.381 E12.02692
G1 X77.402 Y74.985 E12.18091
G1 X77.382 Y75.372 E12.18845
