; generated by Slic3r 1.3.1-dev (Build (Unknown revision)) on 2020-06-19 at 09:26:03

; external perimeters extrusion width = 0.44mm (2.86mm^3/s)
; perimeters extrusion width = 0.56mm (4.14mm^3/s)
; infill extrusion width = 0.50mm (5.48mm^3/s)
; solid infill extrusion width = 0.56mm (3.10mm^3/s)
; top infill extrusion width = 0.45mm (2.44mm^3/s)

M107
G92 E0
;D3D:START:START
T0
M104 S215 T0

G21
G90
M107
T0
G28
G29
M109 T0 S215 T0
G0 F3000
M107
T0
G92 E0
G0 X0 Y149 Z0.1 F3600
G1 Y49 E6.5 F1200
G0 Z1
G92 E0
; Filament gcode

G21 ; set units to millimeters
G90 ; use absolute coordinates
M82 ; use absolute distances for extrusion
G92 E0
G1 Z0.200 F6000.000
G1 E-2.00000 F1200.00000
G92 E0
G1 X47.203 Y36.764 F6000.000
G1 E2.00000 F1200.00000
G1 F1800.000
G1 X48.489 Y35.379 E2.03636
G1 X50.073 Y34.676 E2.06970
G1 X80.334 Y27.753 E2.66691
G1 X81.482 Y27.508 E2.68949
G1 X82.420 Y27.410 E2.70764
G1 X83.524 Y27.410 E2.72888
G1 X84.462 Y27.508 E2.74703
G1 X85.542 Y27.738 E2.76827
G1 X86.439 Y28.029 E2.78642
G1 X87.448 Y28.478 E2.80766
G1 X88.266 Y28.950 E2.82582
G1 X89.159 Y29.599 E2.84706
G1 X89.860 Y30.231 E2.86521
G1 X90.598 Y31.051 E2.88645
G1 X90.928 Y31.464 E2.89661
G1 X94.047 Y35.870 E3.00048
G1 X94.744 Y37.391 E3.03265
G1 X107.301 Y87.989 E4.03562
G1 X107.434 Y89.076 E4.05669
G1 X107.434 Y104.076 E4.34527
G1 X107.356 Y104.913 E4.36144
G1 X104.716 Y118.913 E4.63552
G1 X103.985 Y120.655 E4.67188
G1 X102.604 Y121.946 E4.70824
G1 X100.280 Y122.590 E4.75464
G1 X74.080 Y122.590 E5.25869
G1 X72.435 Y122.280 E5.29090
G1 X49.435 Y113.280 E5.76606
G1 X47.858 Y112.238 E5.80242
G1 X46.846 Y110.642 E5.83877
G1 X46.596 Y109.599 E5.85941
G1 X42.691 Y76.103 E6.50820
G1 X42.610 Y75.254 E6.52460
G1 X42.568 Y74.218 E6.54455
G1 X42.592 Y73.181 E6.56451
G1 X42.691 Y72.049 E6.58636
G1 X46.596 Y38.553 E7.23514
G1 X47.184 Y36.820 E7.27034
G1 X47.452 Y36.849 F6000.000
G1 F1800.000
G1 X48.726 Y35.529 E7.30564
G1 X50.131 Y34.926 E7.33505
G1 X80.391 Y28.004 E7.93226
G1 X81.535 Y27.760 E7.95477
G1 X82.420 Y27.667 E7.97189
G1 X83.524 Y27.667 E7.99312
G1 X84.409 Y27.760 E8.01025
G1 X85.489 Y27.989 E8.03148
G1 X86.335 Y28.264 E8.04860
G1 X87.343 Y28.713 E8.06983
G1 X88.114 Y29.158 E8.08697
G1 X89.007 Y29.807 E8.10820
G1 X89.669 Y30.403 E8.12532
G1 X90.407 Y31.223 E8.14656
G1 X90.718 Y31.612 E8.15614
G1 X93.837 Y36.019 E8.26001
G1 X94.494 Y37.453 E8.29035
G1 X107.052 Y88.051 E9.29332
G1 X107.177 Y89.076 E9.31319
G1 X107.177 Y104.076 E9.60177
G1 X107.103 Y104.865 E9.61701
G1 X104.463 Y118.865 E9.89110
G1 X103.743 Y120.552 E9.92640
G1 X102.379 Y121.780 E9.96169
G1 X100.280 Y122.333 E10.00346
G1 X74.080 Y122.333 E10.50751
G1 X72.529 Y122.040 E10.53788
G1 X49.529 Y113.040 E11.01304
G1 X48.004 Y112.020 E11.04834
G1 X46.852 Y109.569 E11.10044
G1 X42.946 Y76.073 E11.74922
G1 X42.865 Y75.230 E11.76551
G1 X42.825 Y74.210 E11.78515
G1 X42.849 Y73.189 E11.80481
G1 X42.946 Y72.079 E11.82624
G1 X46.852 Y38.583 E12.47502
G1 X47.432 Y36.906 E12.50916
G1 E10.50916 F1200.00000
G92 E0
G1 X80.382 Y108.915 F6000.000
G1 E2.00000 F1200.00000
G1 F1800.000
G1 X81.016 Y109.238 E2.01368
G1 X81.518 Y109.740 E2.02736
G1 X81.841 Y110.374 E2.04104
G1 X81.952 Y111.076 E2.05471
G1 X81.841 Y111.778 E2.06839
G1 X81.518 Y112.412 E2.08207
G1 X81.016 Y112.915 E2.09575
G1 X80.382 Y113.237 E2.10943
G1 X79.680 Y113.349 E2.12310
G1 X78.978 Y113.237 E2.13678
G1 X78.344 Y112.915 E2.15046
G1 X77.842 Y112.412 E2.16414
G1 X77.519 Y111.778 E2.17782
G1 X77.408 Y111.076 E2.19150
G1 X77.519 Y110.374 E2.20517
G1 X77.842 Y109.740 E2.21885
G1 X78.344 Y109.238 E2.23253
G1 X78.978 Y108.915 E2.24621
G1 X79.680 Y108.804 E2.25989
G1 X80.323 Y108.905 E2.27241
G1 X80.302 Y109.162 F6000.000
G1 F1800.000
G1 X80.863 Y109.448 E2.28452
G1 X81.308 Y109.893 E2.29663
G1 X81.594 Y110.454 E2.30875
G1 X81.692 Y111.076 E2.32086
G1 X81.594 Y111.698 E2.33297
G1 X81.308 Y112.259 E2.34508
G1 X80.863 Y112.704 E2.35719
G1 X80.302 Y112.990 E2.36930
G1 X79.680 Y113.088 E2.38141
G1 X79.058 Y112.990 E2.39352
G1 X78.497 Y112.704 E2.40564
G1 X78.052 Y112.259 E2.41775
G1 X77.766 Y111.698 E2.42986
G1 X77.668 Y111.076 E2.44197
G1 X77.766 Y110.454 E2.45408
G1 X78.052 Y109.893 E2.46620
G1 X78.497 Y109.448 E2.47830
G1 X79.058 Y109.162 E2.49042
G1 X79.680 Y109.064 E2.50253
G1 X80.242 Y109.153 E2.51349
G1 X80.221 Y109.410 F6000.000
G1 F1800.000
G1 X80.710 Y109.659 E2.52403
G1 X81.097 Y110.046 E2.53457
G1 X81.346 Y110.535 E2.54512
G1 X81.432 Y111.076 E2.55567
G1 X81.346 Y111.617 E2.56621
G1 X81.097 Y112.106 E2.57676
G1 X80.710 Y112.493 E2.58730
G1 X80.221 Y112.742 E2.59784
G1 X79.680 Y112.828 E2.60839
G1 X79.139 Y112.742 E2.61893
G1 X78.650 Y112.493 E2.62948
G1 X78.263 Y112.106 E2.64002
G1 X78.014 Y111.617 E2.65057
G1 X77.928 Y111.076 E2.66111
G1 X78.014 Y110.535 E2.67166
G1 X78.263 Y110.046 E2.68220
G1 X78.650 Y109.659 E2.69275
G1 X79.139 Y109.410 E2.70329
G1 X79.680 Y109.324 E2.71384
G1 X80.162 Y109.401 E2.72323
G1 X80.519 Y109.142 F6000.000
G1 E0.72323 F1200.00000
G92 E0
G1 X91.573 Y111.076 F6000.000
G1 E2.00000 F1200.00000
G1 F1800.000
G1 X91.684 Y110.374 E2.01368
G1 X92.007 Y109.740 E2.02736
G1 X92.509 Y109.238 E2.04103
G1 X93.143 Y108.915 E2.05471
G1 X93.845 Y108.804 E2.06839
G1 X94.547 Y108.915 E2.08207
G1 X95.181 Y109.238 E2.09575
G1 X95.683 Y109.740 E2.10942
G1 X96.006 Y110.374 E2.12310
G1 X96.117 Y111.076 E2.13678
G1 X96.006 Y111.778 E2.15046
G1 X95.683 Y112.412 E2.16414
G1 X95.181 Y112.915 E2.17782
G1 X94.547 Y113.237 E2.19150
G1 X93.845 Y113.349 E2.20517
G1 X93.143 Y113.237 E2.21885
G1 X92.509 Y112.915 E2.23253
G1 X92.007 Y112.412 E2.24621
G1 X91.684 Y111.778 E2.25989
G1 X91.582 Y111.135 E2.27241
G1 X91.833 Y111.076 F6000.000
G1 F1800.000
G1 X91.931 Y110.454 E2.28452
G1 X92.217 Y109.893 E2.29663
G1 X92.662 Y109.448 E2.30874
G1 X93.223 Y109.162 E2.32086
G1 X93.845 Y109.064 E2.33297
G1 X94.467 Y109.162 E2.34508
G1 X95.028 Y109.448 E2.35719
G1 X95.473 Y109.893 E2.36930
G1 X95.759 Y110.454 E2.38141
G1 X95.857 Y111.076 E2.39352
G1 X95.759 Y111.698 E2.40564
G1 X95.473 Y112.259 E2.41775
G1 X95.028 Y112.704 E2.42986
G1 X94.467 Y112.990 E2.44197
G1 X93.845 Y113.088 E2.45408
G1 X93.223 Y112.990 E2.46619
G1 X92.662 Y112.704 E2.47831
G1 X92.217 Y112.259 E2.49042
G1 X91.931 Y111.698 E2.50253
G1 X91.842 Y111.135 E2.51349
G1 X92.093 Y111.076 F6000.000
G1 F1800.000
G1 X92.179 Y110.535 E2.52403
G1 X92.428 Y110.046 E2.53458
G1 X92.815 Y109.659 E2.54512
G1 X93.304 Y109.410 E2.55567
G1 X93.845 Y109.324 E2.56621
G1 X94.386 Y109.410 E2.57675
G1 X94.875 Y109.659 E2.58730
G1 X95.262 Y110.046 E2.59784
G1 X95.511 Y110.535 E2.60839
G1 X95.597 Y111.076 E2.61893
G1 X95.511 Y111.617 E2.62948
G1 X95.262 Y112.106 E2.64002
G1 X94.875 Y112.493 E2.65057
G1 X94.386 Y112.742 E2.66111
G1 X93.845 Y112.828 E2.67166
G1 X93.304 Y112.742 E2.68220
G1 X92.815 Y112.493 E2.69275
G1 X92.428 Y112.106 E2.70329
G1 X92.179 Y111.617 E2.71384
G1 X92.103 Y111.135 E2.72323
G1 X91.747 Y110.876 F6000.000
G1 E0.72323 F1200.00000
G92 E0
G1 X99.729 Y117.412 F6000.000
G1 E2.00000 F1200.00000
G1 F1800.000
G1 X74.744 Y117.412 E2.48068
G1 X74.744 Y104.740 E2.72447
G1 X102.119 Y104.740 E3.25112
G1 X99.740 Y117.353 E3.49805
G1 X99.943 Y117.669 F6000.000
G1 F1800.000
G1 X74.487 Y117.669 E3.98778
G1 X74.487 Y104.483 E4.24145
G1 X102.429 Y104.483 E4.77902
G1 X99.954 Y117.610 E5.03601
G1 X100.156 Y117.926 F6000.000
G1 F1800.000
G1 X74.230 Y117.926 E5.53479
G1 X74.230 Y104.226 E5.79835
G1 X102.739 Y104.226 E6.34683
G1 X100.167 Y117.867 E6.61389
G1 X99.761 Y117.862 F6000.000
G1 X99.407 Y117.264 F6000.000
G1 F1800.000
G1 X99.625 Y117.046 E6.61988
G1 X99.711 Y116.594 E6.62881
G1 X99.040 Y117.264 E6.64720
G1 X98.674 Y117.264 E6.65432
G1 X99.796 Y116.142 E6.68512
G1 X99.881 Y115.690 E6.69404
G1 X98.307 Y117.264 E6.73724
G1 X97.940 Y117.264 E6.74436
G1 X99.966 Y115.238 E6.79996
G1 X100.051 Y114.786 E6.80889
G1 X97.573 Y117.264 E6.87689
G1 X97.207 Y117.264 E6.88401
G1 X100.137 Y114.334 E6.96442
G1 X100.222 Y113.882 E6.97334
G1 X96.840 Y117.264 E7.06616
G1 X96.473 Y117.264 E7.07327
G1 X100.307 Y113.430 E7.17849
G1 X100.392 Y112.978 E7.18742
G1 X96.107 Y117.264 E7.30504
G1 X95.740 Y117.264 E7.31215
G1 X100.478 Y112.526 E7.44217
G1 X100.563 Y112.074 E7.45110
G1 X95.373 Y117.264 E7.59353
G1 X95.006 Y117.264 E7.60064
G1 X100.648 Y111.622 E7.75547
G1 X100.733 Y111.170 E7.76440
G1 X94.640 Y117.264 E7.93163
G1 X94.273 Y117.264 E7.93874
G1 X100.819 Y110.718 E8.11838
G1 X100.904 Y110.266 E8.12730
G1 X93.906 Y117.264 E8.31934
G1 X93.539 Y117.264 E8.32646
G1 X100.989 Y109.814 E8.53090
G1 X101.074 Y109.363 E8.53983
G1 X93.173 Y117.264 E8.75667
G1 X92.806 Y117.264 E8.76379
G1 X101.159 Y108.911 E8.99303
G1 X101.245 Y108.459 E9.00196
G1 X92.439 Y117.264 E9.24361
G1 X92.073 Y117.264 E9.25073
G1 X101.330 Y108.007 E9.50478
G1 X101.415 Y107.555 E9.51371
G1 X91.706 Y117.264 E9.78016
G1 X91.339 Y117.264 E9.78728
G1 X101.500 Y107.103 E10.06614
G1 X101.586 Y106.651 E10.07506
G1 X96.016 Y112.220 E10.22791
G1 X96.145 Y111.968 E10.23342
G1 X96.190 Y111.679 E10.23909
G1 X101.671 Y106.199 E10.38949
G1 X101.756 Y105.747 E10.39841
G1 X96.259 Y111.244 E10.54926
G1 X96.269 Y111.185 E10.55041
G1 X96.225 Y110.911 E10.55579
G1 X101.841 Y105.295 E10.70992
G1 X101.918 Y104.888 E10.71795
G1 X101.881 Y104.888 E10.71866
G1 X96.175 Y110.594 E10.87526
G1 X96.145 Y110.403 E10.87903
G1 X96.096 Y110.307 E10.88112
G1 X101.515 Y104.888 E11.02982
G1 X101.148 Y104.888 E11.03694
G1 X95.972 Y110.064 E11.17898
G1 X95.848 Y109.821 E11.18427
G1 X100.781 Y104.888 E11.31964
G1 X100.414 Y104.888 E11.32676
G1 X95.696 Y109.607 E11.45626
G1 X95.512 Y109.424 E11.46129
G1 X100.048 Y104.888 E11.58577
G1 X99.681 Y104.888 E11.59288
G1 X95.329 Y109.240 E11.71232
G1 X95.225 Y109.136 E11.71518
G1 X95.120 Y109.083 E11.71746
G1 X99.314 Y104.888 E11.83258
G1 X98.947 Y104.888 E11.83969
G1 X94.877 Y108.959 E11.95141
G1 X94.634 Y108.835 E11.95670
G1 X98.581 Y104.888 E12.06502
G1 X98.214 Y104.888 E12.07213
G1 X94.352 Y108.750 E12.17812
G1 X94.036 Y108.700 E12.18434
G1 X97.847 Y104.888 E12.28894
G1 X97.481 Y104.888 E12.29606
G1 X93.713 Y108.656 E12.39947
G1 X93.277 Y108.725 E12.40803
G1 X97.114 Y104.888 E12.51333
G1 X96.747 Y104.888 E12.52044
G1 X92.761 Y108.874 E12.62984
G1 X92.247 Y109.136 E12.64103
G1 X91.687 Y109.696 E12.65640
G1 X91.425 Y110.210 E12.66759
G1 X84.371 Y117.264 E12.86117
G1 X84.005 Y117.264 E12.86829
G1 X96.380 Y104.888 E13.20793
G1 X96.014 Y104.888 E13.21504
G1 X83.638 Y117.264 E13.55468
G1 X83.271 Y117.264 E13.56180
G1 X95.647 Y104.888 E13.90143
G1 X95.280 Y104.888 E13.90855
G1 X82.905 Y117.264 E14.24819
G1 X82.538 Y117.264 E14.25530
G1 X94.914 Y104.888 E14.59494
G1 X94.547 Y104.888 E14.60206
G1 X82.171 Y117.264 E14.94169
G1 X81.804 Y117.264 E14.94881
G1 X94.180 Y104.888 E15.28844
G1 X93.813 Y104.888 E15.29556
G1 X81.438 Y117.264 E15.63520
G1 X81.071 Y117.264 E15.64231
G1 X93.447 Y104.888 E15.98195
G1 X93.080 Y104.888 E15.98907
G1 X80.704 Y117.264 E16.32870
G1 X80.337 Y117.264 E16.33582
G1 X92.713 Y104.888 E16.67546
G1 X92.346 Y104.888 E16.68257
G1 X79.971 Y117.264 E17.02221
G1 X79.604 Y117.264 E17.02933
G1 X91.980 Y104.888 E17.36896
G1 X91.613 Y104.888 E17.37608
G1 X79.237 Y117.264 E17.71572
G1 X78.871 Y117.264 E17.72283
G1 X91.246 Y104.888 E18.06247
G1 X90.880 Y104.888 E18.06958
G1 X78.504 Y117.264 E18.40922
G1 X78.137 Y117.264 E18.41634
G1 X90.513 Y104.888 E18.75597
G1 X90.146 Y104.888 E18.76309
G1 X77.770 Y117.264 E19.10273
G1 X77.404 Y117.264 E19.10984
G1 X89.779 Y104.888 E19.44948
G1 X89.413 Y104.888 E19.45660
G1 X77.037 Y117.264 E19.79623
G1 X76.670 Y117.264 E19.80335
G1 X80.556 Y113.378 E19.90999
G1 X80.120 Y113.447 E19.91855
G1 X76.304 Y117.264 E20.02329
G1 X75.937 Y117.264 E20.03041
G1 X79.713 Y113.488 E20.13404
G1 X79.396 Y113.438 E20.14026
G1 X75.570 Y117.264 E20.24528
G1 X75.203 Y117.264 E20.25239
G1 X79.080 Y113.387 E20.35878
G1 X79.006 Y113.376 E20.36022
G1 X78.820 Y113.281 E20.36429
G1 X74.892 Y117.208 E20.47208
G1 X74.892 Y116.842 E20.47919
G1 X78.577 Y113.157 E20.58032
G1 X78.334 Y113.033 E20.58561
G1 X74.892 Y116.475 E20.68007
G1 X74.892 Y116.108 E20.68718
G1 X78.142 Y112.858 E20.77638
G1 X77.959 Y112.675 E20.78142
G1 X74.892 Y115.742 E20.86558
G1 X74.892 Y115.375 E20.87270
G1 X77.776 Y112.491 E20.95183
G1 X77.740 Y112.456 E20.95281
G1 X77.640 Y112.260 E20.95707
G1 X74.892 Y115.008 E21.03249
G1 X74.892 Y114.641 E21.03961
G1 X77.517 Y112.017 E21.11163
G1 X77.393 Y111.774 E21.11693
G1 X74.892 Y114.275 E21.18555
G1 X74.892 Y113.908 E21.19267
G1 X77.335 Y111.465 E21.25971
G1 X77.285 Y111.148 E21.26593
G1 X74.892 Y113.541 E21.33161
G1 X74.892 Y113.174 E21.33872
G1 X77.286 Y110.781 E21.40442
G1 X77.355 Y110.345 E21.41298
G1 X74.892 Y112.808 E21.48056
G1 X74.892 Y112.441 E21.48768
G1 X77.621 Y109.712 E21.56257
G1 E19.56257 F1200.00000
G92 E0
G1 X81.982 Y111.952 F6000.000
G1 E2.00000 F1200.00000
G1 F1800.000
G1 X89.046 Y104.888 E2.19386
G1 X88.679 Y104.888 E2.20097
G1 X82.051 Y111.516 E2.38287
G1 X82.104 Y111.185 E2.38938
G1 X82.092 Y111.109 E2.39087
G1 X88.313 Y104.888 E2.56160
G1 X87.946 Y104.888 E2.56871
G1 X82.041 Y110.793 E2.73075
G1 X81.991 Y110.476 E2.73697
G1 X87.579 Y104.888 E2.89032
G1 X87.212 Y104.888 E2.89744
G1 X81.885 Y110.216 E3.04365
G1 X81.761 Y109.973 E3.04894
G1 X86.846 Y104.888 E3.18849
G1 X86.479 Y104.888 E3.19560
G1 X81.637 Y109.730 E3.32848
G1 X81.462 Y109.538 E3.33352
G1 X86.112 Y104.888 E3.46114
G1 X85.745 Y104.888 E3.46826
G1 X81.279 Y109.355 E3.59085
G1 X81.095 Y109.172 E3.59588
G1 X85.379 Y104.888 E3.71343
G1 X85.012 Y104.888 E3.72055
G1 X80.864 Y109.036 E3.83439
G1 X80.621 Y108.913 E3.83968
G1 X84.645 Y104.888 E3.95013
G1 X84.279 Y104.888 E3.95724
G1 X80.378 Y108.789 E4.06429
G1 X80.069 Y108.731 E4.07039
G1 X83.912 Y104.888 E4.17586
G1 X83.545 Y104.888 E4.18298
G1 X79.752 Y108.681 E4.28707
G1 X79.571 Y108.652 E4.29063
G1 X79.385 Y108.682 E4.29429
G1 X83.178 Y104.888 E4.39841
G1 X82.812 Y104.888 E4.40552
G1 X78.949 Y108.751 E4.51153
G1 X78.788 Y108.776 E4.51469
G1 X78.316 Y109.017 E4.52497
G1 X82.445 Y104.888 E4.63827
G1 X82.078 Y104.888 E4.64539
G1 X74.892 Y112.074 E4.84260
G1 X74.892 Y111.708 E4.84972
G1 X81.712 Y104.888 E5.03687
G1 X81.345 Y104.888 E5.04398
G1 X74.892 Y111.341 E5.22107
G1 X74.892 Y110.974 E5.22819
G1 X80.978 Y104.888 E5.39521
G1 X80.611 Y104.888 E5.40232
G1 X74.892 Y110.607 E5.55928
G1 X74.892 Y110.241 E5.56640
G1 X80.245 Y104.888 E5.71329
G1 X79.878 Y104.888 E5.72040
G1 X74.892 Y109.874 E5.85723
G1 X74.892 Y109.507 E5.86435
G1 X79.511 Y104.888 E5.99111
G1 X79.144 Y104.888 E5.99823
G1 X74.892 Y109.141 E6.11493
G1 X74.892 Y108.774 E6.12204
G1 X78.778 Y104.888 E6.22868
G1 X78.411 Y104.888 E6.23580
G1 X74.892 Y108.407 E6.33237
G1 X74.892 Y108.040 E6.33948
G1 X78.044 Y104.888 E6.42599
G1 X77.678 Y104.888 E6.43311
G1 X74.892 Y107.674 E6.50955
G1 X74.892 Y107.307 E6.51667
G1 X77.311 Y104.888 E6.58304
G1 X76.944 Y104.888 E6.59016
G1 X74.892 Y106.940 E6.64647
G1 X74.892 Y106.573 E6.65359
G1 X76.577 Y104.888 E6.69984
G1 X76.211 Y104.888 E6.70696
G1 X74.892 Y106.207 E6.74314
G1 X74.892 Y105.840 E6.75026
G1 X75.844 Y104.888 E6.77638
G1 X75.477 Y104.888 E6.78349
G1 X74.892 Y105.473 E6.79955
G1 X74.892 Y105.107 E6.80667
G1 X75.110 Y104.888 E6.81266
G1 E4.81266 F1200.00000
G92 E0
G1 X84.371 Y117.264 F6000.000
G1 E2.00000 F1200.00000
G1 F1800.000
G1 X84.738 Y117.264 E2.00712
G1 X91.494 Y110.508 E2.19252
G1 X91.425 Y110.944 E2.20109
G1 X85.105 Y117.264 E2.37454
G1 X85.472 Y117.264 E2.38165
G1 X91.469 Y111.267 E2.54624
G1 X91.519 Y111.583 E2.55246
G1 X85.838 Y117.264 E2.70836
G1 X86.205 Y117.264 E2.71547
G1 X91.604 Y111.865 E2.86364
G1 X91.728 Y112.108 E2.86893
G1 X86.572 Y117.264 E3.01044
G1 X86.938 Y117.264 E3.01755
G1 X91.852 Y112.351 E3.15239
G1 X91.905 Y112.456 E3.15467
G1 X92.009 Y112.560 E3.15753
G1 X87.305 Y117.264 E3.28663
G1 X87.672 Y117.264 E3.29375
G1 X92.193 Y112.743 E3.41781
G1 X92.376 Y112.927 E3.42284
G1 X88.039 Y117.264 E3.54188
G1 X88.405 Y117.264 E3.54899
G1 X92.590 Y113.079 E3.66383
G1 X92.833 Y113.203 E3.66912
G1 X88.772 Y117.264 E3.78056
G1 X89.139 Y117.264 E3.78768
G1 X93.076 Y113.327 E3.89573
G1 X93.171 Y113.376 E3.89781
G1 X93.363 Y113.406 E3.90158
