; generated by Slic3r 1.3.0 on 2021-03-06 at 11:31:20

; external perimeters extrusion width = 0.44mm (2.86mm^3/s)
; perimeters extrusion width = 0.56mm (4.14mm^3/s)
; infill extrusion width = 0.50mm (3.66mm^3/s)
; solid infill extrusion width = 0.56mm (3.10mm^3/s)
; top infill extrusion width = 0.45mm (2.44mm^3/s)

M107
;D3D:START:START
T0
M104 S215 T0

G21
G90
M107
T0
G28
G29
M109 T0 S215 T0
G0 F3000
M107
T0
G92 E0
G0 X0 Y149 Z0.1 F3600
G1 Y49 E6.5 F1200
G0 Z1
G92 E0
; Filament gcode

G21 ; set units to millimeters
G90 ; use absolute coordinates
M82 ; use absolute distances for extrusion
G92 E0
G1 Z0.300 F6000.000
G1 E-2.00000 F1200.00000
G92 E0
G1 Z0.800 F6000.000
G1 X60.342 Y65.992 F6000.000
G1 Z0.300 F6000.000
G1 E2.00000 F1200.00000
G1 F1800
G1 X61.146 Y65.408 E2.04446
G1 X62.371 Y64.701 E2.10774
G1 X63.279 Y64.296 E2.15219
G1 X64.624 Y63.859 E2.21547
G1 X65.592 Y63.654 E2.25970
G1 X67.003 Y63.505 E2.32321
G1 X82.996 Y63.505 E3.03857
G1 X84.404 Y63.653 E3.10189
G1 X85.377 Y63.860 E3.14639
G1 X86.722 Y64.297 E3.20962
G1 X87.629 Y64.701 E3.25404
G1 X88.855 Y65.408 E3.31736
G1 X89.658 Y65.992 E3.36178
G1 X90.711 Y66.939 E3.42511
G1 X91.375 Y67.677 E3.46953
G1 X92.207 Y68.822 E3.53284
G1 X92.703 Y69.682 E3.57725
G1 X93.279 Y70.975 E3.64056
G1 X93.586 Y71.920 E3.68498
G1 X93.880 Y73.305 E3.74831
G1 X93.984 Y74.292 E3.79272
G1 X93.984 Y75.708 E3.85604
G1 X93.880 Y76.695 E3.90046
G1 X93.586 Y78.080 E3.96379
G1 X93.279 Y79.025 E4.00821
G1 X92.703 Y80.318 E4.07151
G1 X92.207 Y81.178 E4.11593
G1 X91.375 Y82.323 E4.17924
G1 X90.711 Y83.061 E4.22365
G1 X89.658 Y84.008 E4.28699
G1 X88.855 Y84.592 E4.33141
G1 X87.629 Y85.299 E4.39473
G1 X86.722 Y85.703 E4.43914
G1 X85.377 Y86.140 E4.50238
G1 X84.404 Y86.347 E4.54688
G1 X82.996 Y86.495 E4.61019
G1 X67.003 Y86.495 E5.32556
G1 X65.596 Y86.347 E5.38888
G1 X64.624 Y86.141 E5.43330
G1 X63.278 Y85.703 E5.49661
G1 X62.371 Y85.299 E5.54103
G1 X61.145 Y84.592 E5.60432
G1 X60.342 Y84.008 E5.64877
G1 X59.290 Y83.062 E5.71204
G1 X58.625 Y82.323 E5.75650
G1 X57.793 Y81.178 E5.81982
G1 X57.297 Y80.318 E5.86424
G1 X56.721 Y79.024 E5.92756
G1 X56.414 Y78.080 E5.97198
G1 X56.120 Y76.697 E6.03522
G1 X56.016 Y75.708 E6.07971
G1 X56.016 Y74.292 E6.14303
G1 X56.120 Y73.304 E6.18747
G1 X56.414 Y71.920 E6.25077
G1 X56.721 Y70.976 E6.29518
G1 X57.297 Y69.682 E6.35850
G1 X57.793 Y68.822 E6.40292
G1 X58.625 Y67.677 E6.46624
G1 X59.290 Y66.938 E6.51070
G1 X60.297 Y66.032 E6.57129
G1 X60.568 Y66.304 F6000.000
G1 F1800
G1 X61.372 Y65.720 E6.61575
G1 X62.528 Y65.053 E6.67542
G1 X63.436 Y64.649 E6.71987
G1 X64.705 Y64.236 E6.77955
G1 X65.672 Y64.031 E6.82378
G1 X67.003 Y63.890 E6.88368
G1 X82.996 Y63.890 E7.59905
G1 X84.324 Y64.030 E7.65876
G1 X85.297 Y64.237 E7.70325
G1 X86.565 Y64.649 E7.76288
G1 X87.472 Y65.053 E7.80730
G1 X88.628 Y65.720 E7.86701
G1 X89.432 Y66.304 E7.91143
G1 X90.424 Y67.197 E7.97116
G1 X91.088 Y67.935 E8.01558
G1 X91.873 Y69.015 E8.07528
G1 X92.369 Y69.875 E8.11970
G1 X92.912 Y71.095 E8.17940
G1 X93.219 Y72.039 E8.22382
G1 X93.497 Y73.345 E8.28354
G1 X93.601 Y74.333 E8.32796
G1 X93.601 Y75.667 E8.38767
G1 X93.497 Y76.655 E8.43209
G1 X93.219 Y77.961 E8.49181
G1 X92.912 Y78.905 E8.53623
G1 X92.369 Y80.125 E8.59593
G1 X91.873 Y80.985 E8.64034
G1 X91.088 Y82.065 E8.70005
G1 X90.424 Y82.803 E8.74446
G1 X89.432 Y83.696 E8.80419
G1 X88.628 Y84.280 E8.84861
G1 X87.472 Y84.947 E8.90832
G1 X86.565 Y85.351 E8.95274
G1 X85.297 Y85.763 E9.01238
G1 X84.324 Y85.970 E9.05687
G1 X82.996 Y86.110 E9.11658
G1 X67.003 Y86.110 E9.83194
G1 X65.676 Y85.970 E9.89166
G1 X64.705 Y85.764 E9.93607
G1 X63.435 Y85.351 E9.99579
G1 X62.528 Y84.947 E10.04021
G1 X61.372 Y84.280 E10.09989
G1 X60.568 Y83.696 E10.14433
G1 X59.577 Y82.804 E10.20400
G1 X58.912 Y82.065 E10.24847
G1 X58.127 Y80.985 E10.30818
G1 X57.631 Y80.125 E10.35259
G1 X57.088 Y78.905 E10.41231
G1 X56.781 Y77.961 E10.45673
G1 X56.503 Y76.657 E10.51637
G1 X56.399 Y75.667 E10.56086
G1 X56.399 Y74.333 E10.62057
G1 X56.503 Y73.344 E10.66501
G1 X56.781 Y72.039 E10.72470
G1 X57.088 Y71.095 E10.76912
G1 X57.631 Y69.875 E10.82883
G1 X58.127 Y69.015 E10.87325
G1 X58.912 Y67.935 E10.93296
G1 X59.577 Y67.197 E10.97742
G1 X60.524 Y66.344 E11.03440
G1 E9.03440 F1200.00000
G92 E0
G1 Z0.800 F6000.000
G1 X84.252 Y76.946 F6000.000
G1 Z0.300 F6000.000
G1 E2.00000 F1200.00000
G1 F1800
G1 X83.309 Y77.490 E2.04870
G1 X82.226 Y77.604 E2.09740
G1 X81.191 Y77.268 E2.14611
G1 X80.382 Y76.539 E2.19481
G1 X79.939 Y75.544 E2.24351
G1 X79.939 Y74.456 E2.29222
G1 X80.382 Y73.461 E2.34092
G1 X81.191 Y72.732 E2.38962
G1 X82.226 Y72.396 E2.43833
G1 X83.309 Y72.510 E2.48703
G1 X84.252 Y73.054 E2.53573
G1 X84.892 Y73.935 E2.58443
G1 X85.118 Y75.000 E2.63314
G1 X84.892 Y76.065 E2.68184
G1 X84.287 Y76.897 E2.72786
G1 X83.988 Y76.653 F6000.000
G1 F1800
G1 X83.187 Y77.115 E2.76923
G1 X82.268 Y77.212 E2.81060
G1 X81.388 Y76.926 E2.85197
G1 X80.701 Y76.307 E2.89334
G1 X80.324 Y75.462 E2.93471
G1 X80.324 Y74.538 E2.97608
G1 X80.701 Y73.693 E3.01745
G1 X81.388 Y73.074 E3.05882
G1 X82.268 Y72.788 E3.10020
G1 X83.187 Y72.885 E3.14156
G1 X83.988 Y73.347 E3.18293
G1 X84.532 Y74.095 E3.22431
G1 X84.724 Y75.000 E3.26568
G1 X84.532 Y75.905 E3.30705
G1 X84.024 Y76.604 E3.34574
G1 X83.725 Y76.360 F6000.000
G1 F1800
G1 X83.065 Y76.740 E3.37977
G1 X82.309 Y76.820 E3.41381
G1 X81.585 Y76.585 E3.44785
G1 X81.020 Y76.076 E3.48189
G1 X80.710 Y75.380 E3.51592
G1 X80.710 Y74.620 E3.54996
G1 X81.020 Y73.924 E3.58400
G1 X81.585 Y73.415 E3.61804
G1 X82.309 Y73.180 E3.65208
G1 X83.065 Y73.260 E3.68611
G1 X83.725 Y73.640 E3.72015
G1 X84.172 Y74.256 E3.75419
G1 X84.330 Y75.000 E3.78823
G1 X84.172 Y75.744 E3.82226
G1 X83.760 Y76.311 E3.85362
G1 X83.808 Y76.751 F6000.000
G1 X85.008 Y77.786 F6000.000
G1 F1800
G1 X84.374 Y78.246 E3.88867
G1 X83.658 Y78.565 E3.92372
G1 X82.892 Y78.728 E3.95877
G1 X82.108 Y78.728 E3.99382
G1 X81.342 Y78.565 E4.02887
G1 X80.626 Y78.246 E4.06392
G1 X79.992 Y77.786 E4.09895
G1 X79.466 Y77.200 E4.13419
G1 X79.076 Y76.525 E4.16907
G1 X78.834 Y75.779 E4.20412
G1 X78.752 Y75.000 E4.23917
G1 X78.834 Y74.221 E4.27422
G1 X79.076 Y73.475 E4.30927
G1 X79.468 Y72.797 E4.34432
G1 X79.992 Y72.214 E4.37937
G1 X80.626 Y71.754 E4.41442
G1 X81.342 Y71.435 E4.44947
G1 X82.108 Y71.272 E4.48452
G1 X82.892 Y71.272 E4.51957
G1 X83.655 Y71.434 E4.55445
G1 X84.375 Y71.754 E4.58969
G1 X85.008 Y72.214 E4.62472
G1 X85.532 Y72.797 E4.65977
G1 X85.924 Y73.475 E4.69482
G1 X86.166 Y74.221 E4.72987
G1 X86.248 Y75.000 E4.76492
G1 X86.166 Y75.779 E4.79997
G1 X85.924 Y76.525 E4.83502
G1 X85.532 Y77.203 E4.87007
G1 X85.048 Y77.741 E4.90244
G1 X85.268 Y78.074 F6000.000
G1 F1800
G1 X84.568 Y78.582 E4.94111
G1 X83.778 Y78.934 E4.97979
G1 X82.932 Y79.113 E5.01847
G1 X82.068 Y79.113 E5.05714
G1 X81.222 Y78.934 E5.09582
G1 X80.432 Y78.582 E5.13450
G1 X79.733 Y78.074 E5.17316
G1 X79.152 Y77.428 E5.21202
G1 X78.722 Y76.682 E5.25052
G1 X78.454 Y75.860 E5.28920
G1 X78.364 Y75.000 E5.32787
G1 X78.454 Y74.140 E5.36655
G1 X78.722 Y73.318 E5.40522
G1 X79.154 Y72.569 E5.44390
G1 X79.732 Y71.926 E5.48258
G1 X80.432 Y71.418 E5.52125
G1 X81.222 Y71.066 E5.55993
G1 X82.068 Y70.887 E5.59860
G1 X82.932 Y70.887 E5.63728
G1 X83.774 Y71.066 E5.67578
G1 X84.568 Y71.418 E5.71464
G1 X85.268 Y71.926 E5.75331
G1 X85.846 Y72.569 E5.79198
G1 X86.278 Y73.318 E5.83066
G1 X86.546 Y74.140 E5.86933
G1 X86.636 Y75.000 E5.90801
G1 X86.546 Y75.860 E5.94669
G1 X86.278 Y76.682 E5.98536
G1 X85.846 Y77.431 E6.02404
G1 X85.308 Y78.029 E6.06003
G1 X85.527 Y78.362 F6000.000
G1 F1800
G1 X84.762 Y78.918 E6.10233
G1 X83.898 Y79.302 E6.14464
G1 X82.973 Y79.499 E6.18694
G1 X82.027 Y79.499 E6.22924
G1 X81.102 Y79.302 E6.27154
G1 X80.238 Y78.918 E6.31384
G1 X79.473 Y78.362 E6.35614
G1 X78.838 Y77.655 E6.39863
G1 X78.367 Y76.840 E6.44074
G1 X78.075 Y75.941 E6.48305
G1 X77.976 Y75.000 E6.52535
G1 X78.075 Y74.059 E6.56765
G1 X78.367 Y73.160 E6.60995
G1 X78.840 Y72.341 E6.65226
G1 X79.473 Y71.638 E6.69456
G1 X80.238 Y71.082 E6.73686
G1 X81.102 Y70.698 E6.77916
G1 X82.027 Y70.501 E6.82146
G1 X82.973 Y70.501 E6.86376
G1 X83.894 Y70.697 E6.90588
G1 X84.762 Y71.082 E6.94837
G1 X85.527 Y71.638 E6.99067
G1 X86.160 Y72.341 E7.03297
G1 X86.633 Y73.160 E7.07527
G1 X86.925 Y74.059 E7.11757
G1 X87.024 Y75.000 E7.15987
G1 X86.925 Y75.941 E7.20218
G1 X86.633 Y76.840 E7.24448
G1 X86.160 Y77.659 E7.28678
G1 X85.567 Y78.317 E7.32640
G1 X85.147 Y78.238 F6000.000
G1 X84.435 Y77.811 F6000.000
G1 F1800
G1 X85.064 Y77.182 E7.36713
G1 X85.532 Y76.662 E7.39921
G1 X85.884 Y76.053 E7.43139
G1 X86.004 Y75.684 E7.44917
G1 X84.381 Y77.307 E7.55426
G1 X84.939 Y76.539 E7.59773
G1 X85.033 Y76.096 E7.61844
G1 X86.143 Y74.987 E7.69032
G1 X86.174 Y74.686 E7.70414
G1 X86.147 Y74.424 E7.71621
G1 X85.183 Y75.387 E7.77859
G1 X85.199 Y75.314 E7.78205
G1 X85.111 Y74.901 E7.80137
G1 X86.082 Y73.930 E7.86423
G1 X85.945 Y73.509 E7.88452
G1 X85.014 Y74.441 E7.94485
G1 X84.939 Y74.088 E7.96135
G1 X84.884 Y74.012 E7.96564
G1 X85.771 Y73.125 E8.02313
G1 X85.567 Y72.771 E8.04184
G1 X84.649 Y73.689 E8.10131
G1 X84.414 Y73.366 E8.11961
G1 X85.312 Y72.467 E8.17782
G1 X85.045 Y72.176 E8.19591
G1 X84.167 Y73.054 E8.25277
G1 X83.813 Y72.850 E8.27149
G1 X84.721 Y71.941 E8.33033
G1 X84.494 Y71.776 E8.34317
G1 X84.379 Y71.725 E8.34895
G1 X83.459 Y72.645 E8.40855
G1 X83.099 Y72.446 E8.42736
G1 X83.992 Y71.553 E8.48519
G1 X83.848 Y71.490 E8.49240
G1 X83.559 Y71.428 E8.50593
G1 X82.594 Y72.393 E8.56844
G1 X82.089 Y72.340 E8.59171
G1 X83.085 Y71.344 E8.65621
G1 X82.526 Y71.344 E8.68178
G1 X81.400 Y72.470 E8.75472
G1 X80.680 Y72.704 E8.78940
G1 X79.956 Y73.357 E8.83404
G1 X81.835 Y71.478 E8.95574
G1 X81.133 Y71.776 E8.99065
G1 X80.565 Y72.189 E9.02279
G1 X79.938 Y72.816 E9.06341
G1 X79.936 Y72.818 F6000.000
G1 F1800
G1 X79.468 Y73.338 E9.09549
G1 X79.116 Y73.947 E9.12766
G1 X78.996 Y74.316 E9.14545
G1 X80.360 Y72.953 E9.23374
G1 X79.912 Y73.959 E9.28419
G1 X78.857 Y75.013 E9.35247
G1 X78.826 Y75.314 E9.36629
G1 X78.853 Y75.576 E9.37836
G1 X79.867 Y74.562 E9.44399
G1 X79.867 Y75.121 E9.46956
G1 X78.918 Y76.070 E9.53101
G1 X79.055 Y76.491 E9.55130
G1 X79.980 Y75.566 E9.61119
G1 X80.152 Y75.953 E9.63056
G1 X79.229 Y76.875 E9.69032
G1 X79.433 Y77.229 E9.70903
G1 X80.324 Y76.339 E9.76669
G1 X80.376 Y76.457 E9.77262
G1 X80.580 Y76.641 E9.78519
G1 X79.688 Y77.533 E9.84296
G1 X79.955 Y77.824 E9.86106
G1 X80.874 Y76.905 E9.92054
G1 X81.168 Y77.170 E9.93865
G1 X80.279 Y78.059 E9.99621
G1 X80.506 Y78.224 E10.00908
G1 X80.621 Y78.275 E10.01484
G1 X81.528 Y77.367 E10.07362
G1 X81.950 Y77.504 E10.09391
G1 X81.007 Y78.447 E10.15496
G1 X81.148 Y78.510 E10.16202
G1 X81.441 Y78.572 E10.17572
G1 X82.371 Y77.641 E10.23599
G1 X82.499 Y77.683 E10.24213
G1 X82.934 Y77.637 E10.26217
G1 X81.915 Y78.656 E10.32816
G1 X82.473 Y78.656 E10.35373
G1 X83.558 Y77.571 E10.42396
G1 X83.745 Y77.552 E10.43255
G1 X84.670 Y77.017 E10.48152
G1 X83.165 Y78.522 E10.57900
G1 E8.57900 F1200.00000
G92 E0
G1 Z0.800 F6000.000
G1 X70.118 Y75.000 F6000.000
G1 Z0.300 F6000.000
G1 E2.00000 F1200.00000
G1 F1800
G1 X69.892 Y76.065 E2.04870
G1 X69.252 Y76.946 E2.09741
G1 X68.309 Y77.490 E2.14611
G1 X67.226 Y77.604 E2.19481
G1 X66.191 Y77.268 E2.24352
G1 X65.382 Y76.539 E2.29222
G1 X64.939 Y75.544 E2.34092
G1 X64.939 Y74.456 E2.38963
G1 X65.382 Y73.461 E2.43833
G1 X66.191 Y72.732 E2.48703
G1 X67.226 Y72.396 E2.53574
G1 X68.309 Y72.510 E2.58444
G1 X69.252 Y73.054 E2.63314
G1 X69.892 Y73.935 E2.68185
G1 X70.106 Y74.941 E2.72786
G1 X69.724 Y75.000 F6000.000
G1 F1800
G1 X69.532 Y75.905 E2.76924
G1 X68.988 Y76.653 E2.81061
G1 X68.187 Y77.115 E2.85198
G1 X67.267 Y77.212 E2.89335
G1 X66.388 Y76.926 E2.93472
G1 X65.701 Y76.307 E2.97609
G1 X65.324 Y75.462 E3.01746
G1 X65.324 Y74.538 E3.05883
G1 X65.701 Y73.693 E3.10020
G1 X66.388 Y73.074 E3.14157
G1 X67.267 Y72.788 E3.18294
G1 X68.187 Y72.885 E3.22431
G1 X68.988 Y73.347 E3.26568
G1 X69.532 Y74.095 E3.30705
G1 X69.712 Y74.941 E3.34574
G1 X69.330 Y75.000 F6000.000
G1 F1800
G1 X69.172 Y75.744 E3.37978
G1 X68.725 Y76.360 E3.41382
G1 X68.066 Y76.740 E3.44785
G1 X67.309 Y76.820 E3.48189
G1 X66.585 Y76.585 E3.51593
G1 X66.019 Y76.076 E3.54997
G1 X65.710 Y75.380 E3.58400
G1 X65.710 Y74.620 E3.61804
G1 X66.019 Y73.924 E3.65208
G1 X66.585 Y73.415 E3.68612
G1 X67.309 Y73.180 E3.72016
G1 X68.066 Y73.260 E3.75419
G1 X68.725 Y73.640 E3.78823
G1 X69.172 Y74.256 E3.82227
G1 X69.318 Y74.941 E3.85362
G1 X69.676 Y75.200 F6000.000
G1 X71.248 Y75.000 F6000.000
G1 F1800
G1 X71.166 Y75.779 E3.88868
G1 X70.924 Y76.525 E3.92373
G1 X70.532 Y77.203 E3.95878
G1 X70.008 Y77.786 E3.99383
G1 X69.374 Y78.246 E4.02888
G1 X68.658 Y78.565 E4.06393
G1 X67.892 Y78.728 E4.09898
G1 X67.108 Y78.728 E4.13403
G1 X66.342 Y78.565 E4.16908
G1 X65.626 Y78.246 E4.20413
G1 X64.992 Y77.786 E4.23918
G1 X64.468 Y77.203 E4.27423
G1 X64.076 Y76.525 E4.30926
G1 X63.833 Y75.776 E4.34450
G1 X63.752 Y75.000 E4.37938
G1 X63.834 Y74.221 E4.41443
G1 X64.076 Y73.475 E4.44948
G1 X64.468 Y72.797 E4.48453
G1 X64.992 Y72.214 E4.51958
G1 X65.626 Y71.754 E4.55463
G1 X66.342 Y71.435 E4.58968
G1 X67.108 Y71.272 E4.62473
G1 X67.892 Y71.272 E4.65978
G1 X68.655 Y71.434 E4.69466
G1 X69.374 Y71.754 E4.72990
G1 X70.008 Y72.214 E4.76493
G1 X70.532 Y72.797 E4.79998
G1 X70.924 Y73.475 E4.83503
G1 X71.166 Y74.221 E4.87008
G1 X71.242 Y74.940 E4.90244
G1 X71.636 Y75.000 F6000.000
G1 F1800
G1 X71.546 Y75.860 E4.94112
G1 X71.278 Y76.682 E4.97980
G1 X70.846 Y77.431 E5.01847
G1 X70.268 Y78.074 E5.05715
G1 X69.568 Y78.582 E5.09583
G1 X68.778 Y78.934 E5.13450
G1 X67.932 Y79.113 E5.17318
G1 X67.068 Y79.113 E5.21185
G1 X66.222 Y78.934 E5.25053
G1 X65.432 Y78.582 E5.28921
G1 X64.732 Y78.074 E5.32788
G1 X64.154 Y77.431 E5.36656
G1 X63.722 Y76.683 E5.40522
G1 X63.454 Y75.856 E5.44409
G1 X63.364 Y75.000 E5.48258
G1 X63.454 Y74.140 E5.52126
G1 X63.722 Y73.318 E5.55994
G1 X64.154 Y72.569 E5.59861
G1 X64.732 Y71.926 E5.63729
G1 X65.432 Y71.418 E5.67597
G1 X66.222 Y71.066 E5.71464
G1 X67.068 Y70.887 E5.75332
G1 X67.932 Y70.887 E5.79199
G1 X68.774 Y71.066 E5.83049
G1 X69.568 Y71.418 E5.86935
G1 X70.268 Y71.926 E5.90802
G1 X70.846 Y72.569 E5.94669
G1 X71.278 Y73.318 E5.98537
G1 X71.546 Y74.140 E6.02405
G1 X71.630 Y74.940 E6.06004
G1 X72.024 Y75.000 F6000.000
G1 F1800
G1 X71.925 Y75.941 E6.10234
G1 X71.633 Y76.840 E6.14464
G1 X71.160 Y77.659 E6.18695
G1 X70.527 Y78.362 E6.22925
G1 X69.762 Y78.918 E6.27155
G1 X68.898 Y79.302 E6.31385
G1 X67.973 Y79.499 E6.35615
G1 X67.027 Y79.499 E6.39846
G1 X66.102 Y79.302 E6.44076
G1 X65.238 Y78.918 E6.48306
G1 X64.473 Y78.362 E6.52536
G1 X63.840 Y77.659 E6.56766
G1 X63.367 Y76.840 E6.60996
G1 X63.075 Y75.936 E6.65245
G1 X62.976 Y75.000 E6.69457
G1 X63.075 Y74.059 E6.73687
G1 X63.367 Y73.160 E6.77917
G1 X63.840 Y72.341 E6.82147
G1 X64.473 Y71.638 E6.86377
G1 X65.238 Y71.082 E6.90608
G1 X66.102 Y70.698 E6.94838
G1 X67.027 Y70.501 E6.99068
G1 X67.973 Y70.501 E7.03298
G1 X68.894 Y70.697 E7.07510
G1 X69.762 Y71.082 E7.11759
G1 X70.527 Y71.638 E7.15988
G1 X71.160 Y72.341 E7.20219
G1 X71.633 Y73.160 E7.24449
G1 X71.925 Y74.059 E7.28679
G1 X72.017 Y74.940 E7.32641
G1 X71.677 Y75.200 F6000.000
G1 E5.32641 F1200.00000
G92 E0
G1 Z0.800 F6000.000
G1 X69.435 Y77.811 F6000.000
G1 Z0.300 F6000.000
G1 E2.00000 F1200.00000
G1 F1800
G1 X70.063 Y77.182 E2.04073
G1 X70.532 Y76.662 E2.07282
G1 X70.884 Y76.053 E2.10499
G1 X71.004 Y75.684 E2.12278
G1 X69.381 Y77.307 E2.22787
G1 X69.939 Y76.539 E2.27132
G1 X70.033 Y76.096 E2.29204
G1 X71.143 Y74.987 E2.36392
G1 X71.174 Y74.686 E2.37774
G1 X71.147 Y74.424 E2.38981
G1 X70.183 Y75.387 E2.45219
G1 X70.199 Y75.314 E2.45565
G1 X70.111 Y74.901 E2.47496
G1 X71.082 Y73.930 E2.53782
G1 X70.945 Y73.509 E2.55811
G1 X70.014 Y74.441 E2.61845
G1 X69.939 Y74.088 E2.63494
G1 X69.884 Y74.012 E2.63924
G1 X70.771 Y73.125 E2.69672
G1 X70.567 Y72.771 E2.71544
G1 X69.649 Y73.689 E2.77491
G1 X69.414 Y73.366 E2.79321
G1 X70.312 Y72.467 E2.85142
G1 X70.045 Y72.176 E2.86951
G1 X69.167 Y73.054 E2.92637
G1 X68.813 Y72.850 E2.94508
G1 X69.721 Y71.941 E3.00392
G1 X69.494 Y71.776 E3.01676
G1 X69.379 Y71.725 E3.02255
G1 X68.459 Y72.645 E3.08214
G1 X68.099 Y72.446 E3.10095
G1 X68.992 Y71.553 E3.15878
