; generated by Slic3r 1.3.0 on 2021-02-09 at 11:31:04

; external perimeters extrusion width = 0.44mm (2.86mm^3/s)
; perimeters extrusion width = 0.56mm (4.14mm^3/s)
; infill extrusion width = 0.50mm (3.66mm^3/s)
; solid infill extrusion width = 0.56mm (3.10mm^3/s)
; top infill extrusion width = 0.45mm (2.44mm^3/s)

M107
;D3D:START:START
T0
M104 S215 T0

G21
G90
M107
T0
G28
G29
M109 T0 S215 T0
G0 F3000
M107
T0
G92 E0
G0 X0 Y149 Z0.1 F3600
G1 Y49 E6.5 F1200
G0 Z1
G92 E0
; Filament gcode

G21 ; set units to millimeters
G90 ; use absolute coordinates
M82 ; use absolute distances for extrusion
G92 E0
G1 Z0.300 F6000.000
G1 E-2.00000 F1200.00000
G92 E0
G1 Z0.800 F6000.000
G1 X34.602 Y38.612 F6000.000
G1 Z0.300 F6000.000
G1 E2.00000 F1200.00000
G1 F1800
G1 X39.410 Y34.312 E2.28854
G1 X39.774 Y34.008 E2.30973
G1 X44.883 Y30.045 E2.59896
G1 X45.267 Y29.767 E2.62017
G1 X50.653 Y26.163 E2.91005
G1 X51.057 Y25.913 E2.93129
G1 X56.694 Y22.690 E3.22175
G1 X57.115 Y22.468 E3.24303
G1 X62.978 Y19.643 E3.53411
G1 X63.392 Y19.461 E3.55435
G1 X97.318 Y5.825 E5.18985
G1 X99.835 Y5.336 E5.30456
G1 X109.182 Y5.326 E5.72263
G1 X112.215 Y6.041 E5.86203
G1 X152.215 Y26.042 E7.86242
G1 X154.081 Y27.419 E7.96614
G1 X155.373 Y29.344 E8.06986
G1 X155.958 Y32.167 E8.19879
G1 X155.826 Y45.173 E8.78061
G1 X155.406 Y47.454 E8.88433
G1 X154.093 Y49.628 E8.99793
G1 X70.345 Y142.907 E14.60520
G1 X68.523 Y144.342 E14.70892
G1 X65.313 Y145.155 E14.85702
G1 X38.299 Y145.181 E16.06538
G1 X35.265 Y144.466 E16.20479
G1 X-4.735 Y124.466 E18.20516
G1 X-6.601 Y123.090 E18.30889
G1 X-7.893 Y121.164 E18.41261
G1 X-8.478 Y118.410 E18.53854
G1 X-8.478 Y112.257 E18.81377
G1 X-7.733 Y109.170 E18.95582
G1 X14.229 Y66.299 E21.11042
G1 X17.319 Y60.553 E21.40221
G1 X17.553 Y60.152 E21.42298
G1 X20.966 Y54.742 E21.70911
G1 X21.230 Y54.355 E21.73007
G1 X25.018 Y49.181 E22.01689
G1 X25.307 Y48.815 E22.03776
G1 X29.456 Y43.906 E22.32526
G1 X29.771 Y43.558 E22.34625
G1 X34.261 Y38.940 E22.63435
G1 X34.558 Y38.653 E22.65282
G1 X34.859 Y38.900 F6000.000
G1 F1800
G1 X39.667 Y34.599 E22.94136
G1 X40.010 Y34.313 E22.96134
G1 X45.119 Y30.349 E23.25057
G1 X45.482 Y30.088 E23.27057
G1 X50.868 Y26.484 E23.56045
G1 X51.249 Y26.248 E23.58048
G1 X56.885 Y23.024 E23.87094
G1 X57.283 Y22.816 E23.89101
G1 X63.145 Y19.991 E24.18208
G1 X63.535 Y19.819 E24.20117
G1 X97.462 Y6.183 E25.83668
G1 X99.836 Y5.722 E25.94485
G1 X109.182 Y5.712 E26.36291
G1 X112.043 Y6.386 E26.49438
G1 X152.043 Y26.387 E28.49477
G1 X153.848 Y27.733 E28.59547
G1 X155.073 Y29.621 E28.69617
G1 X155.572 Y32.163 E28.81202
G1 X155.440 Y45.169 E29.39384
G1 X155.021 Y47.381 E29.49454
G1 X153.807 Y49.371 E29.59879
G1 X70.058 Y142.649 E35.20606
G1 X68.282 Y144.033 E35.30676
G1 X65.313 Y144.769 E35.44358
G1 X38.298 Y144.796 E36.65193
G1 X35.438 Y144.121 E36.78340
G1 X-4.562 Y124.121 E38.78378
G1 X-6.367 Y122.775 E38.88448
G1 X-7.592 Y120.887 E38.98518
G1 X-8.092 Y118.410 E39.09820
G1 X-8.092 Y112.257 E39.37343
G1 X-7.390 Y109.345 E39.50740
G1 X14.573 Y66.474 E41.66199
G1 X17.659 Y60.736 E41.95342
G1 X17.879 Y60.358 E41.97301
G1 X21.292 Y54.948 E42.25914
G1 X21.541 Y54.583 E42.27891
G1 X25.330 Y49.409 E42.56572
G1 X25.602 Y49.063 E42.58541
G1 X29.750 Y44.154 E42.87289
G1 X30.048 Y43.826 E42.89269
G1 X34.815 Y38.941 E43.19804
G1 E41.19804 F1200.00000
G92 E0
G1 Z0.800 F6000.000
G1 X39.290 Y133.252 F6000.000
G1 Z0.300 F6000.000
G1 E2.00000 F1200.00000
G1 F1800
G1 X64.310 Y133.227 E3.11916
G1 X64.310 Y137.388 E3.30526
G1 X39.290 Y137.413 E4.42442
G1 X39.290 Y133.312 E4.60784
G1 X38.904 Y132.867 F6000.000
G1 F1800
G1 X64.696 Y132.841 E5.76150
G1 X64.696 Y137.773 E5.98209
G1 X38.904 Y137.799 E7.13575
G1 X38.904 Y132.927 E7.35367
G1 X38.518 Y132.482 F6000.000
G1 F1800
G1 X65.081 Y132.455 E8.54182
G1 X65.081 Y138.158 E8.79692
G1 X38.518 Y138.185 E9.98507
G1 X38.518 Y132.542 E10.23748
G1 X38.917 Y132.509 F6000.000
G1 E8.23748 F1200.00000
G92 E0
G1 Z0.800 F6000.000
G1 X51.007 Y132.244 F6000.000
G1 Z0.300 F6000.000
G1 E2.00000 F1200.00000
G1 F1800
G1 X51.086 Y129.997 E2.15305
G1 E0.15305 F1200.00000
G92 E0
G1 Z0.800 F6000.000
G1 X71.351 Y74.060 F6000.000
G1 Z0.300 F6000.000
G1 E2.00000 F1200.00000
G1 F1800
G1 X71.175 Y73.922 E2.01003
G1 X71.516 Y73.502 E2.03423
G1 X71.692 Y73.650 E2.04454
G1 X71.390 Y74.013 E2.06569
G1 E0.06569 F1200.00000
G92 E0
G1 Z0.800 F6000.000
G1 X75.314 Y69.355 F6000.000
G1 Z0.300 F6000.000
G1 E2.00000 F1200.00000
G1 F1800
G1 X75.147 Y69.205 E2.01003
G1 X75.366 Y68.946 E2.02519
G1 X76.715 Y67.557 E2.11181
G1 X76.881 Y67.718 E2.12212
G1 X75.355 Y69.312 E2.22083
G1 E0.22083 F1200.00000
G92 E0
G1 Z0.800 F6000.000
G1 X53.994 Y109.434 F6000.000
G1 Z0.300 F6000.000
G1 E2.00000 F1200.00000
G1 F1800
G1 X53.775 Y109.380 E2.01008
G1 X54.217 Y107.385 E2.10145
G1 X56.000 Y101.341 E2.38330
G1 X58.198 Y95.422 E2.66572
G1 X60.804 Y89.657 E2.94874
G1 X63.808 Y84.073 E3.23234
G1 X67.198 Y78.699 E3.51656
G1 X70.960 Y73.561 E3.80140
G1 X75.080 Y68.687 E4.08686
G1 X79.538 Y64.101 E4.37295
G1 X84.315 Y59.828 E4.65965
G1 X89.390 Y55.890 E4.94697
G1 X94.740 Y52.311 E5.23490
G1 X100.340 Y49.109 E5.52342
G1 X106.162 Y46.303 E5.81252
G1 X112.180 Y43.910 E6.10219
G1 X118.261 Y41.977 E6.38760
G1 X118.332 Y42.195 E6.39788
G1 X113.641 Y43.761 E6.61908
G1 X107.477 Y46.302 E6.91730
G1 X101.491 Y49.268 E7.21614
G1 X95.711 Y52.648 E7.51563
G1 X90.167 Y56.428 E7.81576
G1 X84.887 Y60.592 E8.11654
G1 X79.899 Y65.123 E8.41799
G1 X75.228 Y70.002 E8.72009
G1 X70.900 Y75.206 E9.02284
G1 X66.938 Y80.711 E9.32624
G1 X63.364 Y86.493 E9.63027
G1 X60.199 Y92.524 E9.93492
G1 X57.462 Y98.775 E10.24018
G1 X55.167 Y105.216 E10.54603
G1 X54.010 Y109.376 E10.73917
G1 E8.73917 F1200.00000
G92 E0
G1 Z0.800 F6000.000
G1 X51.207 Y129.776 F6000.000
G1 Z0.300 F6000.000
G1 E2.00000 F1200.00000
G1 F1800
G1 X50.981 Y129.768 E2.01012
G1 X51.030 Y125.959 E2.18050
G1 X51.539 Y119.688 E2.46195
G1 X52.477 Y113.454 E2.74389
G1 X53.844 Y107.289 E3.02637
G1 X55.633 Y101.219 E3.30941
G1 X57.841 Y95.276 E3.59302
G1 X60.458 Y89.486 E3.87722
G1 X63.474 Y83.879 E4.16203
G1 X66.879 Y78.482 E4.44744
G1 X70.657 Y73.323 E4.73348
G1 X74.794 Y68.428 E5.02014
G1 X79.271 Y63.822 E5.30742
G1 X84.068 Y59.531 E5.59533
G1 X89.165 Y55.577 E5.88386
G1 X94.537 Y51.983 E6.17300
G1 X100.160 Y48.767 E6.46274
G1 X106.007 Y45.950 E6.75305
G1 X112.050 Y43.547 E7.04394
G1 X118.260 Y41.573 E7.33538
G1 X124.604 Y40.041 E7.62734
G1 X131.053 Y38.961 E7.91980
G1 X137.573 Y38.341 E8.21274
G1 X138.122 Y38.329 E8.23729
G1 X138.137 Y38.549 E8.24717
G1 X132.953 Y39.154 E8.48062
G1 X126.464 Y40.367 E8.77588
G1 X120.062 Y42.025 E9.07171
G1 X113.776 Y44.123 E9.36813
G1 X107.637 Y46.653 E9.66516
G1 X101.674 Y49.608 E9.96281
G1 X95.917 Y52.974 E10.26110
G1 X90.395 Y56.739 E10.56004
G1 X85.137 Y60.887 E10.85962
G1 X80.168 Y65.400 E11.15987
G1 X75.516 Y70.259 E11.46076
G1 X71.205 Y75.442 E11.76231
G1 X67.259 Y80.925 E12.06449
G1 X63.699 Y86.684 E12.36731
G1 X60.547 Y92.691 E12.67075
G1 X57.820 Y98.917 E12.97479
G1 X55.535 Y105.333 E13.27942
G1 X53.706 Y111.906 E13.58461
G1 X52.346 Y118.604 E13.89034
G1 X51.463 Y125.393 E14.19657
G1 X51.211 Y129.716 E14.39024
G1 X51.018 Y129.652 F6000.000
G1 E12.39024 F1200.00000
G92 E0
G1 Z0.800 F6000.000
G1 X138.354 Y38.423 F6000.000
G1 Z0.300 F6000.000
G1 E2.00000 F1200.00000
G1 F1800
G1 X138.919 Y38.384 E2.03659
G1 F1800
G1 X139.503 Y38.343 E2.06913
G1 X140.712 Y38.300 E2.13639
G1 E0.13639 F1200.00000
G92 E0
G1 Z0.800 F6000.000
G1 X143.448 Y44.114 F6000.000
G1 Z0.300 F6000.000
G1 E2.00000 F1200.00000
G1 F1800
G1 X140.868 Y35.241 E2.41331
G1 X140.839 Y34.548 E2.44434
G1 X140.839 Y33.103 E2.50900
G1 X148.181 Y33.095 E2.83739
G1 X148.069 Y44.109 E3.33007
G1 X143.508 Y44.114 E3.53408
G1 X143.159 Y44.500 F6000.000
G1 F1800
G1 X140.484 Y35.303 E3.96248
G1 X140.454 Y34.556 E3.99593
G1 X140.454 Y32.717 E4.07818
G1 X148.570 Y32.709 E4.44124
G1 X148.451 Y44.495 E4.96842
G1 X143.219 Y44.500 E5.20244
G1 X142.870 Y44.886 F6000.000
G1 F1800
G1 X140.101 Y35.366 E5.64592
G1 X140.068 Y34.564 E5.68181
G1 X140.068 Y32.332 E5.78164
G1 X148.960 Y32.323 E6.17937
G1 X148.832 Y44.880 E6.74105
G1 X142.930 Y44.886 E7.00507
G1 X142.854 Y44.486 F6000.000
G1 E5.00507 F1200.00000
G92 E0
G1 Z0.800 F6000.000
G1 X147.373 Y44.038 F6000.000
G1 Z0.300 F6000.000
G1 E2.00000 F1200.00000
G1 F1800
G1 X148.001 Y43.410 E2.04050
G1 X148.006 Y42.848 E2.06617
G1 X146.816 Y44.038 E2.14302
G1 X146.259 Y44.039 E2.16845
G1 X148.012 Y42.286 E2.28164
G1 X148.018 Y41.723 E2.30731
G1 X145.702 Y44.039 E2.45684
G1 X145.145 Y44.040 E2.48227
G1 X148.024 Y41.161 E2.66814
G1 X148.029 Y40.599 E2.69381
G1 X144.588 Y44.040 E2.91602
G1 X144.030 Y44.041 E2.94146
G1 X148.035 Y40.036 E3.20001
G1 X148.041 Y39.474 E3.22568
G1 X143.473 Y44.042 E3.52057
G1 X143.423 Y44.042 E3.52284
G1 X143.309 Y43.649 E3.54152
G1 X148.046 Y38.912 E3.84736
G1 X148.052 Y38.349 E3.87303
G1 X143.184 Y43.218 E4.18735
G1 X143.059 Y42.786 E4.20785
G1 X148.058 Y37.787 E4.53062
G1 X148.064 Y37.225 E4.55630
G1 X142.933 Y42.355 E4.88754
G1 X142.808 Y41.924 E4.90804
G1 X148.069 Y36.663 E5.24774
G1 X148.075 Y36.100 E5.27342
G1 X142.682 Y41.493 E5.62159
G1 X142.557 Y41.062 E5.64209
G1 X148.081 Y35.538 E5.99872
G1 X148.086 Y34.976 E6.02440
G1 X142.432 Y40.630 E6.38949
G1 X142.306 Y40.199 E6.41000
G1 X148.092 Y34.413 E6.78356
G1 X148.098 Y33.851 E6.80923
G1 X142.181 Y39.768 E7.19126
G1 X142.055 Y39.337 E7.21176
G1 X148.103 Y33.289 E7.60226
G1 X148.105 Y33.168 E7.60778
G1 X147.667 Y33.168 E7.62774
G1 X141.930 Y38.906 E7.99817
G1 X141.805 Y38.474 E8.01867
G1 X147.110 Y33.169 E8.36123
G1 X146.553 Y33.169 E8.38666
G1 X141.679 Y38.043 E8.70134
G1 X141.554 Y37.612 E8.72184
G1 X145.996 Y33.170 E9.00864
G1 X145.439 Y33.170 E9.03408
G1 X141.428 Y37.181 E9.29300
G1 X141.303 Y36.749 E9.31350
G1 X144.882 Y33.171 E9.54455
G1 X144.324 Y33.171 E9.56998
G1 X141.178 Y36.318 E9.77315
G1 X141.052 Y35.887 E9.79365
G1 X143.767 Y33.172 E9.96895
G1 X143.210 Y33.173 E9.99438
G1 X140.936 Y35.447 E10.14124
G1 X140.914 Y34.912 E10.16567
G1 X142.653 Y33.173 E10.27796
G1 X142.096 Y33.174 E10.30340
G1 X140.911 Y34.358 E10.37987
G1 X140.911 Y33.801 E10.40528
G1 X141.539 Y33.174 E10.44578
G1 E8.44578 F1200.00000
G92 E0
G1 Z0.800 F6000.000
G1 X132.209 Y39.071 F6000.000
G1 Z0.300 F6000.000
G1 E2.00000 F1200.00000
G1 F1800
G1 X131.088 Y39.229 E2.00516
G1 F1800
G1 X126.392 Y40.061 E2.07918
G1 F1800
G1 X125.537 Y40.242 E2.10120
G1 F1800
G1 X124.683 Y40.424 E2.13097
G1 F1800
G1 X119.932 Y41.613 E2.34238
G1 F1800
G1 X118.964 Y41.891 E2.39465
G1 F1800
G1 X118.481 Y42.029 E2.42482
G1 E0.42482 F1200.00000
G92 E0
G1 Z0.800 F6000.000
G1 X110.766 Y44.709 F6000.000
G1 Z0.300 F6000.000
G1 E2.00000 F1200.00000
G1 F1800
G1 X107.379 Y46.080 E2.01486
G1 X106.828 Y46.326 E2.01731
G1 F1800
G1 X106.280 Y46.570 E2.02657
G1 X103.811 Y47.776 E2.06896
G1 F1800
G1 X101.342 Y48.983 E2.13056
G1 X100.921 Y49.207 E2.14126
G1 F1800
G1 X100.507 Y49.427 E2.15585
G1 X98.008 Y50.872 E2.24581
G1 F1800
G1 X95.228 Y52.493 E2.36704
G1 F1800
G1 X92.436 Y54.365 E2.51353
G1 F1800
G1 X89.655 Y56.257 E2.68079
G1 F1800
G1 X84.573 Y60.236 E3.03926
G1 F1800
G1 X79.884 Y64.462 E3.44163
G1 X79.553 Y64.783 E3.47104
G1 X76.932 Y67.499 E3.71161
G1 E1.71161 F1200.00000
G92 E0
G1 Z0.800 F6000.000
G1 X75.101 Y69.423 F6000.000
G1 Z0.300 F6000.000
G1 E2.00000 F1200.00000
G1 F1800
G1 X71.728 Y73.428 E2.31310
G1 X71.144 Y74.143 F6000.000
G1 F1800
G1 X70.529 Y74.931 E2.37290
G1 X67.597 Y78.970 E2.67150
G1 X66.924 Y79.968 E2.74349
G1 F1800
G1 X66.578 Y80.481 E2.77510
G1 X64.194 Y84.299 E3.00524
G1 X63.424 Y85.633 E3.08400
G1 F1800
G1 X63.033 Y86.311 E3.11603
G1 X61.161 Y89.833 E3.27913
G1 X60.539 Y91.108 E3.33714
G1 F1800
G1 X59.917 Y92.383 E3.38054
G1 F1800
G1 X58.508 Y95.550 E3.45308
G1 X57.874 Y97.118 E3.48847
G1 F1800
G1 X57.240 Y98.686 E3.51279
G1 F1800
G1 X56.245 Y101.423 E3.52198
G1 X55.809 Y102.763 E3.52643
G1 E1.52643 F1200.00000
G92 E0
G1 Z0.800 F6000.000
G1 X53.838 Y109.594 F6000.000
G1 Z0.300 F6000.000
G1 E2.00000 F1200.00000
G1 F1800
G1 X53.471 Y111.063 E2.09141
G1 F1800
G1 X53.284 Y111.813 E2.13183
G1 X52.918 Y113.536 E2.22383
G1 X52.623 Y115.207 E2.31244
G1 F1800
G1 X52.328 Y116.877 E2.38318
G1 F1800
G1 X52.032 Y118.548 E2.43691
G1 F1800
G1 X51.867 Y119.726 E2.46266
G1 X51.674 Y121.552 E2.50242
G1 F1800
G1 X51.481 Y123.379 E2.52842
G1 F1800
G1 X51.385 Y124.292 E2.53201
G1 E0.53201 F1200.00000
G92 E0
G1 Z0.800 F6000.000
G1 X39.989 Y133.324 F6000.000
G1 Z0.300 F6000.000
G1 E2.00000 F1200.00000
G1 F1800
G1 X39.362 Y133.951 E2.04019
G1 X39.362 Y134.503 E2.06520
G1 X40.542 Y133.323 E2.14081
G1 X41.095 Y133.323 E2.16585
G1 X39.362 Y135.056 E2.27687
G1 X39.362 Y135.608 E2.30189
G1 X41.647 Y133.322 E2.44832
G1 X42.200 Y133.322 E2.47336
G1 X39.362 Y136.160 E2.65521
G1 X39.362 Y136.713 E2.68023
G1 X42.753 Y133.321 E2.89750
G1 X43.306 Y133.321 E2.92254
G1 X39.362 Y137.265 E3.17522
G1 X39.362 Y137.340 E3.17864
G1 X39.839 Y137.340 E3.20026
G1 X43.859 Y133.320 E3.45778
G1 X44.412 Y133.319 E3.48283
G1 X40.392 Y137.339 E3.74035
G1 X40.945 Y137.339 E3.76539
G1 X44.964 Y133.319 E4.02291
G1 X45.517 Y133.318 E4.04796
G1 X41.497 Y137.338 E4.30548
G1 X42.050 Y137.338 E4.33052
G1 X46.070 Y133.318 E4.58804
G1 X46.623 Y133.317 E4.61308
G1 X42.603 Y137.337 E4.87061
G1 X43.156 Y137.337 E4.89565
G1 X47.176 Y133.317 E5.15317
G1 X47.729 Y133.316 E5.17821
G1 X43.709 Y137.336 E5.43574
G1 X44.262 Y137.335 E5.46078
G1 X48.281 Y133.316 E5.71830
G1 X48.834 Y133.315 E5.74334
G1 X44.814 Y137.335 E6.00087
G1 X45.367 Y137.334 E6.02591
G1 X49.387 Y133.315 E6.28343
G1 X49.940 Y133.314 E6.30847
G1 X45.920 Y137.334 E6.56600
G1 X46.473 Y137.333 E6.59104
G1 X50.493 Y133.313 E6.84856
G1 X51.046 Y133.313 E6.87360
G1 X47.026 Y137.333 E7.13113
G1 X47.579 Y137.332 E7.15617
G1 X51.598 Y133.312 E7.41369
G1 X52.151 Y133.312 E7.43873
G1 X48.131 Y137.332 E7.69626
G1 X48.684 Y137.331 E7.72130
G1 X52.704 Y133.311 E7.97882
G1 X53.257 Y133.311 E8.00386
G1 X49.237 Y137.331 E8.26138
G1 X49.790 Y137.330 E8.28643
G1 X53.810 Y133.310 E8.54395
G1 X54.363 Y133.310 E8.56899
G1 X50.343 Y137.329 E8.82651
G1 X50.896 Y137.329 E8.85156
G1 X54.915 Y133.309 E9.10908
G1 X55.468 Y133.309 E9.13412
G1 X51.448 Y137.328 E9.39164
G1 X52.001 Y137.328 E9.41669
G1 X56.021 Y133.308 E9.67421
G1 X56.574 Y133.307 E9.69925
G1 X52.554 Y137.327 E9.95677
G1 X53.107 Y137.327 E9.98182
G1 X57.127 Y133.307 E10.23934
G1 X57.680 Y133.306 E10.26438
G1 X53.660 Y137.326 E10.52190
G1 X54.213 Y137.326 E10.54694
G1 X58.232 Y133.306 E10.80447
G1 X58.785 Y133.305 E10.82951
G1 X54.765 Y137.325 E11.08703
G1 X55.318 Y137.325 E11.11207
G1 X59.338 Y133.305 E11.36960
G1 X59.891 Y133.304 E11.39464
G1 X55.871 Y137.324 E11.65216
G1 X56.424 Y137.323 E11.67720
G1 X60.444 Y133.304 E11.93472
G1 X60.997 Y133.303 E11.95977
G1 X56.977 Y137.323 E12.21729
G1 X57.530 Y137.322 E12.24233
G1 X61.549 Y133.303 E12.49985
G1 X62.102 Y133.302 E12.52490
G1 X58.082 Y137.322 E12.78242
G1 X58.635 Y137.321 E12.80746
G1 X62.655 Y133.301 E13.06498
G1 X63.208 Y133.301 E13.09003
G1 X59.188 Y137.321 E13.34755
G1 X59.741 Y137.320 E13.37259
G1 X63.761 Y133.300 E13.63011
G1 X64.238 Y133.300 E13.65173
G1 X64.238 Y133.375 E13.65515
G1 X60.294 Y137.320 E13.90783
G1 X60.847 Y137.319 E13.93287
G1 X64.238 Y133.928 E14.15014
G1 X64.238 Y134.480 E14.17516
G1 X61.399 Y137.319 E14.35701
G1 X61.952 Y137.318 E14.38205
G1 X64.238 Y135.032 E14.52848
G1 X64.238 Y135.585 E14.55350
G1 X62.505 Y137.317 E14.66452
G1 X63.058 Y137.317 E14.68956
G1 X64.238 Y136.137 E14.76516
G1 X64.238 Y136.689 E14.79018
G1 X63.611 Y137.316 E14.83036
G1 E12.83036 F1200.00000
G92 E0
G1 Z0.800 F6000.000
G1 X24.310 Y113.227 F6000.000
G1 Z0.300 F6000.000
G1 E2.00000 F1200.00000
G1 F1800
G1 X24.310 Y117.388 E2.18610
G1 X-0.710 Y117.413 E3.30526
G1 X-0.710 Y113.252 E3.49137
G1 X24.250 Y113.228 E4.60785
G1 X24.696 Y112.841 F6000.000
G1 F1800
G1 X24.696 Y117.773 E4.82844
G1 X-1.096 Y117.799 E5.98211
G1 X-1.096 Y112.867 E6.20271
G1 X24.636 Y112.842 E7.35369
G1 X25.081 Y112.455 F6000.000
G1 F1800
G1 X25.081 Y118.158 E7.60878
G1 X-1.482 Y118.185 E8.79694
G1 X-1.482 Y112.482 E9.05204
G1 X25.021 Y112.456 E10.23751
