; generated by Slic3r 1.3.0 on 2021-03-06 at 11:20:01

; external perimeters extrusion width = 0.44mm (2.86mm^3/s)
; perimeters extrusion width = 0.56mm (4.14mm^3/s)
; infill extrusion width = 0.50mm (3.66mm^3/s)
; solid infill extrusion width = 0.56mm (3.10mm^3/s)
; top infill extrusion width = 0.45mm (2.44mm^3/s)

M107
;D3D:START:START
T0
M104 S215 T0

G21
G90
M107
T0
G28
G29
M109 T0 S215 T0
G0 F3000
M107
T0
G92 E0
G0 X0 Y149 Z0.1 F3600
G1 Y49 E6.5 F1200
G0 Z1
G92 E0
; Filament gcode

G21 ; set units to millimeters
G90 ; use absolute coordinates
M82 ; use absolute distances for extrusion
G92 E0
G1 Z0.300 F6000.000
G1 E-2.00000 F1200.00000
G92 E0
G1 Z0.800 F6000.000
G1 X55.770 Y54.699 F6000.000
G1 Z0.300 F6000.000
G1 E2.00000 F1200.00000
G1 F1800
G1 X57.528 Y53.187 E2.10372
G1 X59.693 Y52.356 E2.20744
G1 X61.000 Y52.229 E2.26617
G1 X89.000 Y52.229 E3.51860
G1 X91.285 Y52.626 E3.62232
G1 X93.301 Y53.770 E3.72605
G1 X94.813 Y55.528 E3.82977
G1 X95.644 Y57.693 E3.93349
G1 X95.771 Y59.000 E3.99221
G1 X95.771 Y89.000 E5.33411
G1 X95.374 Y91.285 E5.43783
G1 X94.230 Y93.301 E5.54155
G1 X92.472 Y94.813 E5.64527
G1 X89.613 Y95.743 E5.77974
G1 X67.613 Y97.743 E6.76785
G1 X67.000 Y97.771 E6.79530
G1 X61.000 Y97.771 E7.06368
G1 X58.715 Y97.374 E7.16740
G1 X56.699 Y96.230 E7.27112
G1 X55.187 Y94.472 E7.37484
G1 X54.356 Y92.307 E7.47856
G1 X54.229 Y91.000 E7.53729
G1 X54.229 Y59.000 E8.96864
G1 X54.626 Y56.715 E9.07236
G1 X55.741 Y54.751 E9.17340
G1 X56.153 Y54.843 F6000.000
G1 F1800
G1 X57.896 Y53.419 E9.27410
G1 X61.000 Y52.614 E9.41752
G1 X89.000 Y52.614 E10.66996
G1 X91.216 Y53.011 E10.77066
G1 X93.157 Y54.153 E10.87136
G1 X94.581 Y55.896 E10.97206
G1 X95.386 Y59.000 E11.11548
G1 X95.386 Y89.000 E12.45738
G1 X94.989 Y91.216 E12.55808
G1 X93.847 Y93.157 E12.65878
G1 X92.104 Y94.581 E12.75948
G1 X89.578 Y95.359 E12.87770
G1 X67.578 Y97.359 E13.86581
G1 X67.000 Y97.386 E13.89170
G1 X61.000 Y97.386 E14.16008
G1 X58.784 Y96.989 E14.26078
G1 X56.843 Y95.847 E14.36148
G1 X55.419 Y94.104 E14.46218
G1 X54.614 Y91.000 E14.60560
G1 X54.614 Y59.000 E16.03696
G1 X55.011 Y56.784 E16.13766
G1 X56.122 Y54.895 E16.23567
G1 E14.23567 F1200.00000
G92 E0
G1 Z0.800 F6000.000
G1 X66.389 Y88.389 F6000.000
G1 Z0.300 F6000.000
G1 E2.00000 F1200.00000
G1 F1800
G1 X66.389 Y90.389 E2.08946
G1 X62.474 Y90.389 E2.26459
G1 X65.046 Y87.818 E2.42725
G1 X61.790 Y84.563 E2.63316
G1 X66.389 Y81.908 E2.87069
G1 X66.389 Y87.611 E3.12579
G1 X88.389 Y87.611 E4.10984
G1 X88.389 Y88.389 E4.14468
G1 X66.449 Y88.389 E5.12605
G1 X66.775 Y88.775 F6000.000
G1 F1800
G1 X66.775 Y90.775 E5.21551
G1 X61.543 Y90.775 E5.44953
G1 X64.500 Y87.818 E5.63658
G1 X61.162 Y84.480 E5.84772
G1 X66.775 Y81.240 E6.13761
G1 X66.775 Y87.225 E6.40533
G1 X88.775 Y87.225 E7.38939
G1 X88.775 Y88.775 E7.45872
G1 X66.835 Y88.775 E8.44009
G1 X66.375 Y88.784 F6000.000
G1 X66.197 Y88.000 F6000.000
G1 F1800
G1 X88.197 Y88.000 E9.27906
G1 E7.27906 F1200.00000
G92 E0
G1 Z0.800 F6000.000
G1 X65.690 Y90.317 F6000.000
G1 Z0.300 F6000.000
G1 E2.00000 F1200.00000
G1 F1800
G1 X66.317 Y89.690 E2.04067
G1 X66.317 Y89.131 E2.06630
G1 X65.131 Y90.317 E2.14321
G1 X64.572 Y90.317 E2.16884
G1 X66.317 Y88.572 E2.28199
G1 X66.317 Y88.269 E2.29591
G1 X66.125 Y88.269 E2.30475
G1 X66.125 Y88.206 E2.30762
G1 X64.013 Y90.317 E2.44451
G1 X63.454 Y90.317 E2.47014
G1 X66.125 Y87.647 E2.64327
G1 X66.125 Y87.104 E2.66816
G1 X66.317 Y87.104 E2.67700
G1 X66.317 Y86.895 E2.68658
G1 X65.179 Y88.033 E2.76037
G1 X64.900 Y87.754 E2.77849
G1 X66.317 Y86.336 E2.87041
G1 X66.317 Y85.777 E2.89604
G1 X64.620 Y87.474 E3.00607
G1 X64.341 Y87.195 E3.02419
G1 X66.317 Y85.218 E3.15235
G1 X66.317 Y84.659 E3.17798
G1 X64.061 Y86.916 E3.32426
G1 X63.782 Y86.636 E3.34238
G1 X66.317 Y84.100 E3.50678
G1 X66.317 Y83.541 E3.53240
G1 X63.502 Y86.357 E3.71492
G1 X63.223 Y86.077 E3.73304
G1 X66.317 Y82.983 E3.93368
G1 X66.317 Y82.424 E3.95931
G1 X62.943 Y85.798 E4.17807
G1 X62.664 Y85.518 E4.19619
G1 X65.377 Y82.805 E4.37212
G1 X64.055 Y83.568 E4.44214
G1 X62.384 Y85.239 E4.55044
G1 X62.105 Y84.959 E4.56856
G1 X62.732 Y84.332 E4.60924
G1 E2.60924 F1200.00000
G92 E0
G1 Z0.800 F6000.000
G1 X65.046 Y62.182 F6000.000
G1 Z0.300 F6000.000
G1 E2.00000 F1200.00000
G1 F1800
G1 X62.474 Y59.611 E2.16266
G1 X88.389 Y59.611 E3.32184
G1 X88.389 Y60.389 E3.35668
G1 X66.389 Y60.389 E4.34073
G1 X66.389 Y65.239 E4.55767
G1 X61.988 Y65.239 E4.75454
G1 X65.003 Y62.224 E4.94526
G1 X64.500 Y62.182 F6000.000
G1 F1800
G1 X61.543 Y59.225 E5.13231
G1 X88.775 Y59.225 E6.35038
G1 X88.775 Y60.775 E6.41972
G1 X66.775 Y60.775 E7.40377
G1 X66.775 Y65.625 E7.62071
G1 X61.225 Y65.625 E7.86896
G1 X61.225 Y65.457 E7.87647
G1 X64.458 Y62.224 E8.08097
G1 X64.781 Y61.897 F6000.000
G1 E6.08097 F1200.00000
G92 E0
G1 Z0.800 F6000.000
G1 X63.092 Y60.310 F6000.000
G1 Z0.300 F6000.000
G1 E2.00000 F1200.00000
G1 F1800
G1 X63.719 Y59.683 E2.04172
G1 X64.292 Y59.683 E2.06870
G1 X63.378 Y60.597 E2.12951
G1 X63.665 Y60.883 E2.14859
G1 X64.866 Y59.683 E2.22847
G1 X65.439 Y59.683 E2.25545
G1 X63.952 Y61.170 E2.35441
G1 X64.239 Y61.457 E2.37349
G1 X66.013 Y59.683 E2.49153
G1 X66.125 Y59.683 E2.49678
G1 X66.125 Y60.145 E2.51851
G1 X64.525 Y61.744 E2.62489
G1 X64.812 Y62.030 E2.64397
G1 X66.317 Y60.525 E2.74411
G1 X66.317 Y61.099 E2.77109
G1 X65.099 Y62.317 E2.85214
G1 X65.277 Y62.496 E2.86401
G1 X62.605 Y65.167 E3.04176
G1 X62.822 Y65.167 E3.05196
G1 X66.317 Y61.672 E3.28447
G1 X66.317 Y62.246 E3.31145
G1 X63.396 Y65.167 E3.50581
G1 X63.969 Y65.167 E3.53279
G1 X66.317 Y62.819 E3.68899
G1 X66.317 Y63.393 E3.71597
G1 X64.543 Y65.167 E3.83401
G1 X65.117 Y65.167 E3.86099
G1 X66.317 Y63.967 E3.94088
G1 X66.317 Y64.540 E3.96786
G1 X65.690 Y65.167 E4.00959
G1 E2.00959 F1200.00000
G92 E0
G1 Z0.800 F6000.000
G1 X66.197 Y60.000 F6000.000
G1 Z0.300 F6000.000
G1 E2.00000 F1200.00000
G1 F1800
G1 X88.197 Y60.000 E2.83897
G1 Z0.500 F6000.000
G1 E0.83897 F1200.00000
G92 E0
G1 Z1.000 F6000.000
G1 X66.323 Y87.677 F6000.000
G1 Z0.500 F6000.000
G1 E2.00000 F1200.00000
G1 F2400
G1 X88.323 Y87.677 E2.87968
G1 X88.323 Y88.323 E2.90551
G1 X66.323 Y88.323 E3.78519
G1 X66.323 Y90.323 E3.86517
G1 X62.635 Y90.323 E4.01265
G1 X65.140 Y87.818 E4.15429
G1 X61.899 Y84.577 E4.33756
G1 X66.323 Y82.023 E4.54184
G1 X66.323 Y87.617 E4.76553
G1 X66.780 Y87.220 F6000.000
G1 F2160
G1 X88.780 Y87.220 E5.44107
G1 X88.780 Y88.780 E5.48897
G1 X66.780 Y88.780 E6.16450
G1 X66.780 Y90.780 E6.22591
G1 X61.531 Y90.780 E6.38709
G1 X64.493 Y87.818 E6.51571
G1 X61.154 Y84.479 E6.66070
G1 X66.780 Y81.231 E6.86017
G1 X66.780 Y87.160 E7.04223
G1 X66.926 Y87.593 F6000.000
G1 X66.064 Y88.000 F6000.000
G1 F1200
G1 X88.064 Y88.000 E7.18827
G1 E5.18827 F1200.00000
G92 E0
G1 Z1.000 F6000.000
G1 X65.968 Y88.562 F6000.000
G1 Z0.500 F6000.000
G1 E2.00000 F1200.00000
G1 F1800
G1 X65.127 Y87.721 E2.05240
G1 X64.711 Y88.137 E2.07833
G1 X66.226 Y89.653 E2.17276
G1 X66.226 Y90.226 E2.19804
G1 X65.968 Y90.226 E2.20943
G1 X64.295 Y88.553 E2.31368
G1 X63.879 Y88.969 E2.33961
G1 X65.136 Y90.226 E2.41793
G1 X64.304 Y90.226 E2.45460
G1 X63.462 Y89.385 E2.50700
G1 E0.50700 F1200.00000
G92 E0
G1 Z1.000 F6000.000
G1 X62.320 Y84.267 F6000.000
G1 Z0.500 F6000.000
G1 E2.00000 F1200.00000
G1 F1800
G1 X65.968 Y87.915 E2.22727
G1 X65.968 Y87.839 E2.23061
G1 X66.226 Y87.839 E2.24200
G1 X66.226 Y87.368 E2.26277
G1 X62.831 Y83.973 E2.47432
G1 X63.342 Y83.678 E2.50031
G1 X66.226 Y86.562 E2.68003
G1 X66.226 Y85.756 E2.71553
G1 X63.853 Y83.383 E2.86342
G1 X64.364 Y83.088 E2.88941
G1 X66.226 Y84.950 E3.00547
G1 X66.226 Y84.145 E3.04097
G1 X64.874 Y82.793 E3.12520
G1 X65.385 Y82.498 E3.15119
G1 X66.226 Y83.339 E3.20359
G1 E1.20359 F1200.00000
G92 E0
G1 Z1.000 F6000.000
G1 X65.140 Y62.182 F6000.000
G1 Z0.500 F6000.000
G1 E2.00000 F1200.00000
G1 F2400
G1 X62.635 Y59.677 E2.14165
G1 X88.323 Y59.677 E3.16881
G1 X88.323 Y60.323 E3.19464
G1 X66.323 Y60.323 E4.07432
G1 X66.323 Y65.173 E4.26825
G1 X62.149 Y65.173 E4.43517
G1 X65.097 Y62.224 E4.60190
G1 X64.493 Y62.182 F6000.000
G1 F2160
G1 X61.531 Y59.220 E4.73053
G1 X88.780 Y59.220 E5.56723
G1 X88.780 Y60.780 E5.61513
G1 X66.780 Y60.780 E6.29067
G1 X66.780 Y65.630 E6.43959
G1 X61.220 Y65.630 E6.61032
G1 X61.220 Y65.455 E6.61569
G1 X64.451 Y62.224 E6.75598
G1 X64.774 Y61.897 F6000.000
G1 X66.226 Y62.668 F6000.000
G1 F1800
G1 X65.385 Y61.826 E6.81010
G1 X64.984 Y62.228 E6.83593
G1 X66.226 Y63.470 E6.91588
G1 X66.226 Y64.273 E6.95241
G1 X64.582 Y62.629 E7.05819
G1 X64.181 Y63.031 E7.08402
G1 X66.226 Y65.076 E7.21563
G1 X65.423 Y65.076 E7.25217
G1 X63.779 Y63.432 E7.35795
G1 X63.378 Y63.834 E7.38378
G1 X64.620 Y65.076 E7.46373
G1 X63.817 Y65.076 E7.50026
G1 X62.976 Y64.235 E7.55437
G1 E5.55437 F1200.00000
G92 E0
G1 Z1.000 F6000.000
G1 X63.463 Y59.774 F6000.000
G1 Z0.500 F6000.000
G1 E2.00000 F1200.00000
G1 F1800
G1 X66.226 Y62.537 E2.17783
G1 X66.226 Y61.705 E2.21569
G1 X64.295 Y59.774 E2.33999
G1 X65.127 Y59.774 E2.37784
G1 X65.968 Y60.615 E2.43196
G1 X66.064 Y60.000 F6000.000
G1 F1200
G1 X88.064 Y60.000 E2.57801
G1 Z0.700 F6000.000
G1 E0.57801 F1200.00000
G92 E0
G1 Z1.200 F6000.000
G1 X66.323 Y87.677 F6000.000
G1 Z0.700 F6000.000
G1 E2.00000 F1200.00000
G1 F2400
G1 X88.323 Y87.677 E2.87968
G1 X88.323 Y88.323 E2.90551
G1 X66.323 Y88.323 E3.78519
G1 X66.323 Y90.323 E3.86517
G1 X62.635 Y90.323 E4.01265
G1 X65.140 Y87.818 E4.15429
G1 X61.899 Y84.577 E4.33756
G1 X66.323 Y82.023 E4.54184
G1 X66.323 Y87.617 E4.76553
G1 X66.780 Y87.220 F6000.000
G1 F2160
G1 X88.780 Y87.220 E5.44107
G1 X88.780 Y88.780 E5.48897
G1 X66.780 Y88.780 E6.16450
G1 X66.780 Y90.780 E6.22591
G1 X61.531 Y90.780 E6.38709
G1 X64.493 Y87.818 E6.51571
G1 X61.154 Y84.479 E6.66070
G1 X66.780 Y81.231 E6.86017
G1 X66.780 Y87.160 E7.04223
G1 X66.926 Y87.593 F6000.000
G1 X66.064 Y88.000 F6000.000
G1 F1200
G1 X88.064 Y88.000 E7.18827
G1 E5.18827 F1200.00000
G92 E0
G1 Z1.200 F6000.000
G1 X65.968 Y87.889 F6000.000
G1 Z0.700 F6000.000
G1 E2.00000 F1200.00000
G1 F1800
G1 X63.630 Y90.226 E2.14966
G1 X64.508 Y90.226 E2.18939
G1 X66.226 Y88.508 E2.29942
G1 X66.226 Y89.385 E2.33914
G1 X65.385 Y90.226 E2.39299
G1 E0.39299 F1200.00000
G92 E0
G1 Z1.200 F6000.000
G1 X65.385 Y87.839 F6000.000
G1 Z0.700 F6000.000
G1 E2.00000 F1200.00000
G1 F1800
G1 X66.226 Y86.998 E2.05385
G1 X66.226 Y86.170 E2.09133
G1 X64.804 Y87.592 E2.18239
G1 X64.390 Y87.178 E2.20889
G1 X66.226 Y85.342 E2.32645
G1 X66.226 Y84.514 E2.36393
G1 X63.976 Y86.764 E2.50799
G1 X63.562 Y86.350 E2.53450
G1 X66.226 Y83.686 E2.70506
G1 X66.226 Y82.858 E2.74254
G1 X63.148 Y85.936 E2.93961
G1 X62.734 Y85.522 E2.96612
G1 X65.120 Y83.136 E3.11888
G1 X63.162 Y84.267 E3.22128
G1 X62.321 Y85.108 E3.27512
G1 E1.27512 F1200.00000
G92 E0
G1 Z1.200 F6000.000
G1 X65.140 Y62.182 F6000.000
G1 Z0.700 F6000.000
G1 E2.00000 F1200.00000
G1 F2400
G1 X62.635 Y59.677 E2.14165
G1 X88.323 Y59.677 E3.16881
G1 X88.323 Y60.323 E3.19464
G1 X66.323 Y60.323 E4.07432
G1 X66.323 Y65.173 E4.26825
G1 X62.149 Y65.173 E4.43517
G1 X65.097 Y62.224 E4.60190
G1 X64.493 Y62.182 F6000.000
G1 F2160
G1 X61.531 Y59.220 E4.73053
G1 X88.780 Y59.220 E5.56723
G1 X88.780 Y60.780 E5.61513
G1 X66.780 Y60.780 E6.29067
G1 X66.780 Y65.630 E6.43959
G1 X61.220 Y65.630 E6.61032
G1 X61.220 Y65.455 E6.61569
G1 X64.451 Y62.224 E6.75598
G1 X64.774 Y61.897 F6000.000
G1 X65.385 Y62.344 F6000.000
G1 F1800
G1 X66.226 Y61.503 E6.81306
G1 X66.226 Y60.625 E6.85516
G1 X64.850 Y62.002 E6.94857
G1 X64.411 Y61.563 E6.97835
G1 X65.968 Y60.006 E7.08399
G1 X65.968 Y59.774 E7.09516
G1 X65.323 Y59.774 E7.12610
G1 X63.972 Y61.124 E7.21775
G1 X63.533 Y60.686 E7.24753
G1 X64.445 Y59.774 E7.30941
G1 E5.30941 F1200.00000
G92 E0
G1 Z1.200 F6000.000
G1 X65.385 Y62.667 F6000.000
G1 Z0.700 F6000.000
G1 E2.00000 F1200.00000
G1 F1800
G1 X62.976 Y65.076 E2.16346
G1 X66.226 Y61.827 E2.38399
G1 X66.226 Y62.629 E2.42252
G1 X63.779 Y65.076 E2.58856
G1 X64.582 Y65.076 E2.62708
G1 X66.226 Y63.432 E2.73864
G1 X66.226 Y64.235 E2.77717
G1 X65.385 Y65.076 E2.83424
G1 E0.83424 F1200.00000
G92 E0
G1 Z1.200 F6000.000
G1 X66.064 Y60.000 F6000.000
G1 Z0.700 F6000.000
G1 E2.00000 F1200.00000
G1 F1200
G1 X88.064 Y60.000 E2.14605
G1 Z0.900 F6000.000
G1 E0.14605 F1200.00000
G92 E0
G1 Z1.400 F6000.000
G1 X66.323 Y87.677 F6000.000
G1 Z0.900 F6000.000
G1 E2.00000 F1200.00000
G1 F2400
G1 X88.323 Y87.677 E2.87968
G1 X88.323 Y88.323 E2.90551
G1 X66.323 Y88.323 E3.78519
G1 X66.323 Y90.323 E3.86517
G1 X62.635 Y90.323 E4.01265
G1 X65.140 Y87.818 E4.15429
G1 X61.899 Y84.577 E4.33756
G1 X66.323 Y82.023 E4.54184
G1 X66.323 Y87.617 E4.76553
G1 X66.780 Y87.220 F6000.000
G1 F2160
G1 X88.780 Y87.220 E5.44107
G1 X88.780 Y88.780 E5.48897
G1 X66.780 Y88.780 E6.16450
G1 X66.780 Y90.780 E6.22591
G1 X61.531 Y90.780 E6.38709
G1 X64.493 Y87.818 E6.51571
G1 X61.154 Y84.479 E6.66070
G1 X66.780 Y81.231 E6.86017
G1 X66.780 Y87.160 E7.04223
G1 X66.926 Y87.593 F6000.000
G1 X66.064 Y88.000 F6000.000
G1 F1200
G1 X88.064 Y88.000 E7.18827
G1 E5.18827 F1200.00000
G92 E0
G1 Z1.400 F6000.000
G1 X65.968 Y88.562 F6000.000
G1 Z0.900 F6000.000
G1 E2.00000 F1200.00000
G1 F1800
G1 X65.127 Y87.721 E2.05240
G1 X64.711 Y88.137 E2.07833
G1 X66.226 Y89.653 E2.17276
G1 X66.226 Y90.226 E2.19804
G1 X65.968 Y90.226 E2.20943
G1 X64.295 Y88.553 E2.31368
G1 X63.879 Y88.969 E2.33961
G1 X65.136 Y90.226 E2.41793
G1 X64.304 Y90.226 E2.45460
G1 X63.462 Y89.385 E2.50700
G1 E0.50700 F1200.00000
G92 E0
G1 Z1.400 F6000.000
G1 X62.320 Y84.267 F6000.000
G1 Z0.900 F6000.000
G1 E2.00000 F1200.00000
G1 F1800
G1 X65.968 Y87.915 E2.22727
G1 X65.968 Y87.839 E2.23061
G1 X66.226 Y87.839 E2.24200
G1 X66.226 Y87.368 E2.26277
G1 X62.831 Y83.973 E2.47432
G1 X63.342 Y83.678 E2.50031
G1 X66.226 Y86.562 E2.68003
G1 X66.226 Y85.756 E2.71553
G1 X63.853 Y83.383 E2.86342
G1 X64.364 Y83.088 E2.88941
G1 X66.226 Y84.950 E3.00547
G1 X66.226 Y84.145 E3.04097
G1 X64.874 Y82.793 E3.12520
G1 X65.385 Y82.498 E3.15119
G1 X66.226 Y83.339 E3.20359
G1 E1.20359 F1200.00000
G92 E0
G1 Z1.400 F6000.000
G1 X65.140 Y62.182 F6000.000
G1 Z0.900 F6000.000
G1 E2.00000 F1200.00000
G1 F2400
G1 X62.635 Y59.677 E2.14165
G1 X88.323 Y59.677 E3.16881
G1 X88.323 Y60.323 E3.19464
G1 X66.323 Y60.323 E4.07432
G1 X66.323 Y65.173 E4.26825
G1 X62.149 Y65.173 E4.43517
G1 X65.097 Y62.224 E4.60190
G1 X64.493 Y62.182 F6000.000
G1 F2160
G1 X61.531 Y59.220 E4.73053
G1 X88.780 Y59.220 E5.56723
G1 X88.780 Y60.780 E5.61513
G1 X66.780 Y60.780 E6.29067
G1 X66.780 Y65.630 E6.43959
G1 X61.220 Y65.630 E6.61032
G1 X61.220 Y65.455 E6.61569
G1 X64.451 Y62.224 E6.75598
G1 X64.774 Y61.897 F6000.000
G1 X66.226 Y62.668 F6000.000
G1 F1800
G1 X65.385 Y61.826 E6.81010
G1 X64.984 Y62.228 E6.83593
G1 X66.226 Y63.470 E6.91588
G1 X66.226 Y64.273 E6.95241
G1 X64.582 Y62.629 E7.05819
G1 X64.181 Y63.031 E7.08402
G1 X66.226 Y65.076 E7.21563
G1 X65.423 Y65.076 E7.25217
G1 X63.779 Y63.432 E7.35795
G1 X63.378 Y63.834 E7.38378
G1 X64.620 Y65.076 E7.46373
G1 X63.817 Y65.076 E7.50026
G1 X62.976 Y64.235 E7.55437
G1 E5.55437 F1200.00000
G92 E0
G1 Z1.400 F6000.000
G1 X63.463 Y59.774 F6000.000
G1 Z0.900 F6000.000
G1 E2.00000 F1200.00000
G1 F1800
G1 X66.033 Y62.344 E2.16538
G1 X66.226 Y62.344 E2.17419
G1 X66.226 Y61.705 E2.20324
G1 X64.295 Y59.774 E2.32753
G1 X65.127 Y59.774 E2.36539
G1 X65.968 Y60.615 E2.41951
G1 X66.064 Y60.000 F6000.000
G1 F1200
G1 X88.064 Y60.000 E2.56556
M106 S255
G1 Z1.100 F6000.000
G1 E0.56556 F1200.00000
G92 E0
G1 Z1.600 F6000.000
G1 X66.323 Y87.677 F6000.000
G1 Z1.100 F6000.000
G1 E2.00000 F1200.00000
G1 F2400
G1 X88.323 Y87.677 E2.87968
G1 X88.323 Y88.323 E2.90551
G1 X66.323 Y88.323 E3.78519
G1 X66.323 Y90.323 E3.86517
G1 X62.635 Y90.323 E4.01265
G1 X65.140 Y87.818 E4.15429
G1 X61.899 Y84.577 E4.33756
G1 X66.323 Y82.023 E4.54184
G1 X66.323 Y87.617 E4.76553
G1 X66.780 Y87.220 F6000.000
G1 F2160
G1 X88.780 Y87.220 E5.44107
G1 X88.780 Y88.780 E5.48897
G1 X66.780 Y88.780 E6.16450
G1 X66.780 Y90.780 E6.22591
G1 X61.531 Y90.780 E6.38709
G1 X64.493 Y87.818 E6.51571
G1 X61.154 Y84.479 E6.66070
G1 X66.780 Y81.231 E6.86017
G1 X66.780 Y87.160 E7.04223
G1 X66.926 Y87.593 F6000.000
G1 X66.064 Y88.000 F6000.000
G1 F1200
G1 X88.064 Y88.000 E7.18827
G1 E5.18827 F1200.00000
G92 E0
