; generated by Slic3r 1.3.0 on 2020-04-16 at 20:42:01

; external perimeters extrusion width = 0.44mm (2.86mm^3/s)
; perimeters extrusion width = 0.56mm (4.14mm^3/s)
; infill extrusion width = 0.50mm (5.48mm^3/s)
; solid infill extrusion width = 0.56mm (3.10mm^3/s)
; top infill extrusion width = 0.45mm (2.44mm^3/s)

M107
;D3D:START:START
T0
M104 S215 T0

G21
G90
M107
T0
G28
G29
M109 T0 S215 T0
G0 F3000
M107
T0
G92 E0
G0 X0 Y149 Z0.1 F3600
G1 Y49 E6.5 F1200
G0 Z1
G92 E0
; Filament gcode

G21 ; set units to millimeters
G90 ; use absolute coordinates
M82 ; use absolute distances for extrusion
G92 E0
G1 Z0.200 F6000.000
G1 E-2.00000 F1200.00000
G92 E0
G1 X51.999 Y48.489 F6000.000
G1 E2.00000 F1200.00000
G1 F1800
G1 X53.642 Y47.556 E2.03636
G1 X55.000 Y47.347 E2.06279
G1 X95.000 Y47.347 E2.83233
G1 X96.848 Y47.742 E2.86869
G1 X98.372 Y48.860 E2.90505
G1 X99.305 Y50.503 E2.94141
G1 X99.514 Y51.861 E2.96784
G1 X99.514 Y98.139 E3.85816
G1 X99.119 Y99.987 E3.89452
G1 X98.001 Y101.511 E3.93088
G1 X96.358 Y102.444 E3.96723
G1 X95.000 Y102.653 E3.99366
G1 X55.000 Y102.653 E4.76321
G1 X53.152 Y102.258 E4.79957
G1 X51.628 Y101.140 E4.83592
G1 X50.695 Y99.497 E4.87228
G1 X50.486 Y98.139 E4.89871
G1 X50.486 Y51.861 E5.78904
G1 X50.881 Y50.013 E5.82540
G1 X51.963 Y48.537 E5.86060
G1 X52.251 Y48.611 F6000.000
G1 F1800
G1 X53.874 Y47.756 E5.89589
G1 X55.000 Y47.604 E5.91775
G1 X95.000 Y47.604 E6.68730
G1 X96.792 Y47.999 E6.72260
G1 X98.250 Y49.112 E6.75789
G1 X99.105 Y50.735 E6.79319
G1 X99.257 Y51.861 E6.81505
G1 X99.257 Y98.139 E7.70537
G1 X98.862 Y99.931 E7.74067
G1 X97.749 Y101.389 E7.77596
G1 X96.126 Y102.244 E7.81126
G1 X95.000 Y102.396 E7.83312
G1 X55.000 Y102.396 E8.60266
G1 X53.209 Y102.001 E8.63796
G1 X51.750 Y100.888 E8.67325
G1 X50.895 Y99.265 E8.70855
G1 X50.743 Y98.139 E8.73041
G1 X50.743 Y51.861 E9.62074
G1 X51.138 Y50.069 E9.65603
G1 X52.214 Y48.658 E9.69017
G1 E7.69017 F1200.00000
G92 E0
G1 X88.164 Y90.664 F6000.000
G1 E2.00000 F1200.00000
G1 F1800
G1 X77.985 Y90.664 E2.19583
G1 X78.994 Y89.154 E2.23077
G1 X79.323 Y87.500 E2.26322
G1 X78.994 Y85.846 E2.29567
G1 X78.057 Y84.443 E2.32812
G1 X76.836 Y83.628 E2.35637
G1 X76.836 Y66.372 E2.68833
G1 X78.057 Y65.557 E2.71658
G1 X78.994 Y64.154 E2.74903
G1 X79.323 Y62.500 E2.78148
G1 X78.994 Y60.846 E2.81393
G1 X77.985 Y59.336 E2.84886
G1 X88.164 Y59.336 E3.04470
G1 X88.164 Y90.604 E3.64626
G1 X87.907 Y90.407 F6000.000
G1 F1800
G1 X78.466 Y90.407 E3.82789
G1 X79.236 Y89.255 E3.85456
G1 X79.585 Y87.500 E3.88898
G1 X79.236 Y85.745 E3.92339
G1 X78.242 Y84.258 E3.95781
G1 X77.093 Y83.490 E3.98440
G1 X77.093 Y66.510 E4.31108
G1 X78.242 Y65.742 E4.33766
G1 X79.236 Y64.255 E4.37208
G1 X79.585 Y62.500 E4.40650
G1 X79.236 Y60.745 E4.44092
G1 X78.466 Y59.593 E4.46758
G1 X87.907 Y59.593 E4.64922
G1 X87.907 Y90.347 E5.24089
G1 X87.650 Y90.150 F6000.000
G1 F1800
G1 X78.947 Y90.150 E5.40832
G1 X79.478 Y89.355 E5.42672
G1 X79.847 Y87.500 E5.46311
G1 X79.478 Y85.645 E5.49949
G1 X78.427 Y84.073 E5.53587
G1 X77.350 Y83.353 E5.56080
G1 X77.350 Y66.647 E5.88219
G1 X78.427 Y65.927 E5.90712
G1 X79.478 Y64.355 E5.94351
G1 X79.847 Y62.500 E5.97989
G1 X79.478 Y60.645 E6.01628
G1 X78.947 Y59.850 E6.03467
G1 X87.650 Y59.850 E6.20211
G1 X87.650 Y90.090 E6.78389
G1 X87.687 Y90.548 F6000.000
G1 E4.78389 F1200.00000
G92 E0
G1 X76.134 Y64.464 F6000.000
G1 E2.00000 F1200.00000
G1 F1800
G1 X75.701 Y64.657 E2.00912
G1 X75.237 Y64.755 E2.01824
G1 X74.763 Y64.755 E2.02736
G1 X74.299 Y64.657 E2.03649
G1 X73.866 Y64.464 E2.04561
G1 X73.483 Y64.185 E2.05473
G1 X73.165 Y63.833 E2.06385
G1 X72.927 Y63.420 E2.07301
G1 X72.780 Y62.958 E2.08234
G1 X72.732 Y62.500 E2.09121
G1 X72.782 Y62.028 E2.10033
G1 X72.928 Y61.578 E2.10945
G1 X73.165 Y61.167 E2.11857
G1 X73.483 Y60.815 E2.12769
G1 X73.866 Y60.536 E2.13681
G1 X74.299 Y60.343 E2.14593
G1 X74.763 Y60.245 E2.15506
G1 X75.237 Y60.245 E2.16417
G1 X75.701 Y60.343 E2.17330
G1 X76.134 Y60.536 E2.18242
G1 X76.517 Y60.815 E2.19154
G1 X76.835 Y61.167 E2.20066
G1 X77.072 Y61.578 E2.20978
G1 X77.218 Y62.028 E2.21890
G1 X77.268 Y62.500 E2.22802
G1 X77.218 Y62.972 E2.23715
G1 X77.072 Y63.422 E2.24627
G1 X76.835 Y63.833 E2.25539
G1 X76.517 Y64.185 E2.26451
G1 X76.182 Y64.429 E2.27247
G1 X76.005 Y64.240 F6000.000
G1 F1800
G1 X75.621 Y64.411 E2.28056
G1 X75.210 Y64.498 E2.28864
G1 X74.790 Y64.498 E2.29672
G1 X74.379 Y64.411 E2.30480
G1 X73.995 Y64.240 E2.31288
G1 X73.656 Y63.993 E2.32096
G1 X73.374 Y63.681 E2.32904
G1 X73.164 Y63.316 E2.33715
G1 X73.033 Y62.905 E2.34544
G1 X72.991 Y62.500 E2.35328
G1 X73.035 Y62.082 E2.36137
G1 X73.164 Y61.683 E2.36945
G1 X73.374 Y61.319 E2.37753
G1 X73.656 Y61.007 E2.38561
G1 X73.995 Y60.760 E2.39369
G1 X74.379 Y60.589 E2.40177
G1 X74.790 Y60.502 E2.40985
G1 X75.210 Y60.502 E2.41793
G1 X75.621 Y60.589 E2.42602
G1 X76.005 Y60.760 E2.43410
G1 X76.344 Y61.007 E2.44218
G1 X76.626 Y61.319 E2.45026
G1 X76.836 Y61.683 E2.45834
G1 X76.965 Y62.082 E2.46642
G1 X77.009 Y62.500 E2.47450
G1 X76.965 Y62.918 E2.48259
G1 X76.836 Y63.317 E2.49067
G1 X76.626 Y63.681 E2.49875
G1 X76.344 Y63.993 E2.50683
G1 X76.053 Y64.205 E2.51376
G1 X75.875 Y64.016 F6000.000
G1 F1800
G1 X75.541 Y64.165 E2.52080
G1 X75.183 Y64.241 E2.52784
G1 X74.817 Y64.241 E2.53488
G1 X74.459 Y64.165 E2.54192
G1 X74.125 Y64.016 E2.54897
G1 X73.828 Y63.801 E2.55601
G1 X73.584 Y63.529 E2.56305
G1 X73.400 Y63.212 E2.57010
G1 X73.286 Y62.852 E2.57735
G1 X73.249 Y62.500 E2.58417
G1 X73.287 Y62.136 E2.59121
G1 X73.401 Y61.788 E2.59825
G1 X73.584 Y61.471 E2.60530
G1 X73.828 Y61.199 E2.61234
G1 X74.125 Y60.984 E2.61938
G1 X74.459 Y60.835 E2.62642
G1 X74.817 Y60.759 E2.63346
G1 X75.183 Y60.759 E2.64050
G1 X75.541 Y60.835 E2.64755
G1 X75.875 Y60.984 E2.65459
G1 X76.172 Y61.199 E2.66163
G1 X76.416 Y61.471 E2.66867
G1 X76.599 Y61.788 E2.67571
G1 X76.713 Y62.136 E2.68275
G1 X76.751 Y62.500 E2.68980
G1 X76.713 Y62.864 E2.69684
G1 X76.599 Y63.212 E2.70388
G1 X76.416 Y63.529 E2.71092
G1 X76.172 Y63.801 E2.71796
G1 X75.924 Y63.981 E2.72385
G1 X75.875 Y64.382 F6000.000
G1 E0.72385 F1200.00000
G92 E0
G1 X72.015 Y59.336 F6000.000
G1 E2.00000 F1200.00000
G1 F1800
G1 X71.006 Y60.846 E2.03494
G1 X70.677 Y62.500 E2.06738
G1 X71.006 Y64.154 E2.09983
G1 X71.943 Y65.557 E2.13228
G1 X73.164 Y66.372 E2.16053
G1 X73.164 Y83.628 E2.49250
G1 X71.943 Y84.443 E2.52074
G1 X71.006 Y85.846 E2.55319
G1 X70.677 Y87.500 E2.58564
G1 X71.006 Y89.154 E2.61809
G1 X72.015 Y90.664 E2.65303
G1 X61.836 Y90.664 E2.84886
G1 X61.836 Y59.336 E3.45158
G1 X71.955 Y59.336 E3.64626
G1 X71.534 Y59.593 F6000.000
G1 F1800
G1 X70.764 Y60.745 E3.67292
G1 X70.415 Y62.500 E3.70734
G1 X70.764 Y64.255 E3.74176
G1 X71.758 Y65.742 E3.77617
G1 X72.907 Y66.510 E3.80276
G1 X72.907 Y83.490 E4.12944
G1 X71.758 Y84.258 E4.15603
G1 X70.764 Y85.745 E4.19045
G1 X70.415 Y87.500 E4.22486
G1 X70.764 Y89.255 E4.25928
G1 X71.534 Y90.407 E4.28595
G1 X62.093 Y90.407 E4.46758
G1 X62.093 Y59.593 E5.06040
G1 X71.474 Y59.593 E5.24089
G1 X71.053 Y59.850 F6000.000
G1 F1800
G1 X70.522 Y60.645 E5.25928
G1 X70.153 Y62.500 E5.29567
G1 X70.522 Y64.355 E5.33205
G1 X71.573 Y65.927 E5.36844
G1 X72.650 Y66.647 E5.39337
G1 X72.650 Y83.353 E5.71476
G1 X71.573 Y84.073 E5.73968
G1 X70.522 Y85.645 E5.77607
G1 X70.153 Y87.500 E5.81245
G1 X70.522 Y89.355 E5.84884
G1 X71.053 Y90.150 E5.86724
G1 X62.350 Y90.150 E6.03467
G1 X62.350 Y59.850 E6.61760
G1 X70.993 Y59.850 E6.78389
G1 X70.866 Y60.204 F6000.000
G1 E4.78389 F1200.00000
G92 E0
G1 X74.763 Y85.245 F6000.000
G1 E2.00000 F1200.00000
G1 F1800
G1 X75.237 Y85.245 E2.00912
G1 X75.701 Y85.343 E2.01824
G1 X76.134 Y85.536 E2.02736
G1 X76.517 Y85.815 E2.03648
G1 X76.835 Y86.167 E2.04560
G1 X77.072 Y86.578 E2.05473
G1 X77.218 Y87.028 E2.06385
G1 X77.268 Y87.500 E2.07297
G1 X77.218 Y87.972 E2.08209
G1 X77.072 Y88.422 E2.09121
G1 X76.835 Y88.833 E2.10033
G1 X76.517 Y89.185 E2.10945
G1 X76.134 Y89.464 E2.11857
G1 X75.701 Y89.657 E2.12769
G1 X75.237 Y89.755 E2.13682
G1 X74.763 Y89.755 E2.14594
G1 X74.299 Y89.657 E2.15506
G1 X73.866 Y89.464 E2.16418
G1 X73.483 Y89.185 E2.17330
G1 X73.165 Y88.833 E2.18242
G1 X72.927 Y88.420 E2.19158
G1 X72.780 Y87.958 E2.20092
G1 X72.732 Y87.500 E2.20978
G1 X72.782 Y87.028 E2.21890
G1 X72.928 Y86.578 E2.22802
G1 X73.165 Y86.167 E2.23714
G1 X73.483 Y85.815 E2.24626
G1 X73.866 Y85.536 E2.25538
G1 X74.299 Y85.343 E2.26451
G1 X74.704 Y85.257 E2.27247
G1 X74.790 Y85.502 F6000.000
G1 F1800
G1 X75.210 Y85.502 E2.28055
G1 X75.621 Y85.589 E2.28864
G1 X76.005 Y85.760 E2.29672
G1 X76.344 Y86.007 E2.30480
G1 X76.626 Y86.319 E2.31288
G1 X76.836 Y86.683 E2.32096
G1 X76.965 Y87.082 E2.32904
G1 X77.009 Y87.500 E2.33712
G1 X76.965 Y87.918 E2.34521
G1 X76.836 Y88.317 E2.35329
G1 X76.626 Y88.681 E2.36137
G1 X76.344 Y88.993 E2.36945
G1 X76.005 Y89.240 E2.37753
G1 X75.621 Y89.411 E2.38561
G1 X75.210 Y89.498 E2.39369
G1 X74.790 Y89.498 E2.40177
G1 X74.379 Y89.411 E2.40986
G1 X73.995 Y89.240 E2.41794
G1 X73.656 Y88.993 E2.42602
G1 X73.374 Y88.681 E2.43410
G1 X73.164 Y88.316 E2.44221
G1 X73.033 Y87.905 E2.45050
G1 X72.991 Y87.500 E2.45834
G1 X73.035 Y87.082 E2.46642
G1 X73.164 Y86.683 E2.47450
G1 X73.374 Y86.319 E2.48259
G1 X73.656 Y86.007 E2.49067
G1 X73.995 Y85.760 E2.49875
G1 X74.379 Y85.589 E2.50683
G1 X74.731 Y85.514 E2.51376
G1 X74.817 Y85.759 F6000.000
G1 F1800
G1 X75.183 Y85.759 E2.52080
G1 X75.541 Y85.835 E2.52784
G1 X75.875 Y85.984 E2.53488
G1 X76.172 Y86.199 E2.54192
G1 X76.416 Y86.471 E2.54896
G1 X76.599 Y86.788 E2.55601
G1 X76.713 Y87.136 E2.56305
G1 X76.751 Y87.500 E2.57009
G1 X76.713 Y87.864 E2.57713
G1 X76.599 Y88.212 E2.58417
G1 X76.416 Y88.529 E2.59122
G1 X76.172 Y88.801 E2.59826
G1 X75.875 Y89.016 E2.60530
G1 X75.541 Y89.165 E2.61234
G1 X75.183 Y89.241 E2.61938
G1 X74.817 Y89.241 E2.62642
G1 X74.459 Y89.165 E2.63347
G1 X74.125 Y89.016 E2.64051
G1 X73.828 Y88.801 E2.64755
G1 X73.584 Y88.529 E2.65459
G1 X73.400 Y88.212 E2.66164
G1 X73.286 Y87.852 E2.66889
G1 X73.249 Y87.500 E2.67571
G1 X73.287 Y87.136 E2.68275
G1 X73.401 Y86.788 E2.68980
G1 X73.584 Y86.471 E2.69684
G1 X73.828 Y86.199 E2.70388
G1 X74.125 Y85.984 E2.71092
G1 X74.459 Y85.835 E2.71796
G1 X74.758 Y85.771 E2.72385
G1 X74.966 Y85.424 F6000.000
G1 E0.72385 F1200.00000
G92 E0
G1 X55.664 Y97.475 F6000.000
G1 E2.00000 F1200.00000
G1 F1800
G1 X55.664 Y52.525 E2.86477
G1 X94.336 Y52.525 E3.60876
G1 X94.336 Y97.475 E4.47353
G1 X55.724 Y97.475 E5.21637
G1 X55.407 Y97.732 F6000.000
G1 F1800
G1 X55.407 Y52.268 E6.09103
G1 X94.593 Y52.268 E6.84491
G1 X94.593 Y97.732 E7.71958
G1 X55.467 Y97.732 E8.47231
G1 X55.150 Y97.989 F6000.000
G1 F1800
G1 X55.150 Y52.011 E9.35686
G1 X94.850 Y52.011 E10.12063
G1 X94.850 Y97.989 E11.00519
G1 X55.210 Y97.989 E11.76781
G1 X55.244 Y97.600 F6000.000
G1 E9.76781 F1200.00000
G92 E0
G1 X65.954 Y97.327 F6000.000
G1 E2.00000 F1200.00000
G1 F1800
G1 X72.468 Y90.812 E2.17739
G1 X72.104 Y90.812 E2.18439
G1 X65.590 Y97.327 E2.36178
G1 X65.226 Y97.327 E2.36878
G1 X71.741 Y90.812 E2.54617
G1 X71.377 Y90.812 E2.55317
G1 X64.862 Y97.327 E2.73056
G1 X64.498 Y97.327 E2.73757
G1 X71.013 Y90.812 E2.91495
G1 X70.649 Y90.812 E2.92196
G1 X64.134 Y97.327 E3.09934
G1 X63.770 Y97.327 E3.10635
G1 X70.285 Y90.812 E3.28373
G1 X69.921 Y90.812 E3.29074
G1 X63.407 Y97.327 E3.46812
G1 X63.043 Y97.327 E3.47513
G1 X69.558 Y90.812 E3.65252
G1 X69.194 Y90.812 E3.65952
G1 X62.679 Y97.327 E3.83691
G1 X62.315 Y97.327 E3.84391
G1 X68.830 Y90.812 E4.02130
G1 X68.466 Y90.812 E4.02830
G1 X61.951 Y97.327 E4.20569
G1 X61.587 Y97.327 E4.21270
G1 X68.102 Y90.812 E4.39008
G1 X67.738 Y90.812 E4.39709
G1 X61.224 Y97.327 E4.57447
G1 X60.860 Y97.327 E4.58148
G1 X67.374 Y90.812 E4.75886
G1 X67.011 Y90.812 E4.76587
G1 X60.496 Y97.327 E4.94326
G1 X60.132 Y97.327 E4.95026
G1 X66.647 Y90.812 E5.12765
G1 X66.283 Y90.812 E5.13465
G1 X59.768 Y97.327 E5.31204
G1 X59.404 Y97.327 E5.31904
G1 X65.919 Y90.812 E5.49643
G1 X65.555 Y90.812 E5.50343
G1 X59.040 Y97.327 E5.68082
G1 X58.677 Y97.327 E5.68783
G1 X65.191 Y90.812 E5.86521
G1 X64.828 Y90.812 E5.87222
G1 X58.313 Y97.327 E6.04960
G1 X57.949 Y97.327 E6.05661
G1 X64.464 Y90.812 E6.23399
G1 X64.100 Y90.812 E6.24100
G1 X57.585 Y97.327 E6.41839
G1 X57.221 Y97.327 E6.42539
G1 X63.736 Y90.812 E6.60278
G1 X63.372 Y90.812 E6.60978
G1 X56.857 Y97.327 E6.78717
G1 X56.494 Y97.327 E6.79417
G1 X63.008 Y90.812 E6.97156
G1 X62.644 Y90.812 E6.97856
G1 X56.130 Y97.327 E7.15595
G1 X55.812 Y97.327 E7.16207
G1 X55.812 Y97.281 E7.16296
G1 X62.281 Y90.812 E7.33908
G1 X61.917 Y90.812 E7.34609
G1 X55.812 Y96.917 E7.51231
G1 X55.812 Y96.553 E7.51931
G1 X61.688 Y90.677 E7.67930
G1 X61.688 Y90.313 E7.68630
G1 X55.812 Y96.189 E7.84629
G1 X55.812 Y95.825 E7.85330
G1 X61.688 Y89.950 E8.01328
G1 X61.688 Y89.586 E8.02029
G1 X55.812 Y95.461 E8.18027
G1 X55.812 Y95.098 E8.18728
G1 X61.688 Y89.222 E8.34726
G1 X61.688 Y88.858 E8.35427
G1 X55.812 Y94.734 E8.51426
G1 X55.812 Y94.370 E8.52126
G1 X61.688 Y88.494 E8.68125
G1 X61.688 Y88.130 E8.68825
G1 X55.812 Y94.006 E8.84824
G1 X55.812 Y93.642 E8.85524
G1 X61.688 Y87.766 E9.01523
G1 X61.688 Y87.403 E9.02224
G1 X55.812 Y93.278 E9.18222
G1 X55.812 Y92.914 E9.18923
G1 X61.688 Y87.039 E9.34921
G1 X61.688 Y86.675 E9.35622
G1 X55.812 Y92.551 E9.51620
G1 X55.812 Y92.187 E9.52321
G1 X61.688 Y86.311 E9.68320
G1 X61.688 Y85.947 E9.69020
G1 X55.812 Y91.823 E9.85019
G1 X55.812 Y91.459 E9.85719
G1 X61.688 Y85.583 E10.01718
G1 X61.688 Y85.220 E10.02418
G1 X55.812 Y91.095 E10.18417
G1 X55.812 Y90.731 E10.19118
G1 X61.688 Y84.856 E10.35116
G1 X61.688 Y84.492 E10.35817
G1 X55.812 Y90.368 E10.51815
G1 X55.812 Y90.004 E10.52516
G1 X61.688 Y84.128 E10.68515
G1 X61.688 Y83.764 E10.69215
G1 X55.812 Y89.640 E10.85214
G1 X55.812 Y89.276 E10.85914
G1 X61.688 Y83.400 E11.01913
G1 X61.688 Y83.036 E11.02613
G1 X55.812 Y88.912 E11.18612
G1 X55.812 Y88.548 E11.19312
G1 X61.688 Y82.673 E11.35311
G1 X61.688 Y82.309 E11.36012
G1 X55.812 Y88.185 E11.52010
G1 X55.812 Y87.821 E11.52711
G1 X61.688 Y81.945 E11.68709
G1 X61.688 Y81.581 E11.69410
G1 X55.812 Y87.457 E11.85409
G1 X55.812 Y87.093 E11.86109
G1 X61.688 Y81.217 E12.02108
G1 X61.688 Y80.853 E12.02808
G1 X55.812 Y86.729 E12.18807
G1 X55.812 Y86.365 E12.19507
G1 X61.688 Y80.490 E12.35506
G1 X61.688 Y80.126 E12.36207
G1 X55.812 Y86.001 E12.52205
G1 X55.812 Y85.638 E12.52906
G1 X61.688 Y79.762 E12.68904
G1 X61.688 Y79.398 E12.69605
G1 X55.812 Y85.274 E12.85603
G1 X55.812 Y84.910 E12.86304
G1 X61.688 Y79.034 E13.02303
G1 X61.688 Y78.670 E13.03003
G1 X55.812 Y84.546 E13.19002
G1 X55.812 Y84.182 E13.19702
G1 X61.688 Y78.307 E13.35701
G1 X61.688 Y77.943 E13.36401
G1 X55.812 Y83.818 E13.52400
G1 X55.812 Y83.455 E13.53101
G1 X61.688 Y77.579 E13.69099
G1 X61.688 Y77.215 E13.69800
G1 X55.812 Y83.091 E13.85798
G1 X55.812 Y82.727 E13.86499
G1 X61.688 Y76.851 E14.02497
G1 X61.688 Y76.487 E14.03198
G1 X55.812 Y82.363 E14.19197
G1 X55.812 Y81.999 E14.19897
G1 X61.688 Y76.123 E14.35896
G1 X61.688 Y75.760 E14.36596
G1 X55.812 Y81.635 E14.52595
G1 X55.812 Y81.271 E14.53295
G1 X61.688 Y75.396 E14.69294
G1 X61.688 Y75.032 E14.69995
G1 X55.812 Y80.908 E14.85993
G1 X55.812 Y80.544 E14.86694
G1 X61.688 Y74.668 E15.02692
G1 X61.688 Y74.304 E15.03393
G1 X55.812 Y80.180 E15.19391
G1 X55.812 Y79.816 E15.20092
G1 X61.688 Y73.940 E15.36091
G1 X61.688 Y73.577 E15.36791
G1 X55.812 Y79.452 E15.52790
G1 X55.812 Y79.088 E15.53490
G1 X61.688 Y73.213 E15.69489
G1 X61.688 Y72.849 E15.70189
G1 X55.812 Y78.725 E15.86188
G1 X55.812 Y78.361 E15.86889
G1 X61.688 Y72.485 E16.02887
G1 X61.688 Y72.121 E16.03588
G1 X55.812 Y77.997 E16.19586
G1 X55.812 Y77.633 E16.20287
G1 X61.688 Y71.757 E16.36285
G1 X61.688 Y71.393 E16.36986
G1 X55.812 Y77.269 E16.52985
G1 X55.812 Y76.905 E16.53685
G1 X61.688 Y71.030 E16.69684
G1 X61.688 Y70.666 E16.70384
G1 X55.812 Y76.541 E16.86383
G1 X55.812 Y76.178 E16.87083
G1 X61.688 Y70.302 E17.03082
G1 X61.688 Y69.938 E17.03783
G1 X55.812 Y75.814 E17.19781
G1 X55.812 Y75.450 E17.20482
G1 X61.688 Y69.574 E17.36480
G1 X61.688 Y69.210 E17.37181
G1 X55.812 Y75.086 E17.53180
G1 X55.812 Y74.722 E17.53880
G1 X61.688 Y68.847 E17.69879
G1 X61.688 Y68.483 E17.70579
G1 X55.812 Y74.358 E17.86578
G1 X55.812 Y73.995 E17.87278
