; generated by Slic3r 1.3.0 on 2021-03-06 at 11:37:56

; external perimeters extrusion width = 0.44mm (2.86mm^3/s)
; perimeters extrusion width = 0.56mm (4.14mm^3/s)
; infill extrusion width = 0.50mm (3.66mm^3/s)
; solid infill extrusion width = 0.56mm (3.10mm^3/s)
; top infill extrusion width = 0.45mm (2.44mm^3/s)

M107
;D3D:START:START
T0
M104 S215 T0

G21
G90
M107
T0
G28
G29
M109 T0 S215 T0
G0 F3000
M107
T0
G92 E0
G0 X0 Y149 Z0.1 F3600
G1 Y49 E6.5 F1200
G0 Z1
G92 E0
; Filament gcode

G21 ; set units to millimeters
G90 ; use absolute coordinates
M82 ; use absolute distances for extrusion
G92 E0
G1 Z0.300 F6000.000
G1 E-2.00000 F1200.00000
G92 E0
G1 Z0.800 F6000.000
G1 X43.020 Y38.899 F6000.000
G1 Z0.300 F6000.000
G1 E2.00000 F1200.00000
G1 F1800
G1 X44.807 Y37.369 E2.10520
G1 X55.307 Y31.169 E2.65063
G1 X57.476 Y30.350 E2.75435
G1 X58.750 Y30.229 E2.81158
G1 X73.250 Y30.229 E3.46016
G1 X75.535 Y30.626 E3.56388
G1 X77.060 Y31.402 E3.64046
G1 X77.747 Y31.909 E3.67863
G1 X78.361 Y32.485 E3.71629
G1 X78.621 Y32.773 E3.73364
G1 X78.943 Y33.177 E3.75676
G1 X79.369 Y33.815 E3.79108
G1 X98.393 Y67.544 E5.52316
G1 X98.619 Y67.982 E5.54523
G1 X98.813 Y68.433 E5.56717
G1 X99.605 Y70.836 E5.68035
G1 X99.805 Y71.642 E5.71752
G1 X99.886 Y72.198 E5.74263
G1 X100.102 Y74.248 E5.83485
G1 X100.138 Y74.800 E5.85960
G1 X100.138 Y75.185 E5.87680
G1 X100.102 Y75.752 E5.90223
G1 X99.886 Y77.802 E5.99445
G1 X99.808 Y78.344 E6.01894
G1 X99.723 Y78.741 E6.03707
G1 X99.601 Y79.176 E6.05728
G1 X98.943 Y81.203 E6.15260
G1 X98.813 Y81.567 E6.16993
G1 X98.624 Y82.008 E6.19138
G1 X98.393 Y82.456 E6.21394
G1 X79.267 Y116.351 E7.95476
G1 X78.848 Y116.948 E7.98735
G1 X78.370 Y117.506 E8.02024
G1 X77.914 Y117.948 E8.04863
G1 X77.338 Y118.406 E8.08157
G1 X77.060 Y118.598 E8.09665
G1 X74.948 Y119.555 E8.20037
G1 X73.250 Y119.771 E8.27694
G1 X58.750 Y119.771 E8.92553
G1 X56.465 Y119.374 E9.02925
G1 X55.307 Y118.831 E9.08648
G1 X44.807 Y112.631 E9.63191
G1 X43.042 Y111.127 E9.73563
G1 X41.887 Y109.116 E9.83935
G1 X41.479 Y106.800 E9.94455
G1 X41.479 Y43.200 E12.78937
G1 X41.876 Y40.915 E12.89309
G1 X42.991 Y38.951 E12.99413
G1 X43.403 Y39.043 F6000.000
G1 F1800
G1 X45.003 Y37.701 E13.08756
G1 X55.503 Y31.501 E13.63298
G1 X57.613 Y30.716 E13.73369
G1 X58.750 Y30.614 E13.78474
G1 X73.250 Y30.614 E14.43332
G1 X75.466 Y31.011 E14.53402
G1 X76.843 Y31.721 E14.60332
G1 X77.501 Y32.206 E14.63986
G1 X78.081 Y32.750 E14.67545
G1 X78.328 Y33.024 E14.69193
G1 X78.633 Y33.407 E14.71383
G1 X79.039 Y34.014 E14.74651
G1 X98.057 Y67.733 E16.47810
G1 X98.270 Y68.146 E16.49892
G1 X98.453 Y68.572 E16.51963
G1 X99.237 Y70.951 E16.63168
G1 X99.426 Y71.712 E16.66676
G1 X99.503 Y72.238 E16.69052
G1 X99.718 Y74.288 E16.78274
G1 X99.752 Y74.810 E16.80612
G1 X99.753 Y75.175 E16.82245
G1 X99.718 Y75.712 E16.84651
G1 X99.503 Y77.762 E16.93873
G1 X99.429 Y78.274 E16.96187
G1 X99.348 Y78.649 E16.97900
G1 X99.233 Y79.060 E16.99812
G1 X98.576 Y81.083 E17.09327
G1 X98.453 Y81.428 E17.10964
G1 X98.275 Y81.844 E17.12987
G1 X98.057 Y82.267 E17.15117
G1 X78.941 Y116.144 E18.89107
G1 X78.544 Y116.711 E18.92205
G1 X78.090 Y117.241 E18.95324
G1 X77.658 Y117.659 E18.98014
G1 X77.114 Y118.092 E19.01125
G1 X76.843 Y118.279 E19.02596
G1 X74.788 Y119.198 E19.12666
G1 X73.250 Y119.386 E19.19596
G1 X58.750 Y119.386 E19.84454
G1 X56.534 Y118.989 E19.94524
G1 X55.503 Y118.499 E19.99630
G1 X45.003 Y112.299 E20.54172
G1 X43.297 Y110.830 E20.64243
G1 X42.206 Y108.861 E20.74313
G1 X41.864 Y106.800 E20.83656
G1 X41.864 Y43.200 E23.68137
G1 X42.261 Y40.984 E23.78208
G1 X43.372 Y39.095 E23.88009
G1 E21.88009 F1200.00000
G92 E0
G1 Z0.800 F6000.000
G1 X73.324 Y111.096 F6000.000
G1 Z0.300 F6000.000
G1 E2.00000 F1200.00000
G1 F1800
G1 X72.813 Y112.004 E2.04660
G1 X59.746 Y112.004 E2.63106
G1 X59.746 Y111.096 E2.67166
G1 X73.264 Y111.096 E3.27633
G1 X73.985 Y110.711 F6000.000
G1 F1800
G1 X73.038 Y112.389 E3.36253
G1 X59.361 Y112.389 E3.97432
G1 X59.361 Y110.711 E4.04941
G1 X73.925 Y110.711 E4.70086
G1 E2.70086 F1200.00000
G92 E0
G1 Z0.800 F6000.000
G1 X74.246 Y105.804 F6000.000
G1 Z0.300 F6000.000
G1 E2.00000 F1200.00000
G1 F1800
G1 X49.246 Y105.804 E3.11825
G1 X49.246 Y103.996 E3.19910
G1 X76.818 Y103.996 E4.43237
G1 X82.048 Y95.161 E4.89160
G1 X82.246 Y95.276 E4.90184
G1 X74.419 Y109.156 E5.61458
G1 X74.246 Y109.110 E5.62257
G1 X74.246 Y105.864 E5.76778
G1 E3.76778 F1200.00000
G92 E0
G1 Z0.800 F6000.000
G1 X74.246 Y44.196 F6000.000
G1 Z0.300 F6000.000
G1 E2.00000 F1200.00000
G1 F1800
G1 X74.246 Y40.890 E2.14790
G1 X74.419 Y40.844 E2.15588
G1 X82.246 Y54.724 E2.86863
G1 X82.048 Y54.839 E2.87887
G1 X76.818 Y46.004 E3.33809
G1 X49.246 Y46.004 E4.57137
G1 X49.246 Y44.196 E4.65222
G1 X74.186 Y44.196 E5.76778
G1 X73.861 Y43.811 F6000.000
G1 F1800
G1 X73.861 Y39.421 E5.96414
G1 X74.033 Y39.376 E5.97212
G1 X91.933 Y71.116 E7.60208
G1 X92.547 Y73.005 E7.69091
G1 X92.754 Y74.957 E7.77871
G1 X92.547 Y76.996 E7.87040
G1 X91.933 Y78.884 E7.95917
G1 X74.033 Y110.624 E9.58913
G1 X73.861 Y110.579 E9.59711
G1 X73.861 Y106.189 E9.79347
G1 X48.861 Y106.189 E10.91171
G1 X48.861 Y103.611 E11.02706
G1 X76.598 Y103.611 E12.26775
G1 X91.107 Y79.100 E13.54181
G1 X91.858 Y77.122 E13.63644
G1 X92.115 Y75.000 E13.73203
G1 X91.858 Y72.878 E13.82763
G1 X91.107 Y70.900 E13.92226
G1 X76.598 Y46.389 E15.19631
G1 X48.861 Y46.389 E16.43701
G1 X48.861 Y43.811 E16.55235
G1 X73.801 Y43.811 E17.66792
G1 E15.66792 F1200.00000
G92 E0
G1 Z0.800 F6000.000
G1 X73.324 Y38.904 F6000.000
G1 Z0.300 F6000.000
G1 E2.00000 F1200.00000
G1 F1800
G1 X59.746 Y38.904 E2.60735
G1 X59.746 Y37.996 E2.64795
G1 X72.813 Y37.996 E3.23241
G1 X73.295 Y38.852 E3.27633
G1 X73.985 Y39.289 F6000.000
G1 F1800
G1 X59.361 Y39.289 E3.93046
G1 X59.361 Y37.611 E4.00555
G1 X73.038 Y37.611 E4.61733
G1 X73.955 Y39.237 E4.70086
G1 X73.475 Y39.675 F6000.000
G1 F1800
G1 X58.975 Y39.675 E5.34944
G1 X58.975 Y37.225 E5.45903
G1 X73.181 Y37.225 E6.09444
G1 X73.313 Y37.333 E6.10208
G1 X92.288 Y70.961 E7.82917
G1 X92.926 Y72.924 E7.92153
G1 X93.141 Y74.956 E8.01293
G1 X92.926 Y77.076 E8.10825
G1 X92.288 Y79.039 E8.20059
G1 X73.392 Y112.547 E9.92126
G1 X73.284 Y112.697 E9.92954
G1 X73.177 Y112.775 E9.93546
G1 X58.975 Y112.775 E10.57071
G1 X58.975 Y110.325 E10.68030
G1 X73.475 Y110.325 E11.32889
G1 X73.475 Y106.575 E11.49662
G1 X48.475 Y106.575 E12.61487
G1 X48.475 Y103.225 E12.76471
G1 X76.378 Y103.225 E14.01282
G1 X90.758 Y78.932 E15.27555
G1 X91.480 Y77.029 E15.36661
G1 X91.727 Y75.000 E15.45801
G1 X91.480 Y72.971 E15.54942
G1 X90.758 Y71.068 E15.64047
G1 X76.378 Y46.775 E16.90320
G1 X48.475 Y46.775 E18.15131
G1 X48.475 Y43.425 E18.30115
G1 X73.475 Y43.425 E19.41940
G1 X73.475 Y39.735 E19.58445
G1 X73.658 Y39.319 F6000.000
G1 X72.847 Y38.450 F6000.000
G1 F1800
G1 X59.939 Y38.450 E20.26950
G1 E18.26950 F1200.00000
G92 E0
G1 Z0.800 F6000.000
G1 X49.318 Y44.895 F6000.000
G1 Z0.300 F6000.000
G1 E2.00000 F1200.00000
G1 F1800
G1 X49.946 Y44.268 E2.04004
G1 X50.496 Y44.268 E2.06489
G1 X49.318 Y45.446 E2.14009
G1 X49.318 Y45.932 E2.16202
G1 X49.383 Y45.932 E2.16494
G1 X51.046 Y44.268 E2.27115
G1 X51.597 Y44.268 E2.29600
G1 X49.933 Y45.932 E2.40221
G1 X50.484 Y45.932 E2.42706
G1 X52.147 Y44.268 E2.53327
G1 X52.698 Y44.268 E2.55812
G1 X51.034 Y45.932 E2.66433
G1 X51.585 Y45.932 E2.68919
G1 X53.248 Y44.268 E2.79539
G1 X53.799 Y44.268 E2.82025
G1 X52.135 Y45.932 E2.92646
G1 X52.686 Y45.932 E2.95131
G1 X54.349 Y44.268 E3.05752
G1 X54.900 Y44.268 E3.08237
G1 X53.236 Y45.932 E3.18858
G1 X53.787 Y45.932 E3.21343
G1 X55.450 Y44.268 E3.31964
G1 X56.000 Y44.268 E3.34449
G1 X54.337 Y45.932 E3.45070
G1 X54.887 Y45.932 E3.47555
G1 X56.551 Y44.268 E3.58176
G1 X57.101 Y44.268 E3.60661
G1 X55.438 Y45.932 E3.71282
G1 X55.988 Y45.932 E3.73767
G1 X57.652 Y44.268 E3.84388
G1 X58.202 Y44.268 E3.86873
G1 X56.539 Y45.932 E3.97494
G1 X57.089 Y45.932 E3.99979
G1 X58.753 Y44.268 E4.10600
G1 X59.303 Y44.268 E4.13085
G1 X57.640 Y45.932 E4.23706
G1 X58.190 Y45.932 E4.26191
G1 X59.854 Y44.268 E4.36812
G1 X60.404 Y44.268 E4.39297
G1 X58.740 Y45.932 E4.49918
G1 X59.291 Y45.932 E4.52403
G1 X60.954 Y44.268 E4.63024
G1 X61.505 Y44.268 E4.65509
G1 X59.841 Y45.932 E4.76130
G1 X60.392 Y45.932 E4.78615
G1 X62.055 Y44.268 E4.89236
G1 X62.606 Y44.268 E4.91721
G1 X60.942 Y45.932 E5.02342
G1 X61.493 Y45.932 E5.04827
G1 X63.156 Y44.268 E5.15448
G1 X63.707 Y44.268 E5.17933
G1 X62.043 Y45.932 E5.28554
G1 X62.594 Y45.932 E5.31040
G1 X64.257 Y44.268 E5.41660
G1 X64.807 Y44.268 E5.44146
G1 X63.144 Y45.932 E5.54767
G1 X63.694 Y45.932 E5.57252
G1 X65.358 Y44.268 E5.67873
G1 X65.908 Y44.268 E5.70358
G1 X64.245 Y45.932 E5.80979
G1 X64.795 Y45.932 E5.83464
G1 X66.459 Y44.268 E5.94085
G1 X67.009 Y44.268 E5.96570
G1 X65.346 Y45.932 E6.07191
G1 X65.896 Y45.932 E6.09676
G1 X67.560 Y44.268 E6.20297
G1 X68.110 Y44.268 E6.22782
G1 X66.447 Y45.932 E6.33403
G1 X66.997 Y45.932 E6.35888
G1 X68.661 Y44.268 E6.46509
G1 X69.211 Y44.268 E6.48994
G1 X67.547 Y45.932 E6.59615
G1 X68.098 Y45.932 E6.62100
G1 X69.761 Y44.268 E6.72721
G1 X70.312 Y44.268 E6.75206
G1 X68.648 Y45.932 E6.85827
G1 X69.199 Y45.932 E6.88312
G1 X70.862 Y44.268 E6.98933
G1 X71.413 Y44.268 E7.01418
G1 X69.749 Y45.932 E7.12039
G1 X70.300 Y45.932 E7.14524
G1 X71.963 Y44.268 E7.25145
G1 X72.514 Y44.268 E7.27630
G1 X70.850 Y45.932 E7.38251
G1 X71.401 Y45.932 E7.40736
G1 X73.064 Y44.268 E7.51357
G1 X73.614 Y44.268 E7.53842
G1 X71.951 Y45.932 E7.64463
G1 X72.501 Y45.932 E7.66949
G1 X74.165 Y44.268 E7.77569
G1 X74.715 Y44.268 E7.80055
G1 X73.052 Y45.932 E7.90676
G1 X73.602 Y45.932 E7.93161
G1 X75.989 Y43.545 E8.08401
G1 X76.188 Y43.897 E8.10226
G1 X74.153 Y45.932 E8.23219
G1 X74.703 Y45.932 E8.25704
G1 X76.386 Y44.249 E8.36451
G1 X76.585 Y44.601 E8.38275
G1 X75.254 Y45.932 E8.46774
G1 X75.804 Y45.932 E8.49259
G1 X76.783 Y44.953 E8.55511
G1 X76.982 Y45.304 E8.57335
G1 X76.355 Y45.932 E8.61340
G1 E6.61340 F1200.00000
G92 E0
G1 Z0.800 F6000.000
G1 X74.318 Y44.665 F6000.000
G1 Z0.300 F6000.000
G1 E2.00000 F1200.00000
G1 F1800
G1 X75.791 Y43.193 E2.09402
G1 X75.592 Y42.841 E2.11227
G1 X74.318 Y44.115 E2.19362
G1 X74.318 Y43.564 E2.21847
G1 X75.394 Y42.489 E2.28715
G1 X75.195 Y42.137 E2.30539
G1 X74.318 Y43.014 E2.36139
G1 X74.318 Y42.464 E2.38625
G1 X74.997 Y41.785 E2.42958
G1 E0.42958 F1200.00000
G92 E0
G1 Z0.800 F6000.000
G1 X82.243 Y54.948 F6000.000
G1 Z0.300 F6000.000
G1 E2.00000 F1200.00000
G1 F1800
G1 X84.527 Y58.901 E2.28582
G1 F1800
G1 X86.811 Y62.853 E2.52172
G1 F1800
G1 X89.095 Y66.806 E2.70767
G1 F1800
G1 X91.379 Y70.759 E2.84370
G1 F1800
G1 X91.501 Y71.016 E2.84912
G1 F1800
G1 X91.614 Y71.257 E2.85663
G1 X92.154 Y72.791 E2.90266
G1 F1800
G1 X92.190 Y72.946 E2.90577
G1 F1800
G1 X92.218 Y73.075 E2.90911
G1 X92.432 Y74.985 E2.95792
G1 X92.218 Y76.927 E3.00753
G1 X92.161 Y77.182 E3.01417
G1 F1800
G1 X91.884 Y77.976 E3.03056
G1 F1800
G1 X91.614 Y78.743 E3.05357
G1 X91.388 Y79.224 E3.06860
G1 F1800
G1 X90.237 Y81.218 E3.11235
G1 F1800
G1 X87.953 Y85.170 E3.24838
G1 F1800
G1 X85.669 Y89.123 E3.43434
G1 F1800
G1 X83.385 Y93.075 E3.67023
G1 F1800
G1 X82.243 Y95.052 E3.81314
G1 E1.81314 F1200.00000
G92 E0
G1 Z0.800 F6000.000
G1 X74.318 Y108.306 F6000.000
G1 Z0.300 F6000.000
G1 E2.00000 F1200.00000
G1 F1800
G1 X74.946 Y107.679 E2.04004
G1 X75.657 Y106.417 E2.10541
G1 X74.318 Y107.756 E2.19085
G1 X74.318 Y107.206 E2.21568
G1 X76.369 Y105.156 E2.34654
G1 X76.982 Y104.068 E2.40287
G1 X76.906 Y104.068 E2.40631
G1 X74.318 Y106.656 E2.57144
G1 X74.318 Y106.106 E2.59627
G1 X76.356 Y104.068 E2.72629
G1 X75.805 Y104.068 E2.75112
G1 X74.142 Y105.732 E2.85729
G1 X73.592 Y105.732 E2.88212
G1 X75.255 Y104.068 E2.98828
G1 X74.705 Y104.068 E3.01311
G1 X73.041 Y105.732 E3.11928
G1 X72.491 Y105.732 E3.14411
G1 X74.155 Y104.068 E3.25027
G1 X73.604 Y104.068 E3.27510
G1 X71.941 Y105.732 E3.38127
G1 X71.391 Y105.732 E3.40610
G1 X73.054 Y104.068 E3.51226
G1 X72.504 Y104.068 E3.53709
G1 X70.841 Y105.732 E3.64326
G1 X70.290 Y105.732 E3.66809
G1 X71.954 Y104.068 E3.77425
G1 X71.404 Y104.068 E3.79908
G1 X69.740 Y105.732 E3.90525
G1 X69.190 Y105.732 E3.93008
G1 X70.853 Y104.068 E4.03624
G1 X70.303 Y104.068 E4.06107
G1 X68.640 Y105.732 E4.16724
G1 X68.090 Y105.732 E4.19207
G1 X69.753 Y104.068 E4.29823
G1 X69.203 Y104.068 E4.32306
G1 X67.539 Y105.732 E4.42923
G1 X66.989 Y105.732 E4.45406
G1 X68.653 Y104.068 E4.56022
G1 X68.102 Y104.068 E4.58505
G1 X66.439 Y105.732 E4.69122
G1 X65.889 Y105.732 E4.71605
G1 X67.552 Y104.068 E4.82221
G1 X67.002 Y104.068 E4.84704
G1 X65.339 Y105.732 E4.95321
G1 X64.788 Y105.732 E4.97804
G1 X66.452 Y104.068 E5.08420
G1 X65.902 Y104.068 E5.10903
G1 X64.238 Y105.732 E5.21519
G1 X63.688 Y105.732 E5.24002
G1 X65.351 Y104.068 E5.34619
G1 X64.801 Y104.068 E5.37102
G1 X63.138 Y105.732 E5.47718
G1 X62.587 Y105.732 E5.50201
G1 X64.251 Y104.068 E5.60818
G1 X63.701 Y104.068 E5.63301
G1 X62.037 Y105.732 E5.73917
G1 X61.487 Y105.732 E5.76400
G1 X63.151 Y104.068 E5.87017
G1 X62.600 Y104.068 E5.89500
G1 X60.937 Y105.732 E6.00116
G1 X60.387 Y105.732 E6.02599
G1 X62.050 Y104.068 E6.13216
G1 X61.500 Y104.068 E6.15699
G1 X59.836 Y105.732 E6.26315
G1 X59.286 Y105.732 E6.28798
G1 X60.950 Y104.068 E6.39415
G1 X60.400 Y104.068 E6.41898
G1 X58.736 Y105.732 E6.52514
G1 X58.186 Y105.732 E6.54997
G1 X59.849 Y104.068 E6.65614
G1 X59.299 Y104.068 E6.68097
G1 X57.636 Y105.732 E6.78713
G1 X57.085 Y105.732 E6.81196
G1 X58.749 Y104.068 E6.91813
G1 X58.199 Y104.068 E6.94296
G1 X56.535 Y105.732 E7.04912
G1 X55.985 Y105.732 E7.07395
G1 X57.648 Y104.068 E7.18012
G1 X57.098 Y104.068 E7.20495
G1 X55.435 Y105.732 E7.31111
G1 X54.885 Y105.732 E7.33594
G1 X56.548 Y104.068 E7.44211
G1 X55.998 Y104.068 E7.46694
G1 X54.334 Y105.732 E7.57310
G1 X53.784 Y105.732 E7.59793
G1 X55.448 Y104.068 E7.70409
G1 X54.897 Y104.068 E7.72892
G1 X53.234 Y105.732 E7.83509
G1 X52.684 Y105.732 E7.85992
G1 X54.347 Y104.068 E7.96608
G1 X53.797 Y104.068 E7.99091
G1 X52.134 Y105.732 E8.09708
G1 X51.583 Y105.732 E8.12191
G1 X53.247 Y104.068 E8.22807
G1 X52.697 Y104.068 E8.25290
G1 X51.033 Y105.732 E8.35907
G1 X50.483 Y105.732 E8.38390
G1 X52.146 Y104.068 E8.49006
G1 X51.596 Y104.068 E8.51489
G1 X49.933 Y105.732 E8.62106
G1 X49.383 Y105.732 E8.64589
G1 X51.046 Y104.068 E8.75205
G1 X50.496 Y104.068 E8.77688
G1 X49.318 Y105.246 E8.85203
G1 X49.318 Y104.696 E8.87686
G1 X49.946 Y104.068 E8.91690
G1 E6.91690 F1200.00000
G92 E0
G1 Z0.800 F6000.000
G1 X59.939 Y111.550 F6000.000
G1 Z0.300 F6000.000
G1 E2.00000 F1200.00000
G1 F1800
G1 X72.847 Y111.550 E2.68504
G1 Z0.500 F6000.000
G1 X73.241 Y111.294 F6000.000
G1 F1800
G1 X72.982 Y111.703 E2.70438
G1 X72.898 Y111.806 E2.70972
G1 X59.944 Y111.806 E3.22766
G1 X59.944 Y111.294 E3.24812
G1 X73.181 Y111.294 E3.77740
G1 X74.112 Y110.777 F6000.000
G1 F1800
G1 X73.402 Y112.007 E3.83418
G1 X73.251 Y112.180 E3.84337
G1 X73.041 Y112.323 E3.85352
G1 X59.427 Y112.323 E4.39788
G1 X59.427 Y110.777 E4.45969
G1 X74.052 Y110.777 E5.04448
G1 E3.04448 F1200.00000
G92 E0
G1 Z1.000 F6000.000
G1 X74.444 Y105.606 F6000.000
G1 Z0.500 F6000.000
G1 E2.00000 F1200.00000
G1 F2400
G1 X56.099 Y105.606 E2.73356
G1 X56.099 Y104.194 E2.79000
G1 X60.401 Y104.194 E2.96204
G1 X60.401 Y104.694 E2.98204
G1 X66.099 Y104.694 E3.20985
G1 X66.099 Y104.194 E3.22984
G1 X77.231 Y104.194 E3.67496
G1 X74.676 Y108.725 E3.88294
G1 X74.444 Y108.664 E3.89251
G1 X74.444 Y105.666 E4.01240
G1 E2.01240 F1200.00000
G92 E0
G1 Z1.000 F6000.000
G1 X50.401 Y105.606 F6000.000
G1 Z0.500 F6000.000
G1 E2.00000 F1200.00000
G1 F1800
G1 X49.444 Y105.606 E2.03827
G1 X49.444 Y104.194 E2.09472
G1 X50.401 Y104.194 E2.13299
G1 X50.401 Y105.546 E2.18704
G1 E0.18704 F1200.00000
G92 E0
G1 Z1.000 F6000.000
G1 X50.401 Y45.806 F6000.000
G1 Z0.500 F6000.000
G1 E2.00000 F1200.00000
G1 F1800
G1 X49.444 Y45.806 E2.03827
G1 X49.444 Y44.394 E2.09472
G1 X50.401 Y44.394 E2.13299
G1 X50.401 Y45.746 E2.18704
G1 E0.18704 F1200.00000
G92 E0
G1 Z1.000 F6000.000
G1 X60.401 Y45.306 F6000.000
G1 Z0.500 F6000.000
G1 E2.00000 F1200.00000
G1 F2400
G1 X60.401 Y45.806 E2.01999
G1 X56.099 Y45.806 E2.19203
G1 X56.099 Y44.394 E2.24848
G1 X74.444 Y44.394 E2.98204
G1 X74.444 Y41.336 E3.10431
G1 X74.676 Y41.275 E3.11388
