; generated by Slic3r 1.3.1-dev (Build (Unknown revision)) on 2021-02-03 at 00:22:30

; external perimeters extrusion width = 0.44mm (2.86mm^3/s)
; perimeters extrusion width = 0.56mm (4.14mm^3/s)
; infill extrusion width = 0.50mm (5.48mm^3/s)
; solid infill extrusion width = 0.56mm (3.10mm^3/s)
; top infill extrusion width = 0.45mm (2.44mm^3/s)

M107
G92 E0
;D3D:START:START
T0
M104 S215 T0

G21
G90
M107
T0
G28
G29
M109 T0 S215 T0
G0 F3000
M107
T0
G92 E0
G0 X0 Y149 Z0.1 F3600
G1 Y49 E6.5 F1200
G0 Z1
G92 E0
; Filament gcode

G21 ; set units to millimeters
G90 ; use absolute coordinates
M82 ; use absolute distances for extrusion
G92 E0
G1 Z0.200 F6000.000
G1 E-2.00000 F1200.00000
G92 E0
G1 X63.343 Y44.908 F6000.000
G1 E2.00000 F1200.00000
G1 F1800.000
G1 X64.814 Y43.721 E2.03636
G1 X66.850 Y43.236 E2.07663
G1 X101.850 Y43.236 E2.74998
G1 X103.698 Y43.631 E2.78634
G1 X105.222 Y44.749 E2.82270
G1 X106.056 Y46.111 E2.85342
G1 X109.856 Y55.861 E3.05474
G1 X110.164 Y57.500 E3.08683
G1 X110.164 Y92.500 E3.76018
G1 X109.856 Y94.139 E3.79227
G1 X106.056 Y103.889 E3.99359
G1 X105.016 Y105.467 E4.02995
G1 X103.422 Y106.482 E4.06631
G1 X101.850 Y106.764 E4.09703
G1 X66.850 Y106.764 E4.77038
G1 X65.002 Y106.369 E4.80674
G1 X63.478 Y105.251 E4.84310
G1 X62.487 Y103.407 E4.88337
G1 X59.900 Y93.657 E5.07743
G1 X59.749 Y92.500 E5.09989
G1 X59.749 Y57.500 E5.77324
G1 X59.900 Y56.343 E5.79570
G1 X62.487 Y46.593 E5.98976
G1 X63.316 Y44.961 E6.02496
G1 X63.577 Y45.028 F6000.000
G1 F1800.000
G1 X65.026 Y43.903 E6.06026
G1 X66.850 Y43.493 E6.09623
G1 X101.850 Y43.493 E6.76958
G1 X103.641 Y43.888 E6.80488
G1 X105.100 Y45.001 E6.84017
G1 X105.816 Y46.204 E6.86711
G1 X109.616 Y55.954 E7.06843
G1 X109.907 Y57.500 E7.09869
G1 X109.907 Y92.500 E7.77205
G1 X109.616 Y94.046 E7.80231
G1 X105.816 Y103.796 E8.00363
G1 X104.798 Y105.322 E8.03892
G1 X103.231 Y106.277 E8.07422
G1 X101.850 Y106.507 E8.10116
G1 X66.850 Y106.507 E8.77451
G1 X65.059 Y106.112 E8.80980
G1 X63.600 Y104.999 E8.84510
G1 X62.735 Y103.342 E8.88107
G1 X60.149 Y93.592 E9.07513
G1 X60.007 Y92.500 E9.09631
G1 X60.007 Y57.500 E9.76966
G1 X60.149 Y56.408 E9.79084
G1 X62.735 Y46.658 E9.98490
G1 X63.549 Y45.082 E10.01904
G1 E8.01904 F1200.00000
G92 E0
G1 X99.780 Y97.536 F6000.000
G1 E2.00000 F1200.00000
G1 F1800.000
G1 X99.234 Y99.216 E2.03400
G1 X97.466 Y99.216 E2.06799
G1 X96.920 Y97.536 E2.10199
G1 X98.350 Y96.497 E2.13599
G1 X99.731 Y97.500 E2.16883
G1 X99.477 Y97.634 F6000.000
G1 F1800.000
G1 X99.047 Y98.959 E2.19564
G1 X97.653 Y98.959 E2.22245
G1 X97.223 Y97.634 E2.24926
G1 X98.350 Y96.815 E2.27607
G1 X99.429 Y97.598 E2.30172
G1 X99.869 Y97.717 F6000.000
G1 X100.082 Y97.437 F6000.000
G1 F1800.000
G1 X98.350 Y96.179 E2.34291
G1 X97.014 Y97.150 E2.37468
G1 X97.014 Y91.836 E2.47690
G1 X71.686 Y91.836 E2.96419
G1 X71.686 Y97.150 E3.06642
G1 X70.350 Y96.179 E3.09818
G1 X68.618 Y97.437 E3.13937
G1 X69.280 Y99.473 E3.18055
G1 X71.420 Y99.473 E3.22173
G1 X71.556 Y99.056 E3.23016
G1 X71.686 Y99.077 E3.23270
G1 X71.686 Y101.586 E3.28096
G1 X67.514 Y101.586 E3.36122
G1 X67.514 Y91.836 E3.54880
G1 X64.928 Y91.836 E3.59855
G1 X64.928 Y91.164 E3.61148
G1 X69.514 Y91.164 E3.69971
G1 X69.514 Y83.164 E3.85362
G1 X74.228 Y83.164 E3.94431
G1 X74.228 Y91.164 E4.09822
G1 X104.986 Y91.164 E4.68996
G1 X104.986 Y91.836 E4.70288
G1 X101.186 Y91.836 E4.77598
G1 X101.186 Y101.586 E4.96356
G1 X97.014 Y101.586 E5.04382
G1 X97.014 Y99.077 E5.09208
G1 X97.144 Y99.056 E5.09462
G1 X97.280 Y99.473 E5.10305
G1 X99.420 Y99.473 E5.14423
G1 X100.063 Y97.494 E5.18426
G1 E3.18426 F1200.00000
G92 E0
G1 X71.780 Y97.536 F6000.000
G1 E2.00000 F1200.00000
G1 F1800.000
G1 X71.234 Y99.216 E2.03400
G1 X69.466 Y99.216 E2.06799
G1 X68.920 Y97.536 E2.10199
G1 X70.350 Y96.497 E2.13599
G1 X71.731 Y97.500 E2.16883
G1 X71.477 Y97.634 F6000.000
G1 F1800.000
G1 X71.047 Y98.959 E2.19564
G1 X69.653 Y98.959 E2.22245
G1 X69.223 Y97.634 E2.24926
G1 X70.350 Y96.815 E2.27607
G1 X71.429 Y97.598 E2.30172
G1 X71.869 Y97.717 F6000.000
G1 E0.30172 F1200.00000
G92 E0
G1 X71.943 Y92.093 F6000.000
G1 E2.00000 F1200.00000
G1 F1800.000
G1 X71.943 Y101.843 E2.18758
G1 X67.257 Y101.843 E2.27773
G1 X67.257 Y92.093 E2.46530
G1 X64.671 Y92.093 E2.51506
G1 X64.671 Y90.907 E2.53787
G1 X69.257 Y90.907 E2.62611
G1 X69.257 Y82.907 E2.78002
G1 X74.485 Y82.907 E2.88060
G1 X74.485 Y90.907 E3.03451
G1 X105.243 Y90.907 E3.62625
G1 X105.243 Y92.093 E3.64906
G1 X101.443 Y92.093 E3.72217
G1 X101.443 Y101.843 E3.90974
G1 X96.757 Y101.843 E3.99989
G1 X96.757 Y92.093 E4.18747
G1 X72.003 Y92.093 E4.66371
G1 X72.200 Y92.350 F6000.000
G1 F1800.000
G1 X72.200 Y102.100 E4.85128
G1 X67.000 Y102.100 E4.95132
G1 X67.000 Y92.350 E5.13890
G1 X64.414 Y92.350 E5.18866
G1 X64.414 Y90.650 E5.22136
G1 X69.000 Y90.650 E5.30960
G1 X69.000 Y82.650 E5.46351
G1 X74.742 Y82.650 E5.57398
G1 X74.742 Y90.650 E5.72789
G1 X105.500 Y90.650 E6.31963
G1 X105.500 Y92.350 E6.35233
G1 X101.700 Y92.350 E6.42544
G1 X101.700 Y102.100 E6.61302
G1 X96.500 Y102.100 E6.71306
G1 X96.500 Y92.350 E6.90063
G1 X72.260 Y92.350 E7.36698
G1 X71.803 Y92.299 F6000.000
G1 E5.36698 F1200.00000
G92 E0
G1 X98.350 Y53.503 F6000.000
G1 E2.00000 F1200.00000
G1 F1800.000
G1 X96.920 Y52.464 E2.03400
G1 X97.466 Y50.784 E2.06799
G1 X99.234 Y50.784 E2.10199
G1 X99.780 Y52.464 E2.13599
G1 X98.399 Y53.468 E2.16883
G1 X98.350 Y53.185 F6000.000
G1 F1800.000
G1 X97.223 Y52.366 E2.19564
G1 X97.653 Y51.041 E2.22245
G1 X99.047 Y51.041 E2.24926
G1 X99.477 Y52.366 E2.27607
G1 X98.399 Y53.150 E2.30172
G1 X98.150 Y53.532 F6000.000
G1 X98.350 Y53.821 F6000.000
G1 F1800.000
G1 X100.082 Y52.563 E2.34291
G1 X99.420 Y50.527 E2.38409
G1 X97.280 Y50.527 E2.42527
G1 X97.144 Y50.944 E2.43370
G1 X97.014 Y50.923 E2.43624
G1 X97.014 Y48.414 E2.48450
G1 X101.186 Y48.414 E2.56476
G1 X101.186 Y58.164 E2.75234
G1 X104.986 Y58.164 E2.82544
G1 X104.986 Y58.836 E2.83837
G1 X74.228 Y58.836 E3.43010
G1 X74.228 Y66.836 E3.58401
G1 X69.514 Y66.836 E3.67470
G1 X69.514 Y58.836 E3.82861
G1 X64.928 Y58.836 E3.91685
G1 X64.928 Y58.164 E3.92977
G1 X67.514 Y58.164 E3.97953
G1 X67.514 Y48.414 E4.16710
G1 X71.686 Y48.414 E4.24736
G1 X71.686 Y50.923 E4.29563
G1 X71.556 Y50.944 E4.29816
G1 X71.420 Y50.527 E4.30659
G1 X69.280 Y50.527 E4.34777
G1 X68.618 Y52.563 E4.38896
G1 X70.350 Y53.821 E4.43014
G1 X71.686 Y52.850 E4.46191
G1 X71.686 Y58.164 E4.56414
G1 X97.014 Y58.164 E5.05142
G1 X97.014 Y52.850 E5.15365
G1 X98.301 Y53.786 E5.18426
G1 E3.18426 F1200.00000
G92 E0
G1 X71.780 Y52.464 F6000.000
G1 E2.00000 F1200.00000
G1 F1800.000
G1 X70.350 Y53.503 E2.03400
G1 X68.920 Y52.464 E2.06799
G1 X69.466 Y50.784 E2.10199
G1 X71.234 Y50.784 E2.13599
G1 X71.761 Y52.407 E2.16883
G1 X71.477 Y52.366 F6000.000
G1 F1800.000
G1 X70.350 Y53.185 E2.19564
G1 X69.223 Y52.366 E2.22245
G1 X69.653 Y51.041 E2.24926
G1 X71.047 Y51.041 E2.27607
G1 X71.459 Y52.309 E2.30172
G1 X71.745 Y52.664 F6000.000
G1 E0.30172 F1200.00000
G92 E0
G1 X71.943 Y57.907 F6000.000
G1 E2.00000 F1200.00000
G1 F1800.000
G1 X96.757 Y57.907 E2.47739
G1 X96.757 Y48.157 E2.66497
G1 X101.443 Y48.157 E2.75512
G1 X101.443 Y57.907 E2.94269
G1 X105.243 Y57.907 E3.01580
G1 X105.243 Y59.093 E3.03861
G1 X74.485 Y59.093 E3.63035
G1 X74.485 Y67.093 E3.78426
G1 X69.257 Y67.093 E3.88484
G1 X69.257 Y59.093 E4.03875
G1 X64.671 Y59.093 E4.12699
G1 X64.671 Y57.907 E4.14980
G1 X67.257 Y57.907 E4.19956
G1 X67.257 Y48.157 E4.38713
G1 X71.943 Y48.157 E4.47728
G1 X71.943 Y57.847 E4.66371
G1 X72.200 Y57.650 F6000.000
G1 F1800.000
G1 X96.500 Y57.650 E5.13120
G1 X96.500 Y47.900 E5.31878
G1 X101.700 Y47.900 E5.41882
G1 X101.700 Y57.650 E5.60640
G1 X105.500 Y57.650 E5.67951
G1 X105.500 Y59.350 E5.71221
G1 X74.742 Y59.350 E6.30395
G1 X74.742 Y67.350 E6.45786
G1 X69.000 Y67.350 E6.56833
G1 X69.000 Y59.350 E6.72224
G1 X64.414 Y59.350 E6.81047
G1 X64.414 Y57.650 E6.84318
G1 X67.000 Y57.650 E6.89294
G1 X67.000 Y47.900 E7.08051
G1 X72.200 Y47.900 E7.18056
G1 X72.200 Y57.590 E7.36698
G1 X72.265 Y58.045 F6000.000
G1 E5.36698 F1200.00000
G92 E0
G1 X71.799 Y52.060 F6000.000
G1 E2.00000 F1200.00000
G1 F1800.000
G1 X71.746 Y51.726 E2.00094
G1 F1800.000
G1 X71.694 Y51.393 E2.00409
G1 F1800.000
G1 X71.641 Y51.060 E2.00947
G1 X71.190 Y50.379 F6000.000
G1 F1800.000
G1 X71.538 Y50.031 E2.01901
G1 X71.538 Y49.664 E2.02611
G1 X70.823 Y50.379 E2.04568
G1 X70.457 Y50.379 E2.05278
G1 X71.538 Y49.298 E2.08238
G1 X71.538 Y48.932 E2.08948
G1 X70.091 Y50.379 E2.12911
G1 X69.725 Y50.379 E2.13621
G1 X71.538 Y48.562 E2.18593
G1 X71.176 Y48.562 E2.19295
G1 X69.359 Y50.379 E2.24272
G1 X68.993 Y50.379 E2.24982
G1 X70.810 Y48.562 E2.29960
G1 X70.443 Y48.562 E2.30669
G1 E0.30669 F1200.00000
G92 E0
G1 X67.662 Y48.780 F6000.000
G1 E2.00000 F1200.00000
G1 F1800.000
G1 X67.880 Y48.562 E2.00598
G1 X68.247 Y48.562 E2.01307
G1 X67.662 Y49.147 E2.02908
G1 X67.662 Y49.513 E2.03618
G1 X68.613 Y48.562 E2.06222
G1 X68.979 Y48.562 E2.06932
G1 X67.662 Y49.879 E2.10539
G1 X67.662 Y50.245 E2.11249
G1 X69.345 Y48.562 E2.15860
G1 X69.711 Y48.562 E2.16569
G1 X67.662 Y50.611 E2.22183
G1 X67.662 Y50.977 E2.22892
G1 X70.077 Y48.562 E2.29510
G1 X70.443 Y48.562 E2.30219
G1 X67.662 Y51.343 E2.37839
G1 X67.662 Y51.710 E2.38549
G1 X69.198 Y50.174 E2.42756
G1 X69.021 Y50.716 E2.43861
G1 X67.662 Y52.076 E2.47585
G1 X67.662 Y52.442 E2.48295
G1 X68.845 Y51.259 E2.51536
G1 X68.669 Y51.801 E2.52641
G1 X67.662 Y52.808 E2.55400
G1 X67.662 Y53.174 E2.56109
G1 X68.493 Y52.344 E2.58385
G1 X68.425 Y52.552 E2.58809
G1 X68.556 Y52.647 E2.59122
G1 X67.662 Y53.540 E2.61570
G1 X67.662 Y53.906 E2.62279
G1 X68.768 Y52.801 E2.65308
G1 X68.980 Y52.955 E2.65816
G1 X67.662 Y54.272 E2.69426
G1 X67.662 Y54.639 E2.70136
G1 X69.192 Y53.109 E2.74327
G1 X69.404 Y53.263 E2.74835
G1 X67.662 Y55.005 E2.79607
G1 X67.662 Y55.371 E2.80316
G1 X69.616 Y53.417 E2.85670
G1 X69.828 Y53.571 E2.86177
G1 X67.662 Y55.737 E2.92112
G1 X67.662 Y56.103 E2.92821
G1 X70.040 Y53.725 E2.99336
G1 X70.252 Y53.879 E2.99844
G1 X67.662 Y56.469 E3.06941
G1 X67.662 Y56.835 E3.07650
G1 X70.491 Y54.006 E3.15402
G1 X71.538 Y53.246 E3.17908
G1 X71.538 Y53.326 E3.18063
G1 X67.662 Y57.201 E3.28682
G1 X67.662 Y57.568 E3.29391
G1 X71.538 Y53.692 E3.40011
G1 X71.538 Y54.058 E3.40720
G1 X67.662 Y57.934 E3.51339
G1 X67.662 Y58.300 E3.52049
G1 X71.538 Y54.424 E3.62668
G1 X71.538 Y54.790 E3.63377
G1 X67.640 Y58.688 E3.74056
G1 X68.006 Y58.688 E3.74766
G1 X71.538 Y55.156 E3.84442
G1 X71.538 Y55.523 E3.85151
G1 X68.373 Y58.688 E3.93824
G1 X68.739 Y58.688 E3.94533
G1 X71.538 Y55.889 E4.02203
G1 X71.538 Y56.255 E4.02912
G1 X69.105 Y58.688 E4.09579
G1 X69.471 Y58.688 E4.10288
G1 X71.538 Y56.621 E4.15951
G1 X71.538 Y56.987 E4.16661
G1 X69.662 Y58.863 E4.21800
G1 X69.662 Y59.229 E4.22509
G1 X71.538 Y57.353 E4.27649
G1 X71.538 Y57.719 E4.28358
G1 X69.662 Y59.595 E4.33497
G1 X69.662 Y59.961 E4.34207
G1 X71.538 Y58.085 E4.39346
G1 X71.538 Y58.312 E4.39785
G1 X71.677 Y58.312 E4.40055
G1 X69.662 Y60.327 E4.45577
G1 X69.662 Y60.693 E4.46286
G1 X72.043 Y58.312 E4.52811
G1 X72.410 Y58.312 E4.53520
G1 X69.662 Y61.060 E4.61048
G1 X69.662 Y61.426 E4.61757
G1 X72.776 Y58.312 E4.70288
G1 X73.142 Y58.312 E4.70998
G1 X69.662 Y61.792 E4.80532
G1 X69.662 Y62.158 E4.81241
G1 X73.508 Y58.312 E4.91779
G1 X73.874 Y58.312 E4.92488
G1 X69.662 Y62.524 E5.04029
G1 X69.662 Y62.890 E5.04738
G1 X74.240 Y58.312 E5.17282
G1 X74.606 Y58.312 E5.17991
G1 X74.231 Y58.688 E5.19021
G1 X74.597 Y58.688 E5.19730
G1 X74.972 Y58.312 E5.20759
G1 X75.339 Y58.312 E5.21469
G1 X74.963 Y58.688 E5.22498
G1 X75.329 Y58.688 E5.23208
G1 X75.705 Y58.312 E5.24237
G1 X76.071 Y58.312 E5.24946
G1 X75.695 Y58.688 E5.25976
G1 X76.061 Y58.688 E5.26685
G1 X76.437 Y58.312 E5.27714
G1 X76.803 Y58.312 E5.28424
G1 X76.427 Y58.688 E5.29453
G1 X76.794 Y58.688 E5.30163
G1 X77.169 Y58.312 E5.31192
G1 X77.535 Y58.312 E5.31901
G1 X77.160 Y58.688 E5.32931
G1 X77.526 Y58.688 E5.33640
G1 X77.902 Y58.312 E5.34670
G1 X78.268 Y58.312 E5.35379
G1 X77.892 Y58.688 E5.36408
G1 X78.258 Y58.688 E5.37118
G1 X78.634 Y58.312 E5.38147
G1 X79.000 Y58.312 E5.38856
G1 X78.624 Y58.688 E5.39886
G1 X78.990 Y58.688 E5.40595
G1 X79.366 Y58.312 E5.41625
G1 X79.732 Y58.312 E5.42334
G1 X79.356 Y58.688 E5.43363
G1 X79.723 Y58.688 E5.44073
G1 X80.098 Y58.312 E5.45102
G1 X80.464 Y58.312 E5.45812
G1 X80.089 Y58.688 E5.46841
G1 X80.455 Y58.688 E5.47550
G1 X80.831 Y58.312 E5.48580
G1 X81.197 Y58.312 E5.49289
G1 X80.821 Y58.688 E5.50319
G1 X81.187 Y58.688 E5.51028
G1 X81.563 Y58.312 E5.52057
G1 X81.929 Y58.312 E5.52767
G1 X81.553 Y58.688 E5.53796
G1 X81.919 Y58.688 E5.54506
G1 X82.295 Y58.312 E5.55535
G1 X82.661 Y58.312 E5.56244
G1 X82.286 Y58.688 E5.57274
G1 X82.652 Y58.688 E5.57983
G1 X83.027 Y58.312 E5.59012
G1 X83.394 Y58.312 E5.59722
G1 X83.018 Y58.688 E5.60751
G1 X83.384 Y58.688 E5.61461
G1 X83.760 Y58.312 E5.62490
G1 X84.126 Y58.312 E5.63199
G1 X83.750 Y58.688 E5.64229
G1 X84.116 Y58.688 E5.64938
G1 X84.492 Y58.312 E5.65968
G1 X84.858 Y58.312 E5.66677
G1 X84.482 Y58.688 E5.67706
G1 X84.848 Y58.688 E5.68416
G1 X85.224 Y58.312 E5.69445
G1 X85.590 Y58.312 E5.70154
G1 X85.215 Y58.688 E5.71184
G1 X85.581 Y58.688 E5.71893
G1 X85.956 Y58.312 E5.72923
G1 X86.323 Y58.312 E5.73632
G1 X85.947 Y58.688 E5.74661
G1 X86.313 Y58.688 E5.75371
G1 X86.689 Y58.312 E5.76400
G1 X87.055 Y58.312 E5.77110
G1 X86.679 Y58.688 E5.78139
G1 X87.045 Y58.688 E5.78848
G1 X87.421 Y58.312 E5.79878
G1 X87.787 Y58.312 E5.80587
G1 X87.411 Y58.688 E5.81617
G1 X87.778 Y58.688 E5.82326
G1 X88.153 Y58.312 E5.83355
G1 X88.519 Y58.312 E5.84065
G1 X88.144 Y58.688 E5.85094
G1 X88.510 Y58.688 E5.85803
G1 X88.885 Y58.312 E5.86833
G1 X89.252 Y58.312 E5.87542
G1 X88.876 Y58.688 E5.88572
G1 X89.242 Y58.688 E5.89281
G1 X89.618 Y58.312 E5.90310
G1 X89.984 Y58.312 E5.91020
G1 X89.608 Y58.688 E5.92049
G1 X89.974 Y58.688 E5.92759
G1 X90.350 Y58.312 E5.93788
G1 X90.716 Y58.312 E5.94497
G1 X90.340 Y58.688 E5.95527
G1 X90.707 Y58.688 E5.96236
G1 X91.082 Y58.312 E5.97266
G1 X91.448 Y58.312 E5.97975
G1 X91.073 Y58.688 E5.99004
G1 X91.439 Y58.688 E5.99714
G1 X91.815 Y58.312 E6.00743
G1 X92.181 Y58.312 E6.01452
G1 X91.805 Y58.688 E6.02482
G1 X92.171 Y58.688 E6.03191
G1 X92.547 Y58.312 E6.04221
G1 X92.913 Y58.312 E6.04930
G1 X92.537 Y58.688 E6.05959
G1 X92.903 Y58.688 E6.06669
G1 X93.279 Y58.312 E6.07698
G1 X93.645 Y58.312 E6.08408
G1 X93.269 Y58.688 E6.09437
G1 X93.636 Y58.688 E6.10146
G1 X94.011 Y58.312 E6.11176
G1 X94.377 Y58.312 E6.11885
G1 X94.002 Y58.688 E6.12915
G1 X94.368 Y58.688 E6.13624
G1 X94.744 Y58.312 E6.14653
G1 X95.110 Y58.312 E6.15363
G1 X94.734 Y58.688 E6.16392
G1 X95.100 Y58.688 E6.17101
G1 X95.476 Y58.312 E6.18131
G1 X95.842 Y58.312 E6.18840
G1 X95.466 Y58.688 E6.19870
G1 X95.832 Y58.688 E6.20579
G1 X96.208 Y58.312 E6.21608
G1 X96.574 Y58.312 E6.22318
G1 X96.199 Y58.688 E6.23347
G1 X96.565 Y58.688 E6.24057
G1 X96.940 Y58.312 E6.25086
G1 X97.307 Y58.312 E6.25795
G1 X96.931 Y58.688 E6.26825
G1 E4.26825 F1200.00000
G92 E0
G1 X97.162 Y55.527 F6000.000
G1 E2.00000 F1200.00000
G1 F1800.000
G1 X99.194 Y53.496 E2.05567
G1 X98.459 Y54.030 E2.07326
G1 X98.363 Y53.960 E2.07556
G1 X97.162 Y55.161 E2.10847
G1 X97.162 Y54.795 E2.11556
G1 X98.151 Y53.806 E2.14267
G1 X97.939 Y53.652 E2.14774
G1 X97.162 Y54.429 E2.16904
G1 X97.162 Y54.063 E2.17613
G1 X97.727 Y53.498 E2.19161
G1 X97.515 Y53.344 E2.19669
G1 X97.162 Y53.697 E2.20636
G1 X97.162 Y53.464 E2.21087
G1 X97.297 Y53.562 E2.21410
G1 E0.21410 F1200.00000
G92 E0
G1 X97.319 Y48.780 F6000.000
G1 E2.00000 F1200.00000
G1 F1800.000
G1 X97.162 Y48.780 E2.00304
G1 X97.162 Y48.937 E2.00608
G1 X97.537 Y48.562 E2.01635
G1 X97.903 Y48.562 E2.02344
G1 X97.162 Y49.303 E2.04375
G1 X97.162 Y49.669 E2.05084
G1 X98.269 Y48.562 E2.08118
G1 X98.635 Y48.562 E2.08827
G1 X97.162 Y50.035 E2.12864
G1 X97.162 Y50.379 E2.13530
G1 X97.185 Y50.379 E2.13574
G1 X99.002 Y48.562 E2.18551
G1 X99.368 Y48.562 E2.19261
G1 X97.551 Y50.379 E2.24238
G1 X97.917 Y50.379 E2.24948
G1 X99.734 Y48.562 E2.29925
G1 X100.100 Y48.562 E2.30635
G1 X98.283 Y50.379 E2.35613
G1 X98.649 Y50.379 E2.36322
G1 X100.466 Y48.562 E2.41300
G1 X100.832 Y48.562 E2.42009
G1 X99.016 Y50.379 E2.46987
G1 X99.382 Y50.379 E2.47696
