; generated by Slic3r 1.3.1-dev (Build (Unknown revision)) on 2020-07-15 at 20:44:58

; external perimeters extrusion width = 0.44mm (2.86mm^3/s)
; perimeters extrusion width = 0.56mm (4.14mm^3/s)
; infill extrusion width = 0.50mm (3.66mm^3/s)
; solid infill extrusion width = 0.56mm (3.10mm^3/s)
; top infill extrusion width = 0.45mm (2.44mm^3/s)

M107
G92 E0
;D3D:START:START
T0
M104 S215 T0

G21
G90
M107
T0
G28
G29
M109 T0 S215 T0
G0 F3000
M107
T0
G92 E0
G0 X0 Y149 Z0.1 F3600
G1 Y49 E6.5 F1200
G0 Z1
G92 E0
; Filament gcode

G21 ; set units to millimeters
G90 ; use absolute coordinates
M82 ; use absolute distances for extrusion
G92 E0
G1 Z0.200 F6000.000
G1 E-2.00000 F1200.00000
G92 E0
G1 Z0.700 F6000.000
G1 X65.024 Y64.663 F6000.000
G1 Z0.200 F6000.000
G1 E2.00000 F1200.00000
G1 F1800.000
G1 X65.866 Y63.912 E2.02170
G1 X66.350 Y63.530 E2.03357
G1 X67.277 Y62.887 E2.05527
G1 X68.251 Y62.318 E2.07697
G1 X68.707 Y62.086 E2.08681
G1 X69.740 Y61.632 E2.10851
G1 X70.805 Y61.260 E2.13021
G1 X71.398 Y61.093 E2.14208
G1 X72.500 Y60.853 E2.16378
G1 X73.619 Y60.701 E2.18551
G1 X74.744 Y60.636 E2.20718
G1 X75.256 Y60.636 E2.21702
G1 X76.382 Y60.701 E2.23872
G1 X76.994 Y60.773 E2.25059
G1 X78.104 Y60.973 E2.27229
G1 X79.197 Y61.261 E2.29402
G1 X80.260 Y61.632 E2.31569
G1 X80.733 Y61.828 E2.32553
G1 X81.749 Y62.318 E2.34724
G1 X82.287 Y62.619 E2.35910
G1 X83.236 Y63.229 E2.38080
G1 X84.134 Y63.912 E2.40250
G1 X84.523 Y64.244 E2.41234
G1 X85.337 Y65.024 E2.43404
G1 X86.088 Y65.866 E2.45575
G1 X86.771 Y66.764 E2.47745
G1 X87.113 Y67.277 E2.48931
G1 X87.682 Y68.251 E2.51101
G1 X87.914 Y68.707 E2.52085
G1 X88.368 Y69.740 E2.54256
G1 X88.740 Y70.805 E2.56426
G1 X88.907 Y71.398 E2.57612
G1 X89.147 Y72.500 E2.59782
G1 X89.299 Y73.619 E2.61955
G1 X89.364 Y74.744 E2.64123
G1 X89.364 Y75.256 E2.65107
G1 X89.299 Y76.382 E2.67277
G1 X89.227 Y76.994 E2.68463
G1 X89.027 Y78.104 E2.70633
G1 X88.739 Y79.197 E2.72806
G1 X88.368 Y80.260 E2.74974
G1 X88.172 Y80.733 E2.75958
G1 X87.682 Y81.749 E2.78128
G1 X87.381 Y82.287 E2.79314
G1 X86.771 Y83.236 E2.81485
G1 X86.088 Y84.134 E2.83655
G1 X85.756 Y84.523 E2.84639
G1 X84.976 Y85.337 E2.86809
G1 X84.134 Y86.088 E2.88979
G1 X83.650 Y86.470 E2.90166
G1 X82.723 Y87.113 E2.92336
G1 X81.749 Y87.682 E2.94506
G1 X81.293 Y87.914 E2.95490
G1 X80.260 Y88.368 E2.97660
G1 X79.195 Y88.740 E2.99830
G1 X78.602 Y88.907 E3.01017
G1 X77.500 Y89.147 E3.03187
G1 X76.381 Y89.299 E3.05359
G1 X75.256 Y89.364 E3.07527
G1 X74.744 Y89.364 E3.08511
G1 X73.618 Y89.299 E3.10681
G1 X73.006 Y89.227 E3.11868
G1 X71.896 Y89.027 E3.14038
G1 X70.803 Y88.739 E3.16211
G1 X69.740 Y88.368 E3.18378
G1 X69.267 Y88.172 E3.19362
G1 X68.251 Y87.682 E3.21532
G1 X67.713 Y87.381 E3.22719
G1 X66.764 Y86.771 E3.24889
G1 X65.866 Y86.088 E3.27059
G1 X65.477 Y85.756 E3.28043
G1 X64.663 Y84.976 E3.30213
G1 X63.912 Y84.134 E3.32383
G1 X63.530 Y83.650 E3.33570
G1 X62.887 Y82.723 E3.35740
G1 X62.318 Y81.749 E3.37910
G1 X62.086 Y81.293 E3.38894
G1 X61.632 Y80.260 E3.41064
G1 X61.260 Y79.195 E3.43234
G1 X61.093 Y78.602 E3.44421
G1 X60.853 Y77.500 E3.46591
G1 X60.701 Y76.381 E3.48764
G1 X60.636 Y75.256 E3.50931
G1 X60.636 Y74.744 E3.51915
G1 X60.701 Y73.618 E3.54086
G1 X60.773 Y73.006 E3.55272
G1 X60.973 Y71.896 E3.57442
G1 X61.261 Y70.803 E3.59615
G1 X61.632 Y69.740 E3.61782
G1 X61.828 Y69.267 E3.62766
G1 X62.318 Y68.251 E3.64937
G1 X62.619 Y67.713 E3.66123
G1 X63.229 Y66.764 E3.68293
G1 X63.912 Y65.866 E3.70463
G1 X64.244 Y65.477 E3.71448
G1 X64.982 Y64.705 E3.73502
G1 X65.199 Y64.851 F6000.000
G1 F1800.000
G1 X66.025 Y64.114 E3.75634
G1 X66.907 Y63.443 E3.77765
G1 X67.420 Y63.100 E3.78951
G1 X68.377 Y62.542 E3.81083
G1 X68.815 Y62.319 E3.82028
G1 X69.829 Y61.873 E3.84159
G1 X70.407 Y61.660 E3.85346
G1 X71.468 Y61.340 E3.87477
G1 X72.551 Y61.105 E3.89608
G1 X73.650 Y60.956 E3.91742
G1 X74.754 Y60.893 E3.93871
G1 X75.246 Y60.893 E3.94816
G1 X76.352 Y60.956 E3.96947
G1 X77.449 Y61.105 E3.99079
G1 X78.054 Y61.226 E4.00265
G1 X79.127 Y61.508 E4.02399
G1 X80.171 Y61.873 E4.04528
G1 X80.625 Y62.061 E4.05473
G1 X81.623 Y62.542 E4.07604
G1 X82.161 Y62.844 E4.08791
G1 X83.093 Y63.443 E4.10922
G1 X83.975 Y64.114 E4.13053
G1 X84.348 Y64.433 E4.13999
G1 X85.149 Y65.199 E4.16130
G1 X85.886 Y66.025 E4.18261
G1 X86.557 Y66.907 E4.20393
G1 X86.900 Y67.420 E4.21579
G1 X87.458 Y68.377 E4.23710
G1 X87.681 Y68.815 E4.24656
G1 X88.127 Y69.829 E4.26787
G1 X88.340 Y70.407 E4.27974
G1 X88.660 Y71.468 E4.30105
G1 X88.895 Y72.551 E4.32236
G1 X89.044 Y73.650 E4.34370
G1 X89.107 Y74.754 E4.36499
G1 X89.107 Y75.246 E4.37444
G1 X89.044 Y76.352 E4.39575
G1 X88.972 Y76.964 E4.40762
G1 X88.774 Y78.054 E4.42893
G1 X88.492 Y79.127 E4.45027
G1 X88.127 Y80.171 E4.47156
G1 X87.939 Y80.625 E4.48101
G1 X87.458 Y81.623 E4.50232
G1 X87.156 Y82.161 E4.51419
G1 X86.557 Y83.093 E4.53550
G1 X85.886 Y83.975 E4.55681
G1 X85.567 Y84.348 E4.56627
G1 X84.801 Y85.149 E4.58758
G1 X83.975 Y85.886 E4.60889
G1 X83.490 Y86.268 E4.62076
G1 X82.580 Y86.900 E4.64207
G1 X81.623 Y87.458 E4.66338
G1 X81.185 Y87.681 E4.67284
G1 X80.171 Y88.127 E4.69415
G1 X79.593 Y88.340 E4.70601
G1 X78.532 Y88.660 E4.72733
G1 X77.449 Y88.895 E4.74864
G1 X76.350 Y89.044 E4.76998
G1 X75.246 Y89.107 E4.79127
G1 X74.754 Y89.107 E4.80072
G1 X73.648 Y89.044 E4.82203
G1 X73.036 Y88.972 E4.83390
G1 X71.946 Y88.774 E4.85521
G1 X70.873 Y88.492 E4.87655
G1 X69.829 Y88.127 E4.89784
G1 X69.375 Y87.939 E4.90729
G1 X68.377 Y87.458 E4.92860
G1 X67.839 Y87.156 E4.94047
G1 X66.907 Y86.557 E4.96178
G1 X66.025 Y85.886 E4.98309
G1 X65.652 Y85.567 E4.99254
G1 X64.851 Y84.801 E5.01386
G1 X64.114 Y83.975 E5.03517
G1 X63.732 Y83.490 E5.04704
G1 X63.100 Y82.580 E5.06835
G1 X62.542 Y81.623 E5.08966
G1 X62.319 Y81.185 E5.09911
G1 X61.873 Y80.171 E5.12043
G1 X61.660 Y79.593 E5.13229
G1 X61.340 Y78.532 E5.15360
G1 X61.105 Y77.449 E5.17492
G1 X60.956 Y76.350 E5.19626
G1 X60.893 Y75.246 E5.21755
G1 X60.893 Y74.754 E5.22700
G1 X60.956 Y73.648 E5.24831
G1 X61.028 Y73.036 E5.26017
G1 X61.226 Y71.946 E5.28149
G1 X61.508 Y70.873 E5.30283
G1 X61.873 Y69.829 E5.32411
G1 X62.061 Y69.375 E5.33357
G1 X62.542 Y68.377 E5.35488
G1 X62.844 Y67.839 E5.36674
G1 X63.443 Y66.907 E5.38806
G1 X64.114 Y66.025 E5.40937
G1 X64.433 Y65.652 E5.41882
G1 X65.156 Y64.894 E5.43898
G1 E3.43898 F1200.00000
G92 E0
G1 Z0.700 F6000.000
G1 X77.033 Y78.522 F6000.000
G1 Z0.200 F6000.000
G1 E2.00000 F1200.00000
G1 F1800.000
G1 X72.967 Y78.522 E2.07824
G1 X70.933 Y75.000 E2.15648
G1 X72.967 Y71.478 E2.23472
G1 X77.033 Y71.478 E2.31297
G1 X79.067 Y75.000 E2.39121
G1 X77.063 Y78.470 E2.46830
G1 X76.885 Y78.265 F6000.000
G1 F1800.000
G1 X73.115 Y78.265 E2.54083
G1 X71.230 Y75.000 E2.61336
G1 X73.115 Y71.735 E2.68589
G1 X76.885 Y71.735 E2.75842
G1 X78.770 Y75.000 E2.83095
G1 X76.915 Y78.213 E2.90233
G1 X76.737 Y78.008 F6000.000
G1 F1800.000
G1 X73.263 Y78.008 E2.96914
G1 X71.527 Y75.000 E3.03596
G1 X73.263 Y71.992 E3.10278
G1 X76.737 Y71.992 E3.16960
G1 X78.473 Y75.000 E3.23642
G1 X76.767 Y77.956 E3.30209
G1 X76.737 Y78.408 F6000.000
G1 E1.30209 F1200.00000
G92 E0
G1 Z0.700 F6000.000
G1 X78.757 Y81.130 F6000.000
G1 Z0.200 F6000.000
G1 E2.00000 F1200.00000
G1 F1800.000
G1 X78.264 Y81.406 E2.01086
G1 X77.751 Y81.643 E2.02172
G1 X77.222 Y81.838 E2.03258
G1 X76.678 Y81.991 E2.04344
G1 X76.125 Y82.101 E2.05430
G1 X75.563 Y82.168 E2.06518
G1 X75.000 Y82.190 E2.07603
G1 X74.436 Y82.168 E2.08689
G1 X73.875 Y82.101 E2.09775
G1 X73.322 Y81.991 E2.10861
G1 X72.778 Y81.838 E2.11949
G1 X72.249 Y81.643 E2.13033
G1 X71.736 Y81.406 E2.14119
G1 X71.243 Y81.130 E2.15206
G1 X70.774 Y80.817 E2.16292
G1 X70.331 Y80.467 E2.17378
G1 X69.916 Y80.084 E2.18464
G1 X69.533 Y79.669 E2.19550
G1 X69.183 Y79.226 E2.20636
G1 X68.870 Y78.757 E2.21722
G1 X68.594 Y78.264 E2.22808
G1 X68.357 Y77.751 E2.23894
G1 X68.162 Y77.222 E2.24981
G1 X68.009 Y76.678 E2.26067
G1 X67.899 Y76.125 E2.27153
G1 X67.832 Y75.563 E2.28240
G1 X67.810 Y75.000 E2.29325
G1 X67.832 Y74.436 E2.30411
G1 X67.899 Y73.875 E2.31497
G1 X68.009 Y73.322 E2.32583
G1 X68.162 Y72.778 E2.33671
G1 X68.357 Y72.249 E2.34756
G1 X68.594 Y71.736 E2.35842
G1 X68.870 Y71.243 E2.36928
G1 X69.183 Y70.774 E2.38014
G1 X69.533 Y70.331 E2.39100
G1 X69.916 Y69.916 E2.40186
G1 X70.331 Y69.533 E2.41272
G1 X70.774 Y69.183 E2.42358
G1 X71.243 Y68.870 E2.43444
G1 X71.736 Y68.594 E2.44530
G1 X72.249 Y68.357 E2.45617
G1 X72.778 Y68.162 E2.46703
G1 X73.322 Y68.009 E2.47789
G1 X73.875 Y67.899 E2.48875
G1 X74.437 Y67.832 E2.49962
G1 X75.000 Y67.810 E2.51047
G1 X75.564 Y67.832 E2.52133
G1 X76.125 Y67.899 E2.53219
G1 X76.678 Y68.009 E2.54305
G1 X77.222 Y68.162 E2.55393
G1 X77.751 Y68.357 E2.56478
G1 X78.264 Y68.594 E2.57564
G1 X78.757 Y68.870 E2.58650
G1 X79.226 Y69.183 E2.59736
G1 X79.669 Y69.533 E2.60822
G1 X80.084 Y69.916 E2.61908
G1 X80.467 Y70.331 E2.62994
G1 X80.817 Y70.774 E2.64080
G1 X81.130 Y71.243 E2.65167
G1 X81.406 Y71.736 E2.66253
G1 X81.643 Y72.249 E2.67339
G1 X81.838 Y72.778 E2.68425
G1 X81.991 Y73.322 E2.69511
G1 X82.101 Y73.875 E2.70597
G1 X82.168 Y74.437 E2.71685
G1 X82.190 Y75.000 E2.72769
G1 X82.168 Y75.564 E2.73855
G1 X82.101 Y76.125 E2.74942
G1 X81.991 Y76.678 E2.76028
G1 X81.838 Y77.222 E2.77115
G1 X81.643 Y77.751 E2.78200
G1 X81.406 Y78.264 E2.79286
G1 X81.130 Y78.757 E2.80372
G1 X80.817 Y79.226 E2.81458
G1 X80.467 Y79.669 E2.82544
G1 X80.084 Y80.084 E2.83630
G1 X79.669 Y80.467 E2.84717
G1 X79.226 Y80.817 E2.85803
G1 X78.807 Y81.097 E2.86773
G1 X78.891 Y81.350 F6000.000
G1 F1800.000
G1 X78.381 Y81.635 E2.87898
G1 X77.850 Y81.880 E2.89023
G1 X77.301 Y82.083 E2.90148
G1 X76.738 Y82.241 E2.91273
G1 X76.165 Y82.355 E2.92398
G1 X75.584 Y82.424 E2.93525
G1 X75.000 Y82.447 E2.94648
G1 X74.416 Y82.424 E2.95773
G1 X73.835 Y82.355 E2.96898
G1 X73.262 Y82.241 E2.98023
G1 X72.698 Y82.082 E2.99149
G1 X72.150 Y81.880 E3.00273
G1 X71.619 Y81.635 E3.01398
G1 X71.109 Y81.350 E3.02523
G1 X70.623 Y81.025 E3.03648
G1 X70.163 Y80.663 E3.04773
G1 X69.734 Y80.266 E3.05898
G1 X69.337 Y79.837 E3.07023
G1 X68.975 Y79.377 E3.08148
G1 X68.650 Y78.891 E3.09273
G1 X68.365 Y78.381 E3.10398
G1 X68.120 Y77.850 E3.11523
G1 X67.917 Y77.301 E3.12648
G1 X67.759 Y76.738 E3.13773
G1 X67.645 Y76.165 E3.14898
G1 X67.576 Y75.584 E3.16024
G1 X67.553 Y75.000 E3.17148
G1 X67.576 Y74.416 E3.18273
G1 X67.645 Y73.835 E3.19398
G1 X67.759 Y73.262 E3.20523
G1 X67.918 Y72.698 E3.21649
G1 X68.120 Y72.150 E3.22773
G1 X68.365 Y71.619 E3.23897
G1 X68.650 Y71.109 E3.25022
G1 X68.975 Y70.623 E3.26147
G1 X69.337 Y70.163 E3.27272
G1 X69.734 Y69.734 E3.28397
G1 X70.163 Y69.337 E3.29522
G1 X70.623 Y68.975 E3.30647
G1 X71.109 Y68.650 E3.31772
G1 X71.619 Y68.365 E3.32897
G1 X72.150 Y68.120 E3.34022
G1 X72.699 Y67.917 E3.35147
G1 X73.262 Y67.759 E3.36272
G1 X73.835 Y67.645 E3.37397
G1 X74.416 Y67.576 E3.38524
G1 X75.000 Y67.553 E3.39647
G1 X75.584 Y67.576 E3.40772
G1 X76.165 Y67.645 E3.41897
G1 X76.738 Y67.759 E3.43022
G1 X77.302 Y67.918 E3.44148
G1 X77.850 Y68.120 E3.45272
G1 X78.381 Y68.365 E3.46397
G1 X78.891 Y68.650 E3.47522
G1 X79.377 Y68.975 E3.48647
G1 X79.837 Y69.337 E3.49772
G1 X80.266 Y69.734 E3.50897
G1 X80.663 Y70.163 E3.52022
G1 X81.025 Y70.623 E3.53147
G1 X81.350 Y71.109 E3.54272
G1 X81.635 Y71.619 E3.55397
G1 X81.880 Y72.150 E3.56522
G1 X82.083 Y72.699 E3.57647
G1 X82.241 Y73.262 E3.58772
G1 X82.355 Y73.835 E3.59897
G1 X82.424 Y74.416 E3.61023
G1 X82.447 Y75.000 E3.62147
G1 X82.424 Y75.584 E3.63272
G1 X82.355 Y76.165 E3.64397
G1 X82.241 Y76.738 E3.65521
G1 X82.082 Y77.302 E3.66648
G1 X81.880 Y77.850 E3.67771
G1 X81.635 Y78.381 E3.68896
G1 X81.350 Y78.891 E3.70021
G1 X81.025 Y79.377 E3.71146
G1 X80.663 Y79.837 E3.72271
G1 X80.266 Y80.266 E3.73396
G1 X79.837 Y80.663 E3.74521
G1 X79.377 Y81.025 E3.75646
G1 X78.941 Y81.316 E3.76656
G1 X79.026 Y81.569 F6000.000
G1 F1800.000
G1 X78.498 Y81.865 E3.77820
G1 X77.948 Y82.118 E3.78984
G1 X77.381 Y82.327 E3.80147
G1 X76.799 Y82.492 E3.81311
G1 X76.205 Y82.610 E3.82475
G1 X75.604 Y82.681 E3.83640
G1 X75.000 Y82.704 E3.84803
G1 X74.396 Y82.681 E3.85967
G1 X73.795 Y82.610 E3.87130
G1 X73.201 Y82.492 E3.88294
G1 X72.619 Y82.327 E3.89459
G1 X72.052 Y82.118 E3.90622
G1 X71.502 Y81.865 E3.91786
G1 X70.974 Y81.569 E3.92950
G1 X70.471 Y81.233 E3.94113
G1 X69.996 Y80.858 E3.95277
G1 X69.552 Y80.448 E3.96441
G1 X69.142 Y80.004 E3.97605
G1 X68.767 Y79.529 E3.98769
G1 X68.431 Y79.026 E3.99933
G1 X68.135 Y78.498 E4.01096
G1 X67.882 Y77.948 E4.02260
G1 X67.673 Y77.381 E4.03424
G1 X67.508 Y76.799 E4.04588
G1 X67.390 Y76.205 E4.05752
G1 X67.319 Y75.604 E4.06917
G1 X67.296 Y75.000 E4.08079
G1 X67.319 Y74.396 E4.09243
G1 X67.390 Y73.795 E4.10407
G1 X67.508 Y73.201 E4.11571
G1 X67.673 Y72.619 E4.12736
G1 X67.882 Y72.052 E4.13899
G1 X68.135 Y71.502 E4.15063
G1 X68.431 Y70.974 E4.16226
G1 X68.767 Y70.471 E4.17390
G1 X69.142 Y69.996 E4.18554
G1 X69.552 Y69.552 E4.19718
G1 X69.996 Y69.142 E4.20882
G1 X70.471 Y68.767 E4.22046
G1 X70.974 Y68.431 E4.23209
G1 X71.502 Y68.135 E4.24373
G1 X72.052 Y67.882 E4.25537
G1 X72.619 Y67.673 E4.26701
G1 X73.201 Y67.508 E4.27865
G1 X73.795 Y67.390 E4.29029
G1 X74.396 Y67.319 E4.30194
G1 X75.000 Y67.296 E4.31356
G1 X75.604 Y67.319 E4.32520
G1 X76.205 Y67.390 E4.33684
G1 X76.799 Y67.508 E4.34848
G1 X77.381 Y67.673 E4.36013
G1 X77.948 Y67.882 E4.37175
G1 X78.498 Y68.135 E4.38339
G1 X79.026 Y68.431 E4.39503
G1 X79.529 Y68.767 E4.40667
G1 X80.004 Y69.142 E4.41831
G1 X80.448 Y69.552 E4.42995
G1 X80.858 Y69.996 E4.44158
G1 X81.233 Y70.471 E4.45322
G1 X81.569 Y70.974 E4.46486
G1 X81.865 Y71.502 E4.47650
G1 X82.118 Y72.052 E4.48814
G1 X82.327 Y72.619 E4.49978
G1 X82.492 Y73.201 E4.51142
G1 X82.610 Y73.795 E4.52305
G1 X82.681 Y74.396 E4.53471
G1 X82.704 Y75.000 E4.54633
G1 X82.681 Y75.604 E4.55797
G1 X82.610 Y76.205 E4.56961
G1 X82.492 Y76.799 E4.58125
G1 X82.327 Y77.381 E4.59290
G1 X82.118 Y77.948 E4.60452
G1 X81.865 Y78.498 E4.61616
G1 X81.569 Y79.026 E4.62780
G1 X81.233 Y79.529 E4.63944
G1 X80.858 Y80.004 E4.65108
G1 X80.448 Y80.448 E4.66271
G1 X80.004 Y80.858 E4.67435
G1 X79.529 Y81.233 E4.68599
G1 X79.075 Y81.536 E4.69647
G1 X78.674 Y81.378 F6000.000
G1 X79.791 Y80.013 F6000.000
G1 F1800.000
G1 X80.381 Y79.393 E4.71322
G1 X80.718 Y78.966 E4.72387
G1 X81.020 Y78.513 E4.73453
G1 X81.146 Y78.288 E4.73959
G1 X78.288 Y81.146 E4.81874
G1 X78.038 Y81.286 E4.82433
G1 X77.555 Y81.509 E4.83474
G1 X81.509 Y77.555 E4.94419
G1 X81.719 Y76.976 E4.95626
G1 X76.976 Y81.719 E5.08758
G1 X76.465 Y81.859 E5.09794
G1 X81.859 Y76.465 E5.24727
G1 X81.951 Y76.003 E5.25649
G1 X76.003 Y81.951 E5.42115
G1 X75.581 Y82.003 E5.42947
G1 X82.003 Y75.581 E5.60727
G1 X82.030 Y75.184 E5.61506
G1 X75.184 Y82.030 E5.80460
G1 X74.806 Y82.038 E5.81201
G1 X82.038 Y74.806 E6.01224
G1 X82.024 Y74.450 E6.01922
G1 X74.450 Y82.024 E6.22892
G1 X74.112 Y81.992 E6.23557
G1 X81.992 Y74.112 E6.45376
G1 X81.952 Y73.783 E6.46025
G1 X77.382 Y78.352 E6.58676
G1 X77.888 Y77.477 E6.60655
G1 X81.890 Y73.474 E6.71737
G1 X81.822 Y73.173 E6.72342
G1 X78.393 Y76.602 E6.81836
G1 X78.898 Y75.726 E6.83815
G1 X81.741 Y72.884 E6.91684
G1 X81.649 Y72.605 E6.92258
G1 X79.215 Y75.040 E6.98999
G1 X79.079 Y74.805 E6.99529
G1 X81.550 Y72.335 E7.06369
G1 X81.439 Y72.076 E7.06921
G1 X78.944 Y74.571 E7.13829
G1 X78.808 Y74.336 E7.14359
G1 X81.322 Y71.822 E7.21320
G1 X81.195 Y71.580 E7.21856
G1 X78.673 Y74.102 E7.28837
G1 X78.538 Y73.867 E7.29367
G1 X81.062 Y71.343 E7.36355
G1 X80.918 Y71.116 E7.36880
G1 X78.402 Y73.633 E7.43847
G1 X78.267 Y73.398 E7.44377
G1 X80.770 Y70.895 E7.51308
G1 X80.612 Y70.682 E7.51825
G1 X78.131 Y73.164 E7.58694
G1 X77.996 Y72.929 E7.59225
G1 X80.449 Y70.476 E7.66017
G1 X80.278 Y70.277 E7.66531
G1 X77.861 Y72.694 E7.73223
G1 X77.725 Y72.460 E7.73753
G1 X80.100 Y70.085 E7.80328
G1 X80.011 Y69.989 E7.80585
G1 X79.915 Y69.900 E7.80841
G1 X77.590 Y72.225 E7.87279
G1 X77.454 Y71.991 E7.87809
G1 X79.723 Y69.722 E7.94090
G1 X79.524 Y69.551 E7.94603
G1 X77.319 Y71.756 E8.00710
G1 X77.183 Y71.522 E8.01240
G1 X79.318 Y69.388 E8.07148
G1 X79.105 Y69.230 E8.07666
G1 X77.005 Y71.330 E8.13480
G1 X76.635 Y71.330 E8.14205
G1 X78.884 Y69.082 E8.20430
G1 X78.657 Y68.938 E8.20955
G1 X76.265 Y71.330 E8.27576
G1 X75.895 Y71.330 E8.28301
