; generated by Slic3r 1.3.1-dev (Build (Unknown revision)) on 2021-02-19 at 18:24:09

; external perimeters extrusion width = 0.44mm (2.86mm^3/s)
; perimeters extrusion width = 0.56mm (4.14mm^3/s)
; infill extrusion width = 0.50mm (5.48mm^3/s)
; solid infill extrusion width = 0.56mm (3.10mm^3/s)
; top infill extrusion width = 0.45mm (2.44mm^3/s)

M107
G92 E0
;D3D:START:START
T0
M104 S215 T0

G21
G90
M107
T0
G28
G29
M109 T0 S215 T0
G0 F3000
M107
T0
G92 E0
G0 X0 Y149 Z0.1 F3600
G1 Y49 E6.5 F1200
G0 Z1
G92 E0
; Filament gcode

G21 ; set units to millimeters
G90 ; use absolute coordinates
M82 ; use absolute distances for extrusion
G92 E0
G1 Z0.200 F6000.000
G1 E-2.00000 F1200.00000
G92 E0
G1 X66.245 Y60.307 F6000.000
G1 E2.00000 F1200.00000
G1 F1800.000
G1 X68.162 Y58.800 E2.04692
G1 X68.808 Y58.540 E2.06032
G1 X69.678 Y58.238 E2.07803
G1 X70.562 Y57.983 E2.09574
G1 X71.459 Y57.774 E2.11346
G1 X72.365 Y57.612 E2.13116
G1 X73.279 Y57.498 E2.14888
G1 X73.962 Y57.444 E2.16205
G1 X74.882 Y57.414 E2.17977
G1 X75.802 Y57.432 E2.19747
G1 X76.721 Y57.498 E2.21519
G1 X77.635 Y57.612 E2.23291
G1 X78.541 Y57.774 E2.25061
G1 X79.438 Y57.983 E2.26833
G1 X80.322 Y58.238 E2.28604
G1 X81.192 Y58.540 E2.30376
G1 X82.045 Y58.886 E2.32146
G1 X83.089 Y59.385 E2.34373
G1 X83.895 Y59.829 E2.36144
G1 X84.677 Y60.316 E2.37915
G1 X85.432 Y60.842 E2.39687
G1 X86.159 Y61.408 E2.41458
G1 X86.855 Y62.010 E2.43229
G1 X87.519 Y62.648 E2.45001
G1 X87.836 Y62.983 E2.45887
G1 X88.821 Y64.595 E2.49523
G1 X88.977 Y67.029 E2.54214
G1 X84.526 Y87.967 E2.95397
G1 X83.755 Y89.693 E2.99032
G1 X81.838 Y91.200 E3.03724
G1 X81.192 Y91.460 E3.05064
G1 X80.322 Y91.762 E3.06836
G1 X79.437 Y92.017 E3.08607
G1 X78.772 Y92.177 E3.09924
G1 X77.634 Y92.388 E3.12149
G1 X76.721 Y92.502 E3.13921
G1 X76.038 Y92.556 E3.15238
G1 X74.882 Y92.586 E3.17463
G1 X74.197 Y92.568 E3.18781
G1 X73.279 Y92.502 E3.20552
G1 X72.365 Y92.388 E3.22324
G1 X71.459 Y92.226 E3.24094
G1 X70.334 Y91.956 E3.26320
G1 X69.453 Y91.689 E3.28091
G1 X68.588 Y91.376 E3.29862
G1 X67.955 Y91.114 E3.31179
G1 X67.121 Y90.723 E3.32950
G1 X66.105 Y90.171 E3.35176
G1 X65.521 Y89.813 E3.36494
G1 X64.759 Y89.297 E3.38265
G1 X64.025 Y88.741 E3.40036
G1 X63.321 Y88.148 E3.41807
G1 X62.648 Y87.519 E3.43578
G1 X62.164 Y87.017 E3.44920
G1 X61.179 Y85.405 E3.48555
G1 X61.023 Y82.971 E3.53246
G1 X65.474 Y62.033 E3.94429
G1 X66.220 Y60.362 E3.97949
G1 X66.484 Y60.416 F6000.000
G1 F1800.000
G1 X68.261 Y59.038 E4.02275
G1 X68.894 Y58.782 E4.03588
G1 X69.751 Y58.485 E4.05334
G1 X70.622 Y58.233 E4.07079
G1 X71.506 Y58.027 E4.08825
G1 X72.399 Y57.867 E4.10570
G1 X73.299 Y57.754 E4.12316
G1 X74.204 Y57.689 E4.14061
G1 X75.111 Y57.671 E4.15806
G1 X75.796 Y57.689 E4.17123
G1 X76.701 Y57.754 E4.18869
G1 X77.601 Y57.867 E4.20615
G1 X78.494 Y58.027 E4.22359
G1 X79.378 Y58.233 E4.24105
G1 X80.249 Y58.485 E4.25851
G1 X81.106 Y58.782 E4.27596
G1 X81.946 Y59.124 E4.29341
G1 X82.967 Y59.610 E4.31516
G1 X83.761 Y60.048 E4.33261
G1 X84.531 Y60.527 E4.35006
G1 X85.276 Y61.046 E4.36752
G1 X85.992 Y61.603 E4.38497
G1 X86.678 Y62.197 E4.40243
G1 X87.332 Y62.825 E4.41988
G1 X87.649 Y63.160 E4.42875
G1 X88.596 Y64.731 E4.46404
G1 X88.725 Y66.975 E4.50728
G1 X84.275 Y87.914 E4.91911
G1 X83.516 Y89.584 E4.95441
G1 X81.739 Y90.962 E4.99766
G1 X81.106 Y91.218 E5.01080
G1 X80.249 Y91.515 E5.02826
G1 X79.377 Y91.767 E5.04571
G1 X78.712 Y91.927 E5.05888
G1 X77.601 Y92.133 E5.08062
G1 X76.700 Y92.246 E5.09807
G1 X76.018 Y92.299 E5.11125
G1 X74.889 Y92.329 E5.13298
G1 X74.204 Y92.311 E5.14615
G1 X73.299 Y92.246 E5.16361
G1 X72.398 Y92.133 E5.18107
G1 X71.506 Y91.973 E5.19851
G1 X70.407 Y91.710 E5.22025
G1 X69.539 Y91.446 E5.23771
G1 X68.686 Y91.138 E5.25515
G1 X67.850 Y90.785 E5.27261
G1 X67.232 Y90.491 E5.28578
G1 X66.239 Y89.952 E5.30752
G1 X65.655 Y89.594 E5.32069
G1 X64.904 Y89.085 E5.33814
G1 X64.181 Y88.537 E5.35560
G1 X63.487 Y87.952 E5.37305
G1 X62.825 Y87.332 E5.39051
G1 X62.351 Y86.840 E5.40366
G1 X61.404 Y85.269 E5.43895
G1 X61.275 Y83.025 E5.48219
G1 X65.725 Y62.086 E5.89403
G1 X66.459 Y60.471 E5.92817
G1 E3.92817 F1200.00000
G92 E0
G1 X75.076 Y85.037 F6000.000
G1 E2.00000 F1200.00000
G1 F1800.000
G1 X74.629 Y85.590 E2.01368
G1 X74.032 Y85.977 E2.02736
G1 X73.346 Y86.161 E2.04103
G1 X72.636 Y86.124 E2.05471
G1 X71.972 Y85.869 E2.06839
G1 X71.419 Y85.422 E2.08207
G1 X71.032 Y84.825 E2.09575
G1 X70.848 Y84.139 E2.10943
G1 X70.885 Y83.429 E2.12310
G1 X71.140 Y82.765 E2.13678
G1 X71.587 Y82.212 E2.15046
G1 X72.184 Y81.825 E2.16414
G1 X72.870 Y81.641 E2.17782
G1 X73.580 Y81.678 E2.19150
G1 X74.244 Y81.933 E2.20517
G1 X74.797 Y82.381 E2.21885
G1 X75.184 Y82.977 E2.23253
G1 X75.368 Y83.664 E2.24621
G1 X75.331 Y84.374 E2.25989
G1 X75.097 Y84.981 E2.27241
G1 X74.851 Y84.907 F6000.000
G1 F1800.000
G1 X74.454 Y85.396 E2.28452
G1 X73.926 Y85.739 E2.29663
G1 X73.318 Y85.902 E2.30874
G1 X72.690 Y85.869 E2.32086
G1 X72.102 Y85.644 E2.33297
G1 X71.613 Y85.248 E2.34508
G1 X71.270 Y84.720 E2.35719
G1 X71.107 Y84.111 E2.36930
G1 X71.140 Y83.483 E2.38141
G1 X71.365 Y82.895 E2.39353
G1 X71.762 Y82.406 E2.40564
G1 X72.290 Y82.063 E2.41775
G1 X72.898 Y81.900 E2.42986
G1 X73.526 Y81.933 E2.44197
G1 X74.114 Y82.159 E2.45408
G1 X74.603 Y82.555 E2.46619
G1 X74.946 Y83.083 E2.47831
G1 X75.109 Y83.691 E2.49042
G1 X75.076 Y84.319 E2.50253
G1 X74.872 Y84.851 E2.51349
G1 X74.625 Y84.777 F6000.000
G1 F1800.000
G1 X74.280 Y85.203 E2.52403
G1 X73.821 Y85.502 E2.53458
G1 X73.291 Y85.643 E2.54512
G1 X72.744 Y85.615 E2.55567
G1 X72.232 Y85.418 E2.56621
G1 X71.806 Y85.073 E2.57676
G1 X71.508 Y84.614 E2.58730
G1 X71.366 Y84.084 E2.59784
G1 X71.394 Y83.537 E2.60839
G1 X71.591 Y83.025 E2.61893
G1 X71.936 Y82.599 E2.62948
G1 X72.395 Y82.301 E2.64002
G1 X72.925 Y82.159 E2.65057
G1 X73.472 Y82.188 E2.66111
G1 X73.984 Y82.384 E2.67166
G1 X74.410 Y82.729 E2.68220
G1 X74.708 Y83.189 E2.69275
G1 X74.850 Y83.718 E2.70329
G1 X74.822 Y84.265 E2.71384
G1 X74.647 Y84.721 E2.72323
G1 X74.825 Y85.123 F6000.000
G1 E0.72323 F1200.00000
G92 E0
G1 X76.257 Y78.868 F6000.000
G1 E2.00000 F1200.00000
G1 F1800.000
G1 X72.279 Y78.022 E2.07824
G1 X71.022 Y74.154 E2.15648
G1 X73.743 Y71.132 E2.23473
G1 X77.721 Y71.978 E2.31297
G1 X78.978 Y75.846 E2.39121
G1 X76.297 Y78.823 E2.46830
G1 X76.165 Y78.586 F6000.000
G1 F1800.000
G1 X72.477 Y77.802 E2.54083
G1 X71.312 Y74.216 E2.61336
G1 X73.835 Y71.414 E2.68589
G1 X77.523 Y72.198 E2.75842
G1 X78.688 Y75.784 E2.83095
G1 X76.205 Y78.541 E2.90233
G1 X76.073 Y78.303 F6000.000
G1 F1800.000
G1 X72.676 Y77.581 E2.96915
G1 X71.603 Y74.278 E3.03597
G1 X73.927 Y71.697 E3.10279
G1 X77.324 Y72.419 E3.16961
G1 X78.397 Y75.722 E3.23643
G1 X76.113 Y78.259 E3.30209
G1 X75.990 Y78.694 F6000.000
G1 E1.30209 F1200.00000
G92 E0
G1 X76.420 Y68.322 F6000.000
G1 E2.00000 F1200.00000
G1 F1800.000
G1 X75.756 Y68.067 E2.01368
G1 X75.203 Y67.619 E2.02736
G1 X74.816 Y67.023 E2.04103
G1 X74.632 Y66.336 E2.05471
G1 X74.669 Y65.626 E2.06839
G1 X74.924 Y64.963 E2.08207
G1 X75.371 Y64.410 E2.09575
G1 X75.968 Y64.023 E2.10943
G1 X76.654 Y63.839 E2.12310
G1 X77.364 Y63.876 E2.13678
G1 X78.028 Y64.131 E2.15046
G1 X78.581 Y64.578 E2.16414
G1 X78.968 Y65.175 E2.17782
G1 X79.152 Y65.861 E2.19150
G1 X79.115 Y66.571 E2.20517
G1 X78.860 Y67.235 E2.21885
G1 X78.413 Y67.788 E2.23253
G1 X77.816 Y68.175 E2.24621
G1 X77.130 Y68.359 E2.25989
G1 X76.479 Y68.325 E2.27241
G1 X76.474 Y68.067 F6000.000
G1 F1800.000
G1 X75.886 Y67.841 E2.28452
G1 X75.397 Y67.445 E2.29663
G1 X75.054 Y66.917 E2.30874
G1 X74.891 Y66.309 E2.32086
G1 X74.924 Y65.681 E2.33297
G1 X75.149 Y65.093 E2.34508
G1 X75.546 Y64.603 E2.35719
G1 X76.074 Y64.261 E2.36930
G1 X76.682 Y64.098 E2.38141
G1 X77.310 Y64.131 E2.39353
G1 X77.898 Y64.356 E2.40564
G1 X78.387 Y64.752 E2.41775
G1 X78.730 Y65.280 E2.42986
G1 X78.893 Y65.889 E2.44197
G1 X78.860 Y66.517 E2.45408
G1 X78.635 Y67.105 E2.46619
G1 X78.238 Y67.594 E2.47831
G1 X77.710 Y67.937 E2.49042
G1 X77.102 Y68.100 E2.50253
G1 X76.534 Y68.070 E2.51349
G1 X76.528 Y67.812 F6000.000
G1 F1800.000
G1 X76.016 Y67.616 E2.52403
G1 X75.590 Y67.271 E2.53458
G1 X75.292 Y66.811 E2.54512
G1 X75.150 Y66.282 E2.55566
G1 X75.178 Y65.735 E2.56621
G1 X75.375 Y65.223 E2.57675
G1 X75.720 Y64.797 E2.58730
G1 X76.179 Y64.498 E2.59784
G1 X76.709 Y64.357 E2.60839
G1 X77.256 Y64.385 E2.61893
G1 X77.768 Y64.582 E2.62948
G1 X78.194 Y64.927 E2.64002
G1 X78.492 Y65.386 E2.65057
G1 X78.634 Y65.916 E2.66111
G1 X78.606 Y66.463 E2.67166
G1 X78.409 Y66.975 E2.68220
G1 X78.064 Y67.401 E2.69275
G1 X77.605 Y67.699 E2.70329
G1 X77.075 Y67.841 E2.71384
G1 X76.588 Y67.816 E2.72323
G1 X76.260 Y68.110 F6000.000
G1 E0.72323 F1200.00000
G92 E0
G1 X83.839 Y66.294 F6000.000
G1 E2.00000 F1200.00000
G1 F1800.000
G1 X79.534 Y86.549 E2.39839
G1 X78.834 Y86.802 E2.41270
G1 X78.212 Y86.986 E2.42519
G1 X77.580 Y87.138 E2.43769
G1 X76.941 Y87.256 E2.45019
G1 X76.297 Y87.341 E2.46268
G1 X75.649 Y87.392 E2.47519
G1 X75.000 Y87.409 E2.48768
G1 X74.350 Y87.392 E2.50018
G1 X73.703 Y87.341 E2.51268
G1 X73.059 Y87.256 E2.52518
G1 X72.420 Y87.138 E2.53767
G1 X71.788 Y86.986 E2.55017
G1 X71.165 Y86.802 E2.56267
G1 X70.553 Y86.585 E2.57517
G1 X69.953 Y86.336 E2.58767
G1 X69.366 Y86.056 E2.60017
G1 X68.796 Y85.746 E2.61267
G1 X68.241 Y85.407 E2.62517
G1 X67.706 Y85.039 E2.63766
G1 X67.191 Y84.644 E2.65016
G1 X66.697 Y84.222 E2.66266
G1 X66.226 Y83.774 E2.67516
G1 X66.161 Y83.706 E2.67697
G1 X70.466 Y63.451 E3.07535
G1 X71.165 Y63.198 E3.08966
G1 X71.788 Y63.014 E3.10215
G1 X72.420 Y62.862 E3.11465
G1 X73.059 Y62.744 E3.12715
G1 X73.703 Y62.659 E3.13965
G1 X74.351 Y62.608 E3.15215
G1 X75.000 Y62.591 E3.16465
G1 X75.649 Y62.608 E3.17715
G1 X76.297 Y62.659 E3.18964
G1 X76.941 Y62.744 E3.20214
G1 X77.580 Y62.862 E3.21464
G1 X78.212 Y63.014 E3.22714
G1 X78.835 Y63.198 E3.23964
G1 X79.447 Y63.415 E3.25214
G1 X80.047 Y63.664 E3.26464
G1 X80.634 Y63.944 E3.27713
G1 X81.204 Y64.254 E3.28963
G1 X81.758 Y64.593 E3.30213
G1 X82.294 Y64.961 E3.31463
G1 X82.809 Y65.356 E3.32713
G1 X83.303 Y65.778 E3.33963
G1 X83.798 Y66.250 E3.35278
G1 X84.119 Y66.215 F6000.000
G1 F1800.000
G1 X79.757 Y86.735 E3.75637
G1 X78.914 Y87.046 E3.77367
G1 X78.278 Y87.234 E3.78642
G1 X77.633 Y87.389 E3.79918
G1 X76.981 Y87.510 E3.81194
G1 X76.324 Y87.597 E3.82469
G1 X75.663 Y87.649 E3.83745
G1 X75.000 Y87.666 E3.85020
G1 X74.337 Y87.649 E3.86297
G1 X73.676 Y87.597 E3.87572
G1 X73.018 Y87.510 E3.88848
G1 X72.367 Y87.389 E3.90123
G1 X71.722 Y87.234 E3.91399
G1 X71.086 Y87.046 E3.92675
G1 X70.461 Y86.825 E3.93951
G1 X69.848 Y86.571 E3.95227
G1 X69.250 Y86.286 E3.96502
G1 X68.667 Y85.969 E3.97778
G1 X68.101 Y85.623 E3.99054
G1 X67.555 Y85.247 E4.00330
G1 X67.029 Y84.843 E4.01605
G1 X66.525 Y84.413 E4.02881
G1 X66.044 Y83.956 E4.04157
G1 X65.881 Y83.785 E4.04611
G1 X70.243 Y63.265 E4.44970
G1 X71.086 Y62.954 E4.46699
G1 X71.722 Y62.766 E4.47975
G1 X72.367 Y62.611 E4.49250
G1 X73.019 Y62.490 E4.50526
G1 X73.676 Y62.403 E4.51802
G1 X74.337 Y62.351 E4.53078
G1 X75.000 Y62.334 E4.54353
G1 X75.663 Y62.351 E4.55629
G1 X76.324 Y62.403 E4.56905
G1 X76.981 Y62.490 E4.58181
G1 X77.633 Y62.611 E4.59456
G1 X78.278 Y62.766 E4.60732
G1 X78.914 Y62.954 E4.62008
G1 X79.539 Y63.175 E4.63284
G1 X80.152 Y63.429 E4.64560
G1 X80.750 Y63.714 E4.65835
G1 X81.333 Y64.031 E4.67111
G1 X81.898 Y64.377 E4.68387
G1 X82.445 Y64.753 E4.69663
G1 X82.971 Y65.157 E4.70938
G1 X83.475 Y65.587 E4.72214
G1 X84.077 Y66.171 E4.73828
G1 X84.398 Y66.136 F6000.000
G1 F1800.000
G1 X79.980 Y86.920 E5.14707
G1 X79.631 Y87.065 E5.15434
G1 X78.993 Y87.291 E5.16737
G1 X78.345 Y87.483 E5.18038
G1 X77.687 Y87.641 E5.19340
G1 X77.021 Y87.764 E5.20642
G1 X76.351 Y87.853 E5.21943
G1 X75.676 Y87.906 E5.23245
G1 X75.000 Y87.923 E5.24546
G1 X74.323 Y87.906 E5.25848
G1 X73.649 Y87.852 E5.27150
G1 X72.978 Y87.764 E5.28452
G1 X72.313 Y87.641 E5.29753
G1 X71.655 Y87.483 E5.31054
G1 X71.006 Y87.291 E5.32356
G1 X70.369 Y87.065 E5.33658
G1 X69.744 Y86.806 E5.34959
G1 X69.133 Y86.515 E5.36261
G1 X68.538 Y86.192 E5.37563
G1 X67.961 Y85.838 E5.38865
G1 X67.404 Y85.455 E5.40166
G1 X66.867 Y85.043 E5.41468
G1 X66.353 Y84.604 E5.42769
G1 X65.862 Y84.138 E5.44071
G1 X65.602 Y83.864 E5.44798
G1 X70.020 Y63.080 E5.85677
G1 X70.369 Y62.935 E5.86405
G1 X71.006 Y62.709 E5.87706
G1 X71.655 Y62.517 E5.89008
G1 X72.313 Y62.359 E5.90310
G1 X72.978 Y62.236 E5.91611
G1 X73.649 Y62.147 E5.92913
G1 X74.324 Y62.094 E5.94214
G1 X75.000 Y62.077 E5.95516
G1 X75.676 Y62.094 E5.96818
G1 X76.351 Y62.147 E5.98119
G1 X77.022 Y62.236 E5.99421
G1 X77.687 Y62.359 E6.00723
G1 X78.345 Y62.517 E6.02024
G1 X78.994 Y62.709 E6.03326
G1 X79.631 Y62.935 E6.04628
G1 X80.256 Y63.194 E6.05929
G1 X80.867 Y63.485 E6.07231
G1 X81.462 Y63.808 E6.08533
G1 X82.039 Y64.162 E6.09834
G1 X82.596 Y64.545 E6.11136
G1 X83.133 Y64.957 E6.12438
G1 X83.647 Y65.396 E6.13739
G1 X84.357 Y66.092 E6.15652
G1 X84.079 Y66.378 F6000.000
G1 E4.15652 F1200.00000
G92 E0
G1 X75.072 Y71.284 F6000.000
G1 E2.00000 F1200.00000
G1 F1800.000
G1 X78.093 Y68.263 E2.08237
G1 X78.031 Y68.304 E2.08379
G1 X77.563 Y68.429 E2.09313
G1 X74.772 Y71.220 E2.16924
G1 X74.471 Y71.156 E2.17516
G1 X77.126 Y68.501 E2.24756
G1 X76.780 Y68.483 E2.25424
G1 X74.171 Y71.092 E2.32539
G1 X73.870 Y71.029 E2.33131
G1 X76.444 Y68.455 E2.40148
G1 X76.180 Y68.354 E2.40692
G1 X73.570 Y70.965 E2.47810
G1 X73.542 Y70.959 E2.47864
G1 X73.242 Y71.292 E2.48729
G1 X73.460 Y71.074 F6000.000
G1 F1800.000
G1 X67.825 Y76.710 E2.64095
G1 X67.727 Y77.172 E2.65007
G1 X70.859 Y74.040 E2.73548
G1 X70.948 Y74.315 E2.74106
G1 X67.628 Y77.635 E2.83159
G1 X67.530 Y78.098 E2.84071
G1 X71.038 Y74.590 E2.93635
G1 X71.127 Y74.865 E2.94193
G1 X67.432 Y78.560 E3.04270
G1 X67.333 Y79.023 E3.05182
G1 X71.216 Y75.140 E3.15770
G1 X71.306 Y75.415 E3.16328
G1 X67.235 Y79.486 E3.27428
G1 X67.136 Y79.949 E3.28340
G1 X71.395 Y75.690 E3.39952
G1 X71.484 Y75.965 E3.40509
G1 X67.038 Y80.411 E3.52633
G1 X66.940 Y80.874 E3.53545
G1 X71.574 Y76.240 E3.66181
G1 X71.663 Y76.515 E3.66738
G1 X66.841 Y81.337 E3.79886
G1 X66.743 Y81.799 E3.80798
G1 X71.753 Y76.790 E3.94457
G1 X71.842 Y77.065 E3.95015
G1 X66.645 Y82.262 E4.09186
G1 X66.546 Y82.725 E4.10098
G1 X71.931 Y77.340 E4.24781
G1 X72.021 Y77.615 E4.25339
G1 X66.448 Y83.188 E4.40533
G1 X66.350 Y83.650 E4.41445
G1 X72.110 Y77.890 E4.57152
G1 X72.189 Y78.134 E4.57646
G1 X72.223 Y78.141 E4.57713
G1 X66.487 Y83.877 E4.73354
G1 X66.673 Y84.056 E4.73851
G1 X72.524 Y78.205 E4.89805
G1 X72.824 Y78.269 E4.90397
G1 X66.864 Y84.229 E5.06649
G1 X67.061 Y84.397 E5.07147
G1 X73.125 Y78.333 E5.23682
G1 X73.425 Y78.397 E5.24274
G1 X67.258 Y84.564 E5.41090
G1 X67.464 Y84.722 E5.41591
G1 X73.726 Y78.460 E5.58665
G1 X74.026 Y78.524 E5.59257
G1 X67.670 Y84.880 E5.76588
G1 X67.883 Y85.032 E5.77092
G1 X74.327 Y78.588 E5.94663
G1 X74.627 Y78.652 E5.95255
G1 X68.098 Y85.181 E6.13057
G1 X68.316 Y85.327 E6.13563
G1 X70.965 Y82.679 E6.20785
G1 X70.740 Y83.268 E6.22003
G1 X68.542 Y85.466 E6.27994
G1 X68.768 Y85.604 E6.28505
G1 X70.719 Y83.653 E6.33825
G1 X70.699 Y84.037 E6.34568
G1 X69.002 Y85.734 E6.39195
G1 X69.238 Y85.863 E6.39713
G1 X70.771 Y84.330 E6.43893
G1 X70.848 Y84.617 E6.44467
G1 X69.479 Y85.986 E6.48201
G1 X69.726 Y86.104 E6.48728
G1 X70.944 Y84.885 E6.52051
G1 X71.088 Y85.106 E6.52559
G1 X69.973 Y86.221 E6.55597
G1 X70.231 Y86.327 E6.56135
G1 X71.231 Y85.327 E6.58862
G1 X71.335 Y85.487 E6.59229
G1 X71.391 Y85.532 E6.59368
G1 X70.489 Y86.434 E6.61827
G1 X70.756 Y86.531 E6.62375
G1 X71.592 Y85.695 E6.64656
G1 X71.793 Y85.858 E6.65155
G1 X71.025 Y86.627 E6.67251
G1 X71.301 Y86.715 E6.67810
G1 X72.008 Y86.008 E6.69739
G1 X72.272 Y86.109 E6.70283
G1 X71.582 Y86.798 E6.72163
G1 X71.868 Y86.876 E6.72735
G1 X72.535 Y86.210 E6.74553
G1 X72.690 Y86.269 E6.74874
G1 X72.832 Y86.277 E6.75147
G1 X72.162 Y86.947 E6.76974
G1 X72.460 Y87.013 E6.77563
G1 X73.178 Y86.295 E6.79521
G1 X73.482 Y86.311 E6.80107
G1 X73.543 Y86.294 E6.80229
G1 X72.768 Y87.070 E6.82344
G1 X73.079 Y87.123 E6.82953
G1 X74.041 Y86.161 E6.85576
G1 X74.247 Y86.106 E6.85987
G1 X74.856 Y85.711 E6.87387
G1 X73.401 Y87.165 E6.91354
G1 X73.728 Y87.203 E6.91988
G1 X80.700 Y80.231 E7.10998
