; generated by Slic3r 1.3.0 on 2021-03-05 at 23:15:08

; external perimeters extrusion width = 0.44mm (2.86mm^3/s)
; perimeters extrusion width = 0.56mm (4.14mm^3/s)
; infill extrusion width = 0.50mm (3.66mm^3/s)
; solid infill extrusion width = 0.56mm (3.10mm^3/s)
; top infill extrusion width = 0.45mm (2.44mm^3/s)

M107
;D3D:START:START
T0
M104 S215 T0

G21
G90
M107
T0
G28
G29
M109 T0 S215 T0
G0 F3000
M107
T0
G92 E0
G0 X0 Y149 Z0.1 F3600
G1 Y49 E6.5 F1200
G0 Z1
G92 E0
; Filament gcode

G21 ; set units to millimeters
G90 ; use absolute coordinates
M82 ; use absolute distances for extrusion
G92 E0
G1 Z0.300 F6000.000
G1 E-2.00000 F1200.00000
G92 E0
G1 Z0.800 F6000.000
G1 X52.670 Y51.211 F6000.000
G1 Z0.300 F6000.000
G1 E2.00000 F1200.00000
G1 F1800
G1 X54.428 Y49.699 E2.10372
G1 X56.593 Y48.868 E2.20744
G1 X57.900 Y48.741 E2.26617
G1 X72.000 Y48.741 E2.89686
G1 X74.285 Y49.138 E3.00058
G1 X76.301 Y50.283 E3.10430
G1 X77.437 Y51.477 E3.17804
G1 X101.078 Y83.332 E4.95242
G1 X101.505 Y83.982 E4.98718
G1 X101.975 Y84.796 E5.02926
G1 X102.551 Y86.090 E5.09259
G1 X102.842 Y86.985 E5.13467
G1 X103.136 Y88.369 E5.19799
G1 X103.234 Y89.305 E5.24007
G1 X103.234 Y90.720 E5.30337
G1 X103.136 Y91.655 E5.34545
G1 X102.842 Y93.040 E5.40877
G1 X102.551 Y93.935 E5.45085
G1 X101.975 Y95.228 E5.51418
G1 X101.505 Y96.043 E5.55626
G1 X100.673 Y97.188 E5.61956
G1 X100.043 Y97.887 E5.66164
G1 X98.991 Y98.835 E5.72499
G1 X98.230 Y99.388 E5.76707
G1 X97.005 Y100.095 E5.83034
G1 X96.145 Y100.478 E5.87243
G1 X94.798 Y100.916 E5.93580
G1 X93.878 Y101.111 E5.97788
G1 X92.470 Y101.259 E6.04117
G1 X91.530 Y101.259 E6.08325
G1 X90.122 Y101.111 E6.14654
G1 X89.202 Y100.916 E6.18862
G1 X87.900 Y100.498 E6.24978
G1 X55.191 Y86.218 E7.84621
G1 X53.256 Y84.940 E7.94994
G1 X51.866 Y83.084 E8.05366
G1 X51.129 Y80.012 E8.19496
G1 X51.129 Y55.512 E9.29084
G1 X51.526 Y53.228 E9.39456
G1 X52.641 Y51.263 E9.49560
G1 X53.052 Y51.356 F6000.000
G1 F1800
G1 X54.796 Y49.932 E9.59630
G1 X57.900 Y49.127 E9.73972
G1 X72.000 Y49.127 E10.37041
G1 X74.216 Y49.524 E10.47112
G1 X76.157 Y50.665 E10.57182
G1 X77.128 Y51.707 E10.63553
G1 X100.768 Y83.562 E12.40991
G1 X101.171 Y84.174 E12.44269
G1 X101.641 Y84.989 E12.48477
G1 X102.184 Y86.209 E12.54449
G1 X102.475 Y87.104 E12.58657
G1 X102.752 Y88.410 E12.64629
G1 X102.851 Y89.345 E12.68837
G1 X102.851 Y90.680 E12.74806
G1 X102.752 Y91.615 E12.79014
G1 X102.464 Y92.955 E12.85142
G1 X102.184 Y93.816 E12.89193
G1 X101.641 Y95.036 E12.95165
G1 X101.171 Y95.850 E12.99373
G1 X100.386 Y96.930 E13.05342
G1 X99.757 Y97.629 E13.09551
G1 X98.764 Y98.523 E13.15525
G1 X98.003 Y99.076 E13.19733
G1 X96.848 Y99.743 E13.25700
G1 X95.988 Y100.126 E13.29909
G1 X94.718 Y100.538 E13.35884
G1 X93.797 Y100.734 E13.40092
G1 X92.470 Y100.873 E13.46061
G1 X91.530 Y100.873 E13.50269
G1 X90.203 Y100.734 E13.56237
G1 X89.282 Y100.538 E13.60445
G1 X88.055 Y100.144 E13.66213
G1 X55.345 Y85.865 E15.25857
G1 X53.473 Y84.614 E15.35927
G1 X52.151 Y82.792 E15.45997
G1 X51.514 Y80.012 E15.58752
G1 X51.514 Y55.512 E16.68340
G1 X51.911 Y53.296 E16.78410
G1 X53.022 Y51.407 E16.88212
G1 E14.88212 F1200.00000
G92 E0
G1 Z0.800 F6000.000
G1 X93.741 Y91.946 F6000.000
G1 Z0.300 F6000.000
G1 E2.00000 F1200.00000
G1 F1800
G1 X93.301 Y92.265 E2.02432
G1 X92.804 Y92.487 E2.04866
G1 X92.272 Y92.600 E2.07299
G1 X91.728 Y92.600 E2.09731
G1 X91.196 Y92.487 E2.12164
G1 X90.699 Y92.265 E2.14597
G1 X90.259 Y91.946 E2.17030
G1 X89.895 Y91.542 E2.19462
G1 X89.623 Y91.071 E2.21896
G1 X89.455 Y90.553 E2.24329
G1 X89.398 Y90.012 E2.26761
G1 X89.455 Y89.471 E2.29194
G1 X89.623 Y88.954 E2.31627
G1 X89.895 Y88.483 E2.34060
G1 X90.245 Y88.095 E2.36396
G1 X90.695 Y87.761 E2.38902
G1 X91.196 Y87.538 E2.41357
G1 X91.728 Y87.425 E2.43790
G1 X92.272 Y87.425 E2.46223
G1 X92.804 Y87.538 E2.48656
G1 X93.301 Y87.759 E2.51089
G1 X93.741 Y88.079 E2.53522
G1 X94.105 Y88.483 E2.55954
G1 X94.377 Y88.954 E2.58388
G1 X94.545 Y89.471 E2.60821
G1 X94.602 Y90.012 E2.63253
G1 X94.545 Y90.553 E2.65686
G1 X94.377 Y91.071 E2.68119
G1 X94.105 Y91.542 E2.70553
G1 X93.781 Y91.901 E2.72717
G1 X93.481 Y91.658 F6000.000
G1 F1800
G1 X93.107 Y91.930 E2.74787
G1 X92.684 Y92.118 E2.76857
G1 X92.231 Y92.214 E2.78928
G1 X91.769 Y92.214 E2.80997
G1 X91.316 Y92.118 E2.83068
G1 X90.893 Y91.930 E2.85139
G1 X90.519 Y91.658 E2.87208
G1 X90.209 Y91.314 E2.89278
G1 X89.977 Y90.913 E2.91349
G1 X89.834 Y90.473 E2.93419
G1 X89.786 Y90.012 E2.95490
G1 X89.834 Y89.552 E2.97560
G1 X89.977 Y89.112 E2.99630
G1 X90.209 Y88.711 E3.01701
G1 X90.505 Y88.382 E3.03683
G1 X90.890 Y88.096 E3.05826
G1 X91.316 Y87.907 E3.07910
G1 X91.769 Y87.810 E3.09981
G1 X92.231 Y87.810 E3.12051
G1 X92.684 Y87.907 E3.14121
G1 X93.107 Y88.095 E3.16191
G1 X93.481 Y88.367 E3.18262
G1 X93.791 Y88.711 E3.20332
G1 X94.023 Y89.112 E3.22402
G1 X94.166 Y89.552 E3.24473
G1 X94.214 Y90.012 E3.26543
G1 X94.166 Y90.473 E3.28613
G1 X94.023 Y90.913 E3.30683
G1 X93.791 Y91.314 E3.32754
G1 X93.522 Y91.613 E3.34556
G1 X93.222 Y91.369 F6000.000
G1 F1800
G1 X92.913 Y91.594 E3.36263
G1 X92.564 Y91.749 E3.37971
G1 X92.191 Y91.829 E3.39679
G1 X91.809 Y91.829 E3.41386
G1 X91.436 Y91.749 E3.43094
G1 X91.087 Y91.594 E3.44802
G1 X90.778 Y91.369 E3.46510
G1 X90.523 Y91.086 E3.48217
G1 X90.332 Y90.755 E3.49925
G1 X90.214 Y90.392 E3.51633
G1 X90.174 Y90.012 E3.53341
G1 X90.214 Y89.633 E3.55048
G1 X90.332 Y89.270 E3.56756
G1 X90.523 Y88.939 E3.58464
G1 X90.766 Y88.668 E3.60092
G1 X91.086 Y88.431 E3.61873
G1 X91.436 Y88.275 E3.63586
G1 X91.809 Y88.196 E3.65293
G1 X92.191 Y88.196 E3.67001
G1 X92.564 Y88.275 E3.68709
G1 X92.913 Y88.431 E3.70416
G1 X93.222 Y88.655 E3.72124
G1 X93.477 Y88.939 E3.73832
G1 X93.668 Y89.270 E3.75540
G1 X93.786 Y89.633 E3.77247
G1 X93.826 Y90.012 E3.78955
G1 X93.786 Y90.392 E3.80663
G1 X93.668 Y90.755 E3.82371
G1 X93.477 Y91.086 E3.84079
G1 X93.262 Y91.325 E3.85518
G1 X93.301 Y91.743 F6000.000
G1 E1.85518 F1200.00000
G92 E0
G1 Z0.800 F6000.000
G1 X67.996 Y76.509 F6000.000
G1 Z0.300 F6000.000
G1 E2.00000 F1200.00000
G1 F1800
G1 X67.996 Y63.516 E2.58115
G1 X58.896 Y63.516 E2.98820
G1 X58.896 Y56.509 E3.30164
G1 X71.499 Y56.509 E3.86535
G1 X94.806 Y87.915 E5.61475
G1 X95.196 Y88.589 E5.64958
G1 X95.422 Y89.285 E5.68229
G1 X95.498 Y90.012 E5.71501
G1 X95.422 Y90.740 E5.74772
G1 X95.196 Y91.435 E5.78043
G1 X94.830 Y92.069 E5.81315
G1 X94.341 Y92.612 E5.84586
G1 X93.749 Y93.042 E5.87857
G1 X93.081 Y93.339 E5.91128
G1 X92.366 Y93.491 E5.94399
G1 X91.634 Y93.491 E5.97671
G1 X90.919 Y93.339 E6.00942
G1 X90.244 Y93.039 E6.04248
G1 X70.315 Y79.016 E7.13244
G1 X58.896 Y79.016 E7.64322
G1 X58.896 Y76.509 E7.75538
G1 X67.936 Y76.509 E8.15974
G1 X67.611 Y76.123 F6000.000
G1 F1800
G1 X67.611 Y63.902 E8.70639
G1 X58.511 Y63.902 E9.11344
G1 X58.511 Y56.123 E9.46138
G1 X71.693 Y56.123 E10.05102
G1 X95.129 Y87.703 E11.81009
G1 X95.550 Y88.432 E11.84772
G1 X95.801 Y89.204 E11.88406
G1 X95.886 Y90.012 E11.92040
G1 X95.801 Y90.820 E11.95674
G1 X95.550 Y91.593 E11.99308
G1 X95.144 Y92.296 E12.02942
G1 X94.600 Y92.900 E12.06576
G1 X93.943 Y93.378 E12.10209
G1 X93.201 Y93.708 E12.13843
G1 X92.406 Y93.877 E12.17477
G1 X91.594 Y93.877 E12.21111
G1 X90.799 Y93.708 E12.24745
G1 X90.053 Y93.376 E12.28400
G1 X70.193 Y79.402 E13.37018
G1 X58.511 Y79.402 E13.89274
G1 X58.511 Y76.123 E14.03940
G1 X67.551 Y76.123 E14.44376
G1 X67.225 Y75.737 F6000.000
G1 F1800
G1 X67.225 Y64.287 E14.95592
G1 X58.125 Y64.287 E15.36297
G1 X58.125 Y55.737 E15.74541
G1 X71.887 Y55.737 E16.36097
G1 X95.452 Y87.491 E18.12971
G1 X95.904 Y88.274 E18.17015
G1 X96.180 Y89.124 E18.21012
G1 X96.274 Y90.012 E18.25008
G1 X96.180 Y90.901 E18.29004
G1 X95.904 Y91.751 E18.33001
G1 X95.458 Y92.524 E18.36997
G1 X94.860 Y93.188 E18.40994
G1 X94.137 Y93.714 E18.44990
G1 X93.321 Y94.077 E18.48987
G1 X92.447 Y94.263 E18.52983
G1 X91.553 Y94.263 E18.56980
G1 X90.679 Y94.077 E18.60976
G1 X89.862 Y93.713 E18.64980
G1 X70.071 Y79.787 E19.73220
G1 X58.125 Y79.787 E20.26656
G1 X58.125 Y75.737 E20.44772
G1 X67.165 Y75.737 E20.85208
G1 X67.621 Y75.682 F6000.000
G1 E18.85208 F1200.00000
G92 E0
G1 Z0.800 F6000.000
G1 X65.789 Y78.944 F6000.000
G1 Z0.300 F6000.000
G1 E2.00000 F1200.00000
G1 F1800
G1 X68.153 Y76.581 E2.15056
G1 X67.604 Y76.581 E2.17530
G1 X65.240 Y78.944 E2.32585
G1 X64.691 Y78.944 E2.35059
G1 X67.055 Y76.581 E2.50115
G1 X66.505 Y76.581 E2.52589
G1 X64.142 Y78.944 E2.67645
G1 X63.593 Y78.944 E2.70118
G1 X65.956 Y76.581 E2.85174
G1 X65.407 Y76.581 E2.87648
G1 X63.044 Y78.944 E3.02704
G1 X62.494 Y78.944 E3.05177
G1 X64.858 Y76.581 E3.20233
G1 X64.309 Y76.581 E3.22707
G1 X61.945 Y78.944 E3.37763
G1 X61.396 Y78.944 E3.40237
G1 X63.760 Y76.581 E3.55292
G1 X63.210 Y76.581 E3.57766
G1 X60.847 Y78.944 E3.72822
G1 X60.298 Y78.944 E3.75296
G1 X62.661 Y76.581 E3.90351
G1 X62.112 Y76.581 E3.92825
G1 X59.748 Y78.944 E4.07881
G1 X59.199 Y78.944 E4.10355
G1 X61.563 Y76.581 E4.25411
G1 X61.014 Y76.581 E4.27884
G1 X58.968 Y78.626 E4.40914
G1 X58.968 Y78.077 E4.43388
G1 X60.464 Y76.581 E4.52919
G1 X59.915 Y76.581 E4.55393
G1 X58.968 Y77.528 E4.61426
G1 X58.968 Y77.208 E4.62867
G1 X59.288 Y77.208 E4.64308
G1 E2.64308 F1200.00000
G92 E0
G1 Z0.800 F6000.000
G1 X58.968 Y57.208 F6000.000
G1 Z0.300 F6000.000
G1 E2.00000 F1200.00000
G1 F1800
G1 X59.596 Y56.581 E2.03995
G1 X60.145 Y56.581 E2.06469
G1 X58.968 Y57.757 E2.13964
G1 X58.968 Y58.306 E2.16438
G1 X60.694 Y56.581 E2.27431
G1 X61.243 Y56.581 E2.29905
G1 X58.968 Y58.856 E2.44396
G1 X58.968 Y59.405 E2.46870
G1 X61.792 Y56.581 E2.64860
G1 X62.341 Y56.581 E2.67334
G1 X58.968 Y59.954 E2.88823
G1 X58.968 Y60.503 E2.91296
G1 X62.891 Y56.581 E3.16283
G1 X63.440 Y56.581 E3.18757
G1 X58.968 Y61.052 E3.47242
G1 X58.968 Y61.601 E3.49716
G1 X63.989 Y56.581 E3.81700
G1 X64.538 Y56.581 E3.84173
G1 X58.968 Y62.151 E4.19655
G1 X58.968 Y62.700 E4.22129
G1 X65.087 Y56.581 E4.61110
G1 X65.637 Y56.581 E4.63583
G1 X58.968 Y63.249 E5.06062
G1 X58.968 Y63.444 E5.06941
G1 X59.322 Y63.444 E5.08536
G1 X66.186 Y56.581 E5.52258
G1 X66.735 Y56.581 E5.54731
G1 X59.871 Y63.444 E5.98453
G1 X60.421 Y63.444 E6.00927
G1 X67.284 Y56.581 E6.44649
G1 X67.833 Y56.581 E6.47122
G1 X60.970 Y63.444 E6.90844
G1 X61.519 Y63.444 E6.93318
G1 X68.382 Y56.581 E7.37040
G1 X68.932 Y56.581 E7.39513
G1 X62.068 Y63.444 E7.83235
G1 X62.617 Y63.444 E7.85709
G1 X69.481 Y56.581 E8.29430
G1 X70.030 Y56.581 E8.31904
G1 X63.167 Y63.444 E8.75626
G1 X63.716 Y63.444 E8.78100
G1 X70.579 Y56.581 E9.21821
G1 X71.128 Y56.581 E9.24295
G1 X64.265 Y63.444 E9.68017
G1 X64.814 Y63.444 E9.70491
G1 X71.644 Y56.615 E10.13996
G1 X71.877 Y56.930 E10.15764
G1 X65.363 Y63.444 E10.57261
G1 X65.912 Y63.444 E10.59735
G1 X72.111 Y57.245 E10.99223
G1 X72.345 Y57.560 E11.00992
G1 X66.462 Y63.444 E11.38472
G1 X67.011 Y63.444 E11.40946
G1 X72.579 Y57.876 E11.76419
G1 X72.813 Y58.191 E11.78187
G1 X67.560 Y63.444 E12.11652
G1 X68.068 Y63.444 E12.13941
G1 X68.068 Y63.485 E12.14125
G1 X73.047 Y58.506 E12.45842
G1 X73.281 Y58.821 E12.47610
G1 X68.068 Y64.034 E12.80817
G1 X68.068 Y64.583 E12.83291
G1 X73.515 Y59.137 E13.17989
G1 X73.749 Y59.452 E13.19757
G1 X68.068 Y65.133 E13.55945
G1 X68.068 Y65.682 E13.58418
G1 X73.983 Y59.767 E13.96096
G1 X74.217 Y60.082 E13.97864
G1 X68.068 Y66.231 E14.37033
G1 X68.068 Y66.780 E14.39506
G1 X74.451 Y60.397 E14.80165
G1 X74.685 Y60.713 E14.81933
G1 X68.068 Y67.329 E15.24082
G1 X68.068 Y67.878 E15.26556
G1 X74.919 Y61.028 E15.70195
G1 X75.153 Y61.343 E15.71963
G1 X68.068 Y68.428 E16.17092
G1 X68.068 Y68.977 E16.19566
G1 X75.387 Y61.658 E16.66186
G1 X75.621 Y61.974 E16.67954
G1 X68.068 Y69.526 E17.16064
G1 X68.068 Y70.075 E17.18538
G1 X75.855 Y62.289 E17.68138
G1 X76.088 Y62.604 E17.69906
G1 X68.068 Y70.624 E18.20997
G1 X68.068 Y71.173 E18.23470
G1 X76.322 Y62.919 E18.76051
G1 X76.556 Y63.235 E18.77819
G1 X68.068 Y71.723 E19.31891
G1 X68.068 Y72.272 E19.34364
G1 X76.790 Y63.550 E19.89926
G1 X77.024 Y63.865 E19.91694
G1 X68.068 Y72.821 E20.48745
G1 X68.068 Y73.370 E20.51219
G1 X77.258 Y64.180 E21.09761
G1 X77.492 Y64.495 E21.11529
G1 X68.068 Y73.919 E21.71561
G1 X68.068 Y74.469 E21.74035
G1 X77.726 Y64.811 E22.35558
G1 X77.960 Y65.126 E22.37326
G1 X68.068 Y75.018 E23.00339
G1 X68.068 Y75.567 E23.02812
G1 X78.194 Y65.441 E23.67315
G1 X78.428 Y65.756 E23.69084
G1 X68.068 Y76.116 E24.35077
G1 X68.068 Y76.665 E24.37551
G1 X78.662 Y66.072 E25.05034
G1 X78.896 Y66.387 E25.06802
G1 X66.339 Y78.944 E25.86794
G1 X66.888 Y78.944 E25.89268
G1 X79.130 Y66.702 E26.67252
G1 X79.364 Y67.017 E26.69020
G1 X67.437 Y78.944 E27.44996
G1 X67.986 Y78.944 E27.47469
G1 X79.598 Y67.333 E28.21437
G1 X79.832 Y67.648 E28.23205
G1 X68.535 Y78.944 E28.95165
G1 X69.085 Y78.944 E28.97638
G1 X80.066 Y67.963 E29.67590
G1 X80.300 Y68.278 E29.69358
G1 X69.634 Y78.944 E30.37301
G1 X70.124 Y78.944 E30.39509
G1 X70.159 Y78.968 E30.39700
G1 X80.533 Y68.594 E31.05790
G1 X80.767 Y68.909 E31.07558
G1 X70.481 Y79.195 E31.73086
G1 X70.803 Y79.422 E31.74861
G1 X81.001 Y69.224 E32.39825
G1 X81.235 Y69.539 E32.41593
G1 X71.126 Y79.649 E33.05994
G1 X71.448 Y79.876 E33.07770
G1 X81.469 Y69.854 E33.71608
G1 X81.703 Y70.170 E33.73376
G1 X71.770 Y80.103 E34.36650
G1 X72.093 Y80.329 E34.38426
G1 X81.937 Y70.485 E35.01137
G1 X82.171 Y70.800 E35.02905
G1 X72.415 Y80.556 E35.65053
G1 X72.737 Y80.783 E35.66829
G1 X82.405 Y71.115 E36.28414
G1 X82.639 Y71.431 E36.30182
G1 X73.060 Y81.010 E36.91204
G1 X73.382 Y81.237 E36.92979
G1 X82.873 Y71.746 E37.53438
G1 X83.107 Y72.061 E37.55206
G1 X73.704 Y81.464 E38.15102
G1 X74.027 Y81.690 E38.16877
G1 X83.341 Y72.376 E38.76209
G1 X83.575 Y72.692 E38.77978
G1 X74.349 Y81.917 E39.36747
G1 X74.671 Y82.144 E39.38522
G1 X83.809 Y73.007 E39.96728
G1 X84.043 Y73.322 E39.98496
G1 X74.994 Y82.371 E40.56139
G1 X75.316 Y82.598 E40.57914
G1 X84.277 Y73.637 E41.14994
G1 X84.511 Y73.953 E41.16762
G1 X75.639 Y82.825 E41.73278
G1 X75.961 Y83.051 E41.75054
G1 X84.744 Y74.268 E42.31007
G1 X84.978 Y74.583 E42.32775
G1 X76.283 Y83.278 E42.88165
G1 X76.606 Y83.505 E42.89941
G1 X85.212 Y74.898 E43.44767
G1 X85.446 Y75.213 E43.46536
G1 X76.928 Y83.732 E44.00799
G1 X77.250 Y83.959 E44.02575
G1 X85.680 Y75.529 E44.56275
G1 X85.914 Y75.844 E44.58043
G1 X77.573 Y84.185 E45.11180
G1 X77.895 Y84.412 E45.12956
G1 X86.148 Y76.159 E45.65530
G1 X86.382 Y76.474 E45.67298
G1 X78.217 Y84.639 E46.19309
G1 X78.540 Y84.866 E46.21084
G1 X86.616 Y76.790 E46.72532
G1 X86.850 Y77.105 E46.74300
G1 X78.862 Y85.093 E47.25185
G1 X79.184 Y85.320 E47.26960
G1 X87.084 Y77.420 E47.77281
G1 X87.318 Y77.735 E47.79050
G1 X79.507 Y85.546 E48.28808
G1 X79.829 Y85.773 E48.30583
G1 X87.552 Y78.051 E48.79778
G1 X87.786 Y78.366 E48.81546
G1 X80.152 Y86.000 E49.30178
G1 X80.474 Y86.227 E49.31954
G1 X88.020 Y78.681 E49.80022
G1 X88.254 Y78.996 E49.81790
G1 X80.796 Y86.454 E50.29296
G1 X81.119 Y86.681 E50.31071
G1 X88.488 Y79.312 E50.78013
G1 X88.722 Y79.627 E50.79782
G1 X81.441 Y86.907 E51.26160
G1 X81.763 Y87.134 E51.27936
G1 X88.956 Y79.942 E51.73752
G1 X89.189 Y80.257 E51.75520
G1 X82.086 Y87.361 E52.20773
G1 X82.408 Y87.588 E52.22548
G1 X89.423 Y80.572 E52.67237
G1 X89.657 Y80.888 E52.69006
G1 X82.730 Y87.815 E53.13132
G1 X83.053 Y88.041 E53.14907
G1 X89.891 Y81.203 E53.58470
G1 X90.125 Y81.518 E53.60239
G1 X83.375 Y88.268 E54.03239
G1 X83.697 Y88.495 E54.05014
G1 X90.359 Y81.833 E54.47451
G1 X90.593 Y82.149 E54.49219
G1 X84.020 Y88.722 E54.91092
G1 X84.342 Y88.949 E54.92868
G1 X90.827 Y82.464 E55.34178
G1 X91.061 Y82.779 E55.35946
G1 X84.664 Y89.176 E55.76694
G1 X84.987 Y89.402 E55.78469
G1 X91.295 Y83.094 E56.18653
G1 X91.529 Y83.410 E56.20421
G1 X85.309 Y89.629 E56.60042
G1 X85.632 Y89.856 E56.61817
G1 X91.763 Y83.725 E57.00875
G1 X91.997 Y84.040 E57.02643
G1 X85.954 Y90.083 E57.41138
G1 X86.276 Y90.310 E57.42913
G1 X92.231 Y84.355 E57.80844
G1 X92.465 Y84.670 E57.82613
G1 X86.599 Y90.537 E58.19981
G1 X86.921 Y90.763 E58.21756
G1 X92.699 Y84.986 E58.58561
G1 X92.933 Y85.301 E58.60329
G1 X90.741 Y87.492 E58.74289
G1 X91.430 Y87.353 E58.77454
G1 X93.167 Y85.616 E58.88517
G1 X93.400 Y85.931 E58.90285
G1 X91.979 Y87.353 E58.99340
G1 X92.435 Y87.446 E59.01437
G1 X93.634 Y86.247 E59.09075
G1 X93.868 Y86.562 E59.10843
