; generated by Slic3r 1.3.1-dev (Build (Unknown revision)) on 2020-06-18 at 22:16:07

; external perimeters extrusion width = 0.44mm (2.86mm^3/s)
; perimeters extrusion width = 0.56mm (4.14mm^3/s)
; infill extrusion width = 0.50mm (3.66mm^3/s)
; solid infill extrusion width = 0.56mm (3.10mm^3/s)
; top infill extrusion width = 0.45mm (2.44mm^3/s)

M107
G92 E0
;D3D:START:START
T0
M104 S215 T0

G21
G90
M107
T0
G28
G29
M109 T0 S215 T0
G0 F3000
M107
T0
G92 E0
G0 X0 Y149 Z0.1 F3600
G1 Y49 E6.5 F1200
G0 Z1
G92 E0
; Filament gcode

G21 ; set units to millimeters
G90 ; use absolute coordinates
M82 ; use absolute distances for extrusion
G92 E0
G1 Z0.200 F6000.000
G1 E-2.00000 F1200.00000
G92 E0
G1 Z0.700 F6000.000
G1 X20.407 Y109.039 F6000.000
G1 Z0.200 F6000.000
G1 E2.00000 F1200.00000
G1 F1800.000
G1 X113.389 Y22.709 E4.44100
G1 X115.300 Y21.476 E4.48475
G1 X117.518 Y20.975 E4.52850
G1 X118.953 Y21.067 E4.55615
G1 X125.846 Y22.283 E4.69083
G1 X127.982 Y23.063 E4.73457
G1 X129.720 Y24.529 E4.77832
G1 X130.848 Y26.504 E4.82207
G1 X131.130 Y29.829 E4.88628
G1 X129.562 Y38.724 E5.06005
G1 X129.121 Y40.188 E5.08946
G1 X119.869 Y61.488 E5.53624
G1 X116.766 Y67.864 E5.67265
G1 X116.553 Y68.266 E5.68140
G1 X113.151 Y74.158 E5.81230
G1 X112.910 Y74.544 E5.82105
G1 X109.105 Y80.185 E5.95195
G1 X108.838 Y80.553 E5.96070
G1 X104.649 Y85.914 E6.09160
G1 X104.356 Y86.263 E6.10035
G1 X99.803 Y91.319 E6.23125
G1 X99.488 Y91.646 E6.24000
G1 X94.592 Y96.374 E6.37094
G1 X94.254 Y96.678 E6.37969
G1 X89.043 Y101.051 E6.51056
G1 X88.685 Y101.330 E6.51930
G1 X83.180 Y105.330 E6.65021
G1 X82.803 Y105.584 E6.65895
G1 X77.033 Y109.190 E6.78986
G1 X76.639 Y109.417 E6.79861
G1 X70.630 Y112.612 E6.92954
G1 X33.889 Y130.876 E7.71890
G1 X30.989 Y131.557 E7.77620
G1 X24.839 Y131.557 E7.89452
G1 X22.600 Y131.160 E7.93827
G1 X20.634 Y130.018 E7.98202
G1 X19.180 Y128.269 E8.02577
G1 X18.325 Y125.043 E8.08998
G1 X18.325 Y113.813 E8.30603
G1 X18.722 Y111.574 E8.34978
G1 X20.374 Y109.089 E8.40718
G1 X20.582 Y109.228 F6000.000
G1 F1800.000
G1 X113.564 Y22.897 E10.84818
G1 X115.441 Y21.696 E10.89105
G1 X117.620 Y21.229 E10.93392
G1 X118.908 Y21.320 E10.95877
G1 X125.802 Y22.536 E11.09344
G1 X127.892 Y23.308 E11.13631
G1 X129.580 Y24.763 E11.17918
G1 X130.650 Y26.717 E11.22205
G1 X130.877 Y29.785 E11.28123
G1 X129.309 Y38.679 E11.45499
G1 X128.886 Y40.086 E11.48324
G1 X119.633 Y61.386 E11.93002
G1 X116.535 Y67.751 E12.06622
G1 X116.330 Y68.137 E12.07462
G1 X112.928 Y74.030 E12.20552
G1 X112.697 Y74.400 E12.21392
G1 X108.892 Y80.041 E12.34483
G1 X108.635 Y80.394 E12.35323
G1 X104.446 Y85.756 E12.48413
G1 X104.165 Y86.091 E12.49253
G1 X99.612 Y91.147 E12.62344
G1 X99.309 Y91.461 E12.63184
G1 X94.413 Y96.189 E12.76278
G1 X94.089 Y96.481 E12.77118
G1 X88.878 Y100.854 E12.90205
G1 X88.534 Y101.122 E12.91045
G1 X83.029 Y105.122 E13.04135
G1 X82.667 Y105.366 E13.04976
G1 X76.896 Y108.972 E13.18066
G1 X76.518 Y109.190 E13.18906
G1 X70.509 Y112.385 E13.32000
G1 X33.774 Y130.646 E14.10922
G1 X30.989 Y131.300 E14.16426
G1 X24.839 Y131.300 E14.28258
G1 X22.647 Y130.903 E14.32545
G1 X20.732 Y129.763 E14.36832
G1 X19.338 Y128.025 E14.41119
G1 X18.582 Y125.043 E14.47036
G1 X18.582 Y113.813 E14.68641
G1 X18.979 Y111.620 E14.72929
G1 X20.549 Y109.278 E14.78354
G1 E12.78354 F1200.00000
G92 E0
G1 Z0.700 F6000.000
G1 X30.325 Y115.855 F6000.000
G1 Z0.200 F6000.000
G1 E2.00000 F1200.00000
G1 F1800.000
G1 X30.325 Y124.379 E2.16399
G1 X25.504 Y124.379 E2.25676
G1 X25.504 Y114.477 E2.44725
G1 X28.812 Y114.477 E2.51089
G1 X34.805 Y114.058 E2.62648
G1 X41.395 Y113.132 E2.75450
G1 X47.904 Y111.749 E2.88252
G1 X54.300 Y109.914 E3.01054
G1 X60.554 Y107.638 E3.13857
G1 X66.633 Y104.932 E3.26659
G1 X72.508 Y101.808 E3.39461
G1 X78.151 Y98.281 E3.52263
G1 X83.535 Y94.370 E3.65066
G1 X88.633 Y90.092 E3.77868
G1 X93.419 Y85.470 E3.90670
G1 X97.872 Y80.525 E4.03472
G1 X101.969 Y75.281 E4.16275
G1 X105.690 Y69.764 E4.29077
G1 X109.017 Y64.001 E4.41879
G1 X111.935 Y58.020 E4.54681
G1 X114.427 Y51.850 E4.67484
G1 X116.484 Y45.522 E4.80285
G1 X118.094 Y39.065 E4.93088
G1 X118.890 Y34.549 E5.01910
G1 X117.484 Y33.218 E5.05634
G1 X118.360 Y28.252 E5.15335
G1 X123.946 Y29.237 E5.26247
G1 X122.608 Y36.823 E5.41068
G1 X120.894 Y36.521 E5.44416
G1 X120.095 Y36.238 E5.46047
G1 X119.542 Y39.373 E5.52171
G1 X117.907 Y45.930 E5.65172
G1 X115.819 Y52.357 E5.78173
G1 X113.287 Y58.623 E5.91174
G1 X110.325 Y64.696 E6.04175
G1 X106.946 Y70.549 E6.17176
G1 X103.167 Y76.151 E6.30178
G1 X99.006 Y81.477 E6.43179
G1 X94.484 Y86.499 E6.56180
G1 X89.622 Y91.194 E6.69184
G1 X84.447 Y95.537 E6.82182
G1 X78.979 Y99.509 E6.95183
G1 X73.248 Y103.090 E7.08184
G1 X67.280 Y106.263 E7.21189
G1 X61.106 Y109.012 E7.34190
G1 X54.758 Y111.323 E7.47187
G1 X48.262 Y113.185 E7.60188
G1 X41.652 Y114.590 E7.73189
G1 X34.960 Y115.531 E7.86191
G1 X30.385 Y115.851 E7.95013
G1 X30.582 Y116.095 F6000.000
G1 F1800.000
G1 X30.582 Y124.636 E8.11445
G1 X25.247 Y124.636 E8.21711
G1 X25.247 Y114.220 E8.41750
G1 X28.803 Y114.220 E8.48591
G1 X34.778 Y113.802 E8.60115
G1 X41.350 Y112.879 E8.72883
G1 X47.841 Y111.499 E8.85650
G1 X54.221 Y109.670 E8.98418
G1 X60.457 Y107.400 E9.11186
G1 X66.520 Y104.701 E9.23954
G1 X72.380 Y101.585 E9.36721
G1 X78.008 Y98.068 E9.49489
G1 X83.377 Y94.167 E9.62257
G1 X88.461 Y89.901 E9.75025
G1 X93.234 Y85.291 E9.87792
G1 X97.675 Y80.359 E10.00560
G1 X101.761 Y75.130 E10.13327
G1 X105.472 Y69.628 E10.26095
G1 X108.790 Y63.881 E10.38863
G1 X111.700 Y57.916 E10.51631
G1 X114.186 Y51.762 E10.64398
G1 X116.236 Y45.451 E10.77165
G1 X117.842 Y39.011 E10.89934
G1 X118.613 Y34.641 E10.98472
G1 X117.207 Y33.309 E11.02196
G1 X118.152 Y27.954 E11.12658
G1 X124.243 Y29.028 E11.24559
G1 X122.816 Y37.121 E11.40369
G1 X120.828 Y36.771 E11.44253
G1 X120.295 Y36.582 E11.45341
G1 X119.793 Y39.426 E11.50898
G1 X118.154 Y46.001 E11.63933
G1 X116.060 Y52.445 E11.76969
G1 X113.522 Y58.727 E11.90005
G1 X110.552 Y64.817 E12.03040
G1 X107.164 Y70.685 E12.16076
G1 X103.375 Y76.303 E12.29111
G1 X99.203 Y81.642 E12.42147
G1 X94.670 Y86.677 E12.55183
G1 X89.794 Y91.385 E12.68222
G1 X84.605 Y95.739 E12.81254
G1 X79.123 Y99.722 E12.94290
G1 X73.377 Y103.313 E13.07325
G1 X67.393 Y106.495 E13.20364
G1 X61.203 Y109.250 E13.33400
G1 X54.837 Y111.567 E13.46432
G1 X48.324 Y113.435 E13.59468
G1 X41.696 Y114.844 E13.72503
G1 X34.987 Y115.787 E13.85539
G1 X30.642 Y116.090 E13.93917
G1 X30.839 Y116.334 F6000.000
G1 F1800.000
G1 X30.839 Y124.893 E14.10383
G1 X24.989 Y124.893 E14.21638
G1 X24.989 Y113.963 E14.42666
G1 X28.794 Y113.963 E14.49984
G1 X34.751 Y113.547 E14.61474
G1 X41.305 Y112.625 E14.74207
G1 X47.779 Y111.249 E14.86940
G1 X54.141 Y109.425 E14.99673
G1 X60.361 Y107.161 E15.12407
G1 X66.407 Y104.469 E15.25140
G1 X72.251 Y101.362 E15.37873
G1 X77.864 Y97.855 E15.50606
G1 X83.218 Y93.965 E15.63339
G1 X88.289 Y89.710 E15.76073
G1 X93.049 Y85.113 E15.88805
G1 X97.478 Y80.194 E16.01539
G1 X101.553 Y74.979 E16.14272
G1 X105.254 Y69.491 E16.27005
G1 X108.563 Y63.760 E16.39738
G1 X111.465 Y57.811 E16.52471
G1 X113.944 Y51.674 E16.65205
G1 X115.989 Y45.380 E16.77937
G1 X117.590 Y38.958 E16.90671
G1 X118.335 Y34.732 E16.98926
G1 X116.930 Y33.401 E17.02650
G1 X117.943 Y27.656 E17.13873
G1 X124.541 Y28.820 E17.26763
G1 X123.025 Y37.419 E17.43562
G1 X120.762 Y37.020 E17.47982
G1 X120.495 Y36.926 E17.48527
G1 X120.045 Y39.480 E17.53516
G1 X118.402 Y46.072 E17.66586
G1 X116.302 Y52.533 E17.79656
G1 X113.757 Y58.832 E17.92727
G1 X110.779 Y64.938 E18.05797
G1 X107.382 Y70.822 E18.18867
G1 X103.583 Y76.454 E18.31937
G1 X99.400 Y81.807 E18.45007
G1 X94.855 Y86.856 E18.58078
G1 X89.966 Y91.576 E18.71151
G1 X84.763 Y95.942 E18.84218
G1 X79.267 Y99.935 E18.97288
G1 X73.506 Y103.536 E19.10358
G1 X67.506 Y106.726 E19.23432
G1 X61.299 Y109.489 E19.36502
G1 X54.917 Y111.812 E19.49569
G1 X48.386 Y113.684 E19.62639
G1 X41.741 Y115.097 E19.75709
G1 X35.013 Y116.042 E19.88779
G1 X30.899 Y116.330 E19.96714
G1 X30.440 Y116.349 F6000.000
G1 E17.96714 F1200.00000
G92 E0
G1 Z0.700 F6000.000
G1 X25.870 Y114.625 F6000.000
G1 Z0.200 F6000.000
G1 E2.00000 F1200.00000
G1 F1800.000
G1 X25.652 Y114.844 E2.00596
G1 X25.652 Y115.208 E2.01300
G1 X26.235 Y114.625 E2.02892
G1 X26.600 Y114.625 E2.03596
G1 X25.652 Y115.573 E2.06183
G1 X25.652 Y115.938 E2.06887
G1 X26.964 Y114.625 E2.10471
G1 X27.329 Y114.625 E2.11175
G1 X25.652 Y116.303 E2.15754
G1 X25.652 Y116.667 E2.16458
G1 X27.694 Y114.625 E2.22032
G1 X28.059 Y114.625 E2.22736
G1 X25.652 Y117.032 E2.29306
G1 X25.652 Y117.397 E2.30011
G1 X28.423 Y114.625 E2.37576
G1 X28.788 Y114.625 E2.38281
G1 X25.652 Y117.762 E2.46842
G1 X25.652 Y118.127 E2.47546
G1 X29.170 Y114.609 E2.57149
G1 X29.562 Y114.581 E2.57908
G1 X25.652 Y118.491 E2.68582
G1 X25.652 Y118.856 E2.69286
G1 X29.954 Y114.554 E2.81030
G1 X30.346 Y114.526 E2.81789
G1 X25.652 Y119.221 E2.94604
G1 X25.652 Y119.586 E2.95308
G1 X30.738 Y114.499 E3.09194
G1 X31.131 Y114.471 E3.09952
G1 X25.652 Y119.950 E3.24908
G1 X25.652 Y120.315 E3.25612
G1 X29.959 Y116.008 E3.37371
G1 X29.959 Y115.724 E3.37918
G1 X30.264 Y115.703 E3.38507
G1 X31.523 Y114.444 E3.41944
G1 X31.915 Y114.417 E3.42703
G1 X30.656 Y115.675 E3.46139
G1 X31.048 Y115.648 E3.46898
G1 X32.307 Y114.389 E3.50335
G1 X32.699 Y114.362 E3.51093
G1 X31.440 Y115.621 E3.54530
G1 X31.833 Y115.593 E3.55289
G1 X33.092 Y114.334 E3.58725
G1 X33.484 Y114.307 E3.59484
G1 X32.225 Y115.566 E3.62921
G1 X32.617 Y115.538 E3.63680
G1 X33.876 Y114.279 E3.67116
G1 X34.268 Y114.252 E3.67875
G1 X33.009 Y115.511 E3.71312
G1 X33.401 Y115.483 E3.72071
G1 X34.660 Y114.225 E3.75507
G1 X35.062 Y114.188 E3.76285
G1 X33.794 Y115.456 E3.79747
G1 X34.186 Y115.429 E3.80506
G1 X35.486 Y114.128 E3.84055
G1 X35.910 Y114.069 E3.84883
G1 X34.578 Y115.401 E3.88520
G1 X34.982 Y115.362 E3.89304
G1 X36.335 Y114.009 E3.92997
G1 X36.759 Y113.949 E3.93824
G1 X35.407 Y115.302 E3.97516
G1 X35.831 Y115.242 E3.98344
G1 X37.184 Y113.890 E4.02036
G1 X37.608 Y113.830 E4.02864
G1 X36.255 Y115.183 E4.06556
G1 X36.680 Y115.123 E4.07383
G1 X38.033 Y113.770 E4.11076
G1 X38.457 Y113.711 E4.11903
G1 X37.104 Y115.064 E4.15596
G1 X37.529 Y115.004 E4.16423
G1 X38.881 Y113.651 E4.20116
G1 X39.306 Y113.592 E4.20943
G1 X37.953 Y114.944 E4.24636
G1 X38.377 Y114.885 E4.25463
G1 X39.730 Y113.532 E4.29156
G1 X40.155 Y113.472 E4.29983
G1 X38.802 Y114.825 E4.33675
G1 X39.226 Y114.765 E4.34503
G1 X40.579 Y113.413 E4.38195
G1 X41.003 Y113.353 E4.39022
G1 X39.651 Y114.706 E4.42715
G1 X40.075 Y114.646 E4.43542
G1 X41.428 Y113.293 E4.47235
G1 X41.880 Y113.206 E4.48124
G1 X40.499 Y114.586 E4.51892
G1 X40.924 Y114.527 E4.52720
G1 X42.343 Y113.107 E4.56594
G1 X42.806 Y113.009 E4.57508
G1 X41.348 Y114.467 E4.61488
G1 X41.498 Y114.446 E4.61780
G1 X41.798 Y114.382 E4.62372
G1 X43.270 Y112.910 E4.66390
G1 X43.733 Y112.812 E4.67304
G1 X42.261 Y114.284 E4.71321
G1 X42.724 Y114.185 E4.72235
G1 X44.196 Y112.714 E4.76253
G1 X44.659 Y112.615 E4.77167
G1 X43.187 Y114.087 E4.81185
G1 X43.651 Y113.988 E4.82099
G1 X45.123 Y112.517 E4.86117
G1 X45.586 Y112.418 E4.87031
G1 X44.114 Y113.890 E4.91049
G1 X44.577 Y113.792 E4.91963
G1 X46.049 Y112.320 E4.95981
G1 X46.512 Y112.221 E4.96895
G1 X45.040 Y113.693 E5.00913
G1 X45.504 Y113.595 E5.01827
G1 X46.975 Y112.123 E5.05844
G1 X47.439 Y112.024 E5.06759
G1 X45.967 Y113.496 E5.10776
G1 X46.430 Y113.398 E5.11690
G1 X47.902 Y111.926 E5.15708
G1 X48.395 Y111.797 E5.16692
G1 X46.893 Y113.299 E5.20793
G1 X47.356 Y113.201 E5.21707
G1 X48.907 Y111.651 E5.25938
G1 X49.418 Y111.504 E5.26965
G1 X47.820 Y113.102 E5.31329
G1 X48.091 Y113.045 E5.31863
G1 X48.303 Y112.984 E5.32290
G1 X49.930 Y111.357 E5.36730
G1 X50.441 Y111.211 E5.37757
G1 X48.814 Y112.837 E5.42197
G1 X49.326 Y112.691 E5.43224
G1 X50.952 Y111.064 E5.47664
G1 X51.464 Y110.917 E5.48691
G1 X49.837 Y112.544 E5.53131
G1 X50.349 Y112.397 E5.54158
G1 X51.975 Y110.771 E5.58598
G1 X52.487 Y110.624 E5.59625
G1 X50.860 Y112.251 E5.64065
G1 X51.371 Y112.104 E5.65092
G1 X52.998 Y110.477 E5.69533
G1 X53.509 Y110.331 E5.70559
G1 X51.883 Y111.957 E5.75000
G1 X52.394 Y111.811 E5.76027
G1 X54.021 Y110.184 E5.80467
G1 X54.537 Y110.032 E5.81506
G1 X52.906 Y111.664 E5.85961
G1 X53.417 Y111.517 E5.86988
G1 X55.111 Y109.823 E5.91612
G1 X55.684 Y109.615 E5.92790
G1 X53.928 Y111.371 E5.97583
G1 X54.440 Y111.224 E5.98610
G1 X56.258 Y109.406 E6.03573
G1 X56.831 Y109.197 E6.04751
G1 X54.998 Y111.031 E6.09757
G1 X55.571 Y110.822 E6.10935
G1 X57.405 Y108.988 E6.15941
G1 X57.978 Y108.780 E6.17119
G1 X56.145 Y110.614 E6.22125
G1 X56.718 Y110.405 E6.23303
G1 X58.552 Y108.571 E6.28309
G1 X59.125 Y108.362 E6.29487
G1 X57.292 Y110.196 E6.34493
G1 X57.865 Y109.987 E6.35671
G1 X59.699 Y108.154 E6.40677
G1 X60.272 Y107.945 E6.41855
G1 X58.439 Y109.779 E6.46861
G1 X59.012 Y109.570 E6.48039
G1 X60.859 Y107.723 E6.53080
G1 X61.516 Y107.431 E6.54469
G1 X59.586 Y109.361 E6.59739
G1 X60.159 Y109.153 E6.60917
G1 X62.174 Y107.138 E6.66416
G1 X62.831 Y106.845 E6.67805
G1 X60.732 Y108.944 E6.73534
G1 X60.901 Y108.882 E6.73880
G1 X61.365 Y108.676 E6.74861
G1 X63.489 Y106.552 E6.80657
G1 X64.146 Y106.260 E6.82046
G1 X62.023 Y108.383 E6.87843
G1 X62.680 Y108.090 E6.89232
G1 X64.804 Y105.967 E6.95028
G1 X65.461 Y105.674 E6.96417
G1 X63.338 Y107.798 E7.02214
G1 X63.995 Y107.505 E7.03603
G1 X66.119 Y105.382 E7.09399
G1 X66.776 Y105.089 E7.10788
G1 X64.653 Y107.212 E7.16585
G1 X65.310 Y106.920 E7.17974
G1 X67.541 Y104.689 E7.24062
G1 X68.320 Y104.275 E7.25765
G1 X65.968 Y106.627 E7.32185
G1 X66.625 Y106.334 E7.33574
G1 X69.098 Y103.861 E7.40326
G1 X69.877 Y103.447 E7.42029
G1 X67.324 Y106.000 E7.48999
G1 X68.103 Y105.586 E7.50702
G1 X70.656 Y103.032 E7.57672
G1 X71.435 Y102.618 E7.59375
G1 X68.882 Y105.172 E7.66345
G1 X69.661 Y104.758 E7.68048
G1 X72.214 Y102.204 E7.75018
G1 X72.746 Y101.921 E7.76180
G1 X73.055 Y101.728 E7.76883
G1 X70.440 Y104.343 E7.84021
G1 X71.218 Y103.929 E7.85724
G1 X74.027 Y101.121 E7.93390
G1 X74.999 Y100.513 E7.95603
G1 X71.997 Y103.515 E8.03798
G1 X72.776 Y103.101 E8.05501
G1 X75.972 Y99.906 E8.14223
G1 X76.944 Y99.298 E8.16436
G1 X73.690 Y102.552 E8.25318
G1 X74.663 Y101.944 E8.27531
G1 X77.916 Y98.690 E8.36412
G1 X78.404 Y98.386 E8.37523
G1 X79.069 Y97.903 E8.39108
G1 X75.635 Y101.337 E8.48481
G1 X76.607 Y100.729 E8.50694
G1 X80.403 Y96.934 E8.61054
G1 X81.736 Y95.965 E8.64236
G1 X77.580 Y100.121 E8.75583
G1 X78.552 Y99.514 E8.77796
G1 X83.070 Y94.996 E8.90129
G1 X83.802 Y94.464 E8.91876
G1 X84.825 Y93.605 E8.94453
G1 X79.821 Y98.609 E9.08112
G1 X81.155 Y97.640 E9.11295
G1 X87.092 Y91.703 E9.27501
G1 X88.914 Y90.174 E9.32092
G1 X91.003 Y88.157 E9.37696
G1 X82.489 Y96.671 E9.60936
G1 X83.823 Y95.702 E9.64119
G1 X101.046 Y78.479 E10.11133
G1 X99.743 Y80.146 E10.15218
G1 X85.841 Y94.049 E10.53168
G1 X88.108 Y92.147 E10.58879
G1 X97.708 Y82.547 E10.85085
G1 X94.410 Y86.209 E10.94599
G1 X94.186 Y86.433 E10.95209
G1 X94.336 Y84.824 F6000.000
G1 F1800.000
G1 X102.349 Y76.811 E11.17083
G1 X103.068 Y75.891 E11.19336
G1 X103.407 Y75.388 E11.20506
G1 X97.634 Y81.161 E11.36265
G1 X97.960 Y80.799 E11.37206
G1 X99.134 Y79.297 E11.40887
G1 X104.163 Y74.268 E11.54613
G1 X104.919 Y73.147 E11.57223
G1 X100.437 Y77.629 E11.69456
G1 X101.740 Y75.961 E11.73541
G1 X105.675 Y72.027 E11.84281
G1 X106.430 Y70.906 E11.86890
G1 X102.634 Y74.703 E11.97255
G1 X103.389 Y73.582 E11.99864
G1 X107.067 Y69.904 E12.09903
G1 X107.565 Y69.041 E12.11826
G1 X104.145 Y72.461 E12.21162
G1 X104.901 Y71.341 E12.23771
G1 X108.064 Y68.178 E12.32404
G1 X108.562 Y67.315 E12.34327
G1 X105.657 Y70.220 E12.42256
G1 X105.799 Y70.009 E12.42746
G1 X106.204 Y69.309 E12.44308
G1 X109.060 Y66.452 E12.52105
G1 X109.558 Y65.589 E12.54029
G1 X106.702 Y68.446 E12.61825
G1 X107.201 Y67.582 E12.63749
G1 X110.057 Y64.726 E12.71546
G1 X110.207 Y64.467 E12.72124
G1 X110.449 Y63.969 E12.73193
G1 X107.699 Y66.719 E12.80702
G1 X108.197 Y65.856 E12.82626
G1 X110.797 Y63.257 E12.89722
G1 X111.144 Y62.545 E12.91251
G1 X108.695 Y64.993 E12.97935
G1 X109.176 Y64.148 E12.99812
G1 X111.491 Y61.833 E13.06132
G1 X111.839 Y61.121 E13.07662
G1 X109.523 Y63.436 E13.13982
G1 X109.871 Y62.724 E13.15511
