; generated by Slic3r 1.3.0 on 2021-01-29 at 17:17:25

; external perimeters extrusion width = 0.44mm (2.86mm^3/s)
; perimeters extrusion width = 0.56mm (4.14mm^3/s)
; infill extrusion width = 0.50mm (3.66mm^3/s)
; solid infill extrusion width = 0.56mm (3.10mm^3/s)
; top infill extrusion width = 0.45mm (2.44mm^3/s)

M107
;D3D:START:START
T0
M104 S215 T0

G21
G90
M107
T0
G28
G29
M109 T0 S215 T0
G0 F3000
M107
T0
G92 E0
G0 X0 Y149 Z0.1 F3600
G1 Y49 E6.5 F1200
G0 Z1
G92 E0
; Filament gcode

G21 ; set units to millimeters
G90 ; use absolute coordinates
M82 ; use absolute distances for extrusion
G92 E0
G1 Z0.300 F6000.000
G1 E-2.00000 F1200.00000
G92 E0
G1 Z0.800 F6000.000
G1 X41.123 Y42.167 F6000.000
G1 Z0.300 F6000.000
G1 E2.00000 F1200.00000
G1 F1800
G1 X44.260 Y38.940 E2.20131
G1 X44.601 Y38.613 E2.22244
G1 X49.410 Y34.311 E2.51105
G1 X49.774 Y34.008 E2.53224
G1 X54.883 Y30.045 E2.82147
G1 X55.267 Y29.767 E2.84268
G1 X60.653 Y26.163 E3.13256
G1 X61.057 Y25.913 E3.15380
G1 X66.694 Y22.690 E3.44425
G1 X67.115 Y22.468 E3.46554
G1 X72.978 Y19.643 E3.75662
G1 X73.392 Y19.461 E3.77686
G1 X107.318 Y5.825 E5.41236
G1 X109.835 Y5.336 E5.52707
G1 X119.182 Y5.326 E5.94514
G1 X121.467 Y5.722 E6.04886
G1 X123.975 Y7.310 E6.18165
G1 X143.975 Y27.310 E7.44682
G1 X145.310 Y29.206 E7.55054
G1 X145.958 Y32.167 E7.68610
G1 X145.826 Y45.173 E8.26791
G1 X145.406 Y47.454 E8.37163
G1 X144.093 Y49.628 E8.48523
G1 X60.345 Y142.907 E14.09249
G1 X58.523 Y144.342 E14.19622
G1 X55.313 Y145.155 E14.34432
G1 X28.299 Y145.181 E15.55267
G1 X26.014 Y144.786 E15.65639
G1 X23.505 Y143.198 E15.78919
G1 X3.505 Y123.198 E17.05434
G1 X2.171 Y121.302 E17.15806
G1 X1.522 Y118.410 E17.29063
G1 X1.522 Y112.257 E17.56586
G1 X2.267 Y109.170 E17.70791
G1 X24.229 Y66.299 E19.86250
G1 X27.317 Y60.556 E20.15414
G1 X27.553 Y60.152 E20.17506
G1 X30.966 Y54.742 E20.46118
G1 X31.230 Y54.354 E20.48217
G1 X35.017 Y49.183 E20.76890
G1 X35.309 Y48.813 E20.78995
G1 X39.455 Y43.906 E21.07731
G1 X39.772 Y43.557 E21.09839
G1 X41.081 Y42.210 E21.18240
G1 X41.399 Y42.436 F6000.000
G1 F1800
G1 X44.536 Y39.209 E21.38371
G1 X44.858 Y38.901 E21.40364
G1 X49.667 Y34.599 E21.69225
G1 X50.010 Y34.313 E21.71223
G1 X55.119 Y30.349 E22.00146
G1 X55.482 Y30.088 E22.02146
G1 X60.868 Y26.484 E22.31134
G1 X61.249 Y26.248 E22.33137
G1 X66.885 Y23.024 E22.62183
G1 X67.283 Y22.816 E22.64190
G1 X73.145 Y19.991 E22.93297
G1 X73.535 Y19.819 E22.95206
G1 X107.462 Y6.183 E24.58757
G1 X109.836 Y5.722 E24.69574
G1 X119.182 Y5.712 E25.11380
G1 X121.399 Y6.107 E25.21450
G1 X123.702 Y7.582 E25.33687
G1 X143.702 Y27.583 E26.60204
G1 X144.989 Y29.430 E26.70274
G1 X145.572 Y32.163 E26.82772
G1 X145.440 Y45.169 E27.40953
G1 X145.021 Y47.381 E27.51023
G1 X143.807 Y49.371 E27.61448
G1 X60.058 Y142.649 E33.22175
G1 X58.282 Y144.033 E33.32245
G1 X55.313 Y144.769 E33.45927
G1 X28.298 Y144.796 E34.66762
G1 X26.082 Y144.400 E34.76832
G1 X23.778 Y142.925 E34.89070
G1 X3.778 Y122.925 E36.15585
G1 X2.492 Y121.078 E36.25655
G1 X1.908 Y118.410 E36.37870
G1 X1.908 Y112.257 E36.65394
G1 X2.610 Y109.345 E36.78789
G1 X24.573 Y66.474 E38.94249
G1 X27.657 Y60.739 E39.23377
G1 X27.879 Y60.358 E39.25350
G1 X31.292 Y54.948 E39.53962
G1 X31.541 Y54.582 E39.55942
G1 X35.329 Y49.410 E39.84615
G1 X35.603 Y49.062 E39.86600
G1 X39.750 Y44.155 E40.15336
G1 X40.048 Y43.826 E40.17324
G1 X41.357 Y42.479 E40.25724
G1 E38.25724 F1200.00000
G92 E0
G1 Z0.800 F6000.000
G1 X54.310 Y133.227 F6000.000
G1 Z0.300 F6000.000
G1 E2.00000 F1200.00000
G1 F1800
G1 X54.310 Y137.388 E2.18610
G1 X29.290 Y137.413 E3.30526
G1 X29.290 Y133.252 E3.49136
G1 X54.250 Y133.228 E4.60784
G1 X54.696 Y132.841 F6000.000
G1 F1800
G1 X54.696 Y137.773 E4.82844
G1 X28.904 Y137.799 E5.98209
G1 X28.904 Y132.867 E6.20269
G1 X54.636 Y132.842 E7.35367
G1 X55.081 Y132.455 F6000.000
G1 F1800
G1 X55.081 Y138.158 E7.60876
G1 X28.518 Y138.185 E8.79692
G1 X28.518 Y132.482 E9.05201
G1 X55.021 Y132.456 E10.23748
G1 X54.881 Y132.802 F6000.000
G1 E8.23748 F1200.00000
G92 E0
G1 Z0.800 F6000.000
G1 X41.007 Y132.244 F6000.000
G1 Z0.300 F6000.000
G1 E2.00000 F1200.00000
G1 F1800
G1 X41.086 Y129.997 E2.15305
G1 E0.15305 F1200.00000
G92 E0
G1 Z0.800 F6000.000
G1 X61.351 Y74.060 F6000.000
G1 Z0.300 F6000.000
G1 E2.00000 F1200.00000
G1 F1800
G1 X61.175 Y73.921 E2.01003
G1 X61.515 Y73.502 E2.03421
G1 X61.692 Y73.650 E2.04452
G1 X61.390 Y74.013 E2.06565
G1 E0.06565 F1200.00000
G92 E0
G1 Z0.800 F6000.000
G1 X65.314 Y69.355 F6000.000
G1 Z0.300 F6000.000
G1 E2.00000 F1200.00000
G1 F1800
G1 X65.147 Y69.205 E2.01003
G1 X65.366 Y68.946 E2.02519
G1 X66.716 Y67.557 E2.11182
G1 X66.881 Y67.717 E2.12213
G1 X65.355 Y69.312 E2.22085
G1 E0.22085 F1200.00000
G92 E0
G1 Z0.800 F6000.000
G1 X43.994 Y109.434 F6000.000
G1 Z0.300 F6000.000
G1 E2.00000 F1200.00000
G1 F1800
G1 X43.775 Y109.380 E2.01008
G1 X44.217 Y107.385 E2.10145
G1 X46.000 Y101.341 E2.38330
G1 X48.198 Y95.422 E2.66572
G1 X50.804 Y89.657 E2.94874
G1 X53.808 Y84.073 E3.23234
G1 X57.198 Y78.699 E3.51656
G1 X60.960 Y73.561 E3.80140
G1 X65.080 Y68.687 E4.08686
G1 X69.538 Y64.101 E4.37295
G1 X74.315 Y59.828 E4.65965
G1 X79.390 Y55.890 E4.94697
G1 X84.740 Y52.311 E5.23490
G1 X90.340 Y49.109 E5.52342
G1 X96.162 Y46.303 E5.81252
G1 X102.180 Y43.910 E6.10219
G1 X108.261 Y41.977 E6.38760
G1 X108.332 Y42.195 E6.39788
G1 X103.641 Y43.761 E6.61908
G1 X97.477 Y46.302 E6.91730
G1 X91.491 Y49.268 E7.21614
G1 X85.711 Y52.648 E7.51563
G1 X80.167 Y56.428 E7.81576
G1 X74.887 Y60.592 E8.11654
G1 X69.899 Y65.123 E8.41799
G1 X65.228 Y70.002 E8.72008
G1 X60.900 Y75.206 E9.02284
G1 X56.938 Y80.711 E9.32623
G1 X53.364 Y86.493 E9.63027
G1 X50.199 Y92.524 E9.93492
G1 X47.462 Y98.775 E10.24018
G1 X45.167 Y105.216 E10.54603
G1 X44.010 Y109.376 E10.73917
G1 E8.73917 F1200.00000
G92 E0
G1 Z0.800 F6000.000
G1 X41.207 Y129.776 F6000.000
G1 Z0.300 F6000.000
G1 E2.00000 F1200.00000
G1 F1800
G1 X40.981 Y129.768 E2.01012
G1 X41.030 Y125.959 E2.18050
G1 X41.539 Y119.688 E2.46195
G1 X42.477 Y113.454 E2.74389
G1 X43.844 Y107.289 E3.02638
G1 X45.633 Y101.219 E3.30941
G1 X47.841 Y95.276 E3.59302
G1 X50.458 Y89.486 E3.87722
G1 X53.474 Y83.879 E4.16203
G1 X56.879 Y78.482 E4.44744
G1 X60.657 Y73.323 E4.73348
G1 X64.794 Y68.428 E5.02014
G1 X69.271 Y63.822 E5.30742
G1 X74.068 Y59.531 E5.59533
G1 X79.165 Y55.577 E5.88386
G1 X84.537 Y51.983 E6.17300
G1 X90.160 Y48.767 E6.46274
G1 X96.007 Y45.950 E6.75305
G1 X102.050 Y43.547 E7.04394
G1 X108.260 Y41.573 E7.33538
G1 X114.604 Y40.041 E7.62734
G1 X121.053 Y38.961 E7.91980
G1 X127.573 Y38.341 E8.21274
G1 X128.122 Y38.329 E8.23730
G1 X128.137 Y38.549 E8.24718
G1 X122.953 Y39.154 E8.48062
G1 X116.464 Y40.367 E8.77588
G1 X110.062 Y42.025 E9.07171
G1 X103.776 Y44.123 E9.36813
G1 X97.637 Y46.653 E9.66516
G1 X91.674 Y49.608 E9.96281
G1 X85.917 Y52.974 E10.26110
G1 X80.395 Y56.739 E10.56004
G1 X75.137 Y60.887 E10.85962
G1 X70.168 Y65.400 E11.15987
G1 X65.516 Y70.259 E11.46076
G1 X61.205 Y75.442 E11.76231
G1 X57.259 Y80.925 E12.06449
G1 X53.699 Y86.684 E12.36731
G1 X50.547 Y92.691 E12.67075
G1 X47.820 Y98.917 E12.97480
G1 X45.535 Y105.333 E13.27942
G1 X43.706 Y111.906 E13.58461
G1 X42.346 Y118.604 E13.89034
G1 X41.463 Y125.393 E14.19657
G1 X41.211 Y129.716 E14.39024
G1 X41.018 Y129.652 F6000.000
G1 E12.39024 F1200.00000
G92 E0
G1 Z0.800 F6000.000
G1 X128.354 Y38.423 F6000.000
G1 Z0.300 F6000.000
G1 E2.00000 F1200.00000
G1 F1800
G1 X128.919 Y38.384 E2.03659
G1 F1800
G1 X129.503 Y38.343 E2.06913
G1 X130.712 Y38.300 E2.13639
G1 E0.13639 F1200.00000
G92 E0
G1 Z0.800 F6000.000
G1 X133.448 Y44.114 F6000.000
G1 Z0.300 F6000.000
G1 E2.00000 F1200.00000
G1 F1800
G1 X130.868 Y35.241 E2.41331
G1 X130.839 Y34.548 E2.44434
G1 X130.839 Y33.103 E2.50900
G1 X138.181 Y33.095 E2.83739
G1 X138.069 Y44.109 E3.33007
G1 X133.508 Y44.114 E3.53408
G1 X133.159 Y44.500 F6000.000
G1 F1800
G1 X130.484 Y35.303 E3.96248
G1 X130.454 Y34.556 E3.99593
G1 X130.454 Y32.717 E4.07818
G1 X138.570 Y32.709 E4.44124
G1 X138.451 Y44.495 E4.96842
G1 X133.219 Y44.500 E5.20244
G1 X132.870 Y44.886 F6000.000
G1 F1800
G1 X130.101 Y35.366 E5.64592
G1 X130.068 Y34.564 E5.68181
G1 X130.068 Y32.332 E5.78164
G1 X138.960 Y32.323 E6.17937
G1 X138.832 Y44.880 E6.74105
G1 X132.930 Y44.886 E7.00507
G1 X132.854 Y44.486 F6000.000
G1 E5.00507 F1200.00000
G92 E0
G1 Z0.800 F6000.000
G1 X137.373 Y44.038 F6000.000
G1 Z0.300 F6000.000
G1 E2.00000 F1200.00000
G1 F1800
G1 X138.001 Y43.410 E2.04050
G1 X138.006 Y42.848 E2.06617
G1 X136.816 Y44.038 E2.14302
G1 X136.259 Y44.039 E2.16845
G1 X138.012 Y42.286 E2.28164
G1 X138.018 Y41.723 E2.30731
G1 X135.702 Y44.039 E2.45684
G1 X135.145 Y44.040 E2.48227
G1 X138.024 Y41.161 E2.66814
G1 X138.029 Y40.599 E2.69381
G1 X134.588 Y44.040 E2.91602
G1 X134.030 Y44.041 E2.94146
G1 X138.035 Y40.036 E3.20001
G1 X138.041 Y39.474 E3.22568
G1 X133.473 Y44.042 E3.52057
G1 X133.423 Y44.042 E3.52284
G1 X133.309 Y43.649 E3.54152
G1 X138.046 Y38.912 E3.84736
G1 X138.052 Y38.349 E3.87303
G1 X133.184 Y43.218 E4.18735
G1 X133.059 Y42.786 E4.20785
G1 X138.058 Y37.787 E4.53062
G1 X138.064 Y37.225 E4.55630
G1 X132.933 Y42.355 E4.88754
G1 X132.808 Y41.924 E4.90804
G1 X138.069 Y36.663 E5.24774
G1 X138.075 Y36.100 E5.27342
G1 X132.682 Y41.493 E5.62159
G1 X132.557 Y41.062 E5.64209
G1 X138.081 Y35.538 E5.99872
G1 X138.086 Y34.976 E6.02440
G1 X132.432 Y40.630 E6.38949
G1 X132.306 Y40.199 E6.41000
G1 X138.092 Y34.413 E6.78356
G1 X138.098 Y33.851 E6.80923
G1 X132.181 Y39.768 E7.19126
G1 X132.055 Y39.337 E7.21177
G1 X138.104 Y33.289 E7.60226
G1 X138.105 Y33.168 E7.60778
G1 X137.667 Y33.168 E7.62775
G1 X131.930 Y38.906 E7.99817
G1 X131.805 Y38.474 E8.01868
G1 X137.110 Y33.169 E8.36123
G1 X136.553 Y33.169 E8.38666
G1 X131.679 Y38.043 E8.70134
G1 X131.554 Y37.612 E8.72184
G1 X135.996 Y33.170 E9.00864
G1 X135.439 Y33.170 E9.03407
G1 X131.428 Y37.181 E9.29300
G1 X131.303 Y36.749 E9.31350
G1 X134.882 Y33.171 E9.54454
G1 X134.324 Y33.171 E9.56998
G1 X131.178 Y36.318 E9.77315
G1 X131.052 Y35.887 E9.79365
G1 X133.767 Y33.172 E9.96895
G1 X133.210 Y33.173 E9.99438
G1 X130.936 Y35.447 E10.14123
G1 X130.914 Y34.912 E10.16567
G1 X132.653 Y33.173 E10.27796
G1 X132.096 Y33.174 E10.30340
G1 X130.911 Y34.358 E10.37987
G1 X130.911 Y33.801 E10.40528
G1 X131.539 Y33.174 E10.44578
G1 E8.44578 F1200.00000
G92 E0
G1 Z0.800 F6000.000
G1 X122.209 Y39.071 F6000.000
G1 Z0.300 F6000.000
G1 E2.00000 F1200.00000
G1 F1800
G1 X121.088 Y39.229 E2.00516
G1 F1800
G1 X116.392 Y40.061 E2.07918
G1 F1800
G1 X115.537 Y40.242 E2.10120
G1 F1800
G1 X114.683 Y40.424 E2.13097
G1 F1800
G1 X109.932 Y41.613 E2.34238
G1 F1800
G1 X108.964 Y41.891 E2.39465
G1 F1800
G1 X108.481 Y42.029 E2.42482
G1 E0.42482 F1200.00000
G92 E0
G1 Z0.800 F6000.000
G1 X100.766 Y44.709 F6000.000
G1 Z0.300 F6000.000
G1 E2.00000 F1200.00000
G1 F1800
G1 X97.379 Y46.080 E2.01486
G1 X96.828 Y46.326 E2.01732
G1 F1800
G1 X96.280 Y46.570 E2.02657
G1 X93.811 Y47.776 E2.06896
G1 F1800
G1 X91.342 Y48.983 E2.13056
G1 X90.921 Y49.207 E2.14126
G1 F1800
G1 X90.507 Y49.427 E2.15585
G1 X88.008 Y50.872 E2.24581
G1 F1800
G1 X85.228 Y52.493 E2.36704
G1 F1800
G1 X82.436 Y54.365 E2.51353
G1 F1800
G1 X79.655 Y56.257 E2.68079
G1 F1800
G1 X74.573 Y60.236 E3.03927
G1 F1800
G1 X69.884 Y64.462 E3.44164
G1 X69.553 Y64.783 E3.47105
G1 X66.932 Y67.499 E3.71161
G1 E1.71161 F1200.00000
G92 E0
G1 Z0.800 F6000.000
G1 X65.101 Y69.423 F6000.000
G1 Z0.300 F6000.000
G1 E2.00000 F1200.00000
G1 F1800
G1 X61.728 Y73.428 E2.31312
G1 X61.144 Y74.142 F6000.000
G1 F1800
G1 X60.529 Y74.931 E2.37292
G1 X57.597 Y78.970 E2.67152
G1 X56.924 Y79.968 E2.74351
G1 F1800
G1 X56.578 Y80.481 E2.77512
G1 X54.194 Y84.299 E3.00526
G1 X53.424 Y85.633 E3.08403
G1 F1800
G1 X53.033 Y86.311 E3.11606
G1 X51.161 Y89.833 E3.27915
G1 X50.539 Y91.108 E3.33717
G1 F1800
G1 X49.917 Y92.383 E3.38057
G1 F1800
G1 X48.508 Y95.550 E3.45310
G1 X47.874 Y97.118 E3.48850
G1 F1800
G1 X47.240 Y98.686 E3.51282
G1 F1800
G1 X46.245 Y101.423 E3.52201
G1 X45.809 Y102.763 E3.52645
G1 E1.52645 F1200.00000
G92 E0
G1 Z0.800 F6000.000
G1 X43.838 Y109.594 F6000.000
G1 Z0.300 F6000.000
G1 E2.00000 F1200.00000
G1 F1800
G1 X43.471 Y111.063 E2.09141
G1 F1800
G1 X43.284 Y111.813 E2.13183
G1 X42.918 Y113.536 E2.22383
G1 X42.623 Y115.207 E2.31244
G1 F1800
G1 X42.328 Y116.877 E2.38318
G1 F1800
G1 X42.032 Y118.548 E2.43691
G1 F1800
G1 X41.867 Y119.726 E2.46266
G1 X41.674 Y121.552 E2.50242
G1 F1800
G1 X41.481 Y123.379 E2.52842
G1 F1800
G1 X41.385 Y124.292 E2.53201
G1 E0.53201 F1200.00000
G92 E0
G1 Z0.800 F6000.000
G1 X29.989 Y133.324 F6000.000
G1 Z0.300 F6000.000
G1 E2.00000 F1200.00000
G1 F1800
G1 X29.362 Y133.951 E2.04019
G1 X29.362 Y134.503 E2.06521
G1 X30.542 Y133.323 E2.14081
G1 X31.095 Y133.323 E2.16585
G1 X29.362 Y135.056 E2.27687
G1 X29.362 Y135.608 E2.30189
G1 X31.647 Y133.322 E2.44832
G1 X32.200 Y133.322 E2.47337
G1 X29.362 Y136.160 E2.65522
G1 X29.362 Y136.713 E2.68023
G1 X32.753 Y133.321 E2.89750
G1 X33.306 Y133.321 E2.92254
G1 X29.362 Y137.265 E3.17522
G1 X29.362 Y137.340 E3.17864
G1 X29.839 Y137.340 E3.20026
G1 X33.859 Y133.320 E3.45779
G1 X34.412 Y133.319 E3.48283
G1 X30.392 Y137.339 E3.74035
G1 X30.945 Y137.339 E3.76539
G1 X34.964 Y133.319 E4.02292
G1 X35.517 Y133.318 E4.04796
G1 X31.497 Y137.338 E4.30548
G1 X32.050 Y137.338 E4.33052
G1 X36.070 Y133.318 E4.58805
G1 X36.623 Y133.317 E4.61309
G1 X32.603 Y137.337 E4.87061
G1 X33.156 Y137.337 E4.89565
G1 X37.176 Y133.317 E5.15318
G1 X37.729 Y133.316 E5.17822
G1 X33.709 Y137.336 E5.43574
G1 X34.262 Y137.335 E5.46078
G1 X38.281 Y133.316 E5.71831
G1 X38.834 Y133.315 E5.74335
G1 X34.814 Y137.335 E6.00087
G1 X35.367 Y137.334 E6.02591
G1 X39.387 Y133.315 E6.28344
G1 X39.940 Y133.314 E6.30848
G1 X35.920 Y137.334 E6.56600
G1 X36.473 Y137.333 E6.59104
G1 X40.493 Y133.313 E6.84857
G1 X41.046 Y133.313 E6.87361
G1 X37.026 Y137.333 E7.13113
G1 X37.579 Y137.332 E7.15617
G1 X41.598 Y133.312 E7.41370
G1 X42.151 Y133.312 E7.43874
G1 X38.131 Y137.332 E7.69626
G1 X38.684 Y137.331 E7.72130
G1 X42.704 Y133.311 E7.97883
G1 X43.257 Y133.311 E8.00387
G1 X39.237 Y137.331 E8.26139
G1 X39.790 Y137.330 E8.28643
G1 X43.810 Y133.310 E8.54396
G1 X44.363 Y133.310 E8.56900
G1 X40.343 Y137.329 E8.82652
G1 X40.896 Y137.329 E8.85156
G1 X44.915 Y133.309 E9.10908
G1 X45.468 Y133.309 E9.13413
G1 X41.448 Y137.328 E9.39165
G1 X42.001 Y137.328 E9.41669
G1 X46.021 Y133.308 E9.67421
G1 X46.574 Y133.307 E9.69926
G1 X42.554 Y137.327 E9.95678
G1 X43.107 Y137.327 E9.98182
G1 X47.127 Y133.307 E10.23934
G1 X47.680 Y133.306 E10.26439
G1 X43.660 Y137.326 E10.52191
G1 X44.213 Y137.326 E10.54695
G1 X48.232 Y133.306 E10.80447
G1 X48.785 Y133.305 E10.82952
G1 X44.765 Y137.325 E11.08704
G1 X45.318 Y137.325 E11.11208
G1 X49.338 Y133.305 E11.36960
G1 X49.891 Y133.304 E11.39464
G1 X45.871 Y137.324 E11.65217
G1 X46.424 Y137.323 E11.67721
G1 X50.444 Y133.304 E11.93473
G1 X50.997 Y133.303 E11.95977
G1 X46.977 Y137.323 E12.21729
G1 X47.530 Y137.322 E12.24234
G1 X51.549 Y133.303 E12.49986
G1 X52.102 Y133.302 E12.52490
G1 X48.082 Y137.322 E12.78242
G1 X48.635 Y137.321 E12.80747
G1 X52.655 Y133.301 E13.06499
G1 X53.208 Y133.301 E13.09003
G1 X49.188 Y137.321 E13.34755
G1 X49.741 Y137.320 E13.37260
G1 X53.761 Y133.300 E13.63012
G1 X54.238 Y133.300 E13.65174
G1 X54.238 Y133.375 E13.65516
G1 X50.294 Y137.320 E13.90784
G1 X50.847 Y137.319 E13.93288
G1 X54.238 Y133.928 E14.15014
G1 X54.238 Y134.480 E14.17516
G1 X51.399 Y137.319 E14.35701
G1 X51.952 Y137.318 E14.38205
G1 X54.238 Y135.032 E14.52849
G1 X54.238 Y135.585 E14.55351
G1 X52.505 Y137.317 E14.66452
G1 X53.058 Y137.317 E14.68957
G1 X54.238 Y136.137 E14.76517
G1 X54.238 Y136.689 E14.79018
G1 X53.611 Y137.316 E14.83037
G1 E12.83037 F1200.00000
G92 E0
G1 Z0.800 F6000.000
G1 X34.310 Y113.227 F6000.000
G1 Z0.300 F6000.000
G1 E2.00000 F1200.00000
G1 F1800
G1 X34.310 Y117.388 E2.18610
G1 X9.290 Y117.413 E3.30526
G1 X9.290 Y113.252 E3.49136
G1 X34.250 Y113.228 E4.60784
G1 X34.696 Y112.841 F6000.000
G1 F1800
G1 X34.696 Y117.773 E4.82844
G1 X8.904 Y117.799 E5.98210
G1 X8.904 Y112.867 E6.20270
G1 X34.636 Y112.842 E7.35367
G1 X35.081 Y112.455 F6000.000
G1 F1800
G1 X35.081 Y118.158 E7.60876
G1 X8.518 Y118.185 E8.79692
