; generated by Slic3r 1.3.0 on 2020-09-11 at 17:26:48

; external perimeters extrusion width = 0.44mm (2.86mm^3/s)
; perimeters extrusion width = 0.56mm (4.14mm^3/s)
; infill extrusion width = 0.50mm (5.48mm^3/s)
; solid infill extrusion width = 0.56mm (3.10mm^3/s)
; top infill extrusion width = 0.45mm (2.44mm^3/s)

M107
;D3D:START:START
T0
M104 S215 T0

G21
G90
M107
T0
G28
G29
M109 T0 S215 T0
G0 F3000
M107
T0
G92 E0
G0 X0 Y149 Z0.1 F3600
G1 Y49 E6.5 F1200
G0 Z1
G92 E0
; Filament gcode

G21 ; set units to millimeters
G90 ; use absolute coordinates
M82 ; use absolute distances for extrusion
G92 E0
G1 Z0.300 F6000.000
G1 E-2.00000 F1200.00000
G92 E0
G1 X30.616 Y29.199 F6000.000
G1 E2.00000 F1200.00000
G1 F1800
G1 X32.371 Y28.364 E2.08693
G1 X33.500 Y28.229 E2.13779
G1 X94.500 Y28.229 E4.86631
G1 X97.062 Y28.975 E4.98565
G1 X119.062 Y42.975 E6.15206
G1 X120.454 Y44.330 E6.23899
G1 X121.247 Y46.517 E6.34305
G1 X124.652 Y80.013 E7.84904
G1 X124.745 Y81.097 E7.89767
G1 X124.769 Y82.150 E7.94480
G1 X124.726 Y83.202 E7.99191
G1 X124.652 Y83.987 E8.02715
G1 X121.247 Y117.483 E9.53314
G1 X120.661 Y119.336 E9.62007
G1 X119.384 Y120.801 E9.70700
G1 X117.629 Y121.636 E9.79393
G1 X116.500 Y121.771 E9.84479
G1 X55.500 Y121.771 E12.57331
G1 X52.938 Y121.025 E12.69265
G1 X30.938 Y107.025 E13.85906
G1 X29.546 Y105.670 E13.94599
G1 X28.753 Y103.483 E14.05005
G1 X25.348 Y69.987 E15.55604
G1 X25.255 Y68.903 E15.60467
G1 X25.231 Y67.850 E15.65180
G1 X25.274 Y66.798 E15.69891
G1 X25.348 Y66.013 E15.73415
G1 X28.753 Y32.517 E17.24014
G1 X29.339 Y30.664 E17.32707
G1 X30.577 Y29.244 E17.41132
G1 X30.975 Y29.415 F6000.000
G1 F1800
G1 X33.500 Y28.614 E17.52982
G1 X94.500 Y28.614 E20.25834
G1 X96.855 Y29.300 E20.36803
G1 X118.855 Y43.300 E21.53444
G1 X120.178 Y44.611 E21.61774
G1 X120.863 Y46.556 E21.71002
G1 X124.269 Y80.052 E23.21601
G1 X124.360 Y81.109 E23.26343
G1 X124.383 Y82.138 E23.30948
G1 X124.342 Y83.166 E23.35551
G1 X124.269 Y83.948 E23.39062
G1 X120.863 Y117.444 E24.89661
G1 X120.286 Y119.214 E24.97992
G1 X119.025 Y120.585 E25.06322
G1 X116.500 Y121.386 E25.18172
G1 X55.500 Y121.386 E27.91024
G1 X53.145 Y120.700 E28.01993
G1 X31.145 Y106.700 E29.18634
G1 X29.822 Y105.389 E29.26965
G1 X29.137 Y103.444 E29.36192
G1 X25.731 Y69.948 E30.86792
G1 X25.640 Y68.891 E30.91534
G1 X25.617 Y67.862 E30.96139
G1 X25.658 Y66.834 E31.00741
G1 X25.731 Y66.052 E31.04253
G1 X29.137 Y32.556 E32.54852
G1 X29.714 Y30.786 E32.63182
G1 X30.934 Y29.459 E32.71245
G1 E30.71245 F1200.00000
G92 E0
G1 X115.318 Y82.978 F6000.000
G1 E2.00000 F1200.00000
G1 F1800
G1 X115.678 Y82.534 E2.02558
G1 X116.158 Y82.222 E2.05116
G1 X116.667 Y82.086 E2.07475
G1 X117.279 Y82.103 E2.10211
G1 X117.815 Y82.309 E2.12781
G1 X118.259 Y82.669 E2.15339
G1 X118.571 Y83.149 E2.17897
G1 X118.719 Y83.701 E2.20455
G1 X118.689 Y84.272 E2.23013
G1 X118.484 Y84.806 E2.25571
G1 X118.124 Y85.250 E2.28129
G1 X117.645 Y85.562 E2.30687
G1 X117.092 Y85.710 E2.33245
G1 X116.521 Y85.680 E2.35803
G1 X115.987 Y85.475 E2.38361
G1 X115.543 Y85.115 E2.40919
G1 X115.231 Y84.635 E2.43477
G1 X115.083 Y84.083 E2.46034
G1 X115.113 Y83.512 E2.48592
G1 X115.297 Y83.034 E2.50882
G1 X115.118 Y82.632 F6000.000
G1 E0.50882 F1200.00000
G92 E0
G1 X100.887 Y80.488 F6000.000
G1 E2.00000 F1200.00000
G1 F1800
G1 X100.682 Y81.022 E2.02558
G1 X100.322 Y81.466 E2.05116
G1 X99.842 Y81.778 E2.07674
G1 X99.290 Y81.926 E2.10232
G1 X98.719 Y81.896 E2.12790
G1 X98.185 Y81.691 E2.15347
G1 X97.741 Y81.331 E2.17906
G1 X97.429 Y80.851 E2.20463
G1 X97.281 Y80.299 E2.23021
G1 X97.311 Y79.728 E2.25579
G1 X97.516 Y79.194 E2.28137
G1 X97.876 Y78.750 E2.30695
G1 X98.355 Y78.438 E2.33253
G1 X98.865 Y78.302 E2.35612
G1 X99.476 Y78.319 E2.38348
G1 X100.013 Y78.525 E2.40919
G1 X100.457 Y78.885 E2.43477
G1 X100.769 Y79.365 E2.46035
G1 X100.917 Y79.917 E2.48593
G1 X100.890 Y80.428 E2.50882
G1 X101.184 Y80.756 F6000.000
G1 E0.50882 F1200.00000
G92 E0
G1 X107.194 Y110.184 F6000.000
G1 E2.00000 F1200.00000
G1 F1800
G1 X107.947 Y110.065 E2.03410
G1 X108.795 Y110.178 E2.07239
G1 X109.533 Y110.555 E2.10944
G1 X110.110 Y111.132 E2.14594
G1 X110.481 Y111.859 E2.18245
G1 X110.609 Y112.665 E2.21896
G1 X110.481 Y113.471 E2.25547
G1 X110.110 Y114.198 E2.29198
G1 X109.533 Y114.775 E2.32848
G1 X108.806 Y115.146 E2.36499
G1 X108.000 Y115.274 E2.40150
G1 X107.194 Y115.146 E2.43800
G1 X106.467 Y114.775 E2.47451
G1 X105.890 Y114.198 E2.51101
G1 X105.519 Y113.471 E2.54753
G1 X105.391 Y112.665 E2.58403
G1 X105.519 Y111.859 E2.62054
G1 X105.890 Y111.132 E2.65705
G1 X106.467 Y110.555 E2.69355
G1 X107.140 Y110.211 E2.72738
G1 X107.315 Y110.555 F6000.000
G1 F1800
G1 X107.951 Y110.454 E2.75622
G1 X108.679 Y110.552 E2.78904
G1 X109.304 Y110.870 E2.82043
G1 X109.795 Y111.361 E2.85146
G1 X110.110 Y111.980 E2.88251
G1 X110.218 Y112.665 E2.91355
G1 X110.110 Y113.350 E2.94459
G1 X109.795 Y113.969 E2.97564
G1 X109.304 Y114.460 E3.00668
G1 X108.685 Y114.775 E3.03773
G1 X108.000 Y114.883 E3.06877
G1 X107.315 Y114.775 E3.09981
G1 X106.696 Y114.460 E3.13086
G1 X106.205 Y113.969 E3.16190
G1 X105.890 Y113.350 E3.19294
G1 X105.782 Y112.665 E3.22398
G1 X105.890 Y111.980 E3.25503
G1 X106.205 Y111.361 E3.28607
G1 X106.696 Y110.870 E3.31711
G1 X107.261 Y110.583 E3.34547
G1 X107.435 Y110.927 F6000.000
G1 F1800
G1 X107.956 Y110.844 E3.36906
G1 X108.562 Y110.925 E3.39642
G1 X109.074 Y111.186 E3.42213
G1 X109.479 Y111.591 E3.44770
G1 X109.738 Y112.100 E3.47329
G1 X109.828 Y112.665 E3.49887
G1 X109.738 Y113.230 E3.52444
G1 X109.479 Y113.739 E3.55003
G1 X109.074 Y114.144 E3.57560
G1 X108.565 Y114.403 E3.60118
G1 X108.000 Y114.493 E3.62676
G1 X107.435 Y114.403 E3.65234
G1 X106.926 Y114.144 E3.67792
G1 X106.521 Y113.739 E3.70350
G1 X106.262 Y113.230 E3.72908
G1 X106.172 Y112.665 E3.75466
G1 X106.262 Y112.100 E3.78024
G1 X106.521 Y111.591 E3.80582
G1 X106.926 Y111.186 E3.83139
G1 X107.382 Y110.954 E3.85429
G1 X107.518 Y110.535 F6000.000
G1 E1.85429 F1200.00000
G92 E0
G1 X108.000 Y101.109 F6000.000
G1 E2.00000 F1200.00000
G1 F1800
G1 X107.182 Y100.979 E2.03705
G1 X106.429 Y100.572 E2.07535
G1 X105.890 Y100.033 E2.10944
G1 X105.519 Y99.306 E2.14595
G1 X105.391 Y98.500 E2.18245
G1 X105.519 Y97.694 E2.21896
G1 X105.890 Y96.967 E2.25547
G1 X106.467 Y96.390 E2.29197
G1 X107.194 Y96.019 E2.32848
G1 X107.947 Y95.900 E2.36258
G1 X108.795 Y96.013 E2.40087
G1 X109.533 Y96.390 E2.43793
G1 X110.110 Y96.967 E2.47443
G1 X110.481 Y97.694 E2.51094
G1 X110.609 Y98.500 E2.54745
G1 X110.481 Y99.306 E2.58395
G1 X110.110 Y100.033 E2.62046
G1 X109.533 Y100.610 E2.65696
G1 X108.806 Y100.981 E2.69347
G1 X108.059 Y101.099 E2.72730
G1 X108.000 Y100.718 F6000.000
G1 F1800
G1 X107.307 Y100.608 E2.75867
G1 X106.661 Y100.260 E2.79150
G1 X106.205 Y99.804 E2.82034
G1 X105.890 Y99.185 E2.85139
G1 X105.782 Y98.500 E2.88243
G1 X105.890 Y97.815 E2.91347
G1 X106.205 Y97.196 E2.94452
G1 X106.696 Y96.705 E2.97556
G1 X107.315 Y96.390 E3.00660
G1 X107.951 Y96.289 E3.03545
G1 X108.679 Y96.387 E3.06827
G1 X109.304 Y96.705 E3.09965
G1 X109.795 Y97.196 E3.13069
G1 X110.110 Y97.815 E3.16174
G1 X110.218 Y98.500 E3.19278
G1 X110.110 Y99.185 E3.22382
G1 X109.795 Y99.804 E3.25487
G1 X109.304 Y100.295 E3.28591
G1 X108.685 Y100.610 E3.31695
G1 X108.059 Y100.709 E3.34531
G1 X108.000 Y100.328 F6000.000
G1 F1800
G1 X107.432 Y100.238 E3.37101
G1 X106.894 Y99.947 E3.39838
G1 X106.521 Y99.574 E3.42196
G1 X106.262 Y99.065 E3.44755
G1 X106.172 Y98.500 E3.47313
G1 X106.262 Y97.935 E3.49870
G1 X106.521 Y97.426 E3.52429
G1 X106.926 Y97.021 E3.54986
G1 X107.435 Y96.762 E3.57544
G1 X107.956 Y96.679 E3.59903
G1 X108.562 Y96.760 E3.62639
G1 X109.074 Y97.021 E3.65210
G1 X109.479 Y97.426 E3.67767
G1 X109.738 Y97.935 E3.70326
G1 X109.828 Y98.500 E3.72884
G1 X109.738 Y99.065 E3.75441
G1 X109.479 Y99.574 E3.78000
G1 X109.074 Y99.979 E3.80557
G1 X108.565 Y100.238 E3.83115
G1 X108.059 Y100.318 E3.85405
G1 X107.800 Y100.674 F6000.000
G1 E1.85405 F1200.00000
G92 E0
G1 X108.000 Y84.609 F6000.000
G1 E2.00000 F1200.00000
G1 F1800
G1 X107.182 Y84.479 E2.03705
G1 X106.429 Y84.072 E2.07535
G1 X105.890 Y83.533 E2.10944
G1 X105.519 Y82.806 E2.14595
G1 X105.391 Y82.000 E2.18245
G1 X105.519 Y81.194 E2.21896
G1 X105.890 Y80.467 E2.25547
G1 X106.467 Y79.890 E2.29197
G1 X107.194 Y79.519 E2.32849
G1 X107.947 Y79.400 E2.36258
G1 X108.795 Y79.513 E2.40087
G1 X109.533 Y79.890 E2.43793
G1 X110.110 Y80.467 E2.47443
G1 X110.481 Y81.194 E2.51094
G1 X110.609 Y82.000 E2.54745
G1 X110.481 Y82.806 E2.58395
G1 X110.110 Y83.533 E2.62046
G1 X109.533 Y84.110 E2.65696
G1 X108.806 Y84.481 E2.69348
G1 X108.059 Y84.599 E2.72730
G1 X108.000 Y84.218 F6000.000
G1 F1800
G1 X107.307 Y84.108 E2.75867
G1 X106.661 Y83.760 E2.79150
G1 X106.205 Y83.304 E2.82034
G1 X105.890 Y82.685 E2.85139
G1 X105.782 Y82.000 E2.88243
G1 X105.890 Y81.315 E2.91347
G1 X106.205 Y80.696 E2.94452
G1 X106.696 Y80.205 E2.97556
G1 X107.315 Y79.890 E3.00661
G1 X107.951 Y79.789 E3.03545
G1 X108.679 Y79.887 E3.06827
G1 X109.304 Y80.205 E3.09965
G1 X109.795 Y80.696 E3.13069
G1 X110.110 Y81.315 E3.16174
G1 X110.218 Y82.000 E3.19278
G1 X110.110 Y82.685 E3.22382
G1 X109.795 Y83.304 E3.25487
G1 X109.304 Y83.795 E3.28591
G1 X108.685 Y84.110 E3.31696
G1 X108.059 Y84.209 E3.34531
G1 X108.000 Y83.828 F6000.000
G1 F1800
G1 X107.432 Y83.738 E3.37101
G1 X106.894 Y83.447 E3.39838
G1 X106.521 Y83.074 E3.42197
G1 X106.262 Y82.565 E3.44755
G1 X106.172 Y82.000 E3.47313
G1 X106.262 Y81.435 E3.49871
G1 X106.521 Y80.926 E3.52429
G1 X106.926 Y80.521 E3.54986
G1 X107.435 Y80.262 E3.57544
G1 X107.956 Y80.179 E3.59903
G1 X108.562 Y80.260 E3.62639
G1 X109.074 Y80.521 E3.65210
G1 X109.479 Y80.926 E3.67768
G1 X109.738 Y81.435 E3.70326
G1 X109.828 Y82.000 E3.72884
G1 X109.738 Y82.565 E3.75442
G1 X109.479 Y83.074 E3.78000
G1 X109.074 Y83.479 E3.80557
G1 X108.565 Y83.738 E3.83115
G1 X108.059 Y83.818 E3.85405
G1 X107.800 Y84.174 F6000.000
G1 E1.85405 F1200.00000
G92 E0
G1 X108.000 Y68.109 F6000.000
G1 E2.00000 F1200.00000
G1 F1800
G1 X107.182 Y67.979 E2.03705
G1 X106.429 Y67.572 E2.07535
G1 X105.890 Y67.033 E2.10944
G1 X105.519 Y66.306 E2.14595
G1 X105.391 Y65.500 E2.18245
G1 X105.519 Y64.694 E2.21896
G1 X105.890 Y63.967 E2.25547
G1 X106.467 Y63.390 E2.29197
G1 X107.194 Y63.019 E2.32848
G1 X107.947 Y62.900 E2.36258
G1 X108.795 Y63.013 E2.40087
G1 X109.533 Y63.390 E2.43793
G1 X110.110 Y63.967 E2.47443
G1 X110.481 Y64.694 E2.51094
G1 X110.609 Y65.500 E2.54745
G1 X110.481 Y66.306 E2.58395
G1 X110.110 Y67.033 E2.62046
G1 X109.533 Y67.610 E2.65696
G1 X108.806 Y67.981 E2.69348
G1 X108.059 Y68.099 E2.72730
G1 X108.000 Y67.718 F6000.000
G1 F1800
G1 X107.307 Y67.608 E2.75867
G1 X106.661 Y67.260 E2.79150
G1 X106.205 Y66.804 E2.82034
G1 X105.890 Y66.185 E2.85139
G1 X105.782 Y65.500 E2.88243
G1 X105.890 Y64.815 E2.91347
G1 X106.205 Y64.196 E2.94452
G1 X106.696 Y63.705 E2.97556
G1 X107.315 Y63.390 E3.00660
G1 X107.951 Y63.289 E3.03545
G1 X108.679 Y63.387 E3.06827
G1 X109.304 Y63.705 E3.09965
G1 X109.795 Y64.196 E3.13069
G1 X110.110 Y64.815 E3.16174
G1 X110.218 Y65.500 E3.19278
G1 X110.110 Y66.185 E3.22382
G1 X109.795 Y66.804 E3.25487
G1 X109.304 Y67.295 E3.28591
G1 X108.685 Y67.610 E3.31696
G1 X108.059 Y67.709 E3.34531
G1 X108.000 Y67.328 F6000.000
G1 F1800
G1 X107.432 Y67.238 E3.37101
G1 X106.894 Y66.947 E3.39838
G1 X106.521 Y66.574 E3.42197
G1 X106.262 Y66.065 E3.44755
G1 X106.172 Y65.500 E3.47313
G1 X106.262 Y64.935 E3.49871
G1 X106.521 Y64.426 E3.52429
G1 X106.926 Y64.021 E3.54986
G1 X107.435 Y63.762 E3.57545
G1 X107.956 Y63.679 E3.59903
G1 X108.562 Y63.760 E3.62639
G1 X109.074 Y64.021 E3.65210
G1 X109.479 Y64.426 E3.67768
G1 X109.738 Y64.935 E3.70326
G1 X109.828 Y65.500 E3.72884
G1 X109.738 Y66.065 E3.75442
G1 X109.479 Y66.574 E3.78000
G1 X109.074 Y66.979 E3.80557
G1 X108.565 Y67.238 E3.83116
G1 X108.059 Y67.318 E3.85405
G1 X107.800 Y67.674 F6000.000
G1 E1.85405 F1200.00000
G92 E0
G1 X108.000 Y53.944 F6000.000
G1 E2.00000 F1200.00000
G1 F1800
G1 X107.194 Y53.816 E2.03651
G1 X106.467 Y53.445 E2.07302
G1 X105.890 Y52.868 E2.10952
G1 X105.519 Y52.141 E2.14603
G1 X105.391 Y51.335 E2.18254
G1 X105.519 Y50.529 E2.21904
G1 X105.890 Y49.802 E2.25555
G1 X106.467 Y49.225 E2.29205
G1 X107.194 Y48.854 E2.32856
G1 X107.947 Y48.735 E2.36266
G1 X108.795 Y48.848 E2.40095
G1 X109.533 Y49.225 E2.43801
G1 X110.110 Y49.802 E2.47451
G1 X110.481 Y50.529 E2.51102
G1 X110.609 Y51.335 E2.54753
G1 X110.481 Y52.141 E2.58403
G1 X110.110 Y52.868 E2.62054
G1 X109.533 Y53.445 E2.65704
G1 X108.806 Y53.816 E2.69355
G1 X108.059 Y53.934 E2.72738
G1 X108.000 Y53.553 F6000.000
G1 F1800
G1 X107.315 Y53.445 E2.75842
G1 X106.696 Y53.130 E2.78947
G1 X106.205 Y52.639 E2.82050
G1 X105.890 Y52.020 E2.85155
G1 X105.782 Y51.335 E2.88259
G1 X105.890 Y50.650 E2.91363
G1 X106.205 Y50.031 E2.94468
G1 X106.696 Y49.540 E2.97572
G1 X107.315 Y49.225 E3.00677
G1 X107.951 Y49.124 E3.03561
G1 X108.679 Y49.222 E3.06843
G1 X109.304 Y49.540 E3.09982
G1 X109.795 Y50.031 E3.13085
G1 X110.110 Y50.650 E3.16190
G1 X110.218 Y51.335 E3.19294
G1 X110.110 Y52.020 E3.22398
G1 X109.795 Y52.639 E3.25503
G1 X109.304 Y53.130 E3.28607
G1 X108.685 Y53.445 E3.31712
G1 X108.059 Y53.544 E3.34547
G1 X108.000 Y53.163 F6000.000
G1 F1800
G1 X107.435 Y53.073 E3.37105
G1 X106.926 Y52.814 E3.39664
G1 X106.521 Y52.409 E3.42221
G1 X106.262 Y51.900 E3.44779
G1 X106.172 Y51.335 E3.47337
G1 X106.262 Y50.770 E3.49895
G1 X106.521 Y50.261 E3.52453
G1 X106.926 Y49.856 E3.55011
G1 X107.435 Y49.597 E3.57569
G1 X107.956 Y49.514 E3.59928
G1 X108.562 Y49.595 E3.62664
G1 X109.074 Y49.856 E3.65235
G1 X109.479 Y50.261 E3.67792
G1 X109.738 Y50.770 E3.70350
G1 X109.828 Y51.335 E3.72908
G1 X109.738 Y51.900 E3.75466
G1 X109.479 Y52.409 E3.78024
G1 X109.074 Y52.814 E3.80582
G1 X108.565 Y53.073 E3.83140
G1 X108.059 Y53.153 E3.85429
G1 X107.800 Y53.509 F6000.000
G1 E1.85429 F1200.00000
G92 E0
G1 X115.504 Y47.996 F6000.000
G1 E2.00000 F1200.00000
G1 F1800
G1 X115.504 Y63.074 E2.67442
G1 X114.919 Y63.306 E2.70257
G1 X114.411 Y63.675 E2.73065
G1 X114.011 Y64.158 E2.75873
G1 X113.743 Y64.726 E2.78681
G1 X113.626 Y65.343 E2.81488
G1 X113.665 Y65.969 E2.84296
G1 X113.859 Y66.566 E2.87103
G1 X114.195 Y67.096 E2.89911
G1 X114.653 Y67.526 E2.92719
G1 X115.203 Y67.828 E2.95527
G1 X115.811 Y67.984 E2.98334
G1 X116.266 Y67.984 E3.00371
G1 X118.808 Y79.933 E3.55012
G1 X118.917 Y80.621 E3.58127
G1 X118.982 Y81.309 E3.61219
G1 X119.003 Y82.000 E3.64311
G1 X118.995 Y82.272 E3.65528
G1 X118.205 Y81.633 E3.70071
G1 X117.432 Y81.336 E3.73776
G1 X116.576 Y81.312 E3.77605
G1 X115.840 Y81.509 E3.81014
G1 X115.156 Y81.953 E3.84665
G1 X114.642 Y82.588 E3.88316
G1 X114.349 Y83.350 E3.91967
G1 X114.307 Y84.165 E3.95617
G1 X114.518 Y84.953 E3.99268
G1 X114.962 Y85.638 E4.02918
G1 X115.597 Y86.151 E4.06569
G1 X116.359 Y86.444 E4.10220
G1 X117.174 Y86.486 E4.13871
G1 X117.962 Y86.275 E4.17521
G1 X118.398 Y85.992 E4.19846
G1 X116.266 Y96.016 E4.65684
G1 X115.811 Y96.016 E4.67720
G1 X115.203 Y96.172 E4.70528
G1 X114.653 Y96.474 E4.73336
G1 X114.207 Y96.893 E4.76073
G1 X113.942 Y97.282 E4.78178
G1 X113.789 Y97.609 E4.79793
G1 X113.641 Y98.186 E4.82459
G1 X113.641 Y98.814 E4.85267
G1 X113.797 Y99.422 E4.88075
G1 X114.099 Y99.972 E4.90882
G1 X114.529 Y100.430 E4.93690
G1 X115.059 Y100.766 E4.96497
G1 X115.504 Y100.910 E4.98590
G1 X115.504 Y116.004 E5.66103
G1 X100.496 Y116.004 E6.33231
G1 X100.496 Y100.910 E7.00743
G1 X100.941 Y100.766 E7.02836
G1 X101.471 Y100.430 E7.05644
G1 X101.901 Y99.972 E7.08451
G1 X102.203 Y99.422 E7.11259
G1 X102.359 Y98.814 E7.14067
G1 X102.359 Y98.186 E7.16875
G1 X102.211 Y97.609 E7.19541
G1 X102.058 Y97.282 E7.21156
G1 X101.793 Y96.893 E7.23261
G1 X101.347 Y96.474 E7.25997
G1 X100.797 Y96.172 E7.28805
G1 X100.189 Y96.016 E7.31613
G1 X99.734 Y96.016 E7.33650
G1 X97.192 Y84.067 E7.88291
G1 X97.083 Y83.379 E7.91406
G1 X97.018 Y82.691 E7.94498
G1 X96.997 Y82.000 E7.97590
G1 X97.005 Y81.728 E7.98807
G1 X97.795 Y82.367 E8.03349
G1 X98.556 Y82.660 E8.07000
G1 X99.372 Y82.702 E8.10651
G1 X100.160 Y82.491 E8.14301
G1 X100.844 Y82.047 E8.17952
G1 X101.358 Y81.412 E8.21603
G1 X101.651 Y80.650 E8.25253
G1 X101.693 Y79.835 E8.28904
G1 X101.482 Y79.047 E8.32555
