; generated by Slic3r 1.3.0 on 2021-03-06 at 11:49:05

; external perimeters extrusion width = 0.44mm (2.86mm^3/s)
; perimeters extrusion width = 0.56mm (4.14mm^3/s)
; infill extrusion width = 0.50mm (3.66mm^3/s)
; solid infill extrusion width = 0.56mm (3.10mm^3/s)
; top infill extrusion width = 0.45mm (2.44mm^3/s)

M107
;D3D:START:START
T0
M104 S215 T0

G21
G90
M107
T0
G28
G29
M109 T0 S215 T0
G0 F3000
M107
T0
G92 E0
G0 X0 Y149 Z0.1 F3600
G1 Y49 E6.5 F1200
G0 Z1
G92 E0
; Filament gcode

G21 ; set units to millimeters
G90 ; use absolute coordinates
M82 ; use absolute distances for extrusion
G92 E0
G1 Z0.300 F6000.000
G1 E-2.00000 F1200.00000
G92 E0
G1 Z0.800 F6000.000
G1 X64.830 Y64.455 F6000.000
G1 Z0.300 F6000.000
G1 E2.00000 F1200.00000
G1 F1800
G1 X65.689 Y63.689 E2.05148
G1 X66.605 Y62.993 E2.10293
G1 X67.120 Y62.650 E2.13062
G1 X68.113 Y62.069 E2.18207
G1 X68.587 Y61.828 E2.20585
G1 X69.640 Y61.365 E2.25731
G1 X70.221 Y61.151 E2.28499
G1 X71.308 Y60.823 E2.33578
G1 X72.446 Y60.574 E2.38790
G1 X73.586 Y60.418 E2.43935
G1 X74.116 Y60.376 E2.46314
G1 X75.266 Y60.352 E2.51458
G1 X76.414 Y60.418 E2.56604
G1 X77.029 Y60.491 E2.59373
G1 X78.161 Y60.695 E2.64518
G1 X79.274 Y60.987 E2.69663
G1 X79.779 Y61.151 E2.72040
G1 X80.851 Y61.569 E2.77184
G1 X81.887 Y62.069 E2.82332
G1 X82.428 Y62.372 E2.85104
G1 X83.395 Y62.993 E2.90246
G1 X84.311 Y63.689 E2.95391
G1 X84.715 Y64.034 E2.97770
G1 X85.545 Y64.830 E3.02914
G1 X86.311 Y65.689 E3.08061
G1 X86.694 Y66.175 E3.10829
G1 X87.350 Y67.120 E3.15974
G1 X87.931 Y68.113 E3.21119
G1 X88.172 Y68.587 E3.23498
G1 X88.635 Y69.640 E3.28643
G1 X88.849 Y70.221 E3.31411
G1 X89.181 Y71.322 E3.36556
G1 X89.426 Y72.446 E3.41703
G1 X89.582 Y73.586 E3.46847
G1 X89.624 Y74.116 E3.49226
G1 X89.648 Y75.266 E3.54371
G1 X89.582 Y76.414 E3.59517
G1 X89.509 Y77.029 E3.62286
G1 X89.305 Y78.161 E3.67430
G1 X89.013 Y79.274 E3.72576
G1 X88.849 Y79.779 E3.74954
G1 X88.431 Y80.851 E3.80097
G1 X87.931 Y81.887 E3.85245
G1 X87.628 Y82.427 E3.88014
G1 X87.007 Y83.395 E3.93158
G1 X86.311 Y84.311 E3.98303
G1 X85.966 Y84.715 E4.00682
G1 X85.170 Y85.546 E4.05827
G1 X84.311 Y86.311 E4.10973
G1 X83.825 Y86.694 E4.13741
G1 X82.880 Y87.350 E4.18886
G1 X81.887 Y87.931 E4.24031
G1 X81.413 Y88.172 E4.26410
G1 X80.360 Y88.635 E4.31555
G1 X79.779 Y88.849 E4.34324
G1 X78.678 Y89.181 E4.39469
G1 X77.554 Y89.426 E4.44614
G1 X76.414 Y89.582 E4.49760
G1 X75.884 Y89.624 E4.52138
G1 X74.734 Y89.648 E4.57283
G1 X73.586 Y89.582 E4.62429
G1 X72.446 Y89.426 E4.67573
G1 X71.839 Y89.305 E4.70342
G1 X70.726 Y89.013 E4.75488
G1 X70.221 Y88.849 E4.77866
G1 X69.150 Y88.431 E4.83008
G1 X68.113 Y87.931 E4.88157
G1 X67.573 Y87.628 E4.90925
G1 X66.605 Y87.007 E4.96071
G1 X65.689 Y86.311 E5.01216
G1 X65.285 Y85.966 E5.03594
G1 X64.455 Y85.170 E5.08739
G1 X63.689 Y84.311 E5.13885
G1 X63.306 Y83.825 E5.16653
G1 X62.650 Y82.880 E5.21798
G1 X62.365 Y82.415 E5.24239
G1 X61.828 Y81.413 E5.29322
G1 X61.365 Y80.360 E5.34467
G1 X61.151 Y79.779 E5.37237
G1 X60.823 Y78.692 E5.42315
G1 X60.574 Y77.554 E5.47527
G1 X60.418 Y76.414 E5.52672
G1 X60.376 Y75.884 E5.55050
G1 X60.352 Y74.734 E5.60195
G1 X60.418 Y73.586 E5.65341
G1 X60.491 Y72.971 E5.68112
G1 X60.695 Y71.839 E5.73254
G1 X60.987 Y70.726 E5.78400
G1 X61.151 Y70.221 E5.80778
G1 X61.568 Y69.150 E5.85919
G1 X62.069 Y68.113 E5.91069
G1 X62.372 Y67.573 E5.93838
G1 X62.993 Y66.605 E5.98983
G1 X63.689 Y65.689 E6.04128
G1 X64.034 Y65.285 E6.06506
G1 X64.788 Y64.497 E6.11380
G1 X65.092 Y64.738 F6000.000
G1 F1800
G1 X65.928 Y63.992 E6.16393
G1 X66.819 Y63.314 E6.21402
G1 X67.334 Y62.970 E6.24171
G1 X68.302 Y62.406 E6.29181
G1 X68.748 Y62.178 E6.31424
G1 X69.774 Y61.727 E6.36434
G1 X70.354 Y61.513 E6.39202
G1 X71.412 Y61.194 E6.44146
G1 X72.521 Y60.952 E6.49222
G1 X73.631 Y60.801 E6.54232
G1 X74.131 Y60.762 E6.56475
G1 X75.251 Y60.737 E6.61485
G1 X76.369 Y60.801 E6.66495
G1 X76.984 Y60.874 E6.69264
G1 X78.086 Y61.073 E6.74273
G1 X79.169 Y61.358 E6.79283
G1 X79.646 Y61.513 E6.81525
G1 X80.689 Y61.919 E6.86534
G1 X81.698 Y62.406 E6.91546
G1 X82.239 Y62.709 E6.94318
G1 X83.180 Y63.314 E6.99324
G1 X84.072 Y63.992 E7.04334
G1 X84.453 Y64.318 E7.06577
G1 X85.262 Y65.092 E7.11586
G1 X86.008 Y65.928 E7.16597
G1 X86.391 Y66.414 E7.19365
G1 X87.030 Y67.334 E7.24375
G1 X87.594 Y68.302 E7.29385
G1 X87.822 Y68.748 E7.31628
G1 X88.273 Y69.774 E7.36638
G1 X88.642 Y70.831 E7.41648
G1 X88.810 Y71.427 E7.44416
G1 X89.048 Y72.522 E7.49427
G1 X89.199 Y73.631 E7.54436
G1 X89.238 Y74.131 E7.56679
G1 X89.263 Y75.251 E7.61689
G1 X89.199 Y76.369 E7.66699
G1 X89.126 Y76.984 E7.69468
G1 X88.927 Y78.086 E7.74477
G1 X88.642 Y79.169 E7.79488
G1 X88.487 Y79.646 E7.81730
G1 X88.081 Y80.689 E7.86738
G1 X87.594 Y81.698 E7.91750
G1 X87.292 Y82.239 E7.94519
G1 X86.686 Y83.181 E7.99528
G1 X86.008 Y84.072 E8.04538
G1 X85.682 Y84.453 E8.06781
G1 X84.908 Y85.262 E8.11791
G1 X84.072 Y86.008 E8.16801
G1 X83.181 Y86.686 E8.21811
G1 X82.666 Y87.030 E8.24579
G1 X81.698 Y87.594 E8.29589
G1 X81.252 Y87.822 E8.31832
G1 X80.226 Y88.273 E8.36842
G1 X79.646 Y88.487 E8.39610
G1 X78.573 Y88.810 E8.44620
G1 X77.479 Y89.048 E8.49630
G1 X76.369 Y89.199 E8.54640
G1 X75.869 Y89.238 E8.56883
G1 X74.749 Y89.263 E8.61893
G1 X73.631 Y89.199 E8.66903
G1 X72.522 Y89.048 E8.71912
G1 X71.914 Y88.927 E8.74681
G1 X70.831 Y88.642 E8.79692
G1 X70.354 Y88.487 E8.81934
G1 X69.311 Y88.081 E8.86941
G1 X68.302 Y87.594 E8.91954
G1 X67.762 Y87.292 E8.94723
G1 X66.819 Y86.686 E8.99732
G1 X65.928 Y86.008 E9.04742
G1 X65.547 Y85.682 E9.06985
G1 X64.738 Y84.908 E9.11995
G1 X63.992 Y84.072 E9.17005
G1 X63.609 Y83.586 E9.19774
G1 X62.970 Y82.666 E9.24783
G1 X62.406 Y81.698 E9.29793
G1 X62.178 Y81.252 E9.32036
G1 X61.727 Y80.226 E9.37046
G1 X61.513 Y79.646 E9.39816
G1 X61.194 Y78.588 E9.44758
G1 X60.952 Y77.479 E9.49834
G1 X60.801 Y76.369 E9.54844
G1 X60.762 Y75.869 E9.57087
G1 X60.737 Y74.749 E9.62097
G1 X60.801 Y73.631 E9.67107
G1 X60.874 Y73.016 E9.69878
G1 X61.073 Y71.914 E9.74885
G1 X61.358 Y70.831 E9.79895
G1 X61.513 Y70.354 E9.82138
G1 X61.919 Y69.311 E9.87144
G1 X62.406 Y68.302 E9.92158
G1 X62.708 Y67.761 E9.94927
G1 X63.314 Y66.819 E9.99937
G1 X63.992 Y65.928 E10.04946
G1 X64.318 Y65.547 E10.07189
G1 X65.049 Y64.780 E10.11928
G1 E8.11928 F1200.00000
G92 E0
G1 Z0.800 F6000.000
G1 X77.225 Y78.854 F6000.000
G1 Z0.300 F6000.000
G1 E2.00000 F1200.00000
G1 F1800
G1 X72.775 Y78.854 E2.19906
G1 X70.550 Y75.000 E2.39813
G1 X72.775 Y71.146 E2.59719
G1 X77.225 Y71.146 E2.79625
G1 X79.450 Y75.000 E2.99532
G1 X77.255 Y78.802 E3.19170
G1 X77.003 Y78.468 F6000.000
G1 F1800
G1 X72.997 Y78.468 E3.37084
G1 X70.995 Y75.000 E3.54999
G1 X72.997 Y71.532 E3.72914
G1 X77.003 Y71.532 E3.90828
G1 X79.005 Y75.000 E4.08743
G1 X77.033 Y78.417 E4.26389
G1 X76.780 Y78.083 F6000.000
G1 F1800
G1 X73.220 Y78.083 E4.42312
G1 X71.440 Y75.000 E4.58235
G1 X73.220 Y71.917 E4.74158
G1 X76.780 Y71.917 E4.90081
G1 X78.560 Y75.000 E5.06004
G1 X76.810 Y78.031 E5.21659
G1 X76.780 Y78.483 F6000.000
G1 E3.21659 F1200.00000
G92 E0
G1 Z0.800 F6000.000
G1 X78.597 Y80.870 F6000.000
G1 Z0.300 F6000.000
G1 E2.00000 F1200.00000
G1 F1800
G1 X78.126 Y81.134 E2.02418
G1 X77.635 Y81.361 E2.04836
G1 X77.128 Y81.548 E2.07254
G1 X76.607 Y81.695 E2.09672
G1 X76.077 Y81.800 E2.12090
G1 X75.540 Y81.864 E2.14508
G1 X75.000 Y81.885 E2.16926
G1 X74.460 Y81.864 E2.19344
G1 X73.923 Y81.800 E2.21763
G1 X73.393 Y81.695 E2.24181
G1 X72.872 Y81.548 E2.26599
G1 X72.365 Y81.361 E2.29017
G1 X71.874 Y81.134 E2.31435
G1 X71.403 Y80.870 E2.33853
G1 X70.953 Y80.570 E2.36271
G1 X70.529 Y80.235 E2.38689
G1 X70.132 Y79.868 E2.41107
G1 X69.765 Y79.471 E2.43525
G1 X69.430 Y79.047 E2.45943
G1 X69.130 Y78.597 E2.48361
G1 X68.866 Y78.126 E2.50779
G1 X68.639 Y77.635 E2.53197
G1 X68.452 Y77.128 E2.55615
G1 X68.305 Y76.607 E2.58034
G1 X68.200 Y76.077 E2.60452
G1 X68.136 Y75.540 E2.62870
G1 X68.115 Y75.000 E2.65288
G1 X68.136 Y74.460 E2.67706
G1 X68.200 Y73.923 E2.70124
G1 X68.305 Y73.393 E2.72542
G1 X68.452 Y72.872 E2.74960
G1 X68.639 Y72.365 E2.77378
G1 X68.866 Y71.874 E2.79796
G1 X69.130 Y71.403 E2.82214
G1 X69.430 Y70.953 E2.84632
G1 X69.765 Y70.529 E2.87050
G1 X70.132 Y70.132 E2.89468
G1 X70.529 Y69.765 E2.91886
G1 X70.953 Y69.430 E2.94304
G1 X71.403 Y69.130 E2.96722
G1 X71.874 Y68.866 E2.99141
G1 X72.365 Y68.639 E3.01559
G1 X72.872 Y68.452 E3.03977
G1 X73.393 Y68.305 E3.06395
G1 X73.923 Y68.200 E3.08813
G1 X74.460 Y68.136 E3.11231
G1 X75.000 Y68.115 E3.13649
G1 X75.526 Y68.136 E3.16005
G1 X76.078 Y68.200 E3.18489
G1 X76.607 Y68.305 E3.20903
G1 X77.128 Y68.452 E3.23321
G1 X77.635 Y68.639 E3.25739
G1 X78.126 Y68.866 E3.28157
G1 X78.597 Y69.130 E3.30575
G1 X79.047 Y69.430 E3.32993
G1 X79.471 Y69.765 E3.35411
G1 X79.868 Y70.132 E3.37829
G1 X80.235 Y70.529 E3.40247
G1 X80.570 Y70.953 E3.42665
G1 X80.870 Y71.403 E3.45084
G1 X81.134 Y71.874 E3.47502
G1 X81.361 Y72.365 E3.49920
G1 X81.548 Y72.872 E3.52338
G1 X81.695 Y73.393 E3.54756
G1 X81.800 Y73.923 E3.57174
G1 X81.864 Y74.460 E3.59592
G1 X81.885 Y75.000 E3.62010
G1 X81.864 Y75.540 E3.64428
G1 X81.800 Y76.077 E3.66846
G1 X81.695 Y76.607 E3.69264
G1 X81.548 Y77.128 E3.71682
G1 X81.361 Y77.635 E3.74100
G1 X81.134 Y78.126 E3.76518
G1 X80.870 Y78.597 E3.78936
G1 X80.570 Y79.047 E3.81354
G1 X80.235 Y79.471 E3.83772
G1 X79.868 Y79.868 E3.86191
G1 X79.471 Y80.235 E3.88609
G1 X79.047 Y80.570 E3.91027
G1 X78.647 Y80.837 E3.93176
G1 X78.799 Y81.199 F6000.000
G1 F1800
G1 X78.301 Y81.478 E3.95730
G1 X77.782 Y81.717 E3.98284
G1 X77.247 Y81.915 E4.00837
G1 X76.697 Y82.070 E4.03391
G1 X76.137 Y82.181 E4.05944
G1 X75.570 Y82.248 E4.08498
G1 X75.000 Y82.271 E4.11052
G1 X74.430 Y82.248 E4.13605
G1 X73.863 Y82.181 E4.16159
G1 X73.303 Y82.070 E4.18712
G1 X72.753 Y81.915 E4.21266
G1 X72.218 Y81.717 E4.23820
G1 X71.699 Y81.478 E4.26373
G1 X71.201 Y81.199 E4.28927
G1 X70.726 Y80.882 E4.31480
G1 X70.278 Y80.529 E4.34034
G1 X69.859 Y80.141 E4.36588
G1 X69.471 Y79.722 E4.39141
G1 X69.118 Y79.274 E4.41695
G1 X68.801 Y78.799 E4.44248
G1 X68.522 Y78.301 E4.46802
G1 X68.283 Y77.782 E4.49356
G1 X68.085 Y77.247 E4.51909
G1 X67.930 Y76.697 E4.54463
G1 X67.819 Y76.137 E4.57016
G1 X67.752 Y75.570 E4.59570
G1 X67.729 Y75.000 E4.62124
G1 X67.752 Y74.430 E4.64677
G1 X67.819 Y73.863 E4.67231
G1 X67.930 Y73.303 E4.69784
G1 X68.085 Y72.753 E4.72338
G1 X68.283 Y72.218 E4.74892
G1 X68.522 Y71.699 E4.77445
G1 X68.801 Y71.201 E4.79999
G1 X69.118 Y70.726 E4.82552
G1 X69.471 Y70.278 E4.85106
G1 X69.859 Y69.859 E4.87660
G1 X70.278 Y69.471 E4.90213
G1 X70.726 Y69.118 E4.92767
G1 X71.201 Y68.801 E4.95321
G1 X71.699 Y68.522 E4.97874
G1 X72.218 Y68.283 E5.00428
G1 X72.753 Y68.085 E5.02981
G1 X73.303 Y67.930 E5.05535
G1 X73.863 Y67.819 E5.08089
G1 X74.430 Y67.752 E5.10642
G1 X75.000 Y67.729 E5.13196
G1 X75.556 Y67.751 E5.15686
G1 X76.138 Y67.819 E5.18305
G1 X76.697 Y67.930 E5.20856
G1 X77.247 Y68.085 E5.23410
G1 X77.782 Y68.283 E5.25964
G1 X78.301 Y68.522 E5.28517
G1 X78.799 Y68.801 E5.31071
G1 X79.274 Y69.118 E5.33624
G1 X79.722 Y69.471 E5.36178
G1 X80.141 Y69.859 E5.38732
G1 X80.529 Y70.278 E5.41285
G1 X80.882 Y70.726 E5.43839
G1 X81.199 Y71.201 E5.46392
G1 X81.478 Y71.699 E5.48946
G1 X81.717 Y72.218 E5.51500
G1 X81.915 Y72.753 E5.54053
G1 X82.070 Y73.303 E5.56607
G1 X82.181 Y73.863 E5.59160
G1 X82.248 Y74.430 E5.61714
G1 X82.271 Y75.000 E5.64268
G1 X82.248 Y75.570 E5.66821
G1 X82.181 Y76.137 E5.69375
G1 X82.070 Y76.697 E5.71928
G1 X81.915 Y77.247 E5.74482
G1 X81.717 Y77.782 E5.77036
G1 X81.478 Y78.301 E5.79589
G1 X81.199 Y78.799 E5.82143
G1 X80.882 Y79.274 E5.84696
G1 X80.529 Y79.722 E5.87250
G1 X80.141 Y80.141 E5.89804
G1 X79.722 Y80.529 E5.92357
G1 X79.274 Y80.882 E5.94911
G1 X78.849 Y81.166 E5.97196
G1 X79.001 Y81.528 F6000.000
G1 F1800
G1 X78.476 Y81.822 E5.99885
G1 X77.930 Y82.074 E6.02574
G1 X77.366 Y82.282 E6.05263
G1 X76.787 Y82.445 E6.07953
G1 X76.198 Y82.562 E6.10642
G1 X75.601 Y82.633 E6.13331
G1 X75.000 Y82.657 E6.16020
G1 X74.399 Y82.633 E6.18709
G1 X73.802 Y82.562 E6.21398
G1 X73.213 Y82.445 E6.24087
G1 X72.634 Y82.282 E6.26777
G1 X72.070 Y82.074 E6.29466
G1 X71.524 Y81.822 E6.32155
G1 X70.999 Y81.528 E6.34844
G1 X70.500 Y81.194 E6.37533
G1 X70.027 Y80.822 E6.40222
G1 X69.586 Y80.414 E6.42911
G1 X69.178 Y79.973 E6.45601
G1 X68.806 Y79.500 E6.48290
G1 X68.472 Y79.001 E6.50979
G1 X68.178 Y78.476 E6.53668
G1 X67.926 Y77.930 E6.56357
G1 X67.718 Y77.366 E6.59046
G1 X67.555 Y76.787 E6.61736
G1 X67.438 Y76.198 E6.64425
G1 X67.367 Y75.601 E6.67114
G1 X67.343 Y75.000 E6.69803
G1 X67.367 Y74.399 E6.72492
G1 X67.438 Y73.802 E6.75181
G1 X67.555 Y73.213 E6.77870
G1 X67.718 Y72.634 E6.80559
G1 X67.926 Y72.070 E6.83249
G1 X68.178 Y71.524 E6.85938
G1 X68.472 Y70.999 E6.88627
G1 X68.806 Y70.500 E6.91316
G1 X69.178 Y70.027 E6.94005
G1 X69.586 Y69.586 E6.96694
G1 X70.027 Y69.178 E6.99384
G1 X70.500 Y68.806 E7.02073
G1 X70.999 Y68.472 E7.04762
G1 X71.524 Y68.178 E7.07451
G1 X72.070 Y67.926 E7.10140
G1 X72.634 Y67.718 E7.12829
G1 X73.213 Y67.555 E7.15518
G1 X73.802 Y67.438 E7.18207
G1 X74.399 Y67.367 E7.20897
G1 X75.000 Y67.343 E7.23586
G1 X75.586 Y67.366 E7.26210
G1 X76.198 Y67.438 E7.28965
G1 X76.787 Y67.555 E7.31653
G1 X77.366 Y67.718 E7.34342
G1 X77.930 Y67.926 E7.37031
G1 X78.476 Y68.178 E7.39720
G1 X79.001 Y68.472 E7.42410
G1 X79.500 Y68.806 E7.45099
G1 X79.973 Y69.178 E7.47788
G1 X80.414 Y69.586 E7.50477
G1 X80.822 Y70.027 E7.53166
G1 X81.194 Y70.500 E7.55855
G1 X81.528 Y70.999 E7.58544
G1 X81.822 Y71.524 E7.61234
G1 X82.074 Y72.070 E7.63923
G1 X82.282 Y72.634 E7.66612
G1 X82.445 Y73.213 E7.69301
G1 X82.562 Y73.802 E7.71990
G1 X82.633 Y74.399 E7.74679
G1 X82.657 Y75.000 E7.77368
G1 X82.633 Y75.601 E7.80058
G1 X82.562 Y76.198 E7.82747
G1 X82.445 Y76.787 E7.85436
G1 X82.282 Y77.366 E7.88125
G1 X82.074 Y77.930 E7.90814
G1 X81.822 Y78.476 E7.93503
G1 X81.528 Y79.001 E7.96192
G1 X81.194 Y79.500 E7.98882
G1 X80.822 Y79.973 E8.01571
G1 X80.414 Y80.414 E8.04260
G1 X79.973 Y80.822 E8.06949
G1 X79.500 Y81.194 E8.09638
G1 X79.050 Y81.495 E8.12059
G1 X78.649 Y81.337 F6000.000
G1 X79.280 Y79.911 F6000.000
G1 F1800
G1 X79.911 Y79.280 E8.16134
G1 X80.255 Y78.907 E8.18454
G1 X80.571 Y78.506 E8.20785
G1 X80.855 Y78.082 E8.23117
G1 X81.196 Y77.438 E8.26448
G1 X77.438 Y81.196 E8.50729
G1 X77.173 Y81.318 E8.52059
G1 X76.538 Y81.539 E8.55132
G1 X81.539 Y76.538 E8.87440
G1 X81.633 Y76.204 E8.89028
G1 X81.712 Y75.808 E8.90870
G1 X75.808 Y81.712 E9.29013
G1 X75.169 Y81.794 E9.31956
G1 X81.794 Y75.169 E9.74757
G1 X81.809 Y74.597 E9.77373
G1 X77.519 Y78.886 E10.05089
G1 X78.280 Y77.568 E10.12041
G1 X81.780 Y74.069 E10.34652
G1 X81.714 Y73.577 E10.36917
G1 X79.041 Y76.251 E10.54188
G1 X79.582 Y75.314 E10.59131
G1 X79.523 Y75.212 E10.59670
G1 X81.618 Y73.117 E10.73205
G1 X81.496 Y72.682 E10.75268
G1 X79.319 Y74.858 E10.89329
G1 X79.115 Y74.505 E10.91192
G1 X81.346 Y72.275 E11.05602
G1 X81.175 Y71.889 E11.07531
G1 X78.911 Y74.152 E11.22153
G1 X78.708 Y73.799 E11.24016
G1 X80.984 Y71.522 E11.38727
G1 X80.776 Y71.173 E11.40583
G1 X78.504 Y73.446 E11.55266
G1 X78.300 Y73.093 E11.57129
G1 X80.551 Y70.841 E11.71676
G1 X80.306 Y70.530 E11.73488
G1 X78.096 Y72.740 E11.87767
G1 X77.892 Y72.386 E11.89630
G1 X80.043 Y70.236 E12.03526
G1 X79.909 Y70.091 E12.04426
G1 X79.764 Y69.957 E12.05326
G1 X77.688 Y72.033 E12.18740
G1 X77.484 Y71.680 E12.20603
G1 X79.470 Y69.694 E12.33435
G1 X79.159 Y69.449 E12.35247
G1 X77.280 Y71.327 E12.47383
G1 X77.134 Y71.074 E12.48719
G1 X76.977 Y71.074 E12.49439
G1 X78.827 Y69.224 E12.61393
G1 X78.478 Y69.016 E12.63249
G1 X76.420 Y71.074 E12.76548
G1 X75.863 Y71.074 E12.79093
G1 X78.111 Y68.825 E12.93620
G1 X77.725 Y68.654 E12.95549
G1 X75.306 Y71.074 E13.11182
G1 X74.749 Y71.074 E13.13727
G1 X77.318 Y68.504 E13.30327
G1 X76.883 Y68.382 E13.32390
G1 X74.192 Y71.074 E13.49782
G1 X73.635 Y71.074 E13.52327
G1 X76.423 Y68.286 E13.70341
G1 X75.930 Y68.221 E13.72608
G1 X73.078 Y71.074 E13.91041
G1 X72.521 Y71.074 E13.93586
G1 X75.403 Y68.191 E14.12212
G1 X74.831 Y68.206 E14.14828
G1 X68.206 Y74.831 E14.57629
G1 X68.288 Y74.192 E14.60572
G1 X74.192 Y68.288 E14.98715
G1 X73.796 Y68.367 E15.00557
G1 X73.462 Y68.461 E15.02145
G1 X68.461 Y73.462 E15.34453
