; generated by Slic3r 1.3.1-dev (Build (Unknown revision)) on 2020-06-18 at 22:16:14

; external perimeters extrusion width = 0.44mm (3.57mm^3/s)
; perimeters extrusion width = 0.56mm (5.17mm^3/s)
; infill extrusion width = 0.50mm (5.48mm^3/s)
; solid infill extrusion width = 0.56mm (3.62mm^3/s)
; top infill extrusion width = 0.56mm (2.07mm^3/s)

M107
G92 E0
;D3D:START:START
T0
M104 S215 T0

G21
G90
M107
T0
G28
G29
M109 T0 S215 T0
G0 F3000
M107
T0
G92 E0
G0 X0 Y149 Z0.1 F3600
G1 Y49 E6.5 F1200
G0 Z1
G92 E0
; Filament gcode

G21 ; set units to millimeters
G90 ; use absolute coordinates
M82 ; use absolute distances for extrusion
G92 E0
G1 E-1.00000 F1200.00000
G92 E0
G1 Z0.200 F6000.000
G1 X11.301 Y66.421 F6000.000
G1 E1.00000 F1200.00000
G1 F1800.000
G1 X14.272 Y65.907 E1.05930
G1 X17.744 Y65.444 E1.12818
G1 X21.579 Y65.040 E1.20403
G1 X26.198 Y64.655 E1.29518
G1 X31.154 Y64.332 E1.39285
G1 X36.565 Y64.059 E1.49939
G1 X42.400 Y63.837 E1.61424
G1 X48.628 Y63.669 E1.73675
G1 X55.210 Y63.553 E1.86622
G1 X62.059 Y63.490 E2.00093
G1 X76.684 Y63.514 E2.28854
G1 X84.274 Y63.596 E2.43781
G1 X92.003 Y63.720 E2.58984
G1 X99.800 Y63.880 E2.74319
G1 X107.694 Y64.075 E2.89850
G1 X115.539 Y64.298 E3.05284
G1 X123.356 Y64.545 E3.20664
G1 X131.093 Y64.812 E3.35888
G1 X142.767 Y65.257 E3.58864
G1 X144.989 Y65.742 E3.63336
G1 X146.908 Y66.962 E3.67808
G1 X148.291 Y68.767 E3.72281
G1 X149.023 Y71.766 E3.78352
G1 X149.023 Y78.234 E3.91072
G1 X148.626 Y80.473 E3.95544
G1 X147.484 Y82.439 E4.00017
G1 X145.735 Y83.893 E4.04489
G1 X142.767 Y84.743 E4.10560
G1 X131.093 Y85.188 E4.33536
G1 X123.356 Y85.455 E4.48760
G1 X115.539 Y85.702 E4.64141
G1 X107.694 Y85.925 E4.79574
G1 X99.826 Y86.119 E4.95053
G1 X92.003 Y86.280 E5.10440
G1 X84.240 Y86.404 E5.25710
G1 X76.684 Y86.486 E5.40571
G1 X69.280 Y86.522 E5.55131
G1 X62.108 Y86.510 E5.69236
G1 X55.210 Y86.447 E5.82803
G1 X48.628 Y86.331 E5.95749
G1 X42.400 Y86.163 E6.08000
G1 X36.514 Y85.938 E6.19586
G1 X31.154 Y85.668 E6.30139
G1 X26.198 Y85.345 E6.39906
G1 X21.722 Y84.974 E6.48740
G1 X17.744 Y84.556 E6.56607
G1 X14.018 Y84.053 E6.64000
G1 X10.922 Y83.501 E6.70185
G1 X8.791 Y82.997 E6.74491
G1 X8.160 Y82.813 E6.75783
G1 X6.629 Y82.283 E6.78971
G1 X5.410 Y81.714 E6.81616
G1 X4.487 Y81.161 E6.83732
G1 X2.771 Y79.669 E6.88204
G1 X2.097 Y78.655 E6.90597
G1 X1.789 Y78.081 E6.91879
G1 X1.080 Y75.921 E6.96351
G1 X1.156 Y73.648 E7.00823
G1 X1.789 Y71.919 E7.04444
G1 X2.097 Y71.345 E7.05726
G1 X3.506 Y69.560 E7.10198
G1 X4.487 Y68.839 E7.12592
G1 X5.410 Y68.286 E7.14708
G1 X6.629 Y67.717 E7.17352
G1 X8.160 Y67.187 E7.20540
G1 X8.791 Y67.003 E7.21832
G1 X11.242 Y66.433 E7.26781
G1 X11.345 Y66.675 F6000.000
G1 F1800.000
G1 X14.306 Y66.162 E7.32691
G1 X17.770 Y65.700 E7.39564
G1 X21.606 Y65.296 E7.47150
G1 X26.215 Y64.912 E7.56245
G1 X31.167 Y64.589 E7.66004
G1 X36.575 Y64.316 E7.76652
G1 X42.407 Y64.094 E7.88131
G1 X48.632 Y63.926 E8.00377
G1 X55.212 Y63.810 E8.13320
G1 X62.062 Y63.747 E8.26791
G1 X76.681 Y63.771 E8.55542
G1 X84.270 Y63.853 E8.70466
G1 X91.998 Y63.977 E8.85667
G1 X99.794 Y64.137 E9.01002
G1 X107.687 Y64.332 E9.16529
G1 X115.532 Y64.555 E9.31963
G1 X123.348 Y64.802 E9.47341
G1 X131.083 Y65.069 E9.62563
G1 X142.757 Y65.514 E9.85537
G1 X144.932 Y65.997 E9.89920
G1 X146.800 Y67.212 E9.94302
G1 X148.124 Y69.005 E9.98684
G1 X148.766 Y71.766 E10.04259
G1 X148.766 Y78.234 E10.16979
G1 X148.369 Y80.427 E10.21362
G1 X147.229 Y82.341 E10.25744
G1 X145.490 Y83.735 E10.30127
G1 X142.757 Y84.486 E10.35702
G1 X131.083 Y84.931 E10.58676
G1 X123.348 Y85.198 E10.73898
G1 X115.552 Y85.445 E10.89236
G1 X107.687 Y85.668 E11.04710
G1 X99.820 Y85.862 E11.20186
G1 X91.998 Y86.023 E11.35572
G1 X84.237 Y86.147 E11.50837
G1 X76.681 Y86.229 E11.65697
G1 X69.279 Y86.265 E11.80254
G1 X62.108 Y86.253 E11.94357
G1 X55.212 Y86.190 E12.07919
G1 X48.632 Y86.074 E12.20862
G1 X42.407 Y85.906 E12.33108
G1 X36.524 Y85.682 E12.44688
G1 X31.167 Y85.411 E12.55235
G1 X26.215 Y85.088 E12.64994
G1 X21.743 Y84.717 E12.73819
G1 X17.770 Y84.300 E12.81675
G1 X14.062 Y83.800 E12.89034
G1 X10.981 Y83.251 E12.95188
G1 X8.850 Y82.746 E12.99495
G1 X8.244 Y82.570 E13.00736
G1 X6.713 Y82.040 E13.03924
G1 X5.542 Y81.494 E13.06464
G1 X4.619 Y80.941 E13.08580
G1 X2.943 Y79.473 E13.12962
G1 X2.324 Y78.534 E13.15174
G1 X2.016 Y77.960 E13.16455
G1 X1.328 Y75.840 E13.20838
G1 X1.427 Y73.614 E13.25220
G1 X2.016 Y72.040 E13.28524
G1 X2.324 Y71.466 E13.29805
G1 X3.711 Y69.722 E13.34188
G1 X4.619 Y69.059 E13.36399
G1 X5.542 Y68.506 E13.38515
G1 X6.713 Y67.960 E13.41056
G1 X8.244 Y67.430 E13.44243
G1 X8.850 Y67.254 E13.45484
G1 X11.286 Y66.687 E13.50403
G1 E12.50403 F1200.00000
G92 E0
G1 X109.841 Y77.650 F6000.000
G1 E1.00000 F1200.00000
G1 F1800.000
G1 X109.841 Y72.350 E1.10423
G1 X125.141 Y72.350 E1.40512
G1 X125.141 Y77.650 E1.50935
G1 X109.901 Y77.650 E1.80907
G1 E0.80907 F1200.00000
G92 E0
G1 X45.141 Y77.650 F6000.000
G1 E1.00000 F1200.00000
G1 F1800.000
G1 X29.841 Y77.650 E1.30089
G1 X29.841 Y72.350 E1.40512
G1 X45.141 Y72.350 E1.70602
G1 X45.141 Y77.590 E1.80907
G1 E0.80907 F1200.00000
G92 E0
G1 X142.211 Y78.095 F6000.000
G1 E1.00000 F1200.00000
G1 F1800.000
G1 X130.845 Y78.528 E1.22368
G1 X115.350 Y79.041 E1.52858
G1 X107.506 Y79.263 E1.68290
G1 X99.662 Y79.457 E1.83721
G1 X91.867 Y79.618 E1.99054
G1 X84.168 Y79.741 E2.14197
G1 X76.613 Y79.822 E2.29056
G1 X69.248 Y79.858 E2.43539
G1 X62.120 Y79.846 E2.57557
G1 X55.272 Y79.783 E2.71026
G1 X48.746 Y79.668 E2.83862
G1 X42.582 Y79.501 E2.95988
G1 X36.769 Y79.279 E3.07429
G1 X31.492 Y79.012 E3.17819
G1 X26.634 Y78.695 E3.27393
G1 X22.276 Y78.332 E3.35994
G1 X18.444 Y77.929 E3.43572
G1 X15.162 Y77.488 E3.50084
G1 X12.452 Y77.015 E3.55494
G1 X10.333 Y76.513 E3.59777
G1 X8.823 Y75.991 E3.62918
G1 X7.949 Y75.467 E3.64922
G1 X7.699 Y75.000 E3.65964
G1 X7.949 Y74.533 E3.67006
G1 X8.823 Y74.009 E3.69010
G1 X10.333 Y73.487 E3.72152
G1 X12.452 Y72.985 E3.76434
G1 X15.162 Y72.512 E3.81844
G1 X18.444 Y72.071 E3.88356
G1 X22.276 Y71.668 E3.95934
G1 X26.634 Y71.305 E4.04535
G1 X31.492 Y70.988 E4.14109
G1 X36.819 Y70.718 E4.24598
G1 X42.582 Y70.499 E4.35940
G1 X48.746 Y70.332 E4.48066
G1 X55.272 Y70.217 E4.60902
G1 X62.120 Y70.154 E4.74370
G1 X76.613 Y70.178 E5.02873
G1 X84.168 Y70.259 E5.17731
G1 X91.867 Y70.382 E5.32874
G1 X99.662 Y70.543 E5.48207
G1 X107.506 Y70.737 E5.63638
G1 X115.350 Y70.959 E5.79070
G1 X123.145 Y71.206 E5.94408
G1 X130.845 Y71.472 E6.09560
G1 X142.211 Y71.905 E6.31928
G1 X142.080 Y72.072 E6.32345
G1 X141.423 Y73.987 E6.36328
G1 X141.423 Y76.013 E6.40310
G1 X142.080 Y77.928 E6.44293
G1 X142.174 Y78.048 E6.44592
G1 X141.783 Y78.009 F6000.000
G1 F1800.000
G1 X141.783 Y77.700 E6.45200
G1 X141.526 Y76.950 E6.46760
G1 X141.526 Y78.018 E6.48863
G1 X141.268 Y78.028 E6.49370
G1 X141.268 Y76.200 E6.52968
G1 E5.52968 F1200.00000
G92 E0
G1 X141.783 Y72.300 F6000.000
G1 E1.00000 F1200.00000
G1 F1800.000
G1 X141.783 Y71.991 E1.00608
G1 X141.526 Y71.982 E1.01115
G1 X141.526 Y73.050 E1.03217
G1 X141.268 Y73.800 E1.04778
G1 X141.268 Y71.972 E1.08376
G1 X141.011 Y71.962 E1.08883
G1 X141.011 Y78.038 E1.20841
G1 X140.754 Y78.048 E1.21348
G1 X140.754 Y71.952 E1.33345
G1 X140.497 Y71.942 E1.33852
G1 X140.497 Y78.057 E1.45888
G1 X140.239 Y78.067 E1.46395
G1 X140.239 Y71.933 E1.58469
G1 X139.982 Y71.923 E1.58976
G1 X139.982 Y78.077 E1.71089
G1 X139.725 Y78.087 E1.71596
G1 X139.725 Y71.913 E1.83747
G1 X139.467 Y71.903 E1.84254
G1 X139.467 Y78.097 E1.96444
G1 X139.210 Y78.106 E1.96951
G1 X139.210 Y71.894 E2.09180
G1 X138.953 Y71.884 E2.09686
G1 X138.953 Y78.116 E2.21954
G1 X138.696 Y78.126 E2.22460
G1 X138.696 Y71.874 E2.34766
G1 X138.438 Y71.864 E2.35273
G1 X138.438 Y78.136 E2.47617
G1 X138.181 Y78.146 E2.48124
G1 X138.181 Y71.854 E2.60507
G1 X137.924 Y71.845 E2.61014
G1 X137.924 Y78.155 E2.73435
G1 X137.666 Y78.165 E2.73942
G1 X137.666 Y71.835 E2.86402
G1 X137.409 Y71.825 E2.86909
G1 X137.409 Y78.175 E2.99407
G1 X137.152 Y78.185 E2.99914
G1 X137.152 Y71.815 E3.12451
G1 X136.894 Y71.805 E3.12958
G1 X136.894 Y78.195 E3.25534
G1 X136.637 Y78.204 E3.26040
G1 X136.637 Y71.796 E3.38655
G1 X136.380 Y71.786 E3.39161
G1 X136.380 Y78.214 E3.51814
G1 X136.123 Y78.224 E3.52321
G1 X136.123 Y71.776 E3.65012
G1 X135.865 Y71.766 E3.65519
G1 X135.865 Y78.234 E3.78249
G1 X135.608 Y78.244 E3.78756
G1 X135.608 Y71.756 E3.91524
G1 X135.351 Y71.747 E3.92031
G1 X135.351 Y78.253 E4.04838
G1 X135.093 Y78.263 E4.05345
G1 X135.093 Y71.737 E4.18190
G1 X134.836 Y71.727 E4.18697
G1 X134.836 Y78.273 E4.31581
G1 X134.579 Y78.283 E4.32088
G1 X134.579 Y71.717 E4.45011
G1 X134.322 Y71.707 E4.45518
G1 X134.322 Y78.293 E4.58479
G1 X134.064 Y78.302 E4.58986
G1 X134.064 Y71.698 E4.71986
G1 X133.807 Y71.688 E4.72492
G1 X133.807 Y78.312 E4.85531
G1 X133.550 Y78.322 E4.86038
G1 X133.550 Y71.678 E4.99115
G1 X133.292 Y71.668 E4.99621
G1 X133.292 Y78.332 E5.12737
G1 X133.035 Y78.342 E5.13244
G1 X133.035 Y71.658 E5.26398
G1 X132.778 Y71.649 E5.26905
G1 X132.778 Y78.351 E5.40097
G1 X132.521 Y78.361 E5.40604
G1 X132.521 Y71.639 E5.53835
G1 X132.263 Y71.629 E5.54342
G1 X132.263 Y78.371 E5.67612
G1 X132.006 Y78.381 E5.68119
G1 X132.006 Y71.619 E5.81427
G1 X131.749 Y71.609 E5.81934
G1 X131.749 Y78.391 E5.95281
G1 X131.491 Y78.400 E5.95787
G1 X131.491 Y71.600 E6.09173
G1 X131.234 Y71.590 E6.09680
G1 X131.234 Y78.410 E6.23104
G1 X130.977 Y78.420 E6.23610
G1 X130.977 Y71.580 E6.37073
G1 X130.719 Y71.571 E6.37580
G1 X130.719 Y78.429 E6.51079
G1 X130.462 Y78.438 E6.51586
G1 X130.462 Y71.562 E6.65119
G1 X130.205 Y71.553 E6.65626
G1 X130.205 Y78.446 E6.79194
G1 X129.948 Y78.455 E6.79700
G1 X129.948 Y71.544 E6.93302
G1 X129.690 Y71.535 E6.93809
G1 X129.690 Y78.463 E7.07445
G1 X129.433 Y78.472 E7.07952
G1 X129.433 Y71.526 E7.21622
G1 X129.176 Y71.517 E7.22129
G1 X129.176 Y78.480 E7.35834
G1 X128.918 Y78.489 E7.36340
G1 X128.918 Y71.508 E7.50079
G1 X128.661 Y71.500 E7.50586
G1 X128.661 Y78.497 E7.64359
G1 X128.404 Y78.506 E7.64866
G1 X128.404 Y71.491 E7.78674
G1 X128.147 Y71.482 E7.79180
G1 X128.147 Y78.514 E7.93022
G1 X127.889 Y78.523 E7.93529
G1 X127.889 Y71.473 E8.07405
G1 X127.632 Y71.464 E8.07912
G1 X127.632 Y78.531 E8.21822
G1 X127.375 Y78.540 E8.22329
G1 X127.375 Y71.455 E8.36273
G1 X127.117 Y71.446 E8.36780
G1 X127.117 Y78.548 E8.50759
G1 X126.860 Y78.557 E8.51265
G1 X126.860 Y71.437 E8.65278
G1 X126.603 Y71.428 E8.65785
G1 X126.603 Y78.565 E8.79832
G1 X126.345 Y78.574 E8.80339
G1 X126.345 Y71.420 E8.94421
G1 X126.088 Y71.411 E8.94927
G1 X126.088 Y78.582 E9.09043
G1 X125.831 Y78.591 E9.09550
G1 X125.831 Y71.402 E9.23700
G1 X125.574 Y71.393 E9.24207
G1 X125.574 Y78.599 E9.38391
G1 X125.316 Y78.608 E9.38898
G1 X125.316 Y77.753 E9.40581
G1 X125.059 Y77.753 E9.41087
G1 X125.059 Y78.616 E9.42787
G1 X124.802 Y78.625 E9.43294
G1 X124.802 Y77.753 E9.45010
G1 X124.544 Y77.753 E9.45517
G1 X124.544 Y78.633 E9.47250
G1 X124.287 Y78.642 E9.47757
G1 X124.287 Y77.753 E9.49507
G1 X124.030 Y77.753 E9.50013
G1 X124.030 Y78.650 E9.51780
G1 X123.773 Y78.659 E9.52287
G1 X123.773 Y77.753 E9.54070
G1 X123.515 Y77.753 E9.54577
G1 X123.515 Y78.668 E9.56377
G1 X123.258 Y78.676 E9.56884
G1 X123.258 Y77.753 E9.58701
G1 X123.001 Y77.753 E9.59207
G1 X123.001 Y78.685 E9.61041
G1 X122.743 Y78.693 E9.61548
G1 X122.743 Y77.753 E9.63399
G1 X122.486 Y77.753 E9.63905
G1 X122.486 Y78.702 E9.65772
G1 X122.229 Y78.710 E9.66279
G1 X122.229 Y77.753 E9.68163
G1 X121.971 Y77.753 E9.68670
G1 X121.971 Y78.719 E9.70571
G1 X121.714 Y78.727 E9.71077
G1 X121.714 Y77.753 E9.72995
G1 X121.457 Y77.753 E9.73501
G1 X121.457 Y78.736 E9.75436
G1 X121.200 Y78.744 E9.75942
G1 X121.200 Y77.753 E9.77894
G1 X120.942 Y77.753 E9.78400
G1 X120.942 Y78.753 E9.80368
G1 X120.685 Y78.761 E9.80875
G1 X120.685 Y77.753 E9.82859
G1 X120.428 Y77.753 E9.83366
G1 X120.428 Y78.770 E9.85367
G1 X120.170 Y78.778 E9.85874
G1 X120.170 Y77.753 E9.87892
G1 X119.913 Y77.753 E9.88399
G1 X119.913 Y78.787 E9.90433
G1 X119.656 Y78.795 E9.90940
G1 X119.656 Y77.753 E9.92992
G1 X119.399 Y77.753 E9.93498
G1 X119.399 Y78.804 E9.95567
G1 X119.141 Y78.812 E9.96073
G1 X119.141 Y77.753 E9.98159
G1 X118.884 Y77.753 E9.98665
G1 X118.884 Y78.821 E10.00767
G1 X118.627 Y78.829 E10.01274
G1 X118.627 Y77.753 E10.03392
G1 X118.369 Y77.753 E10.03899
G1 X118.369 Y78.838 E10.06034
G1 X118.112 Y78.846 E10.06541
G1 X118.112 Y77.753 E10.08693
G1 X117.855 Y77.753 E10.09200
G1 X117.855 Y78.855 E10.11369
G1 X117.598 Y78.863 E10.11875
G1 X117.598 Y77.753 E10.14061
G1 X117.340 Y77.753 E10.14568
G1 X117.340 Y78.872 E10.16770
G1 X117.083 Y78.880 E10.17277
G1 X117.083 Y77.753 E10.19496
G1 X116.826 Y77.753 E10.20002
G1 X116.826 Y78.889 E10.22238
G1 X116.568 Y78.897 E10.22745
G1 X116.568 Y77.753 E10.24998
G1 X116.311 Y77.753 E10.25504
G1 X116.311 Y78.906 E10.27774
G1 X116.054 Y78.914 E10.28281
G1 X116.054 Y77.753 E10.30567
G1 X115.796 Y77.753 E10.31073
G1 X115.796 Y78.923 E10.33376
G1 X115.539 Y78.931 E10.33883
G1 X115.539 Y77.753 E10.36203
G1 X115.282 Y77.753 E10.36709
G1 X115.282 Y78.940 E10.39045
G1 X115.025 Y78.947 E10.39552
G1 X115.025 Y77.753 E10.41902
G1 X114.767 Y77.753 E10.42409
G1 X114.767 Y78.954 E10.44773
G1 X114.510 Y78.962 E10.45280
G1 X114.510 Y77.753 E10.47659
G1 X114.253 Y77.753 E10.48165
G1 X114.253 Y78.969 E10.50559
G1 X113.995 Y78.976 E10.51065
G1 X113.995 Y77.753 E10.53473
G1 X113.738 Y77.753 E10.53980
G1 X113.738 Y78.983 E10.56402
G1 X113.481 Y78.991 E10.56909
G1 X113.481 Y77.753 E10.59345
G1 X113.224 Y77.753 E10.59851
G1 X113.224 Y78.998 E10.62302
G1 X112.966 Y79.005 E10.62809
G1 X112.966 Y77.753 E10.65274
G1 X112.709 Y77.753 E10.65781
G1 X112.709 Y79.013 E10.68260
G1 X112.452 Y79.020 E10.68767
G1 X112.452 Y77.753 E10.71261
G1 X112.194 Y77.753 E10.71767
G1 X112.194 Y79.027 E10.74276
G1 X111.937 Y79.035 E10.74782
G1 X111.937 Y77.753 E10.77305
G1 X111.680 Y77.753 E10.77812
G1 X111.680 Y79.042 E10.80349
G1 X111.422 Y79.049 E10.80855
G1 X111.422 Y77.753 E10.83407
G1 X111.165 Y77.753 E10.83913
G1 X111.165 Y79.056 E10.86479
G1 X110.908 Y79.064 E10.86986
G1 X110.908 Y77.753 E10.89566
G1 X110.651 Y77.753 E10.90072
G1 X110.651 Y79.071 E10.92667
G1 X110.393 Y79.078 E10.93173
G1 X110.393 Y77.753 E10.95782
G1 X110.136 Y77.753 E10.96289
G1 X110.136 Y79.086 E10.98912
G1 X109.879 Y79.093 E10.99419
G1 X109.879 Y77.753 E11.02056
G1 X109.621 Y77.753 E11.02563
G1 X109.621 Y79.100 E11.05215
G1 X109.364 Y79.108 E11.05722
G1 X109.364 Y70.892 E11.21891
G1 X109.107 Y70.885 E11.22397
G1 X109.107 Y79.115 E11.38595
G1 X108.850 Y79.122 E11.39102
G1 X108.850 Y70.878 E11.55329
G1 X108.592 Y70.871 E11.55835
G1 X108.592 Y79.129 E11.72091
G1 X108.335 Y79.137 E11.72597
G1 X108.335 Y70.863 E11.88882
G1 X108.078 Y70.856 E11.89388
G1 X108.078 Y79.144 E12.05701
G1 X107.820 Y79.151 E12.06208
G1 X107.820 Y70.849 E12.22549
G1 X107.563 Y70.841 E12.23056
G1 X107.563 Y79.159 E12.39426
G1 X107.306 Y79.165 E12.39933
G1 X107.306 Y70.835 E12.56329
G1 X107.049 Y70.828 E12.56836
G1 X107.049 Y79.172 E12.73257
G1 X106.791 Y79.178 E12.73764
G1 X106.791 Y70.822 E12.90210
G1 X106.534 Y70.816 E12.90717
G1 X106.534 Y79.184 E13.07188
G1 X106.277 Y79.191 E13.07695
G1 X106.277 Y70.809 E13.24191
G1 X106.019 Y70.803 E13.24698
G1 X106.019 Y79.197 E13.41219
G1 X105.762 Y79.203 E13.41726
G1 X105.762 Y70.797 E13.58272
G1 X105.505 Y70.790 E13.58779
G1 X105.505 Y79.210 E13.75350
G1 X105.247 Y79.216 E13.75857
G1 X105.247 Y70.784 E13.92454
G1 X104.990 Y70.778 E13.92960
G1 X104.990 Y79.222 E14.09582
G1 X104.733 Y79.229 E14.10088
G1 X104.733 Y70.771 E14.26735
G1 X104.476 Y70.765 E14.27242
G1 X104.476 Y79.235 E14.43913
G1 X104.218 Y79.242 E14.44420
G1 X104.218 Y70.758 E14.61117
G1 X103.961 Y70.752 E14.61623
G1 X103.961 Y79.248 E14.78345
G1 X103.704 Y79.254 E14.78852
G1 X103.704 Y70.746 E14.95598
G1 X103.446 Y70.739 E14.96105
G1 X103.446 Y79.261 E15.12877
G1 X103.189 Y79.267 E15.13383
G1 X103.189 Y70.733 E15.30180
G1 X102.932 Y70.727 E15.30687
G1 X102.932 Y79.273 E15.47509
G1 X102.675 Y79.280 E15.48015
G1 X102.675 Y70.720 E15.64862
G1 X102.417 Y70.714 E15.65369
G1 X102.417 Y79.286 E15.82241
G1 X102.160 Y79.292 E15.82747
G1 X102.160 Y70.708 E15.99644
G1 X101.903 Y70.701 E16.00151
G1 X101.903 Y79.299 E16.17073
