; generated by Slic3r 1.3.0 on 2021-03-06 at 11:16:15

; external perimeters extrusion width = 0.44mm (2.86mm^3/s)
; perimeters extrusion width = 0.56mm (4.14mm^3/s)
; infill extrusion width = 0.50mm (5.48mm^3/s)
; solid infill extrusion width = 0.56mm (3.10mm^3/s)
; top infill extrusion width = 0.45mm (2.44mm^3/s)

M107
;D3D:START:START
T0
M104 S215 T0

G21
G90
M107
T0
G28
G29
M109 T0 S215 T0
G0 F3000
M107
T0
G92 E0
G0 X0 Y149 Z0.1 F3600
G1 Y49 E6.5 F1200
G0 Z1
G92 E0
; Filament gcode

G21 ; set units to millimeters
G90 ; use absolute coordinates
M82 ; use absolute distances for extrusion
G92 E0
G1 Z0.200 F6000.000
G1 E-2.00000 F1200.00000
G92 E0
G1 X34.276 Y-0.271 F6000.000
G1 E2.00000 F1200.00000
G1 F1800
G1 X35.091 Y-1.977 E2.03636
G1 X36.532 Y-3.199 E2.07271
G1 X38.666 Y-3.735 E2.11505
G1 X89.882 Y-3.735 E3.10037
G1 X90.820 Y-3.637 E3.11852
G1 X91.894 Y-3.408 E3.13964
G1 X92.791 Y-3.117 E3.15779
G1 X93.794 Y-2.671 E3.17891
G1 X94.612 Y-2.199 E3.19707
G1 X95.499 Y-1.554 E3.21818
G1 X96.201 Y-0.922 E3.23634
G1 X96.935 Y-0.107 E3.25745
G1 X136.711 Y44.755 E4.41092
G1 X137.641 Y46.400 E4.44728
G1 X137.848 Y47.750 E4.47355
G1 X137.848 Y57.250 E4.65631
G1 X137.389 Y59.233 E4.69546
G1 X115.389 Y104.233 E5.65913
G1 X114.711 Y105.245 E5.68256
G1 X74.201 Y150.922 E6.85714
G1 X73.500 Y151.553 E6.87529
G1 X72.612 Y152.199 E6.89641
G1 X71.794 Y152.671 E6.91457
G1 X70.792 Y153.117 E6.93568
G1 X69.894 Y153.409 E6.95384
G1 X68.820 Y153.637 E6.97496
G1 X67.882 Y153.735 E6.99311
G1 X16.666 Y153.735 E7.97843
G1 X14.819 Y153.340 E8.01478
G1 X13.294 Y152.222 E8.05114
G1 X12.361 Y150.579 E8.08750
G1 X12.152 Y149.221 E8.11393
G1 X12.152 Y92.750 E9.20036
G1 X12.276 Y91.700 E9.22070
G1 X34.262 Y-0.213 E11.03886
G1 X34.526 Y-0.212 F6000.000
G1 F1800
G1 X35.327 Y-1.862 E11.07416
G1 X36.749 Y-3.022 E11.10945
G1 X38.666 Y-3.478 E11.14738
G1 X89.882 Y-3.478 E12.13269
G1 X90.767 Y-3.385 E12.14981
G1 X91.841 Y-3.157 E12.17093
G1 X92.687 Y-2.882 E12.18805
G1 X93.690 Y-2.436 E12.20917
G1 X94.460 Y-1.991 E12.22629
G1 X95.348 Y-1.346 E12.24740
G1 X96.010 Y-0.750 E12.26452
G1 X96.766 Y0.090 E12.28627
G1 X136.519 Y44.926 E13.43907
G1 X137.412 Y46.528 E13.47437
G1 X137.591 Y47.750 E13.49812
G1 X137.591 Y57.250 E13.68088
G1 X137.158 Y59.120 E13.71781
G1 X115.158 Y104.120 E14.68147
G1 X114.519 Y105.074 E14.70357
G1 X74.010 Y150.750 E15.87811
G1 X73.348 Y151.345 E15.89523
G1 X72.460 Y151.991 E15.91635
G1 X71.690 Y152.436 E15.93347
G1 X70.687 Y152.882 E15.95459
G1 X69.841 Y153.157 E15.97171
G1 X68.767 Y153.385 E15.99282
G1 X67.882 Y153.478 E16.00994
G1 X16.666 Y153.478 E16.99526
G1 X14.875 Y153.083 E17.03055
G1 X13.416 Y151.970 E17.06585
G1 X12.561 Y150.347 E17.10114
G1 X12.409 Y149.221 E17.12301
G1 X12.409 Y92.750 E18.20943
G1 X12.526 Y91.760 E18.22862
G1 X34.512 Y-0.153 E20.04678
G1 E18.04678 F1200.00000
G92 E0
G1 X67.238 Y141.736 F6000.000
G1 E2.00000 F1200.00000
G1 F1800
G1 X67.746 Y141.770 E2.00979
G1 X68.130 Y141.878 E2.01746
G1 X68.542 Y142.082 E2.02631
G1 X68.855 Y142.320 E2.03388
G1 X69.163 Y142.662 E2.04273
G1 X69.367 Y142.998 E2.05030
G1 X69.527 Y143.429 E2.05915
G1 X69.593 Y143.817 E2.06672
G1 X69.583 Y144.277 E2.07557
G1 X69.502 Y144.662 E2.08313
G1 X69.326 Y145.080 E2.09185
G1 X69.166 Y145.332 E2.09759
G1 X68.980 Y145.556 E2.10320
G1 X68.698 Y145.810 E2.11050
G1 X68.305 Y146.048 E2.11935
G1 X67.936 Y146.186 E2.12692
G1 X67.482 Y146.262 E2.13577
G1 X67.089 Y146.254 E2.14333
G1 X66.639 Y146.158 E2.15218
G1 X66.277 Y146.006 E2.15975
G1 X65.899 Y145.755 E2.16847
G1 X65.682 Y145.551 E2.17421
G1 X65.496 Y145.326 E2.17982
G1 X65.299 Y145.002 E2.18712
G1 X65.139 Y144.571 E2.19597
G1 X65.073 Y144.183 E2.20353
G1 X65.083 Y143.730 E2.21225
G1 X65.139 Y143.437 E2.21799
G1 X65.229 Y143.159 E2.22360
G1 X65.398 Y142.820 E2.23090
G1 X65.676 Y142.453 E2.23975
G1 X65.968 Y142.190 E2.24732
G1 X66.361 Y141.952 E2.25616
G1 X66.735 Y141.813 E2.26383
G1 X67.179 Y141.745 E2.27247
G1 X67.249 Y141.994 F6000.000
G1 F1800
G1 X67.702 Y142.025 E2.28121
G1 X68.037 Y142.119 E2.28791
G1 X68.406 Y142.302 E2.29582
G1 X68.681 Y142.510 E2.30245
G1 X68.956 Y142.816 E2.31037
G1 X69.134 Y143.111 E2.31700
G1 X69.278 Y143.496 E2.32492
G1 X69.335 Y143.836 E2.33155
G1 X69.327 Y144.247 E2.33946
G1 X69.255 Y144.585 E2.34610
G1 X69.097 Y144.960 E2.35393
G1 X68.958 Y145.180 E2.35895
G1 X68.794 Y145.378 E2.36388
G1 X68.544 Y145.603 E2.37035
G1 X68.192 Y145.816 E2.37826
G1 X67.869 Y145.936 E2.38490
G1 X67.464 Y146.005 E2.39281
G1 X67.119 Y145.997 E2.39944
G1 X66.716 Y145.912 E2.40736
G1 X66.399 Y145.778 E2.41399
G1 X66.060 Y145.553 E2.42182
G1 X65.870 Y145.375 E2.42684
G1 X65.706 Y145.177 E2.43177
G1 X65.532 Y144.889 E2.43824
G1 X65.388 Y144.504 E2.44616
G1 X65.331 Y144.164 E2.45279
G1 X65.340 Y143.757 E2.46062
G1 X65.388 Y143.501 E2.46564
G1 X65.468 Y143.257 E2.47057
G1 X65.617 Y142.956 E2.47704
G1 X65.866 Y142.628 E2.48495
G1 X66.122 Y142.397 E2.49159
G1 X66.474 Y142.184 E2.49950
G1 X66.800 Y142.063 E2.50619
G1 X67.190 Y142.003 E2.51378
G1 X67.260 Y142.252 F6000.000
G1 F1800
G1 X67.659 Y142.280 E2.52147
G1 X67.945 Y142.360 E2.52719
G1 X68.270 Y142.521 E2.53417
G1 X68.506 Y142.700 E2.53986
G1 X68.749 Y142.970 E2.54684
G1 X68.902 Y143.223 E2.55254
G1 X69.028 Y143.563 E2.55952
G1 X69.078 Y143.855 E2.56522
G1 X69.070 Y144.218 E2.57220
G1 X69.009 Y144.508 E2.57790
G1 X68.869 Y144.841 E2.58485
G1 X68.749 Y145.029 E2.58914
G1 X68.608 Y145.199 E2.59340
G1 X68.390 Y145.395 E2.59903
G1 X68.080 Y145.583 E2.60601
G1 X67.802 Y145.687 E2.61171
G1 X67.445 Y145.747 E2.61869
G1 X67.149 Y145.741 E2.62439
G1 X66.794 Y145.665 E2.63137
G1 X66.521 Y145.551 E2.63707
G1 X66.220 Y145.351 E2.64402
G1 X66.057 Y145.198 E2.64831
G1 X65.916 Y145.028 E2.65257
G1 X65.764 Y144.777 E2.65820
G1 X65.638 Y144.437 E2.66518
G1 X65.589 Y144.145 E2.67088
G1 X65.596 Y143.784 E2.67783
G1 X65.638 Y143.565 E2.68212
G1 X65.706 Y143.354 E2.68638
G1 X65.837 Y143.092 E2.69201
G1 X66.056 Y142.803 E2.69900
G1 X66.276 Y142.605 E2.70469
G1 X66.586 Y142.417 E2.71167
G1 X66.865 Y142.313 E2.71739
G1 X67.201 Y142.261 E2.72392
G1 X67.448 Y141.900 F6000.000
G1 E0.72392 F1200.00000
G92 E0
G1 X59.581 Y143.716 F6000.000
G1 E2.00000 F1200.00000
G1 F1800
G1 X59.599 Y144.000 E2.00547
G1 X59.581 Y144.284 E2.01095
G1 X59.527 Y144.563 E2.01642
G1 X59.440 Y144.834 E2.02189
G1 X59.318 Y145.091 E2.02737
G1 X59.166 Y145.332 E2.03284
G1 X58.985 Y145.551 E2.03832
G1 X58.777 Y145.746 E2.04379
G1 X58.547 Y145.913 E2.04926
G1 X58.298 Y146.050 E2.05473
G1 X58.033 Y146.155 E2.06021
G1 X57.758 Y146.225 E2.06568
G1 X57.475 Y146.261 E2.07116
G1 X57.191 Y146.261 E2.07663
G1 X56.909 Y146.225 E2.08210
G1 X56.633 Y146.155 E2.08758
G1 X56.369 Y146.050 E2.09305
G1 X56.119 Y145.913 E2.09852
G1 X55.889 Y145.746 E2.10399
G1 X55.682 Y145.551 E2.10947
G1 X55.500 Y145.332 E2.11494
G1 X55.348 Y145.091 E2.12042
G1 X55.227 Y144.834 E2.12589
G1 X55.138 Y144.560 E2.13143
G1 X55.080 Y144.242 E2.13764
G1 X55.082 Y143.736 E2.14738
G1 X55.139 Y143.437 E2.15324
G1 X55.227 Y143.166 E2.15872
G1 X55.348 Y142.909 E2.16419
G1 X55.500 Y142.668 E2.16967
G1 X55.682 Y142.449 E2.17514
G1 X55.889 Y142.254 E2.18061
G1 X56.119 Y142.087 E2.18609
G1 X56.386 Y141.941 E2.19195
G1 X56.868 Y141.783 E2.20170
G1 X57.188 Y141.739 E2.20791
G1 X57.475 Y141.739 E2.21344
G1 X57.758 Y141.775 E2.21892
G1 X58.033 Y141.845 E2.22439
G1 X58.298 Y141.950 E2.22987
G1 X58.547 Y142.087 E2.23534
G1 X58.777 Y142.254 E2.24081
G1 X58.985 Y142.449 E2.24628
G1 X59.166 Y142.668 E2.25176
G1 X59.318 Y142.909 E2.25723
G1 X59.440 Y143.166 E2.26271
G1 X59.527 Y143.437 E2.26818
G1 X59.569 Y143.657 E2.27250
G1 X59.325 Y143.748 F6000.000
G1 F1800
G1 X59.341 Y144.000 E2.27735
G1 X59.325 Y144.252 E2.28220
G1 X59.278 Y144.499 E2.28705
G1 X59.200 Y144.739 E2.29190
G1 X59.093 Y144.967 E2.29675
G1 X58.958 Y145.180 E2.30160
G1 X58.797 Y145.375 E2.30646
G1 X58.613 Y145.547 E2.31131
G1 X58.409 Y145.695 E2.31616
G1 X58.188 Y145.817 E2.32101
G1 X57.954 Y145.910 E2.32586
G1 X57.709 Y145.972 E2.33071
G1 X57.459 Y146.004 E2.33556
G1 X57.207 Y146.004 E2.34041
G1 X56.957 Y145.972 E2.34526
G1 X56.713 Y145.910 E2.35012
G1 X56.478 Y145.817 E2.35497
G1 X56.257 Y145.695 E2.35982
G1 X56.053 Y145.547 E2.36467
G1 X55.870 Y145.375 E2.36952
G1 X55.709 Y145.180 E2.37437
G1 X55.574 Y144.967 E2.37922
G1 X55.466 Y144.739 E2.38407
G1 X55.388 Y144.497 E2.38896
G1 X55.338 Y144.220 E2.39439
G1 X55.339 Y143.761 E2.40322
G1 X55.388 Y143.501 E2.40831
G1 X55.466 Y143.261 E2.41317
G1 X55.574 Y143.033 E2.41802
G1 X55.709 Y142.820 E2.42287
G1 X55.870 Y142.625 E2.42772
G1 X56.053 Y142.453 E2.43257
G1 X56.257 Y142.305 E2.43742
G1 X56.489 Y142.177 E2.44251
G1 X56.926 Y142.034 E2.45135
G1 X57.205 Y141.996 E2.45678
G1 X57.459 Y141.996 E2.46166
G1 X57.709 Y142.028 E2.46651
G1 X57.954 Y142.090 E2.47137
G1 X58.188 Y142.183 E2.47622
G1 X58.409 Y142.305 E2.48107
G1 X58.613 Y142.453 E2.48592
G1 X58.797 Y142.625 E2.49077
G1 X58.958 Y142.820 E2.49562
G1 X59.093 Y143.033 E2.50047
G1 X59.200 Y143.261 E2.50532
G1 X59.278 Y143.501 E2.51018
G1 X59.314 Y143.689 E2.51387
G1 X59.070 Y143.781 F6000.000
G1 F1800
G1 X59.084 Y144.000 E2.51810
G1 X59.070 Y144.219 E2.52233
G1 X59.028 Y144.435 E2.52656
G1 X58.961 Y144.644 E2.53078
G1 X58.867 Y144.843 E2.53501
G1 X58.749 Y145.029 E2.53924
G1 X58.609 Y145.198 E2.54347
G1 X58.449 Y145.349 E2.54770
G1 X58.271 Y145.478 E2.55193
G1 X58.078 Y145.584 E2.55616
G1 X57.874 Y145.665 E2.56039
G1 X57.661 Y145.719 E2.56462
G1 X57.443 Y145.747 E2.56885
G1 X57.223 Y145.747 E2.57307
G1 X57.005 Y145.719 E2.57730
G1 X56.792 Y145.665 E2.58153
G1 X56.588 Y145.584 E2.58576
G1 X56.395 Y145.478 E2.58999
G1 X56.218 Y145.349 E2.59422
G1 X56.057 Y145.198 E2.59844
G1 X55.917 Y145.029 E2.60267
G1 X55.799 Y144.843 E2.60690
G1 X55.706 Y144.644 E2.61113
G1 X55.638 Y144.435 E2.61537
G1 X55.595 Y144.197 E2.62002
G1 X55.596 Y143.785 E2.62794
G1 X55.638 Y143.565 E2.63226
G1 X55.706 Y143.356 E2.63649
G1 X55.799 Y143.157 E2.64072
G1 X55.917 Y142.971 E2.64495
G1 X56.057 Y142.802 E2.64918
G1 X56.218 Y142.651 E2.65340
G1 X56.395 Y142.522 E2.65763
G1 X56.592 Y142.414 E2.66195
G1 X56.983 Y142.286 E2.66988
G1 X57.223 Y142.253 E2.67452
G1 X57.443 Y142.253 E2.67876
G1 X57.661 Y142.281 E2.68299
G1 X57.874 Y142.335 E2.68722
G1 X58.078 Y142.416 E2.69145
G1 X58.271 Y142.522 E2.69568
G1 X58.449 Y142.651 E2.69990
G1 X58.609 Y142.802 E2.70413
G1 X58.749 Y142.971 E2.70836
G1 X58.867 Y143.157 E2.71259
G1 X58.961 Y143.356 E2.71682
G1 X59.058 Y143.722 E2.72411
G1 X59.272 Y143.866 F6000.000
G1 E0.72411 F1200.00000
G92 E0
G1 X49.599 Y144.000 F6000.000
G1 E2.00000 F1200.00000
G1 F1800
G1 X49.581 Y144.284 E2.00547
G1 X49.527 Y144.563 E2.01095
G1 X49.439 Y144.837 E2.01648
G1 X49.298 Y145.128 E2.02270
G1 X48.999 Y145.537 E2.03245
G1 X48.777 Y145.746 E2.03831
G1 X48.547 Y145.913 E2.04378
G1 X48.298 Y146.050 E2.04925
G1 X48.033 Y146.155 E2.05472
G1 X47.758 Y146.225 E2.06020
G1 X47.475 Y146.261 E2.06568
G1 X47.191 Y146.261 E2.07114
G1 X46.909 Y146.225 E2.07662
G1 X46.633 Y146.155 E2.08209
G1 X46.369 Y146.050 E2.08757
G1 X46.119 Y145.913 E2.09304
G1 X45.889 Y145.746 E2.09851
G1 X45.682 Y145.551 E2.10398
G1 X45.500 Y145.332 E2.10946
G1 X45.348 Y145.091 E2.11493
G1 X45.227 Y144.834 E2.12040
G1 X45.139 Y144.563 E2.12588
G1 X45.086 Y144.284 E2.13136
G1 X45.068 Y144.000 E2.13683
G1 X45.086 Y143.716 E2.14230
G1 X45.139 Y143.437 E2.14777
G1 X45.227 Y143.166 E2.15325
G1 X45.348 Y142.909 E2.15872
G1 X45.500 Y142.668 E2.16419
G1 X45.682 Y142.449 E2.16967
G1 X45.904 Y142.241 E2.17553
G1 X46.331 Y141.968 E2.18527
G1 X46.630 Y141.846 E2.19149
G1 X46.909 Y141.775 E2.19703
G1 X47.191 Y141.739 E2.20250
G1 X47.475 Y141.739 E2.20797
G1 X47.758 Y141.775 E2.21344
G1 X48.033 Y141.845 E2.21892
G1 X48.298 Y141.950 E2.22439
G1 X48.547 Y142.087 E2.22987
G1 X48.777 Y142.254 E2.23534
G1 X48.985 Y142.449 E2.24081
G1 X49.166 Y142.668 E2.24628
G1 X49.318 Y142.909 E2.25176
G1 X49.440 Y143.166 E2.25723
G1 X49.527 Y143.437 E2.26271
G1 X49.581 Y143.716 E2.26818
G1 X49.595 Y143.940 E2.27250
G1 X49.341 Y144.000 F6000.000
G1 F1800
G1 X49.325 Y144.252 E2.27735
G1 X49.278 Y144.499 E2.28220
G1 X49.199 Y144.741 E2.28709
G1 X49.077 Y144.995 E2.29252
G1 X48.806 Y145.366 E2.30136
G1 X48.613 Y145.547 E2.30644
G1 X48.409 Y145.695 E2.31129
G1 X48.188 Y145.817 E2.31614
G1 X47.954 Y145.910 E2.32099
G1 X47.709 Y145.972 E2.32585
G1 X47.459 Y146.004 E2.33070
G1 X47.207 Y146.004 E2.33555
G1 X46.957 Y145.972 E2.34040
G1 X46.713 Y145.910 E2.34525
G1 X46.478 Y145.817 E2.35010
G1 X46.257 Y145.695 E2.35495
G1 X46.053 Y145.547 E2.35980
G1 X45.870 Y145.375 E2.36465
G1 X45.709 Y145.180 E2.36951
G1 X45.574 Y144.967 E2.37436
G1 X45.466 Y144.739 E2.37921
G1 X45.388 Y144.499 E2.38406
G1 X45.341 Y144.252 E2.38891
G1 X45.325 Y144.000 E2.39376
G1 X45.341 Y143.748 E2.39861
G1 X45.388 Y143.501 E2.40346
G1 X45.466 Y143.261 E2.40832
G1 X45.574 Y143.033 E2.41316
G1 X45.709 Y142.820 E2.41802
G1 X45.870 Y142.625 E2.42287
G1 X46.062 Y142.444 E2.42796
G1 X46.449 Y142.197 E2.43679
G1 X46.711 Y142.091 E2.44222
G1 X46.957 Y142.028 E2.44711
G1 X47.207 Y141.996 E2.45196
G1 X47.459 Y141.996 E2.45681
G1 X47.709 Y142.028 E2.46166
G1 X47.954 Y142.090 E2.46652
G1 X48.188 Y142.183 E2.47137
G1 X48.409 Y142.305 E2.47622
G1 X48.613 Y142.453 E2.48107
G1 X48.797 Y142.625 E2.48592
G1 X48.958 Y142.820 E2.49077
G1 X49.093 Y143.033 E2.49562
G1 X49.200 Y143.261 E2.50047
G1 X49.278 Y143.501 E2.50532
G1 X49.325 Y143.748 E2.51017
G1 X49.337 Y143.940 E2.51387
G1 X49.084 Y144.000 F6000.000
G1 F1800
G1 X49.070 Y144.219 E2.51810
G1 X49.028 Y144.435 E2.52233
G1 X48.960 Y144.645 E2.52657
G1 X48.855 Y144.862 E2.53121
G1 X48.612 Y145.195 E2.53914
G1 X48.449 Y145.349 E2.54346
G1 X48.271 Y145.478 E2.54768
G1 X48.078 Y145.584 E2.55191
G1 X47.874 Y145.665 E2.55614
G1 X47.661 Y145.719 E2.56037
G1 X47.443 Y145.747 E2.56460
G1 X47.223 Y145.747 E2.56883
G1 X47.005 Y145.719 E2.57306
G1 X46.792 Y145.665 E2.57729
G1 X46.588 Y145.584 E2.58152
G1 X46.395 Y145.478 E2.58574
G1 X46.218 Y145.349 E2.58997
G1 X46.057 Y145.198 E2.59420
G1 X45.917 Y145.029 E2.59843
G1 X45.799 Y144.843 E2.60266
G1 X45.706 Y144.644 E2.60689
G1 X45.638 Y144.435 E2.61112
G1 X45.597 Y144.219 E2.61535
G1 X45.583 Y144.000 E2.61957
G1 X45.597 Y143.781 E2.62380
G1 X45.638 Y143.565 E2.62803
G1 X45.706 Y143.356 E2.63226
G1 X45.799 Y143.157 E2.63649
G1 X45.917 Y142.971 E2.64072
G1 X46.057 Y142.802 E2.64495
G1 X46.221 Y142.648 E2.64926
G1 X46.568 Y142.427 E2.65719
G1 X46.792 Y142.336 E2.66183
G1 X47.005 Y142.281 E2.66608
G1 X47.223 Y142.253 E2.67030
G1 X47.443 Y142.253 E2.67453
G1 X47.661 Y142.281 E2.67876
G1 X47.874 Y142.335 E2.68299
G1 X48.078 Y142.416 E2.68722
G1 X48.271 Y142.522 E2.69145
G1 X48.449 Y142.651 E2.69568
G1 X48.609 Y142.802 E2.69990
G1 X48.749 Y142.971 E2.70413
G1 X48.867 Y143.157 E2.70836
G1 X48.961 Y143.356 E2.71259
G1 X49.028 Y143.565 E2.71682
G1 X49.080 Y143.940 E2.72411
G1 X49.274 Y144.110 F6000.000
G1 E0.72411 F1200.00000
G92 E0
G1 X39.599 Y144.000 F6000.000
G1 E2.00000 F1200.00000
G1 F1800
G1 X39.581 Y144.284 E2.00547
G1 X39.527 Y144.563 E2.01095
G1 X39.440 Y144.834 E2.01642
G1 X39.318 Y145.091 E2.02189
G1 X39.166 Y145.332 E2.02737
G1 X38.985 Y145.551 E2.03284
G1 X38.777 Y145.746 E2.03832
G1 X38.547 Y145.913 E2.04379
G1 X38.298 Y146.050 E2.04926
G1 X38.033 Y146.155 E2.05473
G1 X37.758 Y146.225 E2.06021
G1 X37.475 Y146.261 E2.06568
G1 X37.191 Y146.261 E2.07115
G1 X36.909 Y146.225 E2.07662
G1 X36.633 Y146.155 E2.08210
G1 X36.369 Y146.050 E2.08758
G1 X36.119 Y145.913 E2.09305
G1 X35.889 Y145.746 E2.09852
G1 X35.682 Y145.551 E2.10399
G1 X35.500 Y145.332 E2.10947
G1 X35.348 Y145.091 E2.11494
G1 X35.227 Y144.834 E2.12041
G1 X35.139 Y144.563 E2.12589
G1 X35.086 Y144.284 E2.13136
G1 X35.068 Y144.000 E2.13684
G1 X35.086 Y143.716 E2.14231
G1 X35.139 Y143.437 E2.14778
G1 X35.227 Y143.166 E2.15326
G1 X35.348 Y142.909 E2.15873
G1 X35.500 Y142.668 E2.16420
G1 X35.682 Y142.449 E2.16968
G1 X35.904 Y142.241 E2.17554
G1 X36.331 Y141.968 E2.18528
G1 X36.630 Y141.846 E2.19150
G1 X36.909 Y141.775 E2.19704
G1 X37.191 Y141.739 E2.20251
G1 X37.475 Y141.739 E2.20798
G1 X37.758 Y141.775 E2.21345
G1 X38.033 Y141.845 E2.21893
G1 X38.298 Y141.950 E2.22440
