; generated by Slic3r 1.3.0 on 2021-03-06 at 11:10:44

; external perimeters extrusion width = 0.44mm (2.86mm^3/s)
; perimeters extrusion width = 0.56mm (4.14mm^3/s)
; infill extrusion width = 0.50mm (3.66mm^3/s)
; solid infill extrusion width = 0.56mm (3.10mm^3/s)
; top infill extrusion width = 0.45mm (2.44mm^3/s)

M107
;D3D:START:START
T0
M104 S215 T0

G21
G90
M107
T0
G28
G29
M109 T0 S215 T0
G0 F3000
M107
T0
G92 E0
G0 X0 Y149 Z0.1 F3600
G1 Y49 E6.5 F1200
G0 Z1
G92 E0
; Filament gcode

G21 ; set units to millimeters
G90 ; use absolute coordinates
M82 ; use absolute distances for extrusion
G92 E0
G1 Z0.300 F6000.000
G1 E-2.00000 F1200.00000
G92 E0
G1 Z0.800 F6000.000
G1 X51.935 Y51.066 F6000.000
G1 Z0.300 F6000.000
G1 E2.00000 F1200.00000
G1 F1800
G1 X53.649 Y49.821 E2.09477
G1 X54.764 Y49.253 E2.15074
G1 X55.246 Y49.030 E2.17452
G1 X71.156 Y42.440 E2.94480
G1 X72.688 Y42.008 E3.01599
G1 X73.925 Y41.812 E3.07203
G1 X76.043 Y41.812 E3.16674
G1 X77.279 Y42.008 E3.22273
G1 X78.811 Y42.440 E3.29391
G1 X94.721 Y49.030 E4.06420
G1 X95.204 Y49.253 E4.08797
G1 X96.319 Y49.821 E4.14395
G1 X98.033 Y51.066 E4.23871
G1 X98.918 Y51.951 E4.29470
G1 X100.163 Y53.665 E4.38946
G1 X100.731 Y54.780 E4.44544
G1 X100.954 Y55.263 E4.46921
G1 X107.544 Y71.173 E5.23950
G1 X107.976 Y72.705 E5.31069
G1 X108.171 Y73.941 E5.36667
G1 X108.171 Y76.059 E5.46144
G1 X107.976 Y77.295 E5.51742
G1 X107.544 Y78.827 E5.58861
G1 X100.954 Y94.737 E6.35889
G1 X100.731 Y95.220 E6.38267
G1 X100.163 Y96.335 E6.43864
G1 X98.918 Y98.049 E6.53341
G1 X98.033 Y98.934 E6.58939
G1 X96.319 Y100.179 E6.68415
G1 X95.204 Y100.747 E6.74013
G1 X94.721 Y100.970 E6.76391
G1 X78.811 Y107.560 E7.53419
G1 X77.279 Y107.992 E7.60538
G1 X76.043 Y108.188 E7.66136
G1 X73.924 Y108.188 E7.75614
G1 X72.688 Y107.992 E7.81211
G1 X71.156 Y107.560 E7.88331
G1 X55.246 Y100.970 E8.65359
G1 X54.764 Y100.747 E8.67737
G1 X53.649 Y100.179 E8.73334
G1 X51.935 Y98.934 E8.82810
G1 X51.050 Y98.049 E8.88409
G1 X49.804 Y96.335 E8.97885
G1 X49.236 Y95.220 E9.03483
G1 X49.014 Y94.737 E9.05860
G1 X42.424 Y78.827 E9.82889
G1 X41.992 Y77.296 E9.90008
G1 X41.796 Y76.059 E9.95606
G1 X41.796 Y73.941 E10.05083
G1 X41.992 Y72.704 E10.10681
G1 X42.424 Y71.173 E10.17800
G1 X49.014 Y55.263 E10.94828
G1 X49.236 Y54.780 E10.97206
G1 X49.804 Y53.665 E11.02804
G1 X51.050 Y51.951 E11.12280
G1 X51.892 Y51.108 E11.17610
G1 X52.207 Y51.339 F6000.000
G1 F1800
G1 X53.824 Y50.164 E11.26547
G1 X54.939 Y49.596 E11.32144
G1 X55.394 Y49.386 E11.34387
G1 X71.304 Y42.796 E12.11415
G1 X72.748 Y42.389 E12.18129
G1 X73.986 Y42.193 E12.23732
G1 X75.983 Y42.193 E12.32664
G1 X77.219 Y42.389 E12.38263
G1 X78.663 Y42.796 E12.44976
G1 X94.573 Y49.386 E13.22004
G1 X95.029 Y49.596 E13.24246
G1 X96.144 Y50.164 E13.29844
G1 X97.760 Y51.339 E13.38781
G1 X98.645 Y52.224 E13.44379
G1 X99.819 Y53.840 E13.53316
G1 X100.387 Y54.955 E13.58913
G1 X100.597 Y55.410 E13.61155
G1 X107.187 Y71.320 E14.38184
G1 X107.595 Y72.765 E14.44897
G1 X107.791 Y74.001 E14.50495
G1 X107.791 Y75.999 E14.59433
G1 X107.595 Y77.235 E14.65031
G1 X107.187 Y78.680 E14.71744
G1 X100.597 Y94.590 E15.48773
G1 X100.387 Y95.045 E15.51015
G1 X99.819 Y96.160 E15.56612
G1 X98.645 Y97.776 E15.65549
G1 X97.760 Y98.661 E15.71147
G1 X96.144 Y99.836 E15.80084
G1 X95.029 Y100.404 E15.85682
G1 X94.573 Y100.614 E15.87924
G1 X78.663 Y107.204 E16.64952
G1 X77.219 Y107.611 E16.71666
G1 X75.983 Y107.807 E16.77264
G1 X73.985 Y107.807 E16.86202
G1 X72.748 Y107.611 E16.91800
G1 X71.304 Y107.204 E16.98513
G1 X55.394 Y100.614 E17.75541
G1 X54.939 Y100.404 E17.77784
G1 X53.824 Y99.836 E17.83381
G1 X52.207 Y98.661 E17.92318
G1 X51.322 Y97.776 E17.97916
G1 X50.148 Y96.160 E18.06853
G1 X49.580 Y95.045 E18.12451
G1 X49.370 Y94.590 E18.14693
G1 X42.780 Y78.680 E18.91721
G1 X42.372 Y77.235 E18.98435
G1 X42.177 Y75.999 E19.04033
G1 X42.177 Y74.001 E19.12970
G1 X42.372 Y72.765 E19.18569
G1 X42.780 Y71.320 E19.25282
G1 X49.370 Y55.410 E20.02310
G1 X49.580 Y54.955 E20.04553
G1 X50.148 Y53.840 E20.10151
G1 X51.322 Y52.224 E20.19087
G1 X52.165 Y51.381 E20.24417
G1 E18.24417 F1200.00000
G92 E0
G1 Z0.800 F6000.000
G1 X97.484 Y78.560 F6000.000
G1 Z0.300 F6000.000
G1 E2.00000 F1200.00000
G1 F1800
G1 X94.401 Y76.780 E2.15923
G1 X94.401 Y75.168 E2.23134
G1 X94.187 Y75.151 E2.24091
G1 X94.006 Y76.298 E2.29283
G1 X91.343 Y82.727 E2.60411
G1 X90.754 Y83.882 E2.66208
G1 X89.819 Y84.817 E2.72124
G1 X88.643 Y85.416 E2.78029
G1 X88.049 Y85.525 E2.80729
G1 X87.257 Y85.882 E2.84617
G1 X86.476 Y86.493 E2.89049
G1 X85.865 Y87.273 E2.93482
G1 X85.509 Y88.066 E2.97370
G1 X85.400 Y88.659 E3.00070
G1 X84.801 Y89.835 E3.05974
G1 X83.865 Y90.771 E3.11891
G1 X82.710 Y91.359 E3.17688
G1 X76.281 Y94.022 E3.48815
G1 X75.135 Y94.204 E3.54008
G1 X75.151 Y94.417 E3.54965
G1 X76.764 Y94.417 E3.62176
G1 X78.543 Y97.500 E3.78099
G1 X76.764 Y100.583 E3.94022
G1 X73.204 Y100.583 E4.09945
G1 X71.424 Y97.500 E4.25868
G1 X73.204 Y94.417 E4.41791
G1 X74.816 Y94.417 E4.49002
G1 X74.833 Y94.204 E4.49958
G1 X73.686 Y94.022 E4.55151
G1 X67.257 Y91.359 E4.86278
G1 X66.102 Y90.771 E4.92075
G1 X65.167 Y89.835 E4.97992
G1 X64.567 Y88.659 E5.03896
G1 X64.459 Y88.066 E5.06596
G1 X64.102 Y87.273 E5.10484
G1 X63.491 Y86.493 E5.14917
G1 X62.711 Y85.882 E5.19349
G1 X61.918 Y85.525 E5.23237
G1 X61.324 Y85.416 E5.25937
G1 X60.148 Y84.817 E5.31842
G1 X59.213 Y83.882 E5.37758
G1 X58.624 Y82.727 E5.43555
G1 X55.961 Y76.298 E5.74683
G1 X55.780 Y75.151 E5.79875
G1 X55.567 Y75.168 E5.80832
G1 X55.567 Y76.780 E5.88043
G1 X52.484 Y78.560 E6.03966
G1 X49.401 Y76.780 E6.19889
G1 X49.401 Y73.220 E6.35812
G1 X52.484 Y71.440 E6.51735
G1 X55.567 Y73.220 E6.67658
G1 X55.567 Y74.832 E6.74869
G1 X55.780 Y74.849 E6.75826
G1 X55.961 Y73.702 E6.81018
G1 X58.624 Y67.273 E7.12146
G1 X59.213 Y66.118 E7.17943
G1 X60.148 Y65.183 E7.23859
G1 X61.324 Y64.584 E7.29764
G1 X61.918 Y64.475 E7.32464
G1 X62.711 Y64.118 E7.36352
G1 X63.491 Y63.507 E7.40784
G1 X64.102 Y62.727 E7.45217
G1 X64.459 Y61.934 E7.49105
G1 X64.567 Y61.341 E7.51805
G1 X65.167 Y60.164 E7.57709
G1 X66.102 Y59.229 E7.63626
G1 X67.257 Y58.641 E7.69423
G1 X73.686 Y55.978 E8.00550
G1 X74.833 Y55.796 E8.05743
G1 X74.816 Y55.583 E8.06700
G1 X73.204 Y55.583 E8.13911
G1 X71.424 Y52.500 E8.29834
G1 X73.204 Y49.417 E8.45757
G1 X76.764 Y49.417 E8.61680
G1 X78.543 Y52.500 E8.77603
G1 X76.764 Y55.583 E8.93526
G1 X75.151 Y55.583 E9.00737
G1 X75.135 Y55.796 E9.01693
G1 X76.281 Y55.978 E9.06886
G1 X82.710 Y58.641 E9.38014
G1 X83.865 Y59.229 E9.43810
G1 X84.801 Y60.164 E9.49727
G1 X85.400 Y61.341 E9.55631
G1 X85.509 Y61.934 E9.58331
G1 X85.865 Y62.727 E9.62220
G1 X86.476 Y63.507 E9.66652
G1 X87.257 Y64.118 E9.71084
G1 X88.049 Y64.475 E9.74973
G1 X88.643 Y64.584 E9.77673
G1 X89.819 Y65.183 E9.83577
G1 X90.754 Y66.118 E9.89494
G1 X91.343 Y67.273 E9.95290
G1 X94.006 Y73.702 E10.26418
G1 X94.187 Y74.849 E10.31611
G1 X94.401 Y74.832 E10.32567
G1 X94.401 Y73.220 E10.39778
G1 X97.484 Y71.440 E10.55701
G1 X100.567 Y73.220 E10.71624
G1 X100.567 Y76.780 E10.87547
G1 X97.536 Y78.530 E11.03202
G1 X97.284 Y78.906 F6000.000
G1 E9.03202 F1200.00000
G92 E0
G1 Z0.800 F6000.000
G1 X97.484 Y70.550 F6000.000
G1 Z0.300 F6000.000
G1 E2.00000 F1200.00000
G1 F1800
G1 X94.297 Y72.390 E2.16460
G1 X92.044 Y66.950 E2.42795
G1 X91.386 Y65.659 E2.49274
G1 X90.278 Y64.551 E2.56283
G1 X88.893 Y63.845 E2.63238
G1 X88.280 Y63.733 E2.66023
G1 X87.658 Y63.453 E2.69073
G1 X87.026 Y62.958 E2.72668
G1 X86.530 Y62.325 E2.76262
G1 X86.250 Y61.703 E2.79313
G1 X86.138 Y61.091 E2.82098
G1 X85.432 Y59.706 E2.89052
G1 X84.324 Y58.597 E2.96062
G1 X83.034 Y57.940 E3.02540
G1 X77.594 Y55.687 E3.28876
G1 X79.434 Y52.500 E3.45336
G1 X78.512 Y50.903 E3.53582
G1 X78.621 Y50.779 E3.54324
G1 X91.712 Y56.191 E4.17688
G1 X92.652 Y56.670 E4.22403
G1 X93.314 Y57.332 E4.26590
G1 X93.792 Y58.271 E4.31306
G1 X99.218 Y71.370 E4.94721
G1 X99.093 Y71.479 E4.95463
G1 X97.536 Y70.580 E5.03507
G1 E3.03507 F1200.00000
G92 E0
G1 Z0.800 F6000.000
G1 X100.009 Y72.271 F6000.000
G1 Z0.300 F6000.000
G1 E2.00000 F1200.00000
G1 F1800
G1 X99.884 Y72.381 E2.00742
G1 X97.484 Y70.995 E2.13140
G1 X94.109 Y72.943 E2.30570
G1 X91.693 Y67.112 E2.58805
G1 X91.070 Y65.889 E2.64943
G1 X90.049 Y64.867 E2.71406
G1 X88.768 Y64.215 E2.77835
G1 X88.165 Y64.104 E2.80577
G1 X87.458 Y63.786 E2.84047
G1 X86.751 Y63.232 E2.88060
G1 X86.198 Y62.526 E2.92074
G1 X85.879 Y61.819 E2.95543
G1 X85.769 Y61.216 E2.98286
G1 X85.116 Y59.935 E3.04715
G1 X84.095 Y58.913 E3.11178
G1 X82.872 Y58.290 E3.17316
G1 X77.040 Y55.875 E3.45551
G1 X78.989 Y52.500 E3.62981
G1 X77.611 Y50.113 E3.75308
G1 X77.720 Y49.989 E3.76049
G1 X91.874 Y55.841 E4.44558
G1 X92.881 Y56.354 E4.49614
G1 X93.629 Y57.102 E4.54348
G1 X94.143 Y58.110 E4.59405
G1 X99.986 Y72.216 E5.27701
G1 E3.27701 F1200.00000
G92 E0
G1 Z0.800 F6000.000
G1 X99.218 Y78.630 F6000.000
G1 Z0.300 F6000.000
G1 E2.00000 F1200.00000
G1 F1800
G1 X93.792 Y91.729 E2.63415
G1 X93.314 Y92.668 E2.68131
G1 X92.652 Y93.330 E2.72318
G1 X91.712 Y93.809 E2.77035
G1 X78.614 Y99.234 E3.40449
G1 X78.505 Y99.109 E3.41191
G1 X79.434 Y97.500 E3.49504
G1 X77.594 Y94.313 E3.65963
G1 X83.034 Y92.060 E3.92299
G1 X84.324 Y91.403 E3.98778
G1 X85.432 Y90.294 E4.05787
G1 X86.138 Y88.909 E4.12741
G1 X86.250 Y88.297 E4.15526
G1 X86.530 Y87.675 E4.18577
G1 X87.026 Y87.042 E4.22171
G1 X87.658 Y86.547 E4.25766
G1 X88.280 Y86.267 E4.28817
G1 X88.893 Y86.154 E4.31602
G1 X90.278 Y85.449 E4.38556
G1 X91.386 Y84.341 E4.45565
G1 X92.044 Y83.050 E4.52044
G1 X94.297 Y77.610 E4.78380
G1 X97.484 Y79.450 E4.94839
G1 X99.093 Y78.521 E5.03152
G1 X99.173 Y78.591 E5.03625
G1 X100.009 Y77.729 F6000.000
G1 F1800
G1 X94.143 Y91.890 E5.72189
G1 X93.629 Y92.898 E5.77247
G1 X92.881 Y93.646 E5.81980
G1 X91.874 Y94.159 E5.87037
G1 X77.712 Y100.025 E6.55601
G1 X77.603 Y99.900 E6.56343
G1 X78.989 Y97.500 E6.68741
G1 X77.040 Y94.125 E6.86171
G1 X82.872 Y91.710 E7.14406
G1 X84.095 Y91.087 E7.20544
G1 X85.116 Y90.065 E7.27007
G1 X85.769 Y88.784 E7.33436
G1 X85.879 Y88.181 E7.36178
G1 X86.198 Y87.474 E7.39648
G1 X86.751 Y86.768 E7.43661
G1 X87.458 Y86.214 E7.47675
G1 X88.165 Y85.896 E7.51144
G1 X88.768 Y85.785 E7.53887
G1 X90.049 Y85.133 E7.60316
G1 X91.070 Y84.111 E7.66779
G1 X91.693 Y82.888 E7.72917
G1 X94.109 Y77.057 E8.01152
G1 X97.484 Y79.005 E8.18582
G1 X99.884 Y77.619 E8.30980
G1 X99.964 Y77.689 E8.31453
G1 E6.31453 F1200.00000
G92 E0
G1 Z0.800 F6000.000
G1 X72.373 Y94.313 F6000.000
G1 Z0.300 F6000.000
G1 E2.00000 F1200.00000
G1 F1800
G1 X70.533 Y97.500 E2.16460
G1 X71.462 Y99.109 E2.24772
G1 X71.353 Y99.234 E2.25514
G1 X58.255 Y93.809 E2.88929
G1 X57.315 Y93.330 E2.93645
G1 X56.654 Y92.668 E2.97832
G1 X56.175 Y91.729 E3.02548
G1 X50.750 Y78.630 E3.65963
G1 X50.874 Y78.521 E3.66705
G1 X52.484 Y79.450 E3.75017
G1 X55.670 Y77.610 E3.91477
G1 X57.923 Y83.050 E4.17813
G1 X58.581 Y84.341 E4.24291
G1 X59.689 Y85.449 E4.31301
G1 X61.074 Y86.154 E4.38255
G1 X61.687 Y86.267 E4.41040
G1 X62.309 Y86.547 E4.44091
G1 X62.941 Y87.042 E4.47685
G1 X63.437 Y87.675 E4.51280
G1 X63.717 Y88.297 E4.54330
G1 X63.829 Y88.909 E4.57115
G1 X64.535 Y90.294 E4.64070
G1 X65.643 Y91.403 E4.71079
G1 X66.934 Y92.060 E4.77558
G1 X72.318 Y94.290 E5.03625
G1 X72.927 Y94.125 F6000.000
G1 F1800
G1 X70.979 Y97.500 E5.21056
G1 X72.364 Y99.900 E5.33454
G1 X72.255 Y100.025 E5.34195
G1 X58.093 Y94.159 E6.02759
G1 X57.086 Y93.646 E6.07817
G1 X56.338 Y92.898 E6.12550
G1 X55.824 Y91.890 E6.17607
G1 X49.959 Y77.729 E6.86171
G1 X50.083 Y77.619 E6.86913
G1 X52.484 Y79.005 E6.99311
G1 X55.858 Y77.057 E7.16741
G1 X58.274 Y82.888 E7.44976
G1 X58.897 Y84.111 E7.51114
G1 X59.919 Y85.133 E7.57577
G1 X61.199 Y85.785 E7.64006
G1 X61.802 Y85.896 E7.66749
G1 X62.510 Y86.214 E7.70218
G1 X63.216 Y86.768 E7.74232
G1 X63.769 Y87.474 E7.78245
G1 X64.088 Y88.181 E7.81714
G1 X64.198 Y88.784 E7.84457
G1 X64.851 Y90.065 E7.90886
G1 X65.873 Y91.087 E7.97349
G1 X67.095 Y91.710 E8.03487
G1 X72.871 Y94.102 E8.31453
G1 E6.31453 F1200.00000
G92 E0
G1 Z0.800 F6000.000
G1 X70.533 Y52.500 F6000.000
G1 Z0.300 F6000.000
G1 E2.00000 F1200.00000
G1 F1800
G1 X72.373 Y55.687 E2.16460
G1 X66.934 Y57.940 E2.42795
G1 X65.643 Y58.597 E2.49274
G1 X64.535 Y59.706 E2.56283
G1 X63.829 Y61.091 E2.63238
G1 X63.717 Y61.703 E2.66023
G1 X63.437 Y62.325 E2.69073
G1 X62.941 Y62.958 E2.72668
G1 X62.309 Y63.453 E2.76262
G1 X61.687 Y63.733 E2.79313
G1 X61.074 Y63.845 E2.82098
G1 X59.689 Y64.551 E2.89052
G1 X58.581 Y65.659 E2.96062
G1 X57.923 Y66.950 E3.02540
G1 X55.670 Y72.390 E3.28876
G1 X52.484 Y70.550 E3.45336
G1 X50.874 Y71.479 E3.53648
G1 X50.750 Y71.370 E3.54390
G1 X56.175 Y58.271 E4.17805
G1 X56.654 Y57.332 E4.22521
G1 X57.315 Y56.670 E4.26708
G1 X58.255 Y56.191 E4.31424
G1 X71.353 Y50.766 E4.94839
G1 X71.462 Y50.891 E4.95581
G1 X70.563 Y52.448 E5.03625
G1 E3.03625 F1200.00000
G92 E0
G1 Z0.800 F6000.000
G1 X72.255 Y49.975 F6000.000
G1 Z0.300 F6000.000
G1 E2.00000 F1200.00000
G1 F1800
G1 X72.364 Y50.100 E2.00742
G1 X70.979 Y52.500 E2.13140
G1 X72.927 Y55.875 E2.30570
G1 X67.095 Y58.290 E2.58805
G1 X65.873 Y58.913 E2.64943
G1 X64.851 Y59.935 E2.71406
G1 X64.198 Y61.216 E2.77835
G1 X64.088 Y61.819 E2.80577
G1 X63.769 Y62.526 E2.84047
G1 X63.216 Y63.232 E2.88060
G1 X62.510 Y63.786 E2.92074
G1 X61.802 Y64.104 E2.95543
G1 X61.199 Y64.215 E2.98286
G1 X59.919 Y64.867 E3.04715
G1 X58.897 Y65.889 E3.11178
G1 X58.274 Y67.112 E3.17316
G1 X55.858 Y72.943 E3.45551
G1 X52.484 Y70.995 E3.62981
G1 X50.083 Y72.381 E3.75379
G1 X49.959 Y72.271 E3.76121
G1 X55.824 Y58.110 E4.44685
G1 X56.338 Y57.102 E4.49742
G1 X57.086 Y56.354 E4.54475
G1 X58.093 Y55.841 E4.59533
G1 X72.200 Y49.998 E5.27828
G1 X73.044 Y49.231 F6000.000
G1 F1800
G1 X73.809 Y48.914 E5.31534
G1 X74.984 Y48.728 E5.36853
G1 X76.112 Y48.907 E5.41963
G1 X92.035 Y55.490 E6.19036
G1 X93.111 Y56.038 E6.24435
G1 X93.945 Y56.873 E6.29714
G1 X94.493 Y57.948 E6.35113
G1 X101.070 Y73.825 E7.11982
G1 X101.256 Y75.000 E7.17301
G1 X101.070 Y76.175 E7.22621
G1 X94.493 Y92.052 E7.99490
G1 X93.945 Y93.127 E8.04889
G1 X93.111 Y93.962 E8.10168
G1 X92.035 Y94.510 E8.15567
G1 X76.158 Y101.086 E8.92436
G1 X74.984 Y101.272 E8.97756
G1 X73.809 Y101.086 E9.03075
G1 X57.932 Y94.510 E9.79945
G1 X56.856 Y93.962 E9.85343
G1 X56.022 Y93.127 E9.90623
G1 X55.474 Y92.052 E9.96021
G1 X48.897 Y76.175 E10.72891
G1 X48.711 Y75.000 E10.78210
G1 X48.897 Y73.825 E10.83529
G1 X55.474 Y57.948 E11.60399
G1 X56.022 Y56.873 E11.65797
G1 X56.856 Y56.038 E11.71077
G1 X57.932 Y55.490 E11.76475
G1 X72.988 Y49.254 E12.49371
G1 X73.361 Y49.474 F6000.000
G1 X73.673 Y49.203 F6000.000
G1 F1800
G1 X73.776 Y49.182 E12.49402
G1 F1800
G1 X74.155 Y49.140 E12.49865
G1 F1800
G1 X74.984 Y49.075 E12.51730
G1 X75.512 Y49.116 E12.52920
G1 F1800
G1 X76.041 Y49.158 E12.53597
G1 F1800
G1 X76.266 Y49.203 E12.53675
G1 E10.53675 F1200.00000
G92 E0
G1 Z0.800 F6000.000
G1 X79.598 Y51.157 F6000.000
G1 Z0.300 F6000.000
G1 E2.00000 F1200.00000
G1 F1800
G1 X78.971 Y51.784 E2.03999
G1 X79.172 Y52.132 E2.05813
G1 X79.987 Y51.317 E2.11009
G1 X80.376 Y51.478 E2.12906
G1 X79.374 Y52.481 E2.19298
G1 X79.566 Y52.814 E2.21030
G1 X79.532 Y52.872 E2.21336
G1 X80.765 Y51.639 E2.29198
G1 X81.154 Y51.800 E2.31095
G1 X78.781 Y54.173 E2.46224
G1 X78.030 Y55.473 E2.52995
G1 X81.543 Y51.961 E2.75390
G1 X81.932 Y52.121 E2.77287
G1 X78.122 Y55.931 E3.01579
G1 X78.510 Y56.092 E3.03475
G1 X82.320 Y52.282 E3.27768
G1 X82.709 Y52.443 E3.29665
G1 X78.899 Y56.253 E3.53959
G1 X79.288 Y56.414 E3.55856
G1 X83.098 Y52.604 E3.80151
G1 X83.487 Y52.765 E3.82049
G1 X79.676 Y56.575 E4.06345
G1 X80.065 Y56.736 E4.08242
G1 X83.876 Y52.925 E4.32540
G1 X84.265 Y53.086 E4.34437
G1 X80.454 Y56.897 E4.58736
G1 X80.842 Y57.058 E4.60633
G1 X84.654 Y53.247 E4.84933
G1 X85.043 Y53.408 E4.86831
G1 X81.231 Y57.219 E5.11132
G1 X81.620 Y57.380 E5.13029
G1 X85.431 Y53.568 E5.37332
G1 X85.820 Y53.729 E5.39229
G1 X82.008 Y57.541 E5.63534
G1 X82.397 Y57.702 E5.65430
G1 X86.209 Y53.890 E5.89736
G1 X86.598 Y54.051 E5.91633
G1 X82.786 Y57.863 E6.15940
G1 X83.156 Y58.043 E6.17795
G1 X86.987 Y54.212 E6.42221
G1 X87.376 Y54.372 E6.44118
G1 X83.520 Y58.228 E6.68702
G1 X83.884 Y58.414 E6.70545
G1 X87.765 Y54.533 E6.95287
