; generated by Slic3r 1.3.0 on 2020-07-23 at 21:53:12

; external perimeters extrusion width = 0.42mm (4.00mm^3/s)
; perimeters extrusion width = 0.40mm (5.03mm^3/s)
; infill extrusion width = 0.42mm (6.93mm^3/s)
; solid infill extrusion width = 0.42mm (2.13mm^3/s)
; top infill extrusion width = 0.42mm (1.60mm^3/s)

; external perimeters extrusion width = 0.42mm (4.00mm^3/s)
; perimeters extrusion width = 0.40mm (5.03mm^3/s)
; infill extrusion width = 0.42mm (6.93mm^3/s)
; solid infill extrusion width = 0.42mm (2.13mm^3/s)
; top infill extrusion width = 0.42mm (1.60mm^3/s)

;D3D:START:START
T0
M104 S215 T0

G21
G90
M107
T0
G28
G29
M109 T0 S215 T0
G0 F3000
M107
T0
G92 E0
G0 X0 Y149 Z0.1 F3600
G1 Y49 E6.5 F1200
G0 Z1
G92 E0
; Filament gcode

G21 ; set units to millimeters
G90 ; use absolute coordinates
M82 ; use absolute distances for extrusion
G92 E0
G1 Z0.300 F6000.000
G1 E-0.50000 F1200.00000
G92 E0
G1 X50.995 Y65.987 F6000.000
G1 E0.50000 F1200.00000
G1 F1080
G1 X52.917 Y65.389 E0.55445
G1 X59.607 Y64.908 E0.73578
G1 X67.425 Y64.385 E0.94762
G1 X73.282 Y64.030 E1.10627
G1 X76.275 Y63.872 E1.18730
G1 X82.175 Y63.634 E1.34694
G1 X84.906 Y63.557 E1.42082
G1 X87.543 Y63.518 E1.49212
G1 X90.019 Y63.531 E1.55906
G1 X92.305 Y63.608 E1.62089
G1 X94.375 Y63.759 E1.67701
G1 X96.245 Y63.999 E1.72799
G1 X96.622 Y64.066 E1.73835
G1 X97.917 Y64.352 E1.77420
G1 X98.517 Y64.530 E1.79112
G1 X99.474 Y64.888 E1.81876
G1 X100.494 Y65.429 E1.84997
G1 X101.098 Y65.857 E1.86998
G1 X102.542 Y67.568 E1.93051
G1 X102.781 Y68.065 E1.94540
G1 X103.220 Y69.893 E1.99625
G1 X103.137 Y70.864 E2.02260
G1 X101.137 Y81.017 E2.30236
G1 X100.393 Y82.744 E2.35321
G1 X99.005 Y84.013 E2.40406
G1 X97.083 Y84.611 E2.45850
G1 X85.354 Y85.433 E2.77639
G1 X76.718 Y85.970 E3.01032
G1 X73.725 Y86.128 E3.09136
G1 X70.746 Y86.260 E3.17198
G1 X65.094 Y86.443 E3.32487
G1 X62.457 Y86.482 E3.39617
G1 X59.982 Y86.469 E3.46309
G1 X57.516 Y86.382 E3.52980
G1 X55.364 Y86.214 E3.58816
G1 X53.755 Y86.001 E3.63204
G1 X53.378 Y85.934 E3.64240
G1 X52.084 Y85.648 E3.67823
G1 X51.483 Y85.470 E3.69517
G1 X50.526 Y85.112 E3.72281
G1 X49.506 Y84.571 E3.75402
G1 X48.902 Y84.143 E3.77403
G1 X47.460 Y82.436 E3.83446
G1 X47.220 Y81.936 E3.84944
G1 X46.780 Y80.108 E3.90029
G1 X46.863 Y79.136 E3.92666
G1 X48.863 Y68.983 E4.20642
G1 X49.607 Y67.256 E4.25727
G1 X50.950 Y66.027 E4.30649
G1 X51.199 Y66.142 F6000.000
G1 F1080
G1 X52.935 Y65.624 E4.35546
G1 X59.623 Y65.143 E4.53676
G1 X67.440 Y64.621 E4.74857
G1 X73.296 Y64.266 E4.90719
G1 X76.288 Y64.107 E4.98818
G1 X82.181 Y63.870 E5.14766
G1 X84.913 Y63.793 E5.22154
G1 X87.547 Y63.754 E5.29276
G1 X90.018 Y63.767 E5.35957
G1 X92.297 Y63.843 E5.42121
G1 X94.365 Y63.995 E5.47728
G1 X96.214 Y64.233 E5.52769
G1 X96.571 Y64.296 E5.53750
G1 X97.866 Y64.582 E5.57335
G1 X98.435 Y64.751 E5.58938
G1 X99.392 Y65.109 E5.61702
G1 X100.358 Y65.621 E5.64658
G1 X100.962 Y66.049 E5.66659
G1 X102.330 Y67.670 E5.72394
G1 X102.568 Y68.167 E5.73883
G1 X102.906 Y70.819 E5.81111
G1 X100.906 Y80.971 E6.09087
G1 X100.173 Y82.648 E6.14035
G1 X98.801 Y83.858 E6.18982
G1 X97.065 Y84.376 E6.23879
G1 X90.377 Y84.857 E6.42009
G1 X82.560 Y85.379 E6.63189
G1 X76.704 Y85.734 E6.79051
G1 X73.712 Y85.893 E6.87151
G1 X67.819 Y86.130 E7.03099
G1 X65.087 Y86.207 E7.10486
G1 X62.453 Y86.246 E7.17608
G1 X59.983 Y86.233 E7.24287
G1 X57.704 Y86.157 E7.30453
G1 X55.636 Y86.005 E7.36058
G1 X53.786 Y85.767 E7.41102
G1 X52.135 Y85.418 E7.45665
G1 X51.565 Y85.249 E7.47270
G1 X50.608 Y84.891 E7.50034
G1 X49.642 Y84.379 E7.52991
G1 X49.038 Y83.951 E7.54992
G1 X47.672 Y82.333 E7.60716
G1 X47.432 Y81.834 E7.62214
G1 X47.094 Y79.181 E7.69444
G1 X49.094 Y69.029 E7.97420
G1 X49.827 Y67.352 E8.02367
G1 X51.154 Y66.181 E8.07152
G1 E7.57152 F1200.00000
G92 E0
G1 X54.683 Y81.126 F6000.000
G1 E0.50000 F1200.00000
G1 F1080
G1 X54.505 Y81.148 E0.50484
G1 X54.177 Y81.128 E0.51374
G1 X54.003 Y81.083 E0.51858
G1 X53.701 Y80.941 E0.52761
G1 X53.440 Y80.725 E0.53677
G1 X53.244 Y80.455 E0.54580
G1 X53.116 Y80.131 E0.55520
G1 X53.074 Y79.800 E0.56423
G1 X53.116 Y79.469 E0.57326
G1 X53.244 Y79.145 E0.58267
G1 X53.440 Y78.875 E0.59170
G1 X53.697 Y78.662 E0.60072
G1 X53.854 Y78.576 E0.60557
G1 X54.167 Y78.474 E0.61446
G1 X54.345 Y78.452 E0.61931
G1 X54.673 Y78.472 E0.62821
G1 X54.847 Y78.517 E0.63305
G1 X55.149 Y78.659 E0.64207
G1 X55.410 Y78.875 E0.65123
G1 X55.606 Y79.145 E0.66026
G1 X55.734 Y79.469 E0.66967
G1 X55.776 Y79.800 E0.67870
G1 X55.734 Y80.131 E0.68772
G1 X55.606 Y80.455 E0.69713
G1 X55.410 Y80.725 E0.70616
G1 X55.153 Y80.938 E0.71519
G1 X54.996 Y81.024 E0.72003
G1 X54.740 Y81.107 E0.72730
G1 X57.583 Y80.826 F6000.000
G1 F1080
G1 X57.405 Y80.848 E0.73215
G1 X57.077 Y80.828 E0.74105
G1 X56.903 Y80.783 E0.74589
G1 X56.601 Y80.641 E0.75492
G1 X56.340 Y80.425 E0.76407
G1 X56.144 Y80.155 E0.77310
G1 X56.016 Y79.831 E0.78251
G1 X55.974 Y79.500 E0.79154
G1 X56.016 Y79.169 E0.80057
G1 X56.144 Y78.845 E0.80997
G1 X56.340 Y78.575 E0.81900
G1 X56.597 Y78.362 E0.82803
G1 X56.754 Y78.276 E0.83287
G1 X57.067 Y78.174 E0.84177
G1 X57.245 Y78.152 E0.84661
G1 X57.573 Y78.172 E0.85551
G1 X57.747 Y78.217 E0.86035
G1 X58.049 Y78.359 E0.86938
G1 X58.310 Y78.575 E0.87854
G1 X58.506 Y78.845 E0.88757
G1 X58.634 Y79.169 E0.89697
G1 X58.676 Y79.500 E0.90600
G1 X58.634 Y79.831 E0.91503
G1 X58.506 Y80.155 E0.92443
G1 X58.310 Y80.425 E0.93346
G1 X58.053 Y80.638 E0.94249
G1 X57.896 Y80.724 E0.94733
G1 X57.640 Y80.807 E0.95461
G1 E0.45461 F1200.00000
G92 E0
G1 X66.715 Y80.848 F6000.000
G1 E0.50000 F1200.00000
G1 F1080
G1 X66.535 Y80.848 E0.50484
G1 X66.212 Y80.786 E0.51375
G1 X66.043 Y80.718 E0.51867
G1 X65.768 Y80.544 E0.52749
G1 X65.635 Y80.418 E0.53242
G1 X65.441 Y80.151 E0.54135
G1 X65.318 Y79.840 E0.55038
G1 X65.284 Y79.661 E0.55532
G1 X65.284 Y79.331 E0.56425
G1 X65.368 Y79.007 E0.57327
G1 X65.444 Y78.845 E0.57812
G1 X65.637 Y78.579 E0.58701
G1 X65.768 Y78.456 E0.59186
G1 X66.046 Y78.280 E0.60075
G1 X66.212 Y78.214 E0.60560
G1 X66.535 Y78.152 E0.61450
G1 X66.715 Y78.152 E0.61934
G1 X67.043 Y78.215 E0.62836
G1 X67.345 Y78.357 E0.63739
G1 X67.486 Y78.460 E0.64211
G1 X67.613 Y78.579 E0.64682
G1 X67.809 Y78.849 E0.65585
G1 X67.932 Y79.160 E0.66488
G1 X67.966 Y79.335 E0.66972
G1 X67.966 Y79.665 E0.67862
G1 X67.932 Y79.840 E0.68346
G1 X67.809 Y80.151 E0.69248
G1 X67.613 Y80.421 E0.70151
G1 X67.482 Y80.544 E0.70635
G1 X67.204 Y80.720 E0.71525
G1 X67.038 Y80.786 E0.72009
G1 X66.773 Y80.836 E0.72737
G1 E0.22737 F1200.00000
G92 E0
G1 X96.600 Y80.012 F6000.000
G1 E0.50000 F1200.00000
G1 F1080
G1 X85.045 Y80.822 E0.81319
G1 X76.447 Y81.356 E1.04607
G1 X73.482 Y81.513 E1.12636
G1 X67.694 Y81.746 E1.28297
G1 X64.965 Y81.823 E1.35679
G1 X62.391 Y81.861 E1.42640
G1 X60.010 Y81.848 E1.49077
G1 X57.858 Y81.774 E1.54899
G1 X55.967 Y81.632 E1.60024
G1 X54.369 Y81.420 E1.64383
G1 X53.092 Y81.138 E1.67920
G1 X52.163 Y80.790 E1.70602
G1 X51.607 Y80.396 E1.72445
G1 X51.409 Y79.984 E1.73680
G1 X51.522 Y79.542 E1.74914
G1 X51.995 Y79.048 E1.76763
G1 X52.854 Y78.534 E1.79470
G1 X54.082 Y78.031 E1.83058
G1 X55.657 Y77.565 E1.87499
G1 X57.552 Y77.155 E1.92740
G1 X59.734 Y76.819 E1.98711
G1 X62.168 Y76.573 E2.05325
G1 X64.813 Y76.428 E2.12485
G1 X67.622 Y76.389 E2.20080
G1 X70.537 Y76.456 E2.27965
G1 X73.519 Y76.612 E2.36038
G1 X76.514 Y76.834 E2.44157
G1 X79.482 Y77.114 E2.52217
G1 X82.376 Y77.438 E2.60091
G1 X85.150 Y77.793 E2.67652
G1 X87.761 Y78.166 E2.74782
G1 X90.167 Y78.542 E2.81366
G1 X92.331 Y78.908 E2.87302
G1 X94.221 Y79.249 E2.92494
G1 X96.600 Y79.710 E2.99045
G1 X96.600 Y79.952 E2.99700
G1 X95.941 Y79.822 F6000.000
G1 F1080
G1 X95.661 Y79.768 E3.00474
G1 X95.582 Y79.848 E3.00779
G1 X95.222 Y79.873 E3.01756
G1 X95.381 Y79.714 E3.02366
G1 X95.101 Y79.660 E3.03140
G1 X94.863 Y79.898 E3.04054
G1 X94.503 Y79.923 E3.05032
G1 X94.821 Y79.605 E3.06251
G1 X94.541 Y79.551 E3.07025
G1 X94.144 Y79.948 E3.08549
G1 X93.784 Y79.974 E3.09527
G1 X94.261 Y79.497 E3.11356
G1 X93.978 Y79.446 E3.12136
G1 X93.425 Y79.999 E3.14258
G1 X93.065 Y80.024 E3.15235
G1 X93.693 Y79.396 E3.17643
G1 X93.408 Y79.347 E3.18427
G1 X92.706 Y80.049 E3.21123
G1 X92.346 Y80.074 E3.22100
G1 X93.124 Y79.297 E3.25082
G1 X92.839 Y79.247 E3.25866
G1 X91.987 Y80.100 E3.29136
G1 X91.627 Y80.125 E3.30113
G1 X92.554 Y79.198 E3.33670
G1 X92.270 Y79.148 E3.34453
G1 X91.268 Y80.150 E3.38297
G1 X90.908 Y80.175 E3.39274
G1 X91.985 Y79.098 E3.43405
G1 X91.700 Y79.049 E3.44189
G1 X90.549 Y80.200 E3.48606
G1 X90.189 Y80.226 E3.49584
G1 X91.415 Y78.999 E3.54288
G1 X91.131 Y78.950 E3.55072
G1 X89.830 Y80.251 E3.60064
G1 X89.470 Y80.276 E3.61041
G1 X90.846 Y78.900 E3.66320
G1 X90.561 Y78.850 E3.67104
G1 X89.111 Y80.301 E3.72669
G1 X88.751 Y80.326 E3.73647
G1 X90.277 Y78.801 E3.79500
G1 X89.990 Y78.753 E3.80288
G1 X88.392 Y80.352 E3.86420
G1 X88.032 Y80.377 E3.87397
G1 X89.701 Y78.708 E3.93799
G1 X89.412 Y78.663 E3.94593
G1 X87.673 Y80.402 E4.01265
G1 X87.313 Y80.427 E4.02242
G1 X89.123 Y78.618 E4.09184
G1 X88.834 Y78.572 E4.09978
G1 X86.954 Y80.452 E4.17190
G1 X86.594 Y80.478 E4.18168
G1 X88.545 Y78.527 E4.25650
G1 X88.256 Y78.482 E4.26444
G1 X86.235 Y80.503 E4.34196
G1 X85.875 Y80.528 E4.35174
G1 X87.966 Y78.437 E4.43196
G1 X87.677 Y78.392 E4.43991
G1 X85.516 Y80.553 E4.52282
G1 X85.156 Y80.578 E4.53259
G1 X87.384 Y78.350 E4.61807
G1 X87.092 Y78.308 E4.62608
G1 X84.799 Y80.602 E4.71405
G1 X84.442 Y80.624 E4.72374
G1 X86.799 Y78.267 E4.81416
G1 X86.507 Y78.225 E4.82217
G1 X84.086 Y80.646 E4.91504
G1 X83.729 Y80.668 E4.92473
G1 X86.214 Y78.183 E5.02005
G1 X85.922 Y78.141 E5.02807
G1 X83.373 Y80.690 E5.12584
G1 X83.016 Y80.712 E5.13553
G1 X85.629 Y78.100 E5.23575
G1 X85.337 Y78.058 E5.24377
G1 X82.660 Y80.734 E5.34644
G1 X82.303 Y80.757 E5.35613
G1 X85.043 Y78.017 E5.46122
G1 X84.747 Y77.979 E5.46932
G1 X81.947 Y80.779 E5.57672
G1 X81.591 Y80.801 E5.58641
G1 X84.450 Y77.941 E5.69611
G1 X84.154 Y77.903 E5.70421
G1 X81.234 Y80.823 E5.81621
G1 X80.878 Y80.845 E5.82590
G1 X83.858 Y77.865 E5.94021
G1 X83.561 Y77.827 E5.94831
G1 X80.521 Y80.867 E6.06493
G1 X80.165 Y80.889 E6.07462
G1 X83.265 Y77.789 E6.19353
G1 X82.969 Y77.751 E6.20164
G1 X79.808 Y80.912 E6.32286
G1 X79.452 Y80.934 E6.33255
G1 X82.672 Y77.714 E6.45607
G1 X82.376 Y77.676 E6.46418
G1 X79.096 Y80.956 E6.59001
G1 X78.739 Y80.978 E6.59970
G1 X82.076 Y77.641 E6.72769
G1 X81.775 Y77.608 E6.73589
G1 X78.383 Y81.000 E6.86602
G1 X78.026 Y81.022 E6.87571
G1 X81.474 Y77.574 E7.00797
G1 X81.174 Y77.541 E7.01618
G1 X77.670 Y81.044 E7.15059
G1 X77.313 Y81.067 E7.16028
G1 X80.873 Y77.507 E7.29682
G1 X80.572 Y77.473 E7.30503
G1 X76.957 Y81.089 E7.44372
G1 X76.601 Y81.111 E7.45340
G1 X80.272 Y77.440 E7.59423
G1 X79.971 Y77.406 E7.60244
G1 X76.246 Y81.131 E7.74534
G1 X75.893 Y81.150 E7.75492
G1 X79.670 Y77.372 E7.89983
G1 X79.368 Y77.340 E7.90807
G1 X75.540 Y81.168 E8.05492
G1 X75.187 Y81.187 E8.06451
G1 X79.063 Y77.311 E8.21319
G1 X78.757 Y77.282 E8.22151
G1 X74.834 Y81.206 E8.37201
G1 X74.481 Y81.224 E8.38159
G1 X78.452 Y77.254 E8.53391
G1 X78.146 Y77.225 E8.54223
G1 X74.128 Y81.243 E8.69637
G1 X73.775 Y81.262 E8.70595
G1 X77.841 Y77.196 E8.86191
G1 X77.535 Y77.167 E8.87023
G1 X73.423 Y81.280 E9.02798
G1 X73.075 Y81.294 E9.03744
G1 X77.230 Y77.139 E9.19683
G1 X76.924 Y77.110 E9.20515
G1 X72.726 Y81.308 E9.36619
G1 X72.378 Y81.322 E9.37565
G1 X76.619 Y77.081 E9.53832
G1 X76.310 Y77.056 E9.54673
G1 X72.030 Y81.336 E9.71092
G1 X71.681 Y81.350 E9.72038
G1 X75.999 Y77.032 E9.88600
G1 X75.688 Y77.009 E9.89446
G1 X71.333 Y81.364 E10.06151
G1 X70.985 Y81.378 E10.07097
G1 X75.376 Y76.986 E10.23944
G1 X75.065 Y76.963 E10.24790
G1 X70.636 Y81.392 E10.41780
G1 X70.288 Y81.406 E10.42726
G1 X74.754 Y76.940 E10.59859
G1 X74.443 Y76.917 E10.60705
G1 X69.939 Y81.420 E10.77981
G1 X69.591 Y81.434 E10.78926
G1 X74.132 Y76.893 E10.96345
G1 X73.821 Y76.870 E10.97191
G1 X69.243 Y81.448 E11.14752
G1 X68.894 Y81.462 E11.15697
G1 X73.510 Y76.847 E11.33401
G1 X73.192 Y76.830 E11.34264
G1 X68.546 Y81.476 E11.52085
G1 X68.198 Y81.490 E11.53031
G1 X72.874 Y76.814 E11.70969
G1 X72.556 Y76.797 E11.71832
G1 X67.849 Y81.504 E11.89888
G1 X67.503 Y81.516 E11.90827
G1 X72.239 Y76.781 E12.08992
G1 X71.921 Y76.764 E12.09855
G1 X67.159 Y81.526 E12.28119
G1 X66.815 Y81.535 E12.29053
G1 X67.608 Y80.743 E12.32093
G1 X67.312 Y80.931 E12.33045
G1 X67.104 Y81.013 E12.33651
G1 X66.980 Y81.037 E12.33994
G1 X66.471 Y81.545 E12.35944
G1 X66.127 Y81.555 E12.36877
G1 X66.599 Y81.083 E12.38686
G1 X66.305 Y81.043 E12.39492
G1 X65.784 Y81.564 E12.41491
G1 X65.440 Y81.574 E12.42425
G1 X66.042 Y80.972 E12.44736
G1 X65.822 Y80.857 E12.45408
G1 X65.096 Y81.584 E12.48195
G1 X64.754 Y81.591 E12.49120
G1 X65.618 Y80.727 E12.52435
G1 X65.448 Y80.562 E12.53076
G1 X64.415 Y81.596 E12.57039
G1 X64.076 Y81.601 E12.57960
G1 X65.308 Y80.369 E12.62686
G1 X65.233 Y80.265 E12.63032
G1 X65.189 Y80.154 E12.63358
G1 X63.737 Y81.606 E12.68928
G1 X63.397 Y81.611 E12.69848
G1 X65.094 Y79.914 E12.76356
G1 X65.049 Y79.625 E12.77150
G1 X63.243 Y81.431 E12.84077
G1 X63.243 Y81.097 E12.84984
G1 X65.052 Y79.287 E12.91926
G1 X65.145 Y78.927 E12.92933
G1 X65.204 Y78.801 E12.93312
G1 X63.243 Y80.762 E13.00837
G1 X63.243 Y80.428 E13.01743
G1 X67.038 Y76.633 E13.16302
G1 X66.699 Y76.637 E13.17221
G1 X63.243 Y80.094 E13.30479
G1 X63.243 Y79.759 E13.31386
G1 X66.360 Y76.642 E13.43343
G1 X66.021 Y76.647 E13.44263
G1 X63.243 Y79.425 E13.54920
G1 X63.243 Y79.091 E13.55827
G1 X65.682 Y76.652 E13.65183
G1 X65.343 Y76.656 E13.66103
G1 X63.243 Y78.756 E13.74159
G1 X63.243 Y78.422 E13.75065
G1 X65.004 Y76.661 E13.81821
G1 X64.658 Y76.673 E13.82759
G1 X63.243 Y78.088 E13.88188
G1 X63.243 Y77.754 E13.89095
G1 X64.304 Y76.692 E13.93167
G1 X63.951 Y76.711 E13.94128
G1 X63.243 Y77.419 E13.96843
G1 X63.243 Y77.085 E13.97750
G1 X63.597 Y76.731 E13.99108
G1 X63.243 Y76.750 E14.00069
G1 X65.204 Y78.801 F6000.000
G1 F1080
G1 X65.240 Y78.725 E14.00296
G1 X65.460 Y78.422 E14.01310
G1 X65.623 Y78.269 E14.01916
G1 X65.932 Y78.073 E14.02909
G1 X67.377 Y76.628 E14.08453
G1 X67.713 Y76.627 E14.09363
G1 X66.401 Y77.938 E14.14394
G1 X66.513 Y77.917 E14.14703
G1 X66.754 Y77.920 E14.15356
G1 X68.039 Y76.634 E14.20287
G1 X68.366 Y76.642 E14.21174
G1 X67.034 Y77.974 E14.26282
G1 X67.116 Y77.989 E14.26507
G1 X67.277 Y78.065 E14.26991
G1 X68.693 Y76.649 E14.32421
G1 X69.020 Y76.657 E14.33308
G1 X67.499 Y78.178 E14.39141
G1 X67.686 Y78.325 E14.39787
G1 X69.346 Y76.665 E14.46155
G1 X69.673 Y76.672 E14.47042
G1 X67.846 Y78.499 E14.54050
G1 X67.987 Y78.693 E14.54699
G1 X70.000 Y76.680 E14.62422
G1 X70.326 Y76.687 E14.63308
G1 X68.091 Y78.922 E14.71882
G1 X68.174 Y79.174 E14.72599
G1 X70.650 Y76.698 E14.82095
G1 X70.968 Y76.715 E14.82958
G1 X68.201 Y79.481 E14.93570
G1 X68.201 Y79.687 E14.94128
G1 X68.171 Y79.846 E14.94566
G1 X71.285 Y76.731 E15.06514
G1 X71.603 Y76.748 E15.07377
G1 X67.835 Y80.516 E15.21830
G1 E14.71830 F1200.00000
G92 E0
G1 X63.007 Y81.616 F6000.000
G1 E0.50000 F1200.00000
G1 F1080
G1 X63.007 Y81.279 E0.51000
G1 X62.665 Y81.621 E0.52434
G1 X62.324 Y81.625 E0.53444
G1 X63.007 Y80.942 E0.56308
G1 X63.007 Y80.604 E0.57307
G1 X61.988 Y81.623 E0.61575
G1 X61.653 Y81.621 E0.62569
G1 X63.007 Y80.267 E0.68242
G1 X63.007 Y79.930 E0.69241
G1 X61.318 Y81.619 E0.76320
G1 X60.982 Y81.617 E0.77314
G1 X63.007 Y79.593 E0.85798
G1 X63.007 Y79.255 E0.86797
G1 X60.647 Y81.616 E0.96686
G1 X60.312 Y81.614 E0.97680
G1 X63.007 Y78.918 E1.08974
G1 X63.007 Y78.581 E1.09973
G1 X59.977 Y81.611 E1.22668
G1 X59.651 Y81.600 E1.23635
G1 X63.007 Y78.244 E1.37696
G1 X63.007 Y77.906 E1.38695
G1 X59.325 Y81.588 E1.54123
G1 X58.999 Y81.577 E1.55089
G1 X63.007 Y77.569 E1.71883
G1 X63.007 Y77.232 E1.72882
G1 X58.673 Y81.566 E1.91041
G1 X58.347 Y81.555 E1.92008
G1 X63.007 Y76.894 E2.11534
G1 X63.007 Y76.763 E2.11922
G1 X62.789 Y76.775 E2.12569
G1 X58.021 Y81.543 E2.32547
G1 X57.701 Y81.526 E2.33495
G1 X62.432 Y76.795 E2.53317
G1 X62.070 Y76.820 E2.54393
G1 X58.776 Y80.114 E2.68194
G1 X58.864 Y79.890 E2.68907
G1 X58.894 Y79.659 E2.69598
G1 X61.694 Y76.858 E2.81333
G1 X61.319 Y76.896 E2.82450
G1 X58.891 Y79.324 E2.92623
G1 X58.864 Y79.110 E2.93263
G1 X58.837 Y79.041 E2.93482
