; generated by Slic3r 1.3.0 on 2020-04-09 at 23:32:05

; external perimeters extrusion width = 0.44mm (2.86mm^3/s)
; perimeters extrusion width = 0.56mm (4.14mm^3/s)
; infill extrusion width = 0.50mm (3.66mm^3/s)
; solid infill extrusion width = 0.56mm (3.10mm^3/s)
; top infill extrusion width = 0.45mm (2.44mm^3/s)

M107
;D3D:START:START
T0
M104 S215 T0

G21
G90
M107
T0
G28
G29
M109 T0 S215 T0
G0 F3000
M107
T0
G92 E0
G0 X0 Y149 Z0.1 F3600
G1 Y49 E6.5 F1200
G0 Z1
G92 E0
; Filament gcode

G21 ; set units to millimeters
G90 ; use absolute coordinates
M82 ; use absolute distances for extrusion
G92 E0
G1 Z0.200 F6000.000
G1 E-2.00000 F1200.00000
G92 E0
G1 Z0.700 F6000.000
G1 X23.741 Y45.492 F6000.000
G1 Z0.200 F6000.000
G1 E2.00000 F1200.00000
G1 F1800
G1 X31.668 Y42.345 E2.16408
G1 X33.333 Y42.027 E2.19671
G1 X126.666 Y42.027 E3.99231
G1 X128.514 Y42.423 E4.02866
G1 X130.038 Y43.540 E4.06502
G1 X130.972 Y45.183 E4.10138
G1 X131.181 Y46.541 E4.12781
G1 X131.181 Y103.459 E5.22283
G1 X130.785 Y105.307 E5.25919
G1 X129.668 Y106.831 E5.29554
G1 X128.024 Y107.764 E5.33190
G1 X126.666 Y107.973 E5.35833
G1 X84.766 Y107.973 E6.16445
G1 X83.827 Y107.874 E6.18260
G1 X80.760 Y107.222 E6.24293
G1 X79.968 Y106.976 E6.25888
G1 X49.193 Y94.205 E6.89991
G1 X48.454 Y93.815 E6.91598
G1 X46.801 Y92.734 E6.95398
G1 X46.124 Y92.193 E6.97067
G1 X20.760 Y67.542 E7.65112
G1 X19.613 Y65.699 E7.69287
G1 X19.040 Y63.936 E7.72854
G1 X18.819 Y62.541 E7.75571
G1 X18.819 Y52.541 E7.94810
G1 X19.040 Y51.146 E7.97527
G1 X19.613 Y49.383 E8.01094
G1 X21.253 Y47.126 E8.06461
G1 X22.753 Y46.036 E8.10028
G1 X23.688 Y45.521 E8.12082
G1 X23.836 Y45.731 F6000.000
G1 F1800
G1 X31.763 Y42.584 E8.28490
G1 X33.333 Y42.284 E8.31567
G1 X126.666 Y42.284 E10.11127
G1 X128.458 Y42.679 E10.14656
G1 X129.917 Y43.792 E10.18186
G1 X130.772 Y45.415 E10.21715
G1 X130.924 Y46.541 E10.23902
G1 X130.924 Y103.459 E11.33404
G1 X130.528 Y105.250 E11.36933
G1 X129.416 Y106.709 E11.40463
G1 X127.793 Y107.564 E11.43992
G1 X126.666 Y107.716 E11.46178
G1 X84.766 Y107.716 E12.26790
G1 X83.881 Y107.623 E12.28502
G1 X80.813 Y106.971 E12.34535
G1 X80.066 Y106.739 E12.36039
G1 X49.292 Y93.968 E13.00142
G1 X48.595 Y93.600 E13.01658
G1 X46.941 Y92.519 E13.05458
G1 X46.303 Y92.008 E13.07031
G1 X20.939 Y67.357 E13.75076
G1 X19.858 Y65.620 E13.79013
G1 X19.285 Y63.857 E13.82581
G1 X19.076 Y62.541 E13.85143
G1 X19.076 Y52.541 E14.04382
G1 X19.285 Y51.226 E14.06944
G1 X19.858 Y49.462 E14.10511
G1 X21.404 Y47.334 E14.15573
G1 X22.904 Y46.244 E14.19140
G1 X23.783 Y45.760 E14.21070
G1 E12.21070 F1200.00000
G92 E0
G1 Z0.700 F6000.000
G1 X102.683 Y89.071 F6000.000
G1 Z0.200 F6000.000
G1 E2.00000 F1200.00000
G1 F1800
G1 X102.683 Y86.011 E2.05886
G1 X103.451 Y84.158 E2.09745
G1 X105.304 Y83.391 E2.13603
G1 X123.363 Y83.391 E2.48347
G1 X125.216 Y84.158 E2.52205
G1 X125.983 Y86.011 E2.56063
G1 X125.983 Y89.071 E2.61950
G1 X125.216 Y90.924 E2.65808
G1 X123.363 Y91.691 E2.69666
G1 X105.304 Y91.691 E3.04411
G1 X103.451 Y90.924 E3.08269
G1 X102.706 Y89.126 E3.12011
G1 X102.297 Y88.967 F6000.000
G1 E1.12011 F1200.00000
G92 E0
G1 Z0.700 F6000.000
G1 X121.389 Y94.042 F6000.000
G1 Z0.200 F6000.000
G1 E2.00000 F1200.00000
G1 F1800
G1 X121.467 Y93.802 E2.00485
G1 X121.574 Y93.574 E2.00970
G1 X121.709 Y93.361 E2.01455
G1 X121.878 Y93.157 E2.01965
G1 X122.240 Y92.857 E2.02870
G1 X122.478 Y92.725 E2.03393
G1 X122.713 Y92.631 E2.03880
G1 X122.957 Y92.569 E2.04365
G1 X123.207 Y92.537 E2.04850
G1 X123.459 Y92.537 E2.05334
G1 X123.710 Y92.569 E2.05820
G1 X123.954 Y92.632 E2.06305
G1 X124.200 Y92.729 E2.06814
G1 X124.615 Y92.992 E2.07760
G1 X124.951 Y93.350 E2.08703
G1 X125.093 Y93.573 E2.09212
G1 X125.201 Y93.802 E2.09699
G1 X125.283 Y94.054 E2.10209
G1 X125.344 Y94.541 E2.11154
G1 X125.283 Y95.028 E2.12098
G1 X125.201 Y95.281 E2.12608
G1 X125.087 Y95.520 E2.13119
G1 X124.806 Y95.907 E2.14038
G1 X124.604 Y96.097 E2.14572
G1 X124.189 Y96.360 E2.15517
G1 X123.723 Y96.512 E2.16461
G1 X123.459 Y96.545 E2.16972
G1 X123.207 Y96.545 E2.17456
G1 X122.957 Y96.513 E2.17941
G1 X122.713 Y96.451 E2.18427
G1 X122.479 Y96.358 E2.18912
G1 X122.258 Y96.236 E2.19397
G1 X122.054 Y96.088 E2.19882
G1 X121.870 Y95.916 E2.20367
G1 X121.709 Y95.721 E2.20852
G1 X121.574 Y95.508 E2.21337
G1 X121.467 Y95.280 E2.21822
G1 X121.389 Y95.040 E2.22307
G1 X121.341 Y94.793 E2.22792
G1 X121.326 Y94.541 E2.23277
G1 X121.341 Y94.289 E2.23763
G1 X121.377 Y94.101 E2.24132
G1 X121.638 Y94.106 F6000.000
G1 F1800
G1 X121.706 Y93.897 E2.24555
G1 X121.800 Y93.698 E2.24978
G1 X121.917 Y93.512 E2.25401
G1 X122.061 Y93.339 E2.25833
G1 X122.386 Y93.070 E2.26646
G1 X122.588 Y92.958 E2.27090
G1 X122.793 Y92.876 E2.27514
G1 X123.006 Y92.822 E2.27937
G1 X123.224 Y92.794 E2.28360
G1 X123.443 Y92.794 E2.28781
G1 X123.662 Y92.822 E2.29206
G1 X123.874 Y92.876 E2.29628
G1 X124.083 Y92.959 E2.30060
G1 X124.450 Y93.192 E2.30896
G1 X124.747 Y93.508 E2.31730
G1 X124.867 Y93.698 E2.32162
G1 X124.961 Y93.897 E2.32586
G1 X125.031 Y94.110 E2.33018
G1 X125.085 Y94.541 E2.33853
G1 X125.031 Y94.972 E2.34688
G1 X124.961 Y95.186 E2.35121
G1 X124.865 Y95.389 E2.35553
G1 X124.613 Y95.736 E2.36379
G1 X124.446 Y95.893 E2.36819
G1 X124.079 Y96.126 E2.37655
G1 X123.666 Y96.260 E2.38490
G1 X123.443 Y96.288 E2.38923
G1 X123.224 Y96.288 E2.39345
G1 X123.006 Y96.260 E2.39768
G1 X122.793 Y96.206 E2.40191
G1 X122.588 Y96.125 E2.40614
G1 X122.396 Y96.019 E2.41037
G1 X122.218 Y95.890 E2.41460
G1 X122.058 Y95.739 E2.41882
G1 X121.917 Y95.570 E2.42305
G1 X121.800 Y95.384 E2.42728
G1 X121.706 Y95.185 E2.43151
G1 X121.638 Y94.976 E2.43574
G1 X121.597 Y94.760 E2.43997
G1 X121.583 Y94.541 E2.44420
G1 X121.627 Y94.165 E2.45149
G1 X121.481 Y93.952 F6000.000
G1 E0.45149 F1200.00000
G92 E0
G1 Z0.700 F6000.000
G1 X105.599 Y94.541 F6000.000
G1 Z0.200 F6000.000
G1 E2.00000 F1200.00000
G1 F1800
G1 X105.581 Y94.825 E2.00547
G1 X105.528 Y95.105 E2.01095
G1 X105.440 Y95.375 E2.01642
G1 X105.319 Y95.632 E2.02189
G1 X105.166 Y95.873 E2.02737
G1 X104.985 Y96.092 E2.03284
G1 X104.777 Y96.288 E2.03834
G1 X104.523 Y96.470 E2.04435
G1 X104.054 Y96.691 E2.05433
G1 X103.758 Y96.767 E2.06020
G1 X103.476 Y96.802 E2.06567
G1 X103.191 Y96.802 E2.07114
G1 X102.909 Y96.767 E2.07662
G1 X102.633 Y96.696 E2.08209
G1 X102.369 Y96.591 E2.08757
G1 X102.120 Y96.454 E2.09304
G1 X101.890 Y96.287 E2.09851
G1 X101.682 Y96.092 E2.10399
G1 X101.501 Y95.873 E2.10946
G1 X101.348 Y95.632 E2.11493
G1 X101.227 Y95.375 E2.12041
G1 X101.139 Y95.103 E2.12590
G1 X101.081 Y94.796 E2.13192
G1 X101.082 Y94.277 E2.14190
G1 X101.139 Y93.978 E2.14777
G1 X101.227 Y93.707 E2.15324
G1 X101.348 Y93.450 E2.15871
G1 X101.501 Y93.210 E2.16418
G1 X101.695 Y92.974 E2.17005
G1 X102.095 Y92.643 E2.18003
G1 X102.368 Y92.492 E2.18604
G1 X102.633 Y92.387 E2.19154
G1 X102.909 Y92.316 E2.19702
G1 X103.191 Y92.280 E2.20249
G1 X103.476 Y92.280 E2.20796
G1 X103.758 Y92.316 E2.21344
G1 X104.054 Y92.392 E2.21931
G1 X104.523 Y92.612 E2.22928
G1 X104.777 Y92.795 E2.23530
G1 X104.985 Y92.990 E2.24079
G1 X105.166 Y93.209 E2.24627
G1 X105.319 Y93.450 E2.25174
G1 X105.440 Y93.707 E2.25722
G1 X105.528 Y93.978 E2.26269
G1 X105.581 Y94.257 E2.26816
G1 X105.595 Y94.481 E2.27248
G1 X105.341 Y94.541 F6000.000
G1 F1800
G1 X105.326 Y94.793 E2.27733
G1 X105.278 Y95.040 E2.28218
G1 X105.200 Y95.280 E2.28703
G1 X105.093 Y95.508 E2.29188
G1 X104.958 Y95.721 E2.29674
G1 X104.797 Y95.916 E2.30159
G1 X104.613 Y96.089 E2.30645
G1 X104.392 Y96.248 E2.31169
G1 X103.966 Y96.448 E2.32074
G1 X103.710 Y96.513 E2.32583
G1 X103.460 Y96.545 E2.33068
G1 X103.207 Y96.545 E2.33553
G1 X102.957 Y96.513 E2.34038
G1 X102.713 Y96.451 E2.34524
G1 X102.479 Y96.358 E2.35009
G1 X102.258 Y96.236 E2.35494
G1 X102.054 Y96.088 E2.35979
G1 X101.870 Y95.916 E2.36464
G1 X101.709 Y95.721 E2.36949
G1 X101.574 Y95.508 E2.37434
G1 X101.467 Y95.280 E2.37919
G1 X101.388 Y95.040 E2.38406
G1 X101.339 Y94.772 E2.38929
G1 X101.339 Y94.302 E2.39834
G1 X101.389 Y94.042 E2.40344
G1 X101.467 Y93.802 E2.40829
G1 X101.574 Y93.574 E2.41314
G1 X101.709 Y93.361 E2.41799
G1 X101.878 Y93.157 E2.42308
G1 X102.240 Y92.857 E2.43214
G1 X102.478 Y92.725 E2.43737
G1 X102.713 Y92.631 E2.44223
G1 X102.957 Y92.569 E2.44709
G1 X103.207 Y92.537 E2.45194
G1 X103.460 Y92.537 E2.45679
G1 X103.710 Y92.569 E2.46164
G1 X103.966 Y92.635 E2.46673
G1 X104.392 Y92.835 E2.47578
G1 X104.613 Y92.993 E2.48102
G1 X104.797 Y93.167 E2.48588
G1 X104.958 Y93.361 E2.49073
G1 X105.093 Y93.574 E2.49559
G1 X105.200 Y93.802 E2.50044
G1 X105.278 Y94.042 E2.50529
G1 X105.326 Y94.289 E2.51014
G1 X105.338 Y94.481 E2.51383
G1 X105.084 Y94.541 F6000.000
G1 F1800
G1 X105.070 Y94.760 E2.51806
G1 X105.029 Y94.976 E2.52229
G1 X104.961 Y95.185 E2.52652
G1 X104.867 Y95.384 E2.53075
G1 X104.749 Y95.570 E2.53498
G1 X104.609 Y95.739 E2.53921
G1 X104.449 Y95.890 E2.54344
G1 X104.261 Y96.025 E2.54789
G1 X103.879 Y96.205 E2.55602
G1 X103.661 Y96.260 E2.56034
G1 X103.443 Y96.288 E2.56456
G1 X103.224 Y96.288 E2.56879
G1 X103.006 Y96.260 E2.57302
G1 X102.793 Y96.206 E2.57725
G1 X102.588 Y96.125 E2.58148
G1 X102.396 Y96.019 E2.58571
G1 X102.218 Y95.890 E2.58994
G1 X102.058 Y95.739 E2.59417
G1 X101.917 Y95.570 E2.59839
G1 X101.800 Y95.384 E2.60262
G1 X101.706 Y95.185 E2.60685
G1 X101.638 Y94.976 E2.61109
G1 X101.596 Y94.749 E2.61554
G1 X101.596 Y94.326 E2.62366
G1 X101.638 Y94.106 E2.62798
G1 X101.706 Y93.897 E2.63221
G1 X101.800 Y93.698 E2.63644
G1 X101.917 Y93.512 E2.64067
G1 X102.061 Y93.339 E2.64499
G1 X102.386 Y93.070 E2.65311
G1 X102.588 Y92.958 E2.65756
G1 X102.793 Y92.876 E2.66180
G1 X103.006 Y92.822 E2.66603
G1 X103.224 Y92.794 E2.67025
G1 X103.443 Y92.794 E2.67448
G1 X103.661 Y92.822 E2.67871
G1 X103.879 Y92.878 E2.68303
G1 X104.261 Y93.057 E2.69116
G1 X104.449 Y93.192 E2.69561
G1 X104.609 Y93.343 E2.69984
G1 X104.749 Y93.512 E2.70407
G1 X104.867 Y93.698 E2.70830
G1 X104.961 Y93.897 E2.71253
G1 X105.029 Y94.106 E2.71675
G1 X105.080 Y94.481 E2.72404
G1 X105.274 Y94.651 F6000.000
G1 E0.72404 F1200.00000
G92 E0
G1 Z0.700 F6000.000
G1 X95.599 Y94.541 F6000.000
G1 Z0.200 F6000.000
G1 E2.00000 F1200.00000
G1 F1800
G1 X95.581 Y94.825 E2.00547
G1 X95.528 Y95.105 E2.01095
G1 X95.440 Y95.375 E2.01642
G1 X95.319 Y95.632 E2.02189
G1 X95.166 Y95.873 E2.02737
G1 X94.985 Y96.092 E2.03284
G1 X94.777 Y96.288 E2.03834
G1 X94.523 Y96.470 E2.04435
G1 X94.054 Y96.691 E2.05433
G1 X93.758 Y96.767 E2.06020
G1 X93.476 Y96.802 E2.06567
G1 X93.191 Y96.802 E2.07114
G1 X92.909 Y96.767 E2.07662
G1 X92.633 Y96.696 E2.08209
G1 X92.369 Y96.591 E2.08757
G1 X92.120 Y96.454 E2.09304
G1 X91.890 Y96.287 E2.09851
G1 X91.682 Y96.092 E2.10399
G1 X91.501 Y95.873 E2.10946
G1 X91.348 Y95.632 E2.11493
G1 X91.227 Y95.375 E2.12041
G1 X91.139 Y95.103 E2.12590
G1 X91.081 Y94.796 E2.13192
G1 X91.082 Y94.277 E2.14190
G1 X91.139 Y93.978 E2.14777
G1 X91.227 Y93.707 E2.15324
G1 X91.348 Y93.450 E2.15871
G1 X91.501 Y93.210 E2.16418
G1 X91.695 Y92.974 E2.17005
G1 X92.095 Y92.643 E2.18003
G1 X92.368 Y92.492 E2.18604
G1 X92.633 Y92.387 E2.19154
G1 X92.909 Y92.316 E2.19702
G1 X93.191 Y92.280 E2.20249
G1 X93.476 Y92.280 E2.20796
G1 X93.758 Y92.316 E2.21344
G1 X94.054 Y92.392 E2.21931
G1 X94.523 Y92.612 E2.22928
G1 X94.777 Y92.795 E2.23530
G1 X94.985 Y92.990 E2.24079
G1 X95.166 Y93.209 E2.24627
G1 X95.319 Y93.450 E2.25174
G1 X95.440 Y93.707 E2.25722
G1 X95.528 Y93.978 E2.26269
G1 X95.581 Y94.257 E2.26816
G1 X95.595 Y94.481 E2.27248
G1 X95.341 Y94.541 F6000.000
G1 F1800
G1 X95.326 Y94.793 E2.27733
G1 X95.278 Y95.040 E2.28218
G1 X95.200 Y95.280 E2.28703
G1 X95.093 Y95.508 E2.29188
G1 X94.958 Y95.721 E2.29674
G1 X94.797 Y95.916 E2.30159
G1 X94.613 Y96.089 E2.30645
G1 X94.392 Y96.248 E2.31169
G1 X93.966 Y96.448 E2.32074
G1 X93.710 Y96.513 E2.32583
G1 X93.460 Y96.545 E2.33068
G1 X93.207 Y96.545 E2.33553
G1 X92.957 Y96.513 E2.34038
G1 X92.713 Y96.451 E2.34524
G1 X92.479 Y96.358 E2.35009
G1 X92.258 Y96.236 E2.35494
G1 X92.054 Y96.088 E2.35979
G1 X91.870 Y95.916 E2.36464
G1 X91.709 Y95.721 E2.36949
G1 X91.574 Y95.508 E2.37434
G1 X91.467 Y95.280 E2.37919
G1 X91.388 Y95.040 E2.38406
G1 X91.339 Y94.772 E2.38929
G1 X91.339 Y94.302 E2.39834
G1 X91.389 Y94.042 E2.40344
G1 X91.467 Y93.802 E2.40829
G1 X91.574 Y93.574 E2.41314
G1 X91.709 Y93.361 E2.41799
G1 X91.878 Y93.157 E2.42308
G1 X92.240 Y92.857 E2.43214
G1 X92.478 Y92.725 E2.43737
G1 X92.713 Y92.631 E2.44223
G1 X92.957 Y92.569 E2.44709
G1 X93.207 Y92.537 E2.45194
G1 X93.460 Y92.537 E2.45679
G1 X93.710 Y92.569 E2.46164
G1 X93.966 Y92.635 E2.46673
G1 X94.392 Y92.835 E2.47578
G1 X94.613 Y92.993 E2.48102
G1 X94.797 Y93.167 E2.48588
G1 X94.958 Y93.361 E2.49073
G1 X95.093 Y93.574 E2.49559
G1 X95.200 Y93.802 E2.50044
G1 X95.278 Y94.042 E2.50529
G1 X95.326 Y94.289 E2.51014
G1 X95.338 Y94.481 E2.51383
G1 X95.084 Y94.541 F6000.000
G1 F1800
G1 X95.070 Y94.760 E2.51806
G1 X95.029 Y94.976 E2.52229
G1 X94.961 Y95.185 E2.52652
G1 X94.867 Y95.384 E2.53075
G1 X94.749 Y95.570 E2.53498
G1 X94.609 Y95.739 E2.53921
G1 X94.449 Y95.890 E2.54344
G1 X94.261 Y96.025 E2.54789
G1 X93.879 Y96.205 E2.55602
G1 X93.661 Y96.260 E2.56034
G1 X93.443 Y96.288 E2.56456
G1 X93.224 Y96.288 E2.56879
G1 X93.006 Y96.260 E2.57302
G1 X92.793 Y96.206 E2.57725
G1 X92.588 Y96.125 E2.58148
G1 X92.396 Y96.019 E2.58571
G1 X92.218 Y95.890 E2.58994
G1 X92.058 Y95.739 E2.59417
G1 X91.917 Y95.570 E2.59839
G1 X91.800 Y95.384 E2.60262
G1 X91.706 Y95.185 E2.60685
G1 X91.638 Y94.976 E2.61109
G1 X91.596 Y94.749 E2.61554
G1 X91.596 Y94.326 E2.62366
G1 X91.638 Y94.106 E2.62798
G1 X91.706 Y93.897 E2.63221
G1 X91.800 Y93.698 E2.63644
G1 X91.917 Y93.512 E2.64067
G1 X92.061 Y93.339 E2.64499
G1 X92.386 Y93.070 E2.65311
G1 X92.588 Y92.958 E2.65756
G1 X92.793 Y92.876 E2.66180
G1 X93.006 Y92.822 E2.66603
G1 X93.224 Y92.794 E2.67025
G1 X93.443 Y92.794 E2.67448
G1 X93.661 Y92.822 E2.67871
G1 X93.879 Y92.878 E2.68303
G1 X94.261 Y93.057 E2.69116
G1 X94.449 Y93.192 E2.69561
G1 X94.609 Y93.343 E2.69984
G1 X94.749 Y93.512 E2.70407
G1 X94.867 Y93.698 E2.70830
G1 X94.961 Y93.897 E2.71253
G1 X95.029 Y94.106 E2.71675
G1 X95.080 Y94.481 E2.72404
G1 X95.274 Y94.651 F6000.000
G1 E0.72404 F1200.00000
G92 E0
G1 Z0.700 F6000.000
G1 X93.476 Y81.802 F6000.000
G1 Z0.200 F6000.000
G1 E2.00000 F1200.00000
G1 F1800
G1 X93.191 Y81.802 E2.00547
G1 X92.909 Y81.767 E2.01094
G1 X92.633 Y81.696 E2.01642
G1 X92.369 Y81.591 E2.02189
G1 X92.120 Y81.454 E2.02736
G1 X91.890 Y81.287 E2.03284
G1 X91.682 Y81.092 E2.03831
G1 X91.501 Y80.873 E2.04379
G1 X91.348 Y80.632 E2.04926
G1 X91.227 Y80.375 E2.05473
G1 X91.139 Y80.103 E2.06023
G1 X91.081 Y79.796 E2.06624
G1 X91.082 Y79.277 E2.07622
G1 X91.139 Y78.978 E2.08209
G1 X91.227 Y78.707 E2.08756
G1 X91.348 Y78.450 E2.09304
G1 X91.501 Y78.210 E2.09851
G1 X91.695 Y77.974 E2.10438
G1 X92.095 Y77.643 E2.11436
G1 X92.368 Y77.492 E2.12037
G1 X92.633 Y77.387 E2.12587
G1 X92.909 Y77.316 E2.13134
G1 X93.191 Y77.280 E2.13682
G1 X93.476 Y77.280 E2.14229
G1 X93.758 Y77.316 E2.14776
G1 X94.034 Y77.387 E2.15324
G1 X94.298 Y77.491 E2.15871
G1 X94.547 Y77.628 E2.16418
G1 X94.778 Y77.796 E2.16966
G1 X94.985 Y77.990 E2.17513
G1 X95.166 Y78.209 E2.18060
G1 X95.319 Y78.450 E2.18608
G1 X95.440 Y78.707 E2.19155
G1 X95.528 Y78.978 E2.19702
G1 X95.581 Y79.257 E2.20250
G1 X95.599 Y79.541 E2.20797
G1 X95.581 Y79.825 E2.21344
G1 X95.528 Y80.105 E2.21892
G1 X95.440 Y80.375 E2.22439
G1 X95.319 Y80.632 E2.22986
G1 X95.166 Y80.873 E2.23534
G1 X94.985 Y81.092 E2.24081
G1 X94.777 Y81.288 E2.24631
G1 X94.523 Y81.470 E2.25232
G1 X94.054 Y81.691 E2.26230
G1 X93.758 Y81.767 E2.26817
G1 X93.535 Y81.795 E2.27249
G1 X93.460 Y81.545 F6000.000
G1 F1800
G1 X93.207 Y81.545 E2.27734
G1 X92.957 Y81.513 E2.28219
G1 X92.713 Y81.451 E2.28704
G1 X92.479 Y81.358 E2.29189
G1 X92.258 Y81.236 E2.29674
G1 X92.054 Y81.088 E2.30159
G1 X91.870 Y80.916 E2.30645
G1 X91.709 Y80.721 E2.31130
G1 X91.574 Y80.508 E2.31615
G1 X91.467 Y80.280 E2.32100
G1 X91.388 Y80.040 E2.32587
G1 X91.339 Y79.772 E2.33110
G1 X91.339 Y79.302 E2.34015
G1 X91.389 Y79.042 E2.34524
G1 X91.467 Y78.802 E2.35009
G1 X91.574 Y78.574 E2.35494
G1 X91.709 Y78.361 E2.35980
G1 X91.878 Y78.157 E2.36489
G1 X92.240 Y77.857 E2.37394
