; generated by Slic3r 1.3.1-dev (Build (Unknown revision)) on 2020-11-26 at 17:19:51

; external perimeters extrusion width = 0.44mm (2.86mm^3/s)
; perimeters extrusion width = 0.56mm (4.14mm^3/s)
; infill extrusion width = 0.50mm (3.66mm^3/s)
; solid infill extrusion width = 0.56mm (3.10mm^3/s)
; top infill extrusion width = 0.45mm (2.44mm^3/s)

M107
G92 E0
;D3D:START:START
T0
M104 S215 T0

G21
G90
M107
T0
G28
G29
M109 T0 S215 T0
G0 F3000
M107
T0
G92 E0
G0 X0 Y149 Z0.1 F3600
G1 Y49 E6.5 F1200
G0 Z1
G92 E0
; Filament gcode

G21 ; set units to millimeters
G90 ; use absolute coordinates
M82 ; use absolute distances for extrusion
G92 E0
G1 Z0.300 F6000.000
G1 E-2.00000 F1200.00000
G92 E0
G1 Z0.800 F6000.000
G1 X38.275 Y45.301 F6000.000
G1 Z0.300 F6000.000
G1 E2.00000 F1200.00000
G1 F1800.000
G1 X40.146 Y43.932 E2.10372
G1 X43.150 Y43.229 E2.24171
G1 X106.850 Y43.229 E5.09100
G1 X109.135 Y43.626 E5.19472
G1 X111.151 Y44.770 E5.29845
G1 X113.025 Y47.221 E5.43644
G1 X116.175 Y54.221 E5.77979
G1 X116.771 Y57.000 E5.90691
G1 X116.771 Y89.000 E7.33826
G1 X116.374 Y91.285 E7.44198
G1 X115.230 Y93.301 E7.54571
G1 X113.472 Y94.813 E7.64943
G1 X112.285 Y95.374 E7.70814
G1 X85.010 Y105.151 E9.00414
G1 X83.107 Y105.717 E9.09298
G1 X82.694 Y105.823 E9.11201
G1 X80.744 Y106.245 E9.20128
G1 X79.193 Y106.491 E9.27153
G1 X77.207 Y106.692 E9.36080
G1 X75.213 Y106.768 E9.45008
G1 X73.218 Y106.719 E9.53933
G1 X72.793 Y106.692 E9.55837
G1 X70.807 Y106.491 E9.64764
G1 X69.256 Y106.245 E9.71789
G1 X67.306 Y105.823 E9.80715
G1 X65.385 Y105.279 E9.89643
G1 X64.990 Y105.151 E9.91503
G1 X37.715 Y95.374 E11.21102
G1 X35.699 Y94.229 E11.31474
G1 X34.186 Y92.472 E11.41846
G1 X33.356 Y90.307 E11.52219
G1 X33.229 Y89.000 E11.58090
G1 X33.229 Y57.000 E13.01226
G1 X33.825 Y54.221 E13.13938
G1 X36.975 Y47.221 E13.48273
G1 X38.241 Y45.351 E13.58377
G1 X38.598 Y45.522 F6000.000
G1 F1800.000
G1 X40.435 Y44.220 E13.68447
G1 X43.150 Y43.614 E13.80888
G1 X106.850 Y43.614 E16.65817
G1 X109.066 Y44.011 E16.75888
G1 X111.007 Y45.153 E16.85958
G1 X112.673 Y47.380 E16.98400
G1 X115.823 Y54.380 E17.32735
G1 X116.386 Y57.000 E17.44723
G1 X116.386 Y89.000 E18.87858
G1 X115.989 Y91.216 E18.97928
G1 X114.847 Y93.157 E19.07998
G1 X112.155 Y95.011 E19.22623
G1 X84.880 Y104.788 E20.52223
G1 X82.999 Y105.347 E20.61001
G1 X82.610 Y105.446 E20.62796
G1 X80.684 Y105.864 E20.71614
G1 X79.132 Y106.110 E20.78639
G1 X77.171 Y106.308 E20.87458
G1 X75.200 Y106.382 E20.96277
G1 X73.230 Y106.333 E21.05095
G1 X72.829 Y106.308 E21.06890
G1 X70.868 Y106.110 E21.15709
G1 X69.316 Y105.864 E21.22734
G1 X67.390 Y105.446 E21.31552
G1 X65.493 Y104.908 E21.40371
G1 X37.845 Y95.011 E22.71723
G1 X35.893 Y93.890 E22.81794
G1 X34.451 Y92.161 E22.91864
G1 X33.614 Y89.000 E23.06489
G1 X33.614 Y57.000 E24.49624
G1 X34.177 Y54.380 E24.61612
G1 X37.327 Y47.380 E24.95947
G1 X38.564 Y45.571 E25.05749
G1 E23.05749 F1200.00000
G92 E0
G1 Z0.800 F6000.000
G1 X79.004 Y96.377 F6000.000
G1 Z0.300 F6000.000
G1 E2.00000 F1200.00000
G1 F1800.000
G1 X79.004 Y88.984 E2.33073
G1 X78.823 Y88.943 E2.33902
G1 X78.767 Y89.061 E2.34486
G1 X78.478 Y89.518 E2.36905
G1 X78.135 Y89.936 E2.39323
G1 X77.741 Y90.306 E2.41740
G1 X77.305 Y90.625 E2.44158
G1 X76.831 Y90.886 E2.46575
G1 X76.329 Y91.086 E2.48992
G1 X75.806 Y91.220 E2.51409
G1 X75.270 Y91.288 E2.53825
G1 X74.730 Y91.288 E2.56242
G1 X74.194 Y91.220 E2.58659
G1 X73.671 Y91.086 E2.61075
G1 X73.169 Y90.886 E2.63492
G1 X72.695 Y90.625 E2.65909
G1 X72.259 Y90.306 E2.68327
G1 X71.865 Y89.936 E2.70745
G1 X71.522 Y89.518 E2.73163
G1 X71.233 Y89.061 E2.75581
G1 X71.177 Y88.943 E2.76165
G1 X70.996 Y88.984 E2.76995
G1 X70.996 Y96.377 E3.10067
G1 X69.129 Y95.833 E3.18769
G1 X68.006 Y95.427 E3.24110
G1 X66.910 Y94.951 E3.29452
G1 X65.847 Y94.407 E3.34795
G1 X64.820 Y93.797 E3.40138
G1 X63.833 Y93.124 E3.45483
G1 X62.890 Y92.390 E3.50828
G1 X61.995 Y91.598 E3.56175
G1 X61.151 Y90.751 E3.61523
G1 X60.362 Y89.852 E3.66872
G1 X59.630 Y88.906 E3.72222
G1 X58.960 Y87.915 E3.77572
G1 X58.352 Y86.884 E3.82924
G1 X57.811 Y85.817 E3.88277
G1 X57.337 Y84.718 E3.93631
G1 X56.933 Y83.591 E3.98985
G1 X56.392 Y81.724 E4.07682
G1 X60.526 Y81.724 E4.26172
G1 X60.566 Y81.543 E4.27000
G1 X60.428 Y81.477 E4.27685
G1 X59.972 Y81.187 E4.30102
G1 X59.556 Y80.842 E4.32519
G1 X59.187 Y80.447 E4.34938
G1 X58.870 Y80.009 E4.37356
G1 X58.610 Y79.535 E4.39775
G1 X58.412 Y79.032 E4.42194
G1 X58.278 Y78.508 E4.44613
G1 X58.210 Y77.971 E4.47032
G1 X58.210 Y77.430 E4.49452
G1 X58.278 Y76.894 E4.51871
G1 X58.412 Y76.370 E4.54290
G1 X58.610 Y75.867 E4.56709
G1 X58.870 Y75.392 E4.59127
G1 X59.187 Y74.954 E4.61546
G1 X59.556 Y74.560 E4.63964
G1 X59.972 Y74.214 E4.66382
G1 X60.428 Y73.924 E4.68799
G1 X60.566 Y73.859 E4.69483
G1 X60.526 Y73.678 E4.70311
G1 X56.392 Y73.678 E4.88800
G1 X56.933 Y71.810 E4.97497
G1 X57.337 Y70.683 E5.02851
G1 X57.811 Y69.584 E5.08205
G1 X58.352 Y68.517 E5.13558
G1 X58.960 Y67.486 E5.18909
G1 X59.630 Y66.496 E5.24260
G1 X60.362 Y65.549 E5.29610
G1 X61.151 Y64.651 E5.34959
G1 X61.995 Y63.804 E5.40307
G1 X62.890 Y63.012 E5.45653
G1 X63.833 Y62.277 E5.50999
G1 X64.820 Y61.604 E5.56344
G1 X65.847 Y60.994 E5.61687
G1 X66.910 Y60.450 E5.67030
G1 X68.006 Y59.975 E5.72372
G1 X69.129 Y59.569 E5.77713
G1 X70.996 Y59.024 E5.86415
G1 X70.996 Y66.418 E6.19487
G1 X71.177 Y66.458 E6.20317
G1 X71.233 Y66.340 E6.20900
G1 X71.522 Y65.883 E6.23319
G1 X71.865 Y65.466 E6.25737
G1 X72.259 Y65.095 E6.28155
G1 X72.695 Y64.777 E6.30573
G1 X73.169 Y64.515 E6.32990
G1 X73.671 Y64.316 E6.35407
G1 X74.194 Y64.181 E6.37823
G1 X74.730 Y64.113 E6.40240
G1 X75.270 Y64.113 E6.42656
G1 X75.806 Y64.181 E6.45073
G1 X76.329 Y64.316 E6.47490
G1 X76.831 Y64.515 E6.49906
G1 X77.305 Y64.777 E6.52324
G1 X77.741 Y65.095 E6.54741
G1 X78.135 Y65.466 E6.57159
G1 X78.478 Y65.883 E6.59577
G1 X78.767 Y66.340 E6.61996
G1 X78.823 Y66.458 E6.62580
G1 X79.004 Y66.418 E6.63410
G1 X79.004 Y59.024 E6.96482
G1 X80.871 Y59.569 E7.05184
G1 X81.994 Y59.975 E7.10525
G1 X83.090 Y60.450 E7.15867
G1 X84.153 Y60.994 E7.21210
G1 X85.180 Y61.604 E7.26553
G1 X86.167 Y62.277 E7.31898
G1 X87.110 Y63.012 E7.37243
G1 X88.005 Y63.804 E7.42590
G1 X88.849 Y64.651 E7.47938
G1 X89.638 Y65.549 E7.53286
G1 X90.370 Y66.496 E7.58636
G1 X91.040 Y67.486 E7.63988
G1 X91.648 Y68.517 E7.69339
G1 X92.189 Y69.584 E7.74692
G1 X92.663 Y70.683 E7.80046
G1 X93.067 Y71.810 E7.85400
G1 X93.608 Y73.678 E7.94097
G1 X89.474 Y73.678 E8.12586
G1 X89.434 Y73.859 E8.13414
G1 X89.572 Y73.924 E8.14098
G1 X90.028 Y74.214 E8.16515
G1 X90.444 Y74.560 E8.18933
G1 X90.813 Y74.954 E8.21351
G1 X91.130 Y75.392 E8.23769
G1 X91.390 Y75.867 E8.26188
G1 X91.588 Y76.370 E8.28607
G1 X91.722 Y76.894 E8.31026
G1 X91.790 Y77.430 E8.33445
G1 X91.790 Y77.971 E8.35865
G1 X91.722 Y78.508 E8.38284
G1 X91.588 Y79.032 E8.40703
G1 X91.390 Y79.535 E8.43122
G1 X91.130 Y80.009 E8.45541
G1 X90.813 Y80.447 E8.47959
G1 X90.444 Y80.842 E8.50377
G1 X90.028 Y81.187 E8.52795
G1 X89.572 Y81.477 E8.55212
G1 X89.434 Y81.543 E8.55897
G1 X89.474 Y81.724 E8.56725
G1 X93.608 Y81.724 E8.75215
G1 X93.067 Y83.591 E8.83912
G1 X92.663 Y84.718 E8.89266
G1 X92.189 Y85.817 E8.94620
G1 X91.648 Y86.884 E8.99973
G1 X91.040 Y87.915 E9.05325
G1 X90.370 Y88.906 E9.10675
G1 X89.638 Y89.852 E9.16025
G1 X88.849 Y90.751 E9.21374
G1 X88.005 Y91.598 E9.26722
G1 X87.110 Y92.390 E9.32069
G1 X86.167 Y93.124 E9.37414
G1 X85.180 Y93.797 E9.42758
G1 X84.153 Y94.407 E9.48102
G1 X83.090 Y94.951 E9.53445
G1 X81.994 Y95.427 E9.58787
G1 X80.871 Y95.833 E9.64128
G1 X79.061 Y96.361 E9.72561
G1 E7.72561 F1200.00000
G92 E0
G1 Z0.800 F6000.000
G1 X70.611 Y95.863 F6000.000
G1 Z0.300 F6000.000
G1 E2.00000 F1200.00000
G1 F1800.000
G1 X69.248 Y95.466 E2.06348
G1 X68.148 Y95.068 E2.11580
G1 X67.075 Y94.602 E2.16813
G1 X66.033 Y94.069 E2.22047
G1 X65.027 Y93.472 E2.27282
G1 X64.060 Y92.812 E2.32518
G1 X63.136 Y92.093 E2.37755
G1 X62.259 Y91.317 E2.42994
G1 X61.432 Y90.487 E2.48233
G1 X60.659 Y89.607 E2.53473
G1 X59.943 Y88.679 E2.58715
G1 X59.286 Y87.709 E2.63958
G1 X58.691 Y86.699 E2.69201
G1 X58.160 Y85.653 E2.74446
G1 X57.696 Y84.576 E2.79692
G1 X57.300 Y83.472 E2.84938
G1 X56.905 Y82.109 E2.91285
G1 X68.426 Y82.109 E3.42819
G1 X68.922 Y82.751 E3.46447
G1 X69.250 Y83.124 E3.48669
G1 X69.600 Y83.476 E3.50890
G1 X69.972 Y83.805 E3.53111
G1 X70.611 Y84.302 E3.56730
G1 X70.611 Y95.803 E4.08174
G1 X70.225 Y95.349 F6000.000
G1 F1800.000
G1 X69.368 Y95.099 E4.12168
G1 X68.291 Y94.710 E4.17292
G1 X67.240 Y94.253 E4.22416
G1 X66.220 Y93.732 E4.27541
G1 X65.234 Y93.146 E4.32668
G1 X64.287 Y92.501 E4.37795
G1 X63.383 Y91.796 E4.42924
G1 X62.524 Y91.036 E4.48053
G1 X61.714 Y90.223 E4.53184
G1 X60.957 Y89.361 E4.58317
G1 X60.255 Y88.453 E4.63450
G1 X59.612 Y87.503 E4.68584
G1 X59.029 Y86.514 E4.73719
G1 X58.509 Y85.490 E4.78856
G1 X58.055 Y84.435 E4.83994
G1 X57.667 Y83.354 E4.89132
G1 X57.418 Y82.495 E4.93131
G1 X68.237 Y82.495 E5.41522
G1 X68.624 Y82.996 E5.44357
G1 X68.968 Y83.388 E5.46687
G1 X69.336 Y83.757 E5.49017
G1 X69.726 Y84.102 E5.51346
G1 X70.225 Y84.491 E5.54177
G1 X70.225 Y95.289 E6.02478
G1 X70.156 Y95.743 F6000.000
G1 E4.02478 F1200.00000
G92 E0
G1 Z0.800 F6000.000
G1 X63.941 Y81.349 F6000.000
G1 Z0.300 F6000.000
G1 E2.00000 F1200.00000
G1 F1800.000
G1 X63.473 Y81.502 E2.02199
G1 X62.991 Y81.594 E2.04398
G1 X62.500 Y81.625 E2.06597
G1 X62.009 Y81.594 E2.08795
G1 X61.527 Y81.502 E2.10994
G1 X61.059 Y81.349 E2.13193
G1 X60.615 Y81.139 E2.15393
G1 X60.200 Y80.875 E2.17593
G1 X59.821 Y80.561 E2.19793
G1 X59.485 Y80.201 E2.21994
G1 X59.197 Y79.803 E2.24196
G1 X58.960 Y79.371 E2.26398
G1 X58.779 Y78.913 E2.28601
G1 X58.657 Y78.436 E2.30803
G1 X58.596 Y77.947 E2.33006
G1 X58.596 Y77.454 E2.35210
G1 X58.657 Y76.966 E2.37412
G1 X58.779 Y76.489 E2.39615
G1 X58.960 Y76.031 E2.41818
G1 X59.197 Y75.599 E2.44020
G1 X59.485 Y75.200 E2.46222
G1 X59.821 Y74.841 E2.48423
G1 X60.200 Y74.526 E2.50623
G1 X60.615 Y74.262 E2.52823
G1 X61.059 Y74.052 E2.55022
G1 X61.527 Y73.900 E2.57222
G1 X62.009 Y73.807 E2.59421
G1 X62.500 Y73.776 E2.61619
G1 X62.991 Y73.807 E2.63818
G1 X63.473 Y73.900 E2.66017
G1 X63.941 Y74.052 E2.68216
G1 X64.385 Y74.262 E2.70415
G1 X64.800 Y74.526 E2.72615
G1 X65.179 Y74.841 E2.74816
G1 X65.515 Y75.200 E2.77017
G1 X65.803 Y75.599 E2.79218
G1 X66.040 Y76.031 E2.81420
G1 X66.221 Y76.489 E2.83623
G1 X66.343 Y76.966 E2.85826
G1 X66.404 Y77.454 E2.88029
G1 X66.404 Y77.947 E2.90232
G1 X66.343 Y78.436 E2.92435
G1 X66.221 Y78.913 E2.94638
G1 X66.040 Y79.371 E2.96840
G1 X65.803 Y79.803 E2.99043
G1 X65.515 Y80.201 E3.01244
G1 X65.179 Y80.561 E3.03445
G1 X64.800 Y80.875 E3.05646
G1 X64.385 Y81.139 E3.07845
G1 X63.995 Y81.324 E3.09777
G1 X63.798 Y80.990 F6000.000
G1 F1800.000
G1 X63.377 Y81.128 E3.11758
G1 X62.942 Y81.211 E3.13739
G1 X62.500 Y81.239 E3.15720
G1 X62.058 Y81.211 E3.17701
G1 X61.623 Y81.128 E3.19682
G1 X61.202 Y80.990 E3.21663
G1 X60.801 Y80.801 E3.23645
G1 X60.427 Y80.563 E3.25628
G1 X60.086 Y80.280 E3.27611
G1 X59.783 Y79.956 E3.29595
G1 X59.523 Y79.596 E3.31580
G1 X59.310 Y79.207 E3.33565
G1 X59.147 Y78.794 E3.35552
G1 X59.037 Y78.364 E3.37538
G1 X58.982 Y77.923 E3.39525
G1 X58.982 Y77.479 E3.41512
G1 X59.037 Y77.038 E3.43498
G1 X59.147 Y76.608 E3.45485
G1 X59.310 Y76.195 E3.47471
G1 X59.523 Y75.805 E3.49456
G1 X59.783 Y75.446 E3.51442
G1 X60.086 Y75.122 E3.53426
G1 X60.427 Y74.839 E3.55409
G1 X60.801 Y74.600 E3.57391
G1 X61.202 Y74.411 E3.59373
G1 X61.623 Y74.274 E3.61355
G1 X62.058 Y74.191 E3.63336
G1 X62.500 Y74.163 E3.65317
G1 X62.942 Y74.191 E3.67297
G1 X63.377 Y74.274 E3.69278
G1 X63.798 Y74.411 E3.71260
G1 X64.199 Y74.600 E3.73242
G1 X64.573 Y74.839 E3.75224
G1 X64.914 Y75.122 E3.77208
G1 X65.217 Y75.446 E3.79191
G1 X65.477 Y75.805 E3.81176
G1 X65.690 Y76.195 E3.83162
G1 X65.853 Y76.608 E3.85148
G1 X65.963 Y77.038 E3.87135
G1 X66.018 Y77.479 E3.89121
G1 X66.018 Y77.923 E3.91108
G1 X65.963 Y78.364 E3.93095
G1 X65.853 Y78.794 E3.95082
G1 X65.690 Y79.207 E3.97068
G1 X65.477 Y79.596 E3.99053
G1 X65.217 Y79.956 E4.01038
G1 X64.914 Y80.280 E4.03022
G1 X64.573 Y80.563 E4.05005
G1 X64.199 Y80.801 E4.06988
G1 X63.852 Y80.965 E4.08702
G1 X63.740 Y81.386 F6000.000
G1 E2.08702 F1200.00000
G92 E0
G1 Z0.800 F6000.000
G1 X56.905 Y73.292 F6000.000
G1 Z0.300 F6000.000
G1 E2.00000 F1200.00000
G1 F1800.000
G1 X57.300 Y71.929 E2.06348
G1 X57.696 Y70.825 E2.11594
G1 X58.160 Y69.748 E2.16840
G1 X58.691 Y68.703 E2.22084
G1 X59.286 Y67.693 E2.27328
G1 X59.943 Y66.722 E2.32571
G1 X60.659 Y65.795 E2.37812
G1 X61.432 Y64.914 E2.43053
G1 X62.259 Y64.085 E2.48292
G1 X63.136 Y63.309 E2.53530
G1 X64.060 Y62.589 E2.58767
G1 X65.027 Y61.929 E2.64003
G1 X66.033 Y61.332 E2.69238
G1 X67.075 Y60.799 E2.74472
G1 X68.148 Y60.333 E2.79705
G1 X69.248 Y59.935 E2.84938
G1 X70.611 Y59.538 E2.91286
G1 X70.611 Y71.099 E3.42998
G1 X69.972 Y71.596 E3.46617
G1 X69.600 Y71.925 E3.48838
G1 X69.250 Y72.277 E3.51059
G1 X68.922 Y72.650 E3.53281
G1 X68.426 Y73.292 E3.56909
G1 X56.965 Y73.292 E4.08174
G1 X57.418 Y72.907 F6000.000
G1 F1800.000
G1 X57.667 Y72.048 E4.12173
G1 X58.055 Y70.967 E4.17311
G1 X58.509 Y69.912 E4.22448
G1 X59.029 Y68.888 E4.27585
G1 X59.612 Y67.899 E4.32720
G1 X60.255 Y66.948 E4.37855
G1 X60.957 Y66.040 E4.42988
G1 X61.714 Y65.178 E4.48120
G1 X62.524 Y64.365 E4.53251
G1 X63.383 Y63.605 E4.58381
G1 X64.287 Y62.901 E4.63509
G1 X65.234 Y62.255 E4.68637
G1 X66.220 Y61.670 E4.73763
G1 X67.240 Y61.148 E4.78889
G1 X68.291 Y60.692 E4.84013
G1 X69.368 Y60.302 E4.89137
G1 X70.225 Y60.052 E4.93130
G1 X70.225 Y70.911 E5.41700
G1 X69.726 Y71.299 E5.44530
G1 X69.336 Y71.645 E5.46859
G1 X68.968 Y72.014 E5.49189
G1 X68.624 Y72.405 E5.51520
G1 X68.237 Y72.907 E5.54355
G1 X57.478 Y72.907 E6.02478
G1 X57.024 Y72.838 F6000.000
G1 E4.02478 F1200.00000
G92 E0
G1 Z0.800 F6000.000
G1 X73.624 Y72.253 F6000.000
G1 Z0.300 F6000.000
G1 E2.00000 F1200.00000
G1 F1800.000
G1 X73.635 Y72.086 E2.00751
G1 X73.334 Y71.966 E2.02199
G1 X72.903 Y71.728 E2.04399
G1 X72.506 Y71.439 E2.06599
G1 X72.148 Y71.101 E2.08800
G1 X71.835 Y70.721 E2.11002
G1 X71.572 Y70.305 E2.13203
G1 X71.363 Y69.859 E2.15406
G1 X71.211 Y69.391 E2.17608
G1 X71.119 Y68.907 E2.19812
G1 X71.088 Y68.415 E2.22015
G1 X71.119 Y67.924 E2.24218
G1 X71.211 Y67.440 E2.26421
G1 X71.363 Y66.971 E2.28623
G1 X71.572 Y66.526 E2.30826
G1 X71.835 Y66.109 E2.33028
G1 X72.148 Y65.730 E2.35229
G1 X72.506 Y65.392 E2.37430
G1 X72.903 Y65.102 E2.39630
G1 X73.334 Y64.865 E2.41830
G1 X73.791 Y64.683 E2.44029
G1 X74.267 Y64.560 E2.46228
G1 X74.754 Y64.499 E2.48427
G1 X75.246 Y64.499 E2.50625
G1 X75.733 Y64.561 E2.52824
G1 X76.209 Y64.683 E2.55023
G1 X76.666 Y64.865 E2.57222
G1 X77.097 Y65.102 E2.59422
G1 X77.494 Y65.392 E2.61622
G1 X77.852 Y65.730 E2.63823
G1 X78.165 Y66.109 E2.66024
G1 X78.428 Y66.526 E2.68226
G1 X78.637 Y66.971 E2.70428
G1 X78.789 Y67.440 E2.72631
G1 X78.881 Y67.924 E2.74834
G1 X78.912 Y68.415 E2.77037
G1 X78.881 Y68.907 E2.79240
G1 X78.789 Y69.391 E2.81443
G1 X78.637 Y69.859 E2.83646
G1 X78.428 Y70.305 E2.85848
G1 X78.165 Y70.721 E2.88050
G1 X77.852 Y71.101 E2.90251
G1 X77.494 Y71.439 E2.92452
G1 X77.097 Y71.728 E2.94653
G1 X76.666 Y71.966 E2.96852
G1 X76.365 Y72.086 E2.98301
G1 X76.376 Y72.253 E2.99052
G1 X76.725 Y72.343 E3.00666
G1 X77.075 Y72.470 E3.02330
G1 X77.696 Y72.763 E3.05399
G1 X78.007 Y72.948 E3.07020
G1 X78.307 Y73.152 E3.08641
G1 X78.842 Y73.597 E3.11755
G1 X79.318 Y74.105 E3.14870
G1 X79.743 Y74.693 E3.18114
G1 X80.073 Y75.296 E3.21188
G1 X80.221 Y75.638 E3.22855
G1 X80.436 Y76.301 E3.25973
G1 X80.566 Y76.986 E3.29091
G1 X80.611 Y77.710 E3.32338
G1 X80.568 Y78.397 E3.35414
G1 X80.510 Y78.765 E3.37081
G1 X80.337 Y79.440 E3.40200
G1 X80.082 Y80.089 E3.43317
G1 X79.917 Y80.412 E3.44940
G1 X79.733 Y80.725 E3.46563
G1 X79.330 Y81.281 E3.49637
G1 X79.085 Y81.561 E3.51302
G1 X78.578 Y82.039 E3.54417
G1 X78.008 Y82.454 E3.57573
G1 X77.399 Y82.791 E3.60685
G1 X77.057 Y82.939 E3.62349
G1 X76.156 Y83.233 E3.66588
G1 X76.666 Y83.436 E3.69043
G1 X77.097 Y83.673 E3.71242
G1 X77.494 Y83.963 E3.73442
G1 X77.852 Y84.300 E3.75643
G1 X78.165 Y84.680 E3.77845
G1 X78.428 Y85.096 E3.80047
G1 X78.637 Y85.542 E3.82249
G1 X78.789 Y86.011 E3.84451
