; generated by Slic3r 1.3.1-dev (Build (Unknown revision)) on 2020-09-25 at 10:39:15

; external perimeters extrusion width = 0.44mm (2.86mm^3/s)
; perimeters extrusion width = 0.56mm (4.14mm^3/s)
; infill extrusion width = 0.50mm (3.66mm^3/s)
; solid infill extrusion width = 0.56mm (3.10mm^3/s)
; top infill extrusion width = 0.45mm (2.44mm^3/s)

M107
G92 E0
;D3D:START:START
T0
M104 S215 T0

G21
G90
M107
T0
G28
G29
M109 T0 S215 T0
G0 F3000
M107
T0
G92 E0
G0 X0 Y149 Z0.1 F3600
G1 Y49 E6.5 F1200
G0 Z1
G92 E0
; Filament gcode

G21 ; set units to millimeters
G90 ; use absolute coordinates
M82 ; use absolute distances for extrusion
G92 E0
G1 Z0.300 F6000.000
G1 E-2.00000 F1200.00000
G92 E0
G1 Z0.800 F6000.000
G1 X52.770 Y53.699 F6000.000
G1 Z0.300 F6000.000
G1 E2.00000 F1200.00000
G1 F1800.000
G1 X54.528 Y52.187 E2.10372
G1 X56.693 Y51.356 E2.20744
G1 X58.000 Y51.229 E2.26617
G1 X92.000 Y51.229 E3.78698
G1 X94.285 Y51.626 E3.89070
G1 X96.301 Y52.770 E3.99442
G1 X97.813 Y54.528 E4.09815
G1 X98.644 Y56.693 E4.20187
G1 X98.771 Y58.000 E4.26059
G1 X98.771 Y88.000 E5.60249
G1 X98.374 Y90.285 E5.70621
G1 X97.230 Y92.301 E5.80993
G1 X95.472 Y93.813 E5.91365
G1 X93.307 Y94.644 E6.01737
G1 X92.000 Y94.771 E6.07610
G1 X58.000 Y94.771 E7.59691
G1 X55.715 Y94.374 E7.70063
G1 X53.699 Y93.230 E7.80435
G1 X52.187 Y91.472 E7.90807
G1 X51.356 Y89.307 E8.01179
G1 X51.229 Y88.000 E8.07052
G1 X51.229 Y58.000 E9.41242
G1 X51.626 Y55.715 E9.51614
G1 X52.741 Y53.751 E9.61717
G1 X53.153 Y53.843 F6000.000
G1 F1800.000
G1 X54.896 Y52.419 E9.71788
G1 X58.000 Y51.614 E9.86129
G1 X92.000 Y51.614 E11.38211
G1 X94.216 Y52.011 E11.48281
G1 X96.157 Y53.153 E11.58351
G1 X97.581 Y54.896 E11.68421
G1 X98.386 Y58.000 E11.82763
G1 X98.386 Y88.000 E13.16953
G1 X97.989 Y90.216 E13.27023
G1 X96.847 Y92.157 E13.37093
G1 X95.104 Y93.581 E13.47163
G1 X92.000 Y94.386 E13.61505
G1 X58.000 Y94.386 E15.13587
G1 X55.784 Y93.989 E15.23657
G1 X53.843 Y92.847 E15.33727
G1 X52.419 Y91.104 E15.43797
G1 X51.614 Y88.000 E15.58139
G1 X51.614 Y58.000 E16.92329
G1 X52.011 Y55.784 E17.02399
G1 X53.122 Y53.895 E17.12201
G1 E15.12201 F1200.00000
G92 E0
G1 Z0.800 F6000.000
G1 X59.389 Y87.389 F6000.000
G1 Z0.300 F6000.000
G1 E2.00000 F1200.00000
G1 F1800.000
G1 X58.611 Y87.389 E2.03483
G1 X58.611 Y58.611 E3.32210
G1 X59.389 Y58.611 E3.35694
G1 X59.389 Y87.329 E4.64152
G1 X59.775 Y87.775 F6000.000
G1 F1800.000
G1 X58.225 Y87.775 E4.71085
G1 X58.225 Y58.225 E6.03262
G1 X59.775 Y58.225 E6.10195
G1 X59.775 Y87.715 E7.42103
G1 X59.425 Y87.581 F6000.000
G1 E5.42103 F1200.00000
G92 E0
G1 Z0.800 F6000.000
G1 X90.611 Y87.389 F6000.000
G1 Z0.300 F6000.000
G1 E2.00000 F1200.00000
G1 F1800.000
G1 X90.611 Y58.611 E3.28727
G1 X91.389 Y58.611 E3.32210
G1 X91.389 Y87.389 E4.60937
G1 X90.671 Y87.389 E4.64152
G1 X90.225 Y87.775 F6000.000
G1 F1800.000
G1 X90.225 Y58.225 E5.96329
G1 X91.775 Y58.225 E6.03262
G1 X91.775 Y87.775 E7.35439
G1 X90.285 Y87.775 E7.42103
G1 X90.232 Y87.375 F6000.000
G1 X91.000 Y87.197 F6000.000
G1 F1800.000
G1 X91.000 Y58.803 E8.50380
G1 E6.50380 F1200.00000
G92 E0
G1 Z0.800 F6000.000
G1 X59.000 Y58.803 F6000.000
G1 Z0.300 F6000.000
G1 E2.00000 F1200.00000
G1 F1800.000
G1 X59.000 Y87.197 E3.08277
G1 Z0.500 F6000.000
G1 X59.323 Y87.323 F6000.000
G1 F2400.000
G1 X58.677 Y87.323 E3.10859
G1 X58.677 Y58.677 E4.25402
G1 X59.323 Y58.677 E4.27984
G1 X59.323 Y87.263 E5.42286
G1 X59.780 Y87.780 F6000.000
G1 F2160.000
G1 X58.220 Y87.780 E5.47077
G1 X58.220 Y58.220 E6.37844
G1 X59.780 Y58.220 E6.42634
G1 X59.780 Y87.720 E7.33217
G1 X59.430 Y87.586 F6000.000
G1 X59.780 Y87.904 F6000.000
G1 F2160.000
G1 X90.220 Y87.904 E7.68420
G1 X90.677 Y87.323 F6000.000
G1 F2400.000
G1 X90.677 Y58.677 E8.82962
G1 X91.323 Y58.677 E8.85544
G1 X91.323 Y87.323 E10.00087
G1 X90.737 Y87.323 E10.02429
G1 X90.220 Y87.780 F6000.000
G1 F2160.000
G1 X90.220 Y58.220 E10.93197
G1 X91.780 Y58.220 E10.97987
G1 X91.780 Y87.780 E11.88754
G1 X90.280 Y87.780 E11.93360
G1 X90.227 Y87.380 F6000.000
G1 E9.93360 F1200.00000
G92 E0
G1 Z1.000 F6000.000
G1 X90.220 Y58.096 F6000.000
G1 Z0.500 F6000.000
G1 E2.00000 F1200.00000
G1 F2160.000
G1 X59.780 Y58.096 E2.35203
G1 X59.000 Y58.936 F6000.000
G1 F1200.000
G1 X59.000 Y87.064 E2.53876
G1 E0.53876 F1200.00000
G92 E0
G1 Z1.000 F6000.000
G1 X91.000 Y87.064 F6000.000
G1 Z0.500 F6000.000
G1 E2.00000 F1200.00000
G1 F1200.000
G1 X91.000 Y58.936 E2.18673
G1 Z0.700 F6000.000
G1 E0.18673 F1200.00000
G92 E0
G1 Z1.200 F6000.000
G1 X59.323 Y87.323 F6000.000
G1 Z0.700 F6000.000
G1 E2.00000 F1200.00000
G1 F2400.000
G1 X58.677 Y87.323 E2.02582
G1 X58.677 Y58.677 E3.17125
G1 X59.323 Y58.677 E3.19707
G1 X59.323 Y87.263 E4.34010
G1 X59.780 Y87.780 F6000.000
G1 F2160.000
G1 X58.220 Y87.780 E4.38800
G1 X58.220 Y58.220 E5.29567
G1 X59.780 Y58.220 E5.34357
G1 X59.780 Y87.720 E6.24940
G1 X59.430 Y87.586 F6000.000
G1 X59.780 Y87.856 F6000.000
G1 F2160.000
G1 X90.220 Y87.856 E6.82665
G1 X90.677 Y87.323 F6000.000
G1 F2400.000
G1 X90.677 Y58.677 E7.97208
G1 X91.323 Y58.677 E7.99790
G1 X91.323 Y87.323 E9.14332
G1 X90.737 Y87.323 E9.16675
G1 X90.220 Y87.780 F6000.000
G1 F2160.000
G1 X90.220 Y58.220 E10.07442
G1 X91.780 Y58.220 E10.12232
G1 X91.780 Y87.780 E11.02999
G1 X90.280 Y87.780 E11.07605
G1 X90.227 Y87.380 F6000.000
G1 E9.07605 F1200.00000
G92 E0
G1 Z1.200 F6000.000
G1 X90.220 Y58.144 F6000.000
G1 Z0.700 F6000.000
G1 E2.00000 F1200.00000
G1 F2160.000
G1 X59.780 Y58.144 E2.57725
G1 X59.000 Y58.936 F6000.000
G1 F1200.000
G1 X59.000 Y87.064 E2.76398
G1 E0.76398 F1200.00000
G92 E0
G1 Z1.200 F6000.000
G1 X91.000 Y87.064 F6000.000
G1 Z0.700 F6000.000
G1 E2.00000 F1200.00000
G1 F1200.000
G1 X91.000 Y58.936 E2.18673
G1 Z0.900 F6000.000
G1 E0.18673 F1200.00000
G92 E0
G1 Z1.400 F6000.000
G1 X59.323 Y87.323 F6000.000
G1 Z0.900 F6000.000
G1 E2.00000 F1200.00000
G1 F2400.000
G1 X58.677 Y87.323 E2.02582
G1 X58.677 Y58.677 E3.17125
G1 X59.323 Y58.677 E3.19707
G1 X59.323 Y87.263 E4.34010
G1 X59.780 Y87.780 F6000.000
G1 F2160.000
G1 X58.220 Y87.780 E4.38800
G1 X58.220 Y58.220 E5.29567
G1 X59.780 Y58.220 E5.34357
G1 X59.780 Y87.720 E6.24940
G1 X59.430 Y87.586 F6000.000
G1 X59.780 Y87.808 F6000.000
G1 F2160.000
G1 X90.220 Y87.808 E7.05187
G1 X90.677 Y87.323 F6000.000
G1 F2400.000
G1 X90.677 Y58.677 E8.19729
G1 X91.323 Y58.677 E8.22312
G1 X91.323 Y87.323 E9.36854
G1 X90.737 Y87.323 E9.39197
G1 X90.220 Y87.780 F6000.000
G1 F2160.000
G1 X90.220 Y58.220 E10.29964
G1 X91.780 Y58.220 E10.34754
G1 X91.780 Y87.780 E11.25521
G1 X90.280 Y87.780 E11.30127
G1 X90.227 Y87.380 F6000.000
G1 E9.30127 F1200.00000
G92 E0
G1 Z1.400 F6000.000
G1 X90.220 Y58.192 F6000.000
G1 Z0.900 F6000.000
G1 E2.00000 F1200.00000
G1 F2160.000
G1 X59.780 Y58.192 E2.80247
G1 X59.000 Y58.936 F6000.000
G1 F1200.000
G1 X59.000 Y87.064 E2.98920
G1 E0.98920 F1200.00000
G92 E0
G1 Z1.400 F6000.000
G1 X91.000 Y87.064 F6000.000
G1 Z0.900 F6000.000
G1 E2.00000 F1200.00000
G1 F1200.000
G1 X91.000 Y58.936 E2.18673
M106 S255
G1 Z1.100 F6000.000
G1 E0.18673 F1200.00000
G92 E0
G1 Z1.600 F6000.000
G1 X59.323 Y87.323 F6000.000
G1 Z1.100 F6000.000
G1 E2.00000 F1200.00000
G1 F2400.000
G1 X58.677 Y87.323 E2.02582
G1 X58.677 Y58.677 E3.17125
G1 X59.323 Y58.677 E3.19707
G1 X59.323 Y87.263 E4.34010
G1 X59.780 Y87.780 F6000.000
G1 F2160.000
G1 X58.220 Y87.780 E4.38800
G1 X58.220 Y58.220 E5.29567
G1 X59.780 Y58.220 E5.34357
G1 X59.780 Y87.720 E6.24940
G1 X59.430 Y87.586 F6000.000
G1 X59.780 Y87.761 F6000.000
G1 F2160.000
G1 X90.220 Y87.761 E7.27582
G1 X90.677 Y87.323 F6000.000
G1 F2400.000
G1 X90.677 Y58.677 E8.42124
G1 X91.323 Y58.677 E8.44707
G1 X91.323 Y87.323 E9.59249
G1 X90.737 Y87.323 E9.61591
G1 X90.220 Y87.780 F6000.000
G1 F2160.000
G1 X90.220 Y58.220 E10.52359
G1 X91.780 Y58.220 E10.57149
G1 X91.780 Y87.780 E11.47916
G1 X90.280 Y87.780 E11.52522
G1 X90.227 Y87.380 F6000.000
G1 E9.52522 F1200.00000
G92 E0
G1 Z1.600 F6000.000
G1 X90.220 Y58.239 F6000.000
G1 Z1.100 F6000.000
G1 E2.00000 F1200.00000
G1 F2160.000
G1 X59.780 Y58.239 E3.02642
G1 X59.000 Y58.936 F6000.000
G1 F1200.000
G1 X59.000 Y87.064 E3.21315
G1 E1.21315 F1200.00000
G92 E0
G1 Z1.600 F6000.000
G1 X91.000 Y87.064 F6000.000
G1 Z1.100 F6000.000
G1 E2.00000 F1200.00000
G1 F1200.000
G1 X91.000 Y58.936 E2.18673
G1 Z1.300 F6000.000
G1 E0.18673 F1200.00000
G92 E0
G1 Z1.800 F6000.000
G1 X59.323 Y87.323 F6000.000
G1 Z1.300 F6000.000
G1 E2.00000 F1200.00000
G1 F2400.000
G1 X58.677 Y87.323 E2.02582
G1 X58.677 Y58.677 E3.17125
G1 X59.323 Y58.677 E3.19707
G1 X59.323 Y87.263 E4.34010
G1 X59.780 Y87.780 F6000.000
G1 F2160.000
G1 X58.220 Y87.780 E4.38800
G1 X58.220 Y58.220 E5.29567
G1 X59.780 Y58.220 E5.34357
G1 X59.780 Y87.720 E6.24940
G1 X59.430 Y87.586 F6000.000
G1 X59.780 Y87.714 F6000.000
G1 F2160.000
G1 X90.220 Y87.714 E7.49661
G1 X90.677 Y87.323 F6000.000
G1 F2400.000
G1 X90.677 Y58.677 E8.64204
G1 X91.323 Y58.677 E8.66786
G1 X91.323 Y87.323 E9.81329
G1 X90.737 Y87.323 E9.83671
G1 X90.220 Y87.780 F6000.000
G1 F2160.000
G1 X90.220 Y58.220 E10.74438
G1 X91.780 Y58.220 E10.79229
G1 X91.780 Y87.780 E11.69996
G1 X90.280 Y87.780 E11.74602
G1 X90.227 Y87.380 F6000.000
G1 E9.74602 F1200.00000
G92 E0
G1 Z1.800 F6000.000
G1 X90.220 Y58.286 F6000.000
G1 Z1.300 F6000.000
G1 E2.00000 F1200.00000
G1 F2160.000
G1 X59.780 Y58.286 E3.24721
G1 X59.000 Y58.936 F6000.000
G1 F1200.000
G1 X59.000 Y87.064 E3.43394
G1 E1.43394 F1200.00000
G92 E0
G1 Z1.800 F6000.000
G1 X91.000 Y87.064 F6000.000
G1 Z1.300 F6000.000
G1 E2.00000 F1200.00000
G1 F1200.000
G1 X91.000 Y58.936 E2.18673
G1 Z1.500 F6000.000
G1 E0.18673 F1200.00000
G92 E0
G1 Z2.000 F6000.000
G1 X59.323 Y87.323 F6000.000
G1 Z1.500 F6000.000
G1 E2.00000 F1200.00000
G1 F2400.000
G1 X58.677 Y87.323 E2.02582
G1 X58.677 Y58.677 E3.17125
G1 X59.323 Y58.677 E3.19707
G1 X59.323 Y87.263 E4.34010
G1 X59.780 Y87.780 F6000.000
G1 F2160.000
G1 X58.220 Y87.780 E4.38800
G1 X58.220 Y58.220 E5.29567
G1 X59.780 Y58.220 E5.34357
G1 X59.780 Y87.720 E6.24940
G1 X59.430 Y87.586 F6000.000
G1 X59.780 Y87.667 F6000.000
G1 F2160.000
G1 X90.220 Y87.667 E7.71741
G1 X90.677 Y87.323 F6000.000
G1 F2400.000
G1 X90.677 Y58.677 E8.86283
G1 X91.323 Y58.677 E8.88866
G1 X91.323 Y87.323 E10.03408
G1 X90.737 Y87.323 E10.05750
G1 X90.220 Y87.780 F6000.000
G1 F2160.000
G1 X90.220 Y58.220 E10.96518
G1 X91.780 Y58.220 E11.01308
G1 X91.780 Y87.780 E11.92075
G1 X90.280 Y87.780 E11.96681
G1 X90.227 Y87.380 F6000.000
G1 E9.96681 F1200.00000
G92 E0
G1 Z2.000 F6000.000
G1 X90.220 Y58.333 F6000.000
G1 Z1.500 F6000.000
G1 E2.00000 F1200.00000
G1 F2160.000
G1 X59.780 Y58.333 E3.46801
G1 X59.000 Y58.936 F6000.000
G1 F1200.000
G1 X59.000 Y87.064 E3.65474
G1 E1.65474 F1200.00000
G92 E0
G1 Z2.000 F6000.000
G1 X91.000 Y87.064 F6000.000
G1 Z1.500 F6000.000
G1 E2.00000 F1200.00000
G1 F1200.000
G1 X91.000 Y58.936 E2.18673
G1 Z1.700 F6000.000
G1 E0.18673 F1200.00000
G92 E0
G1 Z2.200 F6000.000
G1 X90.220 Y87.460 F6000.000
G1 Z1.700 F6000.000
G1 E2.00000 F1200.00000
G1 F2160.000
G1 X59.780 Y87.460 E2.93469
G1 X59.780 Y58.540 E3.82269
G1 X90.220 Y58.540 E4.75738
G1 X90.220 Y87.400 E5.64354
G1 X90.327 Y87.845 F6000.000
G1 E3.64354 F1200.00000
G92 E0
G1 Z2.200 F6000.000
G1 X59.323 Y87.323 F6000.000
G1 Z1.700 F6000.000
G1 E2.00000 F1200.00000
G1 F2400.000
G1 X58.677 Y87.323 E2.02582
G1 X58.677 Y58.677 E3.17125
G1 X59.323 Y58.677 E3.19707
G1 X59.323 Y87.263 E4.34010
G1 E2.34010 F1200.00000
G92 E0
G1 Z2.200 F6000.000
G1 X90.677 Y87.323 F6000.000
G1 Z1.700 F6000.000
G1 E2.00000 F1200.00000
G1 F2400.000
G1 X90.677 Y58.677 E3.14542
G1 X91.323 Y58.677 E3.17125
G1 X91.323 Y87.323 E4.31667
G1 X90.737 Y87.323 E4.34010
G1 X91.780 Y87.780 F6000.000
G1 F2160.000
G1 X58.220 Y87.780 E5.37059
G1 X58.220 Y58.220 E6.27827
G1 X91.780 Y58.220 E7.30876
G1 X91.780 Y87.720 E8.21459
G1 X91.392 Y87.685 F6000.000
G1 X91.000 Y87.064 F6000.000
G1 F1200.000
G1 X91.000 Y58.936 E8.40132
G1 E6.40132 F1200.00000
G92 E0
G1 Z2.200 F6000.000
G1 X59.000 Y58.936 F6000.000
G1 Z1.700 F6000.000
G1 E2.00000 F1200.00000
G1 F1200.000
G1 X59.000 Y87.064 E2.18673
G1 Z1.900 F6000.000
G1 E0.18673 F1200.00000
G92 E0
G1 Z2.400 F6000.000
G1 X90.220 Y87.366 F6000.000
G1 Z1.900 F6000.000
G1 E2.00000 F1200.00000
G1 F2160.000
G1 X59.780 Y87.366 E2.93469
G1 X59.780 Y58.634 E3.81693
G1 X90.220 Y58.634 E4.75162
G1 X90.220 Y87.306 E5.63202
G1 X90.327 Y87.751 F6000.000
G1 E3.63202 F1200.00000
G92 E0
G1 Z2.400 F6000.000
G1 X59.323 Y87.323 F6000.000
G1 Z1.900 F6000.000
G1 E2.00000 F1200.00000
G1 F2400.000
G1 X58.677 Y87.323 E2.02582
G1 X58.677 Y58.677 E3.17125
G1 X59.323 Y58.677 E3.19707
G1 X59.323 Y87.263 E4.34010
G1 E2.34010 F1200.00000
G92 E0
G1 Z2.400 F6000.000
G1 X90.677 Y87.323 F6000.000
G1 Z1.900 F6000.000
G1 E2.00000 F1200.00000
G1 F2400.000
G1 X90.677 Y58.677 E3.14542
G1 X91.323 Y58.677 E3.17125
G1 X91.323 Y87.323 E4.31667
G1 X90.737 Y87.323 E4.34010
G1 X91.780 Y87.780 F6000.000
G1 F2160.000
G1 X58.220 Y87.780 E5.37059
G1 X58.220 Y58.220 E6.27827
G1 X91.780 Y58.220 E7.30876
G1 X91.780 Y87.720 E8.21459
G1 X91.392 Y87.685 F6000.000
G1 X91.000 Y87.064 F6000.000
G1 F1200.000
G1 X91.000 Y58.936 E8.40132
G1 E6.40132 F1200.00000
G92 E0
G1 Z2.400 F6000.000
G1 X59.000 Y58.936 F6000.000
G1 Z1.900 F6000.000
G1 E2.00000 F1200.00000
G1 F1200.000
G1 X59.000 Y87.064 E2.18673
G1 Z2.100 F6000.000
G1 E0.18673 F1200.00000
G92 E0
G1 Z2.600 F6000.000
G1 X90.220 Y87.272 F6000.000
G1 Z2.100 F6000.000
G1 E2.00000 F1200.00000
G1 F2160.000
G1 X59.780 Y87.272 E2.93469
G1 X59.780 Y58.728 E3.81117
G1 X90.220 Y58.728 E4.74586
G1 X90.220 Y87.212 E5.62050
G1 X90.328 Y87.657 F6000.000
G1 E3.62050 F1200.00000
G92 E0
G1 Z2.600 F6000.000
G1 X59.323 Y87.323 F6000.000
G1 Z2.100 F6000.000
G1 E2.00000 F1200.00000
G1 F2400.000
G1 X58.677 Y87.323 E2.02582
G1 X58.677 Y58.677 E3.17125
G1 X59.323 Y58.677 E3.19707
G1 X59.323 Y87.263 E4.34010
G1 E2.34010 F1200.00000
G92 E0
G1 Z2.600 F6000.000
G1 X90.677 Y87.323 F6000.000
G1 Z2.100 F6000.000
G1 E2.00000 F1200.00000
G1 F2400.000
G1 X90.677 Y58.677 E3.14542
G1 X91.323 Y58.677 E3.17125
G1 X91.323 Y87.323 E4.31667
G1 X90.737 Y87.323 E4.34010
G1 X91.780 Y87.780 F6000.000
G1 F2160.000
G1 X58.220 Y87.780 E5.37059
G1 X58.220 Y58.220 E6.27827
G1 X91.780 Y58.220 E7.30876
G1 X91.780 Y87.720 E8.21459
G1 X91.392 Y87.685 F6000.000
G1 X91.000 Y87.064 F6000.000
G1 F1200.000
G1 X91.000 Y58.936 E8.40132
G1 E6.40132 F1200.00000
G92 E0
G1 Z2.600 F6000.000
G1 X59.000 Y58.936 F6000.000
G1 Z2.100 F6000.000
G1 E2.00000 F1200.00000
G1 F1200.000
G1 X59.000 Y87.064 E2.18673
G1 Z2.300 F6000.000
G1 E0.18673 F1200.00000
G92 E0
G1 Z2.800 F6000.000
G1 X90.220 Y87.180 F6000.000
G1 Z2.300 F6000.000
G1 E2.00000 F1200.00000
G1 F2160.000
G1 X59.780 Y87.180 E2.93469
G1 X59.780 Y58.820 E3.80549
G1 X90.220 Y58.820 E4.74018
G1 X90.220 Y87.120 E5.60913
G1 X90.328 Y87.565 F6000.000
G1 E3.60913 F1200.00000
G92 E0
G1 Z2.800 F6000.000
G1 X59.323 Y87.323 F6000.000
G1 Z2.300 F6000.000
G1 E2.00000 F1200.00000
G1 F2400.000
G1 X58.677 Y87.323 E2.02582
G1 X58.677 Y58.677 E3.17125
G1 X59.323 Y58.677 E3.19707
G1 X59.323 Y87.263 E4.34010
G1 E2.34010 F1200.00000
G92 E0
G1 Z2.800 F6000.000
G1 X90.677 Y87.323 F6000.000
G1 Z2.300 F6000.000
G1 E2.00000 F1200.00000
G1 F2400.000
G1 X90.677 Y58.677 E3.14542
G1 X91.323 Y58.677 E3.17125
G1 X91.323 Y87.323 E4.31667
G1 X90.737 Y87.323 E4.34010
G1 X91.780 Y87.780 F6000.000
G1 F2160.000
G1 X58.220 Y87.780 E5.37059
G1 X58.220 Y58.220 E6.27827
G1 X91.780 Y58.220 E7.30876
G1 X91.780 Y87.720 E8.21459
G1 X91.392 Y87.685 F6000.000
G1 X91.000 Y87.064 F6000.000
G1 F1200.000
G1 X91.000 Y58.936 E8.40132
G1 X90.449 Y58.520 F6000.000
G1 F1200.000
G1 X59.551 Y58.520 E8.64143
G1 X59.000 Y58.936 F6000.000
G1 F1200.000
G1 X59.000 Y87.064 E8.82816
G1 X59.551 Y87.480 F6000.000
G1 F1200.000
G1 X90.449 Y87.480 E9.06828
G1 Z2.500 F6000.000
G1 X90.220 Y87.088 F6000.000
G1 F2160.000
G1 X59.780 Y87.088 E10.00298
G1 X59.780 Y58.912 E10.86818
G1 X90.220 Y58.912 E11.80287
G1 X90.220 Y87.028 E12.66623
G1 X90.328 Y87.473 F6000.000
G1 E10.66623 F1200.00000
G92 E0
G1 Z3.000 F6000.000
G1 X59.323 Y87.323 F6000.000
G1 Z2.500 F6000.000
G1 E2.00000 F1200.00000
G1 F2400.000
G1 X58.677 Y87.323 E2.02582
G1 X58.677 Y58.677 E3.17125
