; generated by Slic3r 1.3.0 on 2020-10-09 at 14:44:50

; external perimeters extrusion width = 0.44mm (2.86mm^3/s)
; perimeters extrusion width = 0.56mm (4.14mm^3/s)
; infill extrusion width = 0.50mm (3.66mm^3/s)
; solid infill extrusion width = 0.56mm (3.10mm^3/s)
; top infill extrusion width = 0.45mm (2.44mm^3/s)

M107
;D3D:START:START
T0
M104 S215 T0

G21
G90
M107
T0
G28
G29
M109 T0 S215 T0
G0 F3000
M107
T0
G92 E0
G0 X0 Y149 Z0.1 F3600
G1 Y49 E6.5 F1200
G0 Z1
G92 E0
; Filament gcode

G21 ; set units to millimeters
G90 ; use absolute coordinates
M82 ; use absolute distances for extrusion
G92 E0
G1 Z0.300 F6000.000
G1 E-2.00000 F1200.00000
G92 E0
G1 Z0.800 F6000.000
G1 X38.275 Y45.301 F6000.000
G1 Z0.300 F6000.000
G1 E2.00000 F1200.00000
G1 F1800
G1 X40.146 Y43.932 E2.10372
G1 X43.150 Y43.229 E2.24171
G1 X106.850 Y43.229 E5.09100
G1 X109.135 Y43.626 E5.19472
G1 X111.151 Y44.770 E5.29845
G1 X113.025 Y47.221 E5.43644
G1 X116.175 Y54.221 E5.77979
G1 X116.771 Y57.000 E5.90691
G1 X116.771 Y89.000 E7.33826
G1 X116.374 Y91.285 E7.44199
G1 X115.230 Y93.301 E7.54571
G1 X113.472 Y94.813 E7.64943
G1 X112.285 Y95.374 E7.70814
G1 X85.010 Y105.151 E9.00414
G1 X83.107 Y105.717 E9.09298
G1 X82.694 Y105.823 E9.11201
G1 X80.744 Y106.245 E9.20128
G1 X79.193 Y106.491 E9.27153
G1 X77.207 Y106.692 E9.36080
G1 X75.212 Y106.768 E9.45008
G1 X73.218 Y106.719 E9.53933
G1 X72.793 Y106.692 E9.55837
G1 X70.807 Y106.491 E9.64764
G1 X69.256 Y106.245 E9.71789
G1 X67.371 Y105.837 E9.80414
G1 X66.893 Y105.717 E9.82619
G1 X65.385 Y105.279 E9.89644
G1 X64.990 Y105.151 E9.91504
G1 X37.715 Y95.374 E11.21103
G1 X35.699 Y94.229 E11.31475
G1 X34.186 Y92.472 E11.41847
G1 X33.356 Y90.307 E11.52219
G1 X33.229 Y89.000 E11.58091
G1 X33.229 Y57.000 E13.01226
G1 X33.825 Y54.221 E13.13938
G1 X36.975 Y47.221 E13.48273
G1 X38.241 Y45.351 E13.58377
G1 X38.598 Y45.522 F6000.000
G1 F1800
G1 X40.435 Y44.220 E13.68447
G1 X43.150 Y43.614 E13.80889
G1 X106.850 Y43.614 E16.65818
G1 X109.066 Y44.011 E16.75888
G1 X111.007 Y45.153 E16.85958
G1 X112.673 Y47.380 E16.98400
G1 X115.823 Y54.380 E17.32735
G1 X116.386 Y57.000 E17.44723
G1 X116.386 Y89.000 E18.87859
G1 X115.989 Y91.216 E18.97929
G1 X114.847 Y93.157 E19.07999
G1 X112.155 Y95.011 E19.22624
G1 X84.880 Y104.788 E20.52223
G1 X82.999 Y105.347 E20.61001
G1 X82.610 Y105.446 E20.62796
G1 X80.684 Y105.864 E20.71615
G1 X79.132 Y106.110 E20.78640
G1 X77.171 Y106.308 E20.87459
G1 X75.200 Y106.382 E20.96279
G1 X73.230 Y106.333 E21.05095
G1 X72.829 Y106.308 E21.06890
G1 X70.868 Y106.110 E21.15709
G1 X69.316 Y105.864 E21.22735
G1 X67.455 Y105.461 E21.31251
G1 X67.001 Y105.347 E21.33347
G1 X65.493 Y104.908 E21.40372
G1 X37.845 Y95.011 E22.71725
G1 X35.893 Y93.890 E22.81795
G1 X34.451 Y92.161 E22.91865
G1 X33.614 Y89.000 E23.06490
G1 X33.614 Y57.000 E24.49625
G1 X34.177 Y54.380 E24.61613
G1 X37.327 Y47.380 E24.95948
G1 X38.564 Y45.571 E25.05750
G1 E23.05750 F1200.00000
G92 E0
G1 Z0.800 F6000.000
G1 X79.004 Y96.909 F6000.000
G1 Z0.300 F6000.000
G1 E2.00000 F1200.00000
G1 F1800
G1 X79.004 Y89.541 E2.32956
G1 X78.823 Y89.501 E2.33786
G1 X78.767 Y89.621 E2.34377
G1 X78.477 Y90.076 E2.36792
G1 X78.133 Y90.492 E2.39206
G1 X77.751 Y90.852 E2.41554
G1 X77.305 Y91.178 E2.44026
G1 X76.830 Y91.439 E2.46449
G1 X76.328 Y91.638 E2.48863
G1 X75.805 Y91.772 E2.51277
G1 X75.270 Y91.840 E2.53692
G1 X74.730 Y91.840 E2.56107
G1 X74.195 Y91.772 E2.58521
G1 X73.672 Y91.638 E2.60935
G1 X73.170 Y91.439 E2.63349
G1 X72.697 Y91.179 E2.65764
G1 X72.260 Y90.862 E2.68178
G1 X71.867 Y90.492 E2.70593
G1 X71.532 Y90.088 E2.72941
G1 X71.234 Y89.622 E2.75413
G1 X71.177 Y89.501 E2.76013
G1 X70.996 Y89.541 E2.76842
G1 X70.996 Y96.909 E3.09798
G1 X69.130 Y96.367 E3.18493
G1 X68.007 Y95.963 E3.23830
G1 X66.912 Y95.489 E3.29169
G1 X65.848 Y94.947 E3.34507
G1 X64.821 Y94.339 E3.39845
G1 X63.834 Y93.669 E3.45183
G1 X62.891 Y92.937 E3.50521
G1 X61.996 Y92.148 E3.55859
G1 X61.152 Y91.304 E3.61197
G1 X60.363 Y90.409 E3.66535
G1 X59.631 Y89.466 E3.71873
G1 X58.961 Y88.479 E3.77211
G1 X58.353 Y87.452 E3.82549
G1 X57.811 Y86.388 E3.87887
G1 X57.337 Y85.293 E3.93226
G1 X56.933 Y84.170 E3.98563
G1 X56.391 Y82.304 E4.07258
G1 X60.509 Y82.304 E4.25677
G1 X60.549 Y82.123 E4.26506
G1 X60.429 Y82.067 E4.27098
G1 X59.974 Y81.777 E4.29512
G1 X59.558 Y81.433 E4.31927
G1 X59.188 Y81.040 E4.34341
G1 X58.871 Y80.603 E4.36756
G1 X58.611 Y80.130 E4.39170
G1 X58.412 Y79.628 E4.41584
G1 X58.278 Y79.105 E4.43999
G1 X58.210 Y78.570 E4.46413
G1 X58.210 Y78.030 E4.48828
G1 X58.278 Y77.495 E4.51242
G1 X58.412 Y76.972 E4.53657
G1 X58.611 Y76.470 E4.56071
G1 X58.871 Y75.997 E4.58485
G1 X59.188 Y75.560 E4.60900
G1 X59.558 Y75.167 E4.63314
G1 X59.974 Y74.823 E4.65729
G1 X60.429 Y74.533 E4.68143
G1 X60.549 Y74.477 E4.68735
G1 X60.509 Y74.296 E4.69564
G1 X56.391 Y74.296 E4.87983
G1 X56.933 Y72.430 E4.96678
G1 X57.337 Y71.307 E5.02015
G1 X57.811 Y70.212 E5.07354
G1 X58.353 Y69.148 E5.12692
G1 X58.961 Y68.121 E5.18030
G1 X59.631 Y67.134 E5.23368
G1 X60.363 Y66.191 E5.28706
G1 X61.152 Y65.296 E5.34044
G1 X61.996 Y64.452 E5.39382
G1 X62.891 Y63.663 E5.44720
G1 X63.834 Y62.931 E5.50058
G1 X64.821 Y62.261 E5.55396
G1 X65.848 Y61.653 E5.60734
G1 X66.912 Y61.111 E5.66072
G1 X68.007 Y60.637 E5.71412
G1 X69.141 Y60.230 E5.76799
G1 X70.996 Y59.691 E5.85443
G1 X70.996 Y67.059 E6.18399
G1 X71.177 Y67.099 E6.19228
G1 X71.234 Y66.978 E6.19828
G1 X71.532 Y66.512 E6.22300
G1 X71.867 Y66.108 E6.24648
G1 X72.260 Y65.738 E6.27062
G1 X72.697 Y65.421 E6.29477
G1 X73.170 Y65.161 E6.31891
G1 X73.672 Y64.962 E6.34305
G1 X74.195 Y64.828 E6.36720
G1 X74.730 Y64.760 E6.39134
G1 X75.270 Y64.760 E6.41549
G1 X75.805 Y64.828 E6.43963
G1 X76.328 Y64.962 E6.46377
G1 X76.830 Y65.161 E6.48792
G1 X77.303 Y65.421 E6.51206
G1 X77.740 Y65.738 E6.53620
G1 X78.133 Y66.108 E6.56035
G1 X78.477 Y66.524 E6.58449
G1 X78.767 Y66.979 E6.60864
G1 X78.823 Y67.099 E6.61455
G1 X79.004 Y67.059 E6.62284
G1 X79.004 Y59.691 E6.95240
G1 X80.870 Y60.233 E7.03935
G1 X81.993 Y60.637 E7.09273
G1 X83.088 Y61.111 E7.14611
G1 X84.152 Y61.653 E7.19949
G1 X85.179 Y62.261 E7.25287
G1 X86.166 Y62.931 E7.30625
G1 X87.109 Y63.663 E7.35963
G1 X88.004 Y64.452 E7.41301
G1 X88.848 Y65.296 E7.46639
G1 X89.637 Y66.191 E7.51977
G1 X90.369 Y67.134 E7.57315
G1 X91.039 Y68.121 E7.62653
G1 X91.647 Y69.148 E7.67991
G1 X92.189 Y70.212 E7.73330
G1 X92.663 Y71.307 E7.78668
G1 X93.067 Y72.430 E7.84006
G1 X93.609 Y74.296 E7.92700
G1 X89.491 Y74.296 E8.11119
G1 X89.451 Y74.477 E8.11949
G1 X89.571 Y74.533 E8.12540
G1 X90.026 Y74.823 E8.14955
G1 X90.442 Y75.167 E8.17369
G1 X90.812 Y75.560 E8.19784
G1 X91.129 Y75.997 E8.22198
G1 X91.390 Y76.472 E8.24620
G1 X91.592 Y76.986 E8.27093
G1 X91.722 Y77.495 E8.29440
G1 X91.790 Y78.030 E8.31855
G1 X91.790 Y78.570 E8.34270
G1 X91.722 Y79.105 E8.36684
G1 X91.588 Y79.628 E8.39098
G1 X91.389 Y80.130 E8.41513
G1 X91.129 Y80.603 E8.43927
G1 X90.812 Y81.040 E8.46341
G1 X90.442 Y81.433 E8.48756
G1 X90.026 Y81.777 E8.51170
G1 X89.571 Y82.067 E8.53585
G1 X89.451 Y82.123 E8.54176
G1 X89.491 Y82.304 E8.55005
G1 X93.609 Y82.304 E8.73425
G1 X93.067 Y84.170 E8.82119
G1 X92.663 Y85.293 E8.87457
G1 X92.189 Y86.388 E8.92795
G1 X91.647 Y87.452 E8.98134
G1 X91.039 Y88.479 E9.03472
G1 X90.369 Y89.466 E9.08810
G1 X89.637 Y90.409 E9.14148
G1 X88.848 Y91.304 E9.19486
G1 X88.016 Y92.136 E9.24746
G1 X87.109 Y92.937 E9.30160
G1 X86.166 Y93.669 E9.35500
G1 X85.179 Y94.339 E9.40838
G1 X84.152 Y94.947 E9.46176
G1 X83.088 Y95.489 E9.51514
G1 X81.993 Y95.963 E9.56852
G1 X80.870 Y96.367 E9.62190
G1 X79.061 Y96.893 E9.70616
G1 E7.70616 F1200.00000
G92 E0
G1 Z0.800 F6000.000
G1 X70.611 Y96.396 F6000.000
G1 Z0.300 F6000.000
G1 E2.00000 F1200.00000
G1 F1800
G1 X69.249 Y96.000 E2.06343
G1 X68.149 Y95.604 E2.11572
G1 X67.076 Y95.140 E2.16802
G1 X66.034 Y94.609 E2.22032
G1 X65.028 Y94.014 E2.27261
G1 X64.061 Y93.357 E2.32491
G1 X63.137 Y92.640 E2.37721
G1 X62.260 Y91.867 E2.42950
G1 X61.433 Y91.040 E2.48180
G1 X60.660 Y90.163 E2.53410
G1 X59.943 Y89.239 E2.58639
G1 X59.286 Y88.272 E2.63869
G1 X58.691 Y87.266 E2.69099
G1 X58.160 Y86.224 E2.74328
G1 X57.696 Y85.151 E2.79558
G1 X57.300 Y84.051 E2.84788
G1 X56.904 Y82.689 E2.91130
G1 X68.425 Y82.689 E3.42664
G1 X68.921 Y83.328 E3.46282
G1 X69.256 Y83.707 E3.48544
G1 X69.600 Y84.051 E3.50717
G1 X69.971 Y84.379 E3.52934
G1 X70.611 Y84.875 E3.56553
G1 X70.611 Y96.336 E4.07819
G1 X70.225 Y95.882 F6000.000
G1 F1800
G1 X69.368 Y95.633 E4.11810
G1 X68.291 Y95.245 E4.16931
G1 X67.240 Y94.791 E4.22052
G1 X66.220 Y94.271 E4.27174
G1 X65.234 Y93.688 E4.32295
G1 X64.288 Y93.044 E4.37416
G1 X63.383 Y92.343 E4.42537
G1 X62.524 Y91.585 E4.47659
G1 X61.715 Y90.776 E4.52780
G1 X60.957 Y89.917 E4.57901
G1 X60.256 Y89.012 E4.63022
G1 X59.612 Y88.066 E4.68143
G1 X59.029 Y87.080 E4.73265
G1 X58.509 Y86.060 E4.78386
G1 X58.055 Y85.009 E4.83507
G1 X57.667 Y83.932 E4.88628
G1 X57.418 Y83.075 E4.92620
G1 X68.237 Y83.075 E5.41011
G1 X68.624 Y83.575 E5.43839
G1 X68.975 Y83.972 E5.46209
G1 X69.335 Y84.332 E5.48490
G1 X69.725 Y84.676 E5.50815
G1 X70.225 Y85.063 E5.53644
G1 X70.225 Y95.822 E6.01767
G1 X70.156 Y96.276 F6000.000
G1 E4.01767 F1200.00000
G92 E0
G1 Z0.800 F6000.000
G1 X63.940 Y81.937 F6000.000
G1 Z0.300 F6000.000
G1 E2.00000 F1200.00000
G1 F1800
G1 X63.473 Y82.089 E2.02197
G1 X62.990 Y82.181 E2.04395
G1 X62.500 Y82.212 E2.06592
G1 X62.010 Y82.181 E2.08789
G1 X61.527 Y82.089 E2.10987
G1 X61.060 Y81.937 E2.13184
G1 X60.615 Y81.728 E2.15381
G1 X60.201 Y81.465 E2.17579
G1 X59.822 Y81.152 E2.19776
G1 X59.486 Y80.793 E2.21973
G1 X59.197 Y80.396 E2.24171
G1 X58.961 Y79.966 E2.26368
G1 X58.780 Y79.509 E2.28565
G1 X58.658 Y79.033 E2.30763
G1 X58.596 Y78.546 E2.32960
G1 X58.596 Y78.054 E2.35158
G1 X58.658 Y77.567 E2.37355
G1 X58.780 Y77.091 E2.39552
G1 X58.961 Y76.634 E2.41750
G1 X59.197 Y76.204 E2.43947
G1 X59.486 Y75.807 E2.46144
G1 X59.822 Y75.448 E2.48342
G1 X60.201 Y75.135 E2.50539
G1 X60.615 Y74.872 E2.52736
G1 X61.060 Y74.663 E2.54934
G1 X61.528 Y74.511 E2.57136
G1 X62.024 Y74.418 E2.59391
G1 X62.500 Y74.388 E2.61525
G1 X62.990 Y74.419 E2.63723
G1 X63.473 Y74.511 E2.65920
G1 X63.940 Y74.663 E2.68117
G1 X64.385 Y74.872 E2.70315
G1 X64.799 Y75.135 E2.72512
G1 X65.178 Y75.448 E2.74710
G1 X65.514 Y75.807 E2.76907
G1 X65.803 Y76.204 E2.79104
G1 X66.040 Y76.634 E2.81302
G1 X66.220 Y77.091 E2.83499
G1 X66.343 Y77.567 E2.85696
G1 X66.404 Y78.054 E2.87894
G1 X66.404 Y78.546 E2.90091
G1 X66.344 Y79.019 E2.92226
G1 X66.221 Y79.508 E2.94480
G1 X66.040 Y79.966 E2.96683
G1 X65.803 Y80.396 E2.98880
G1 X65.514 Y80.793 E3.01078
G1 X65.178 Y81.152 E3.03275
G1 X64.799 Y81.465 E3.05472
G1 X64.385 Y81.728 E3.07670
G1 X63.994 Y81.912 E3.09599
G1 X63.798 Y81.578 F6000.000
G1 F1800
G1 X63.377 Y81.715 E3.11579
G1 X62.942 Y81.798 E3.13559
G1 X62.500 Y81.825 E3.15540
G1 X62.058 Y81.798 E3.17520
G1 X61.623 Y81.715 E3.19500
G1 X61.202 Y81.578 E3.21480
G1 X60.802 Y81.389 E3.23461
G1 X60.428 Y81.152 E3.25441
G1 X60.087 Y80.870 E3.27422
G1 X59.784 Y80.547 E3.29402
G1 X59.523 Y80.189 E3.31382
G1 X59.310 Y79.801 E3.33362
G1 X59.147 Y79.389 E3.35343
G1 X59.037 Y78.961 E3.37323
G1 X58.982 Y78.521 E3.39303
G1 X58.982 Y78.079 E3.41284
G1 X59.037 Y77.639 E3.43264
G1 X59.147 Y77.211 E3.45245
G1 X59.310 Y76.799 E3.47225
G1 X59.523 Y76.411 E3.49205
G1 X59.784 Y76.053 E3.51185
G1 X60.087 Y75.730 E3.53166
G1 X60.428 Y75.448 E3.55146
G1 X60.802 Y75.211 E3.57126
G1 X61.202 Y75.022 E3.59107
G1 X61.624 Y74.885 E3.61089
G1 X62.071 Y74.801 E3.63127
G1 X62.500 Y74.775 E3.65047
G1 X62.942 Y74.802 E3.67028
G1 X63.377 Y74.885 E3.69008
G1 X63.798 Y75.022 E3.70988
G1 X64.198 Y75.211 E3.72969
G1 X64.572 Y75.448 E3.74949
G1 X64.913 Y75.730 E3.76929
G1 X65.216 Y76.053 E3.78910
G1 X65.477 Y76.411 E3.80890
G1 X65.690 Y76.799 E3.82870
G1 X65.853 Y77.211 E3.84850
G1 X65.963 Y77.639 E3.86831
G1 X66.018 Y78.079 E3.88811
G1 X66.018 Y78.521 E3.90791
G1 X65.965 Y78.947 E3.92712
G1 X65.853 Y79.389 E3.94750
G1 X65.690 Y79.801 E3.96732
G1 X65.477 Y80.189 E3.98712
G1 X65.216 Y80.547 E4.00693
G1 X64.913 Y80.870 E4.02673
G1 X64.572 Y81.152 E4.04653
G1 X64.198 Y81.389 E4.06634
G1 X63.852 Y81.552 E4.08346
G1 X63.739 Y81.974 F6000.000
G1 E2.08346 F1200.00000
G92 E0
G1 Z0.800 F6000.000
G1 X56.904 Y73.911 F6000.000
G1 Z0.300 F6000.000
G1 E2.00000 F1200.00000
G1 F1800
G1 X57.300 Y72.549 E2.06343
G1 X57.696 Y71.449 E2.11572
G1 X58.160 Y70.376 E2.16802
G1 X58.691 Y69.334 E2.22032
G1 X59.286 Y68.328 E2.27262
G1 X59.943 Y67.361 E2.32491
G1 X60.660 Y66.437 E2.37721
G1 X61.433 Y65.560 E2.42950
G1 X62.260 Y64.733 E2.48180
G1 X63.137 Y63.960 E2.53410
G1 X64.061 Y63.243 E2.58639
G1 X65.028 Y62.586 E2.63869
G1 X66.034 Y61.991 E2.69099
G1 X67.076 Y61.460 E2.74328
G1 X68.149 Y60.996 E2.79559
G1 X69.260 Y60.597 E2.84838
G1 X70.611 Y60.204 E2.91130
G1 X70.611 Y71.725 E3.42664
G1 X69.971 Y72.221 E3.46283
G1 X69.600 Y72.549 E3.48500
G1 X69.249 Y72.900 E3.50717
G1 X68.921 Y73.271 E3.52933
G1 X68.425 Y73.911 E3.56553
G1 X56.964 Y73.911 E4.07818
G1 X57.418 Y73.525 F6000.000
G1 F1800
G1 X57.667 Y72.668 E4.11810
G1 X58.055 Y71.591 E4.16931
G1 X58.509 Y70.540 E4.22052
G1 X59.029 Y69.520 E4.27173
G1 X59.612 Y68.534 E4.32295
G1 X60.256 Y67.588 E4.37416
G1 X60.957 Y66.683 E4.42537
G1 X61.715 Y65.824 E4.47658
G1 X62.524 Y65.014 E4.52780
G1 X63.383 Y64.257 E4.57901
G1 X64.288 Y63.556 E4.63022
G1 X65.234 Y62.912 E4.68143
G1 X66.220 Y62.329 E4.73264
G1 X67.240 Y61.809 E4.78386
G1 X68.291 Y61.355 E4.83507
G1 X69.379 Y60.964 E4.88677
G1 X70.225 Y60.718 E4.92619
G1 X70.225 Y71.537 E5.41011
G1 X69.725 Y71.924 E5.43839
G1 X69.335 Y72.268 E5.46164
G1 X68.968 Y72.635 E5.48489
G1 X68.624 Y73.025 E5.50815
G1 X68.237 Y73.525 E5.53643
G1 X57.478 Y73.525 E6.01766
G1 X57.024 Y73.456 F6000.000
G1 E4.01766 F1200.00000
G92 E0
G1 Z0.800 F6000.000
G1 X73.838 Y72.789 F6000.000
G1 Z0.300 F6000.000
G1 E2.00000 F1200.00000
G1 F1800
G1 X73.334 Y72.589 E2.02421
G1 X72.904 Y72.353 E2.04618
G1 X72.506 Y72.064 E2.06816
G1 X72.148 Y71.728 E2.09013
G1 X71.844 Y71.360 E2.11147
G1 X71.573 Y70.936 E2.13402
G1 X71.363 Y70.490 E2.15605
G1 X71.215 Y70.036 E2.17739
G1 X71.119 Y69.541 E2.19994
G1 X71.088 Y69.050 E2.22196
G1 X71.119 Y68.560 E2.24394
G1 X71.211 Y68.077 E2.26591
G1 X71.363 Y67.610 E2.28788
G1 X71.573 Y67.164 E2.30991
G1 X71.844 Y66.740 E2.33246
G1 X72.148 Y66.372 E2.35380
G1 X72.506 Y66.036 E2.37577
G1 X72.904 Y65.747 E2.39775
G1 X73.334 Y65.511 E2.41972
G1 X73.791 Y65.330 E2.44170
G1 X74.267 Y65.208 E2.46367
G1 X74.754 Y65.146 E2.48564
G1 X75.246 Y65.146 E2.50762
G1 X75.733 Y65.208 E2.52959
G1 X76.209 Y65.330 E2.55156
G1 X76.666 Y65.511 E2.57354
G1 X77.096 Y65.747 E2.59551
G1 X77.493 Y66.036 E2.61748
G1 X77.852 Y66.372 E2.63946
G1 X78.165 Y66.751 E2.66143
G1 X78.428 Y67.165 E2.68340
G1 X78.637 Y67.610 E2.70538
G1 X78.789 Y68.077 E2.72735
G1 X78.881 Y68.560 E2.74933
G1 X78.912 Y69.050 E2.77130
G1 X78.881 Y69.540 E2.79327
G1 X78.789 Y70.023 E2.81525
G1 X78.637 Y70.490 E2.83722
G1 X78.434 Y70.922 E2.85856
G1 X78.165 Y71.348 E2.88111
G1 X77.852 Y71.728 E2.90314
G1 X77.494 Y72.064 E2.92511
G1 X77.096 Y72.353 E2.94708
G1 X76.666 Y72.589 E2.96906
G1 X76.373 Y72.705 E2.98311
G1 X76.384 Y72.873 E2.99063
G1 X76.725 Y72.960 E3.00637
G1 X77.075 Y73.086 E3.02299
G1 X77.695 Y73.378 E3.05366
G1 X78.015 Y73.567 E3.07028
G1 X78.569 Y73.970 E3.10094
G1 X78.848 Y74.216 E3.11757
G1 X79.317 Y74.716 E3.14823
G1 X79.545 Y75.010 E3.16486
G1 X79.913 Y75.588 E3.19552
G1 X80.081 Y75.920 E3.21215
G1 X80.334 Y76.557 E3.24281
G1 X80.437 Y76.914 E3.25943
G1 X80.566 Y77.587 E3.29010
G1 X80.611 Y78.310 E3.32247
G1 X80.568 Y78.994 E3.35314
G1 X80.510 Y79.361 E3.36976
G1 X80.337 Y80.034 E3.40085
G1 X80.084 Y80.675 E3.43166
G1 X79.913 Y81.011 E3.44856
G1 X79.545 Y81.590 E3.47923
G1 X79.323 Y81.877 E3.49543
G1 X79.084 Y82.148 E3.51163
G1 X78.584 Y82.617 E3.54229
G1 X78.290 Y82.845 E3.55892
G1 X77.704 Y83.218 E3.59001
G1 X77.075 Y83.514 E3.62110
G1 X76.725 Y83.640 E3.63773
G1 X76.384 Y83.727 E3.65347
G1 X76.373 Y83.895 E3.66098
G1 X76.666 Y84.011 E3.67504
G1 X77.096 Y84.247 E3.69701
G1 X77.493 Y84.536 E3.71899
G1 X77.852 Y84.872 E3.74096
G1 X78.165 Y85.251 E3.76293
G1 X78.428 Y85.665 E3.78491
