; generated by Slic3r 1.3.0 on 2021-03-06 at 11:49:47

; external perimeters extrusion width = 0.44mm (2.86mm^3/s)
; perimeters extrusion width = 0.56mm (4.14mm^3/s)
; infill extrusion width = 0.50mm (3.66mm^3/s)
; solid infill extrusion width = 0.56mm (3.10mm^3/s)
; top infill extrusion width = 0.45mm (2.44mm^3/s)

M107
;D3D:START:START
T0
M104 S215 T0

G21
G90
M107
T0
G28
G29
M109 T0 S215 T0
G0 F3000
M107
T0
G92 E0
G0 X0 Y149 Z0.1 F3600
G1 Y49 E6.5 F1200
G0 Z1
G92 E0
; Filament gcode

G21 ; set units to millimeters
G90 ; use absolute coordinates
M82 ; use absolute distances for extrusion
G92 E0
G1 Z0.300 F6000.000
G1 E-2.00000 F1200.00000
G92 E0
G1 Z0.800 F6000.000
G1 X26.590 Y27.434 F6000.000
G1 Z0.300 F6000.000
G1 E2.00000 F1200.00000
G1 F1800
G1 X28.948 Y25.219 E2.14467
G1 X29.603 Y24.677 E2.18272
G1 X32.220 Y22.776 E2.32739
G1 X32.938 Y22.321 E2.36543
G1 X35.772 Y20.762 E2.51010
G1 X36.541 Y20.401 E2.54812
G1 X39.549 Y19.210 E2.69279
G1 X40.357 Y18.947 E2.73084
G1 X43.490 Y18.143 E2.87551
G1 X44.325 Y17.983 E2.91354
G1 X47.534 Y17.578 E3.05821
G1 X48.383 Y17.525 E3.09625
G1 X51.617 Y17.525 E3.24092
G1 X52.466 Y17.578 E3.27896
G1 X55.675 Y17.983 E3.42363
G1 X56.510 Y18.143 E3.46166
G1 X59.643 Y18.947 E3.60633
G1 X60.451 Y19.210 E3.64437
G1 X63.459 Y20.401 E3.78904
G1 X64.228 Y20.762 E3.82707
G1 X67.062 Y22.321 E3.97174
G1 X67.780 Y22.776 E4.00978
G1 X70.397 Y24.677 E4.15445
G1 X71.052 Y25.219 E4.19250
G1 X73.563 Y27.582 E4.34668
G1 X123.563 Y77.582 E7.50955
G1 X123.992 Y78.053 E7.53809
G1 X126.054 Y80.545 E7.68276
G1 X126.553 Y81.233 E7.72079
G1 X128.286 Y83.964 E7.86546
G1 X128.696 Y84.709 E7.90350
G1 X130.073 Y87.636 E8.04817
G1 X130.386 Y88.426 E8.08620
G1 X131.386 Y91.503 E8.23088
G1 X131.597 Y92.326 E8.26892
G1 X132.203 Y95.503 E8.41359
G1 X132.310 Y96.347 E8.45162
G1 X132.513 Y99.575 E8.59629
G1 X132.513 Y100.425 E8.63433
G1 X132.310 Y103.653 E8.77900
G1 X132.203 Y104.497 E8.81703
G1 X131.597 Y107.674 E8.96170
G1 X131.386 Y108.497 E8.99974
G1 X130.386 Y111.574 E9.14442
G1 X130.073 Y112.364 E9.18245
G1 X128.696 Y115.291 E9.32712
G1 X128.286 Y116.036 E9.36516
G1 X126.553 Y118.767 E9.50983
G1 X126.054 Y119.454 E9.54786
G1 X123.992 Y121.947 E9.69253
G1 X123.410 Y122.566 E9.73056
G1 X121.052 Y124.781 E9.87524
G1 X120.397 Y125.323 E9.91328
G1 X117.780 Y127.224 E10.05795
G1 X117.062 Y127.679 E10.09599
G1 X114.228 Y129.238 E10.24066
G1 X113.459 Y129.599 E10.27868
G1 X110.452 Y130.790 E10.42336
G1 X109.643 Y131.053 E10.46140
G1 X106.510 Y131.857 E10.60607
G1 X105.675 Y132.017 E10.64410
G1 X102.466 Y132.422 E10.78877
G1 X101.617 Y132.475 E10.82681
G1 X98.383 Y132.475 E10.97148
G1 X97.534 Y132.422 E11.00952
G1 X94.325 Y132.017 E11.15419
G1 X93.490 Y131.857 E11.19222
G1 X90.357 Y131.053 E11.33689
G1 X89.548 Y130.790 E11.37494
G1 X86.541 Y129.599 E11.51961
G1 X85.772 Y129.238 E11.55763
G1 X82.938 Y127.679 E11.70230
G1 X82.220 Y127.224 E11.74034
G1 X79.603 Y125.323 E11.88502
G1 X78.948 Y124.781 E11.92306
G1 X76.437 Y122.418 E12.07724
G1 X26.437 Y72.418 E15.24012
G1 X26.008 Y71.947 E15.26865
G1 X23.946 Y69.454 E15.41332
G1 X23.447 Y68.767 E15.45135
G1 X21.714 Y66.036 E15.59602
G1 X21.304 Y65.291 E15.63407
G1 X19.927 Y62.364 E15.77874
G1 X19.614 Y61.574 E15.81677
G1 X18.614 Y58.498 E15.96144
G1 X18.403 Y57.674 E15.99948
G1 X17.797 Y54.497 E16.14415
G1 X17.690 Y53.653 E16.18218
G1 X17.487 Y50.425 E16.32686
G1 X17.487 Y49.575 E16.36489
G1 X17.690 Y46.347 E16.50957
G1 X17.797 Y45.503 E16.54760
G1 X18.403 Y42.326 E16.69227
G1 X18.614 Y41.502 E16.73031
G1 X19.614 Y38.426 E16.87498
G1 X19.927 Y37.636 E16.91301
G1 X21.304 Y34.709 E17.05768
G1 X21.714 Y33.964 E17.09573
G1 X23.447 Y31.233 E17.24040
G1 X23.946 Y30.546 E17.27842
G1 X26.008 Y28.053 E17.42309
G1 X26.549 Y27.477 E17.45844
G1 X26.854 Y27.715 F6000.000
G1 F1800
G1 X29.212 Y25.501 E17.60312
G1 X29.830 Y24.989 E17.63899
G1 X32.446 Y23.088 E17.78367
G1 X33.124 Y22.658 E17.81954
G1 X35.958 Y21.100 E17.96421
G1 X36.683 Y20.759 E18.00007
G1 X39.690 Y19.568 E18.14474
G1 X40.453 Y19.320 E18.18062
G1 X43.586 Y18.516 E18.32529
G1 X44.374 Y18.366 E18.36115
G1 X47.582 Y17.961 E18.50582
G1 X48.383 Y17.910 E18.54169
G1 X51.617 Y17.910 E18.68637
G1 X52.418 Y17.961 E18.72224
G1 X55.626 Y18.366 E18.86691
G1 X56.414 Y18.516 E18.90277
G1 X59.547 Y19.320 E19.04744
G1 X60.310 Y19.568 E19.08332
G1 X63.317 Y20.759 E19.22799
G1 X64.042 Y21.100 E19.26385
G1 X66.876 Y22.658 E19.40852
G1 X67.554 Y23.088 E19.44440
G1 X70.170 Y24.989 E19.58907
G1 X70.788 Y25.501 E19.62495
G1 X73.290 Y27.854 E19.77858
G1 X123.290 Y77.854 E22.94146
G1 X123.695 Y78.299 E22.96837
G1 X125.756 Y80.791 E23.11304
G1 X126.228 Y81.440 E23.14890
G1 X127.961 Y84.171 E23.29358
G1 X128.347 Y84.874 E23.32945
G1 X129.724 Y87.800 E23.47413
G1 X130.019 Y88.546 E23.50999
G1 X131.019 Y91.622 E23.65466
G1 X131.218 Y92.399 E23.69054
G1 X131.824 Y95.576 E23.83521
G1 X131.925 Y96.371 E23.87107
G1 X132.128 Y99.599 E24.01575
G1 X132.128 Y100.401 E24.05162
G1 X131.925 Y103.629 E24.19629
G1 X131.824 Y104.424 E24.23215
G1 X131.218 Y107.601 E24.37682
G1 X131.019 Y108.378 E24.41270
G1 X130.019 Y111.454 E24.55737
G1 X129.724 Y112.200 E24.59324
G1 X128.347 Y115.126 E24.73791
G1 X127.961 Y115.829 E24.77379
G1 X126.228 Y118.560 E24.91846
G1 X125.756 Y119.209 E24.95432
G1 X123.695 Y121.701 E25.09899
G1 X123.146 Y122.285 E25.13486
G1 X120.788 Y124.499 E25.27953
G1 X120.170 Y125.011 E25.31540
G1 X117.554 Y126.912 E25.46008
G1 X116.876 Y127.342 E25.49595
G1 X114.042 Y128.900 E25.64062
G1 X113.317 Y129.241 E25.67648
G1 X110.310 Y130.432 E25.82115
G1 X109.547 Y130.680 E25.85703
G1 X106.414 Y131.484 E26.00170
G1 X105.626 Y131.634 E26.03756
G1 X102.418 Y132.039 E26.18223
G1 X101.617 Y132.090 E26.21811
G1 X98.383 Y132.090 E26.36278
G1 X97.582 Y132.039 E26.39865
G1 X94.374 Y131.634 E26.54332
G1 X93.586 Y131.484 E26.57918
G1 X90.453 Y130.680 E26.72386
G1 X89.690 Y130.432 E26.75973
G1 X86.683 Y129.241 E26.90441
G1 X85.958 Y128.900 E26.94026
G1 X83.124 Y127.342 E27.08493
G1 X82.446 Y126.912 E27.12081
G1 X79.830 Y125.011 E27.26548
G1 X79.212 Y124.499 E27.30136
G1 X76.710 Y122.146 E27.45500
G1 X26.710 Y72.146 E30.61787
G1 X26.305 Y71.701 E30.64478
G1 X24.244 Y69.209 E30.78946
G1 X23.772 Y68.560 E30.82532
G1 X22.039 Y65.829 E30.96999
G1 X21.653 Y65.126 E31.00587
G1 X20.276 Y62.200 E31.15054
G1 X19.981 Y61.454 E31.18640
G1 X18.981 Y58.378 E31.33107
G1 X18.782 Y57.601 E31.36695
G1 X18.176 Y54.424 E31.51162
G1 X18.075 Y53.629 E31.54748
G1 X17.872 Y50.401 E31.69216
G1 X17.872 Y49.599 E31.72803
G1 X18.075 Y46.371 E31.87270
G1 X18.176 Y45.576 E31.90857
G1 X18.782 Y42.399 E32.05323
G1 X18.981 Y41.622 E32.08911
G1 X19.981 Y38.546 E32.23378
G1 X20.276 Y37.800 E32.26964
G1 X21.653 Y34.874 E32.41432
G1 X22.039 Y34.171 E32.45020
G1 X23.772 Y31.440 E32.59487
G1 X24.244 Y30.791 E32.63073
G1 X26.305 Y28.299 E32.77540
G1 X26.813 Y27.758 E32.80858
G1 E30.80858 F1200.00000
G92 E0
G1 Z0.800 F6000.000
G1 X89.464 Y79.309 F6000.000
G1 Z0.300 F6000.000
G1 E2.00000 F1200.00000
G1 F1800
G1 X89.753 Y79.663 E2.02045
G1 X90.408 Y79.065 E2.06012
G1 X91.143 Y78.547 E2.10034
G1 X92.814 Y77.885 E2.18074
G1 X95.643 Y77.159 E2.31136
G1 X98.540 Y76.793 E2.44198
G1 X101.460 Y76.793 E2.57260
G1 X104.357 Y77.159 E2.70322
G1 X105.354 Y77.415 E2.74926
G1 X105.337 Y77.830 E2.76784
G1 X106.077 Y77.799 E2.80100
G1 X107.193 Y77.888 E2.85106
G1 X109.901 Y78.960 E2.98132
G1 X112.460 Y80.367 E3.11194
G1 X114.822 Y82.083 E3.24256
G1 X116.951 Y84.082 E3.37318
G1 X118.552 Y86.018 E3.48555
G1 X118.247 Y86.376 E3.50660
G1 X118.952 Y86.919 E3.54637
G1 X119.582 Y87.545 E3.58610
G1 X120.377 Y88.798 E3.65248
G1 X121.620 Y91.440 E3.78310
G1 X122.523 Y94.217 E3.91372
G1 X123.070 Y97.086 E4.04434
G1 X123.253 Y100.000 E4.17496
G1 X123.171 Y101.306 E4.23347
G1 X122.751 Y101.365 E4.25244
G1 X122.926 Y102.161 E4.28891
G1 X123.019 Y103.181 E4.33473
G1 X122.523 Y105.783 E4.45321
G1 X121.620 Y108.560 E4.58382
G1 X120.377 Y111.202 E4.71444
G1 X118.812 Y113.668 E4.84506
G1 X117.001 Y115.857 E4.97214
G1 X116.580 Y115.614 E4.99389
G1 X116.173 Y116.392 E5.03316
G1 X115.661 Y117.129 E5.07330
G1 X114.822 Y117.917 E5.12479
G1 X112.460 Y119.633 E5.25541
G1 X109.901 Y121.040 E5.38603
G1 X107.186 Y122.115 E5.51665
G1 X104.357 Y122.841 E5.64727
G1 X102.775 Y123.041 E5.71861
G1 X102.638 Y122.630 E5.73801
G1 X101.853 Y122.953 E5.77598
G1 X100.917 Y123.207 E5.81936
G1 X98.540 Y123.207 E5.92570
G1 X95.643 Y122.841 E6.05631
G1 X92.814 Y122.115 E6.18693
G1 X90.099 Y121.040 E6.31755
G1 X87.309 Y119.506 E6.45997
G1 X87.478 Y119.032 E6.48250
G1 X86.666 Y118.774 E6.52062
G1 X85.820 Y118.384 E6.56227
G1 X85.178 Y117.917 E6.59779
G1 X83.049 Y115.918 E6.72841
G1 X81.188 Y113.668 E6.85902
G1 X79.623 Y111.202 E6.98964
G1 X78.380 Y108.560 E7.12026
G1 X77.796 Y106.762 E7.20482
G1 X78.185 Y106.548 E7.22472
G1 X77.717 Y105.811 E7.26377
G1 X77.323 Y104.972 E7.30525
G1 X76.930 Y102.914 E7.39893
G1 X76.747 Y100.000 E7.52954
G1 X76.930 Y97.086 E7.66016
G1 X77.477 Y94.217 E7.79078
G1 X78.572 Y90.847 E7.94927
G1 X79.088 Y90.931 E7.97266
G1 X79.195 Y90.128 E8.00888
G1 X79.450 Y89.166 E8.05341
G1 X79.623 Y88.798 E8.07161
G1 X81.188 Y86.332 E8.20223
G1 X83.049 Y84.082 E8.33284
G1 X85.178 Y82.083 E8.46346
G1 X87.540 Y80.367 E8.59408
G1 X89.412 Y79.338 E8.68961
G1 X89.369 Y79.801 F6000.000
G1 F1800
G1 X89.712 Y80.223 E8.71393
G1 X90.650 Y79.366 E8.77075
G1 X91.328 Y78.888 E8.80784
G1 X92.934 Y78.252 E8.88510
G1 X95.715 Y77.538 E9.01354
G1 X98.564 Y77.178 E9.14199
G1 X101.436 Y77.178 E9.27044
G1 X104.285 Y77.538 E9.39889
G1 X104.956 Y77.711 E9.42987
G1 X104.934 Y78.233 E9.45325
G1 X106.070 Y78.185 E9.50412
G1 X107.105 Y78.268 E9.55054
G1 X109.736 Y79.310 E9.67714
G1 X112.253 Y80.693 E9.80559
G1 X114.576 Y82.381 E9.93403
G1 X116.669 Y84.347 E10.06248
G1 X118.049 Y86.014 E10.15929
G1 X117.691 Y86.435 E10.18399
G1 X118.697 Y87.209 E10.24079
G1 X119.279 Y87.788 E10.27749
G1 X120.038 Y88.984 E10.34086
G1 X121.261 Y91.582 E10.46931
G1 X122.148 Y94.313 E10.59775
G1 X122.686 Y97.134 E10.72620
G1 X122.867 Y100.000 E10.85465
G1 X122.806 Y100.968 E10.89801
G1 X122.285 Y101.041 E10.92154
G1 X122.544 Y102.220 E10.97555
G1 X122.630 Y103.162 E11.01786
G1 X122.148 Y105.687 E11.13283
G1 X121.261 Y108.418 E11.26128
G1 X120.038 Y111.016 E11.38972
G1 X118.500 Y113.441 E11.51817
G1 X116.912 Y115.360 E11.62959
G1 X116.425 Y115.079 E11.65475
G1 X115.843 Y116.192 E11.71092
G1 X115.368 Y116.876 E11.74816
G1 X114.576 Y117.619 E11.79676
G1 X112.253 Y119.307 E11.92521
G1 X109.736 Y120.690 E12.05365
G1 X107.066 Y121.748 E12.18210
G1 X104.285 Y122.462 E12.31055
G1 X103.041 Y122.619 E12.36664
G1 X102.873 Y122.115 E12.39037
G1 X101.728 Y122.587 E12.44576
G1 X100.866 Y122.822 E12.48574
G1 X98.564 Y122.822 E12.58869
G1 X95.715 Y122.462 E12.71714
G1 X92.934 Y121.748 E12.84559
G1 X90.264 Y120.690 E12.97404
G1 X87.782 Y119.326 E13.10070
G1 X87.975 Y118.785 E13.12640
G1 X86.805 Y118.414 E13.18130
G1 X86.016 Y118.049 E13.22018
G1 X85.424 Y117.619 E13.25291
G1 X83.331 Y115.653 E13.38136
G1 X81.500 Y113.441 E13.50981
G1 X79.962 Y111.016 E13.63826
G1 X78.739 Y108.418 E13.76671
G1 X78.261 Y106.946 E13.83591
G1 X78.731 Y106.688 E13.85991
G1 X78.056 Y105.624 E13.91625
G1 X77.692 Y104.851 E13.95446
G1 X77.313 Y102.866 E14.04487
G1 X77.133 Y100.000 E14.17332
G1 X77.313 Y97.134 E14.30177
G1 X77.852 Y94.313 E14.43021
G1 X78.837 Y91.281 E14.57283
G1 X79.418 Y91.375 E14.59918
G1 X79.575 Y90.203 E14.65205
G1 X79.814 Y89.298 E14.69392
G1 X79.962 Y88.984 E14.70947
G1 X81.500 Y86.559 E14.83792
G1 X83.331 Y84.347 E14.96636
G1 X85.424 Y82.381 E15.09481
G1 X87.747 Y80.693 E15.22326
G1 X89.316 Y79.830 E15.30334
G1 X89.273 Y80.294 F6000.000
G1 F1800
G1 X89.690 Y80.806 E15.33287
G1 X89.846 Y80.623 E15.34360
G1 X90.893 Y79.667 E15.40701
G1 X91.513 Y79.230 E15.44095
G1 X93.053 Y78.620 E15.51507
G1 X95.788 Y77.918 E15.64134
G1 X98.588 Y77.564 E15.76762
G1 X101.412 Y77.564 E15.89390
G1 X104.212 Y77.918 E16.02018
G1 X104.557 Y78.006 E16.03611
G1 X104.530 Y78.654 E16.06511
G1 X104.677 Y78.629 E16.07175
G1 X106.063 Y78.571 E16.13381
G1 X107.016 Y78.647 E16.17660
G1 X109.572 Y79.659 E16.29953
G1 X112.046 Y81.019 E16.42581
G1 X114.330 Y82.678 E16.55208
G1 X116.388 Y84.611 E16.67836
G1 X117.545 Y86.011 E16.75962
G1 X117.116 Y86.516 E16.78928
G1 X117.319 Y86.635 E16.79984
G1 X118.442 Y87.500 E16.86325
G1 X118.977 Y88.031 E16.89693
G1 X119.700 Y89.170 E16.95728
G1 X120.902 Y91.724 E17.08356
G1 X121.774 Y94.409 E17.20984
G1 X122.303 Y97.182 E17.33611
G1 X122.480 Y100.000 E17.46239
G1 X122.441 Y100.629 E17.49060
G1 X121.796 Y100.720 E17.51973
G1 X121.858 Y100.895 E17.52802
G1 X122.162 Y102.279 E17.59143
G1 X122.241 Y103.143 E17.63022
G1 X121.774 Y105.591 E17.74168
G1 X120.902 Y108.276 E17.86796
G1 X119.700 Y110.830 E17.99424
G1 X118.187 Y113.214 E18.12052
G1 X116.822 Y114.863 E18.21628
G1 X116.246 Y114.530 E18.24607
G1 X116.169 Y114.735 E18.25587
G1 X115.512 Y115.992 E18.31928
G1 X115.074 Y116.622 E18.35362
G1 X114.330 Y117.322 E18.39931
G1 X112.046 Y118.981 E18.52559
G1 X109.572 Y120.341 E18.65187
G1 X106.947 Y121.380 E18.77815
G1 X104.212 Y122.082 E18.90442
G1 X103.307 Y122.197 E18.94526
G1 X103.100 Y121.576 E18.97452
G1 X102.915 Y121.681 E18.98407
G1 X101.604 Y122.222 E19.04748
G1 X100.814 Y122.436 E19.08408
G1 X98.588 Y122.436 E19.18364
G1 X95.788 Y122.082 E19.30992
G1 X93.053 Y121.380 E19.43620
G1 X90.428 Y120.341 E19.56248
G1 X88.256 Y119.147 E19.67337
G1 X88.480 Y118.516 E19.70330
G1 X88.296 Y118.482 E19.71167
G1 X86.945 Y118.054 E19.77508
G1 X86.212 Y117.715 E19.81118
G1 X85.670 Y117.322 E19.84114
G1 X83.612 Y115.389 E19.96742
G1 X81.813 Y113.214 E20.09370
G1 X80.300 Y110.830 E20.21998
G1 X79.098 Y108.276 E20.34625
G1 X78.726 Y107.131 E20.40011
G1 X79.302 Y106.814 E20.42950
G1 X79.154 Y106.635 E20.43988
G1 X78.395 Y105.438 E20.50329
G1 X78.062 Y104.731 E20.53823
G1 X77.697 Y102.818 E20.62538
G1 X77.520 Y100.000 E20.75166
G1 X77.697 Y97.182 E20.87794
G1 X78.226 Y94.409 E21.00422
G1 X79.101 Y91.714 E21.13096
G1 X79.765 Y91.822 E21.16104
G1 X79.766 Y91.683 E21.16723
G1 X79.954 Y90.278 E21.23064
G1 X80.178 Y89.431 E21.26985
G1 X80.300 Y89.170 E21.28274
G1 X81.813 Y86.786 E21.40902
G1 X83.612 Y84.611 E21.53530
G1 X85.670 Y82.678 E21.66158
G1 X87.954 Y81.019 E21.78785
G1 X89.220 Y80.323 E21.85247
G1 X89.591 Y80.052 F6000.000
G1 E19.85247 F1200.00000
G92 E0
G1 Z0.800 F6000.000
G1 X99.116 Y98.122 F6000.000
G1 Z0.300 F6000.000
G1 E2.00000 F1200.00000
G1 F1800
G1 X99.359 Y98.026 E2.01166
G1 X99.611 Y97.961 E2.02332
G1 X99.870 Y97.929 E2.03497
G1 X100.130 Y97.929 E2.04663
G1 X100.384 Y97.961 E2.05806
G1 X100.641 Y98.026 E2.06993
G1 X100.884 Y98.122 E2.08161
G1 X101.107 Y98.245 E2.09303
G1 X101.323 Y98.401 E2.10491
G1 X101.513 Y98.579 E2.11658
G1 X101.679 Y98.780 E2.12824
G1 X101.819 Y99.000 E2.13990
G1 X101.930 Y99.236 E2.15155
G1 X102.010 Y99.484 E2.16321
G1 X102.059 Y99.740 E2.17487
G1 X102.075 Y100.000 E2.18653
G1 X102.059 Y100.260 E2.19819
G1 X102.010 Y100.516 E2.20986
G1 X101.927 Y100.769 E2.22174
G1 X101.819 Y101.000 E2.23316
G1 X101.679 Y101.220 E2.24482
G1 X101.513 Y101.421 E2.25648
G1 X101.323 Y101.599 E2.26815
G1 X101.107 Y101.755 E2.28003
G1 X100.884 Y101.878 E2.29145
G1 X100.641 Y101.974 E2.30311
G1 X100.389 Y102.039 E2.31476
G1 X100.130 Y102.071 E2.32644
G1 X99.864 Y102.071 E2.33832
G1 X99.611 Y102.039 E2.34974
G1 X99.359 Y101.974 E2.36140
G1 X99.116 Y101.878 E2.37305
G1 X98.888 Y101.752 E2.38471
G1 X98.677 Y101.599 E2.39638
G1 X98.484 Y101.417 E2.40826
G1 X98.321 Y101.220 E2.41969
G1 X98.181 Y101.000 E2.43134
G1 X98.070 Y100.764 E2.44300
G1 X97.990 Y100.516 E2.45466
G1 X97.941 Y100.260 E2.46632
G1 X97.925 Y100.000 E2.47798
G1 X97.941 Y99.740 E2.48963
G1 X97.990 Y99.484 E2.50129
G1 X98.070 Y99.236 E2.51295
G1 X98.181 Y99.000 E2.52461
G1 X98.321 Y98.780 E2.53627
G1 X98.484 Y98.583 E2.54769
G1 X98.677 Y98.401 E2.55957
G1 X98.888 Y98.248 E2.57124
G1 X99.064 Y98.151 E2.58022
G1 X99.138 Y97.862 F6000.000
G1 X98.952 Y97.772 F6000.000
G1 F1800
G1 X99.239 Y97.659 E2.59404
G1 X99.539 Y97.582 E2.60787
G1 X99.845 Y97.543 E2.62170
G1 X100.155 Y97.543 E2.63553
G1 X100.456 Y97.581 E2.64910
G1 X100.760 Y97.658 E2.66315
