; generated by Slic3r 1.3.0 on 2021-02-09 at 18:37:32

; external perimeters extrusion width = 0.44mm (2.86mm^3/s)
; perimeters extrusion width = 0.56mm (4.14mm^3/s)
; infill extrusion width = 0.50mm (3.66mm^3/s)
; solid infill extrusion width = 0.56mm (3.10mm^3/s)
; top infill extrusion width = 0.45mm (2.44mm^3/s)

M107
;D3D:START:START
T0
M104 S215 T0

G21
G90
M107
T0
G28
G29
M109 T0 S215 T0
G0 F3000
M107
T0
G92 E0
G0 X0 Y149 Z0.1 F3600
G1 Y49 E6.5 F1200
G0 Z1
G92 E0
; Filament gcode

G21 ; set units to millimeters
G90 ; use absolute coordinates
M82 ; use absolute distances for extrusion
G92 E0
G1 Z0.300 F6000.000
G1 E-2.00000 F1200.00000
G92 E0
G1 Z0.800 F6000.000
G1 X34.470 Y36.997 F6000.000
G1 Z0.300 F6000.000
G1 E2.00000 F1200.00000
G1 F1800
G1 X39.428 Y32.638 E2.29529
G1 X39.793 Y32.339 E2.31639
G1 X45.048 Y28.332 E2.61197
G1 X45.434 Y28.058 E2.63317
G1 X50.965 Y24.424 E2.92920
G1 X51.371 Y24.178 E2.95042
G1 X57.152 Y20.935 E3.24693
G1 X57.574 Y20.717 E3.26815
G1 X63.576 Y17.884 E3.56504
G1 X64.013 Y17.696 E3.58632
G1 X70.518 Y15.177 E3.89833
G1 X98.950 Y5.684 E5.23910
G1 X101.086 Y5.335 E5.33594
G1 X110.433 Y5.325 E5.75400
G1 X113.466 Y6.040 E5.89341
G1 X153.466 Y26.041 E7.89380
G1 X155.332 Y27.417 E7.99752
G1 X156.624 Y29.343 E8.10124
G1 X157.209 Y32.165 E8.23017
G1 X157.077 Y45.172 E8.81198
G1 X156.657 Y47.453 E8.91571
G1 X155.278 Y49.700 E9.03366
G1 X69.028 Y142.981 E14.71636
G1 X67.185 Y144.389 E14.82008
G1 X64.064 Y145.156 E14.96383
G1 X37.048 Y145.182 E16.17224
G1 X34.014 Y144.468 E16.31168
G1 X-5.986 Y124.468 E18.31206
G1 X-7.852 Y123.091 E18.41578
G1 X-9.144 Y121.165 E18.51950
G1 X-9.729 Y118.411 E18.64543
G1 X-9.729 Y112.258 E18.92067
G1 X-8.993 Y109.189 E19.06184
G1 X13.473 Y65.017 E21.27852
G1 X16.621 Y59.276 E21.57137
G1 X16.859 Y58.874 E21.59226
G1 X20.404 Y53.357 E21.88561
G1 X20.672 Y52.970 E21.90663
G1 X24.596 Y47.705 E22.20035
G1 X24.890 Y47.338 E22.22139
G1 X29.177 Y42.351 E22.51556
G1 X29.497 Y42.004 E22.53667
G1 X34.133 Y37.315 E22.83163
G1 X34.426 Y37.038 E22.84966
G1 X34.725 Y37.287 F6000.000
G1 F1800
G1 X39.682 Y32.927 E23.14494
G1 X40.026 Y32.645 E23.16484
G1 X45.281 Y28.639 E23.46041
G1 X45.646 Y28.381 E23.48041
G1 X51.177 Y24.746 E23.77644
G1 X51.559 Y24.514 E23.79645
G1 X57.341 Y21.271 E24.09296
G1 X57.738 Y21.066 E24.11296
G1 X63.741 Y18.233 E24.40986
G1 X64.153 Y18.055 E24.42992
G1 X70.640 Y15.542 E24.74110
G1 X99.072 Y6.049 E26.08187
G1 X101.087 Y5.721 E26.17319
G1 X110.433 Y5.711 E26.59125
G1 X113.294 Y6.385 E26.72272
G1 X153.294 Y26.385 E28.72311
G1 X155.099 Y27.731 E28.82381
G1 X156.324 Y29.620 E28.92451
G1 X156.823 Y32.162 E29.04036
G1 X156.691 Y45.168 E29.62218
G1 X156.272 Y47.380 E29.72288
G1 X154.995 Y49.439 E29.83124
G1 X68.745 Y142.720 E35.51394
G1 X66.949 Y144.077 E35.61464
G1 X64.064 Y144.770 E35.74735
G1 X37.048 Y144.797 E36.95576
G1 X34.187 Y144.123 E37.08725
G1 X-5.813 Y124.123 E39.08763
G1 X-7.618 Y122.777 E39.18833
G1 X-8.843 Y120.888 E39.28904
G1 X-9.343 Y118.411 E39.40206
G1 X-9.343 Y112.258 E39.67729
G1 X-8.650 Y109.364 E39.81042
G1 X13.811 Y65.202 E42.02657
G1 X16.959 Y59.461 E42.31941
G1 X17.184 Y59.083 E42.33912
G1 X20.729 Y53.565 E42.63246
G1 X20.981 Y53.201 E42.65228
G1 X24.905 Y47.936 E42.94600
G1 X25.182 Y47.590 E42.96584
G1 X29.469 Y42.602 E43.26001
G1 X29.771 Y42.275 E43.27992
G1 X34.681 Y37.328 E43.59170
G1 E41.59170 F1200.00000
G92 E0
G1 Z0.800 F6000.000
G1 X55.620 Y100.386 F6000.000
G1 Z0.300 F6000.000
G1 E2.00000 F1200.00000
G1 F1800
G1 X56.129 Y100.571 E2.02424
G1 X55.906 Y101.213 E2.05465
G1 X55.392 Y101.046 E2.07883
G1 X55.599 Y100.442 E2.10739
G1 X55.755 Y100.009 F6000.000
G1 E0.10739 F1200.00000
G92 E0
G1 Z0.800 F6000.000
G1 X57.527 Y95.370 F6000.000
G1 Z0.300 F6000.000
G1 E2.00000 F1200.00000
G1 F1800
G1 X57.781 Y94.704 E2.03189
G1 X58.168 Y93.864 E2.07324
G1 X58.663 Y94.085 E2.09750
G1 X58.027 Y95.572 E2.16986
G1 X57.583 Y95.392 E2.19127
G1 X57.128 Y95.386 F6000.000
G1 E0.19127 F1200.00000
G92 E0
G1 Z0.800 F6000.000
G1 X60.099 Y88.782 F6000.000
G1 Z0.300 F6000.000
G1 E2.00000 F1200.00000
G1 F1800
G1 X59.892 Y88.684 E2.01022
G1 X60.021 Y88.427 E2.02306
G1 X60.222 Y88.532 E2.03319
G1 X60.125 Y88.729 E2.04300
G1 X60.207 Y89.434 F6000.000
G1 F1800
G1 X60.604 Y88.628 E2.08317
G1 X60.901 Y88.088 E2.11074
G1 X61.380 Y88.342 E2.13501
G1 X60.696 Y89.672 E2.20189
G1 X60.261 Y89.460 E2.22354
G1 X59.808 Y89.412 F6000.000
G1 E0.22354 F1200.00000
G92 E0
G1 Z0.800 F6000.000
G1 X50.940 Y133.241 F6000.000
G1 Z0.300 F6000.000
G1 E2.00000 F1200.00000
G1 F1800
G1 X63.060 Y133.229 E2.54211
G1 X63.060 Y137.389 E2.72821
G1 X38.039 Y137.414 E3.84741
G1 X38.039 Y133.253 E4.03351
G1 X50.292 Y133.241 E4.58161
G1 X50.430 Y125.819 E4.91365
G1 X50.991 Y119.424 E5.20083
G1 X51.991 Y113.073 E5.48838
G1 X53.428 Y106.798 E5.77634
G1 X54.966 Y101.719 E6.01371
G1 X56.295 Y102.151 E6.07623
G1 X55.339 Y104.903 E6.20656
G1 X53.532 Y111.589 E6.51636
G1 X52.200 Y118.395 E6.82654
G1 X51.352 Y125.286 E7.13710
G1 X50.943 Y133.181 E7.49071
G1 E5.49071 F1200.00000
G92 E0
G1 Z0.800 F6000.000
G1 X57.017 Y100.073 F6000.000
G1 Z0.300 F6000.000
G1 E2.00000 F1200.00000
G1 F1800
G1 X55.691 Y99.591 E2.06314
G1 X57.052 Y96.010 E2.23451
G1 X58.389 Y96.550 E2.29903
G1 X57.609 Y98.370 E2.38757
G1 X57.037 Y100.017 E2.46557
G1 E0.46557 F1200.00000
G92 E0
G1 Z0.800 F6000.000
G1 X59.624 Y93.668 F6000.000
G1 Z0.300 F6000.000
G1 E2.00000 F1200.00000
G1 F1800
G1 X58.291 Y93.075 E2.06527
G1 X59.691 Y90.040 E2.21476
G1 X61.016 Y90.686 E2.28071
G1 X60.330 Y92.021 E2.34783
G1 X59.648 Y93.613 E2.42530
G1 E0.42530 F1200.00000
G92 E0
G1 Z0.800 F6000.000
G1 X62.394 Y88.008 F6000.000
G1 Z0.300 F6000.000
G1 E2.00000 F1200.00000
G1 F1800
G1 X61.075 Y87.307 E2.06680
G1 X63.415 Y83.042 E2.28439
G1 X66.920 Y77.584 E2.57454
G1 X70.803 Y72.375 E2.86515
G1 X75.045 Y67.440 E3.15622
G1 X79.627 Y62.805 E3.44776
G1 X84.530 Y58.495 E3.73976
G1 X89.729 Y54.531 E4.03221
G1 X95.201 Y50.935 E4.32511
G1 X100.921 Y47.726 E4.61844
G1 X106.860 Y44.923 E4.91220
G1 X107.679 Y44.605 E4.95149
G1 X107.768 Y44.806 E4.96135
G1 X101.886 Y47.779 E5.25616
G1 X96.034 Y51.266 E5.56086
G1 X90.429 Y55.156 E5.86604
G1 X85.099 Y59.433 E6.17171
G1 X80.072 Y64.077 E6.47786
G1 X75.373 Y69.069 E6.78450
G1 X71.027 Y74.384 E7.09161
G1 X67.057 Y80.000 E7.39920
G1 X63.485 Y85.888 E7.70726
G1 X62.422 Y87.955 E7.81123
G1 X61.897 Y88.180 F6000.000
G1 F1800
G1 X60.549 Y87.464 E7.87949
G1 X63.083 Y82.845 E8.11515
G1 X66.603 Y77.365 E8.40650
G1 X70.502 Y72.134 E8.69831
G1 X74.761 Y67.179 E8.99058
G1 X79.363 Y62.525 E9.28333
G1 X84.285 Y58.196 E9.57653
G1 X89.506 Y54.216 E9.87019
G1 X95.001 Y50.605 E10.16429
G1 X100.744 Y47.383 E10.45884
G1 X106.708 Y44.569 E10.75381
G1 X112.863 Y42.177 E11.04920
G1 X119.180 Y40.221 E11.34499
G1 X125.505 Y38.743 E11.63553
G1 X125.561 Y38.964 E11.64572
G1 X120.742 Y40.249 E11.86878
G1 X114.352 Y42.435 E12.17089
G1 X108.118 Y45.061 E12.47345
G1 X102.072 Y48.117 E12.77647
G1 X96.243 Y51.590 E13.07998
G1 X90.660 Y55.465 E13.38396
G1 X85.351 Y59.725 E13.68842
G1 X80.343 Y64.351 E13.99337
G1 X75.663 Y69.323 E14.29881
G1 X71.334 Y74.618 E14.60472
G1 X67.380 Y80.211 E14.91110
G1 X63.822 Y86.076 E15.21795
G1 X60.679 Y92.185 E15.52524
G1 X57.969 Y98.509 E15.83299
G1 X55.708 Y105.017 E16.14115
G1 X53.908 Y111.677 E16.44973
G1 X52.582 Y118.456 E16.75869
G1 X51.736 Y125.319 E17.06803
G1 X51.346 Y132.855 E17.40553
G1 X63.445 Y132.843 E17.94673
G1 X63.445 Y137.774 E18.16733
G1 X37.653 Y137.800 E19.32102
G1 X37.653 Y132.868 E19.54162
G1 X49.914 Y132.856 E20.09003
G1 X50.045 Y125.799 E20.40575
G1 X50.608 Y119.377 E20.69412
G1 X51.612 Y113.000 E20.98286
G1 X53.055 Y106.699 E21.27201
G1 X54.711 Y101.230 E21.52758
G1 X56.146 Y101.697 E21.59508
G1 X56.618 Y100.339 E21.65940
G1 X55.191 Y99.820 E21.72732
G1 X56.831 Y95.505 E21.93380
G1 X58.232 Y96.071 E22.00139
G1 X59.168 Y93.887 E22.10766
G1 X57.777 Y93.268 E22.17575
G1 X59.506 Y89.521 E22.36035
G1 X60.866 Y90.184 E22.42805
G1 X61.870 Y88.234 E22.52615
G1 E20.52615 F1200.00000
G92 E0
G1 Z0.800 F6000.000
G1 X51.752 Y132.469 F6000.000
G1 Z0.300 F6000.000
G1 E2.00000 F1200.00000
G1 F1800
G1 X63.831 Y132.457 E2.54028
G1 X63.831 Y138.160 E2.79537
G1 X37.267 Y138.186 E3.98356
G1 X37.267 Y132.483 E4.23866
G1 X49.535 Y132.471 E4.78739
G1 X49.660 Y125.778 E5.08679
G1 X50.225 Y119.330 E5.37635
G1 X51.233 Y112.927 E5.66628
G1 X52.682 Y106.600 E5.95662
G1 X54.566 Y100.379 E6.24737
G1 X56.879 Y94.293 E6.53856
G1 X59.611 Y88.373 E6.83020
G1 X62.751 Y82.648 E7.12228
G1 X66.286 Y77.145 E7.41483
G1 X70.201 Y71.893 E7.70784
G1 X74.477 Y66.917 E8.00132
G1 X79.098 Y62.244 E8.29526
G1 X84.041 Y57.898 E8.58967
G1 X89.283 Y53.901 E8.88453
G1 X94.801 Y50.275 E9.17985
G1 X100.567 Y47.040 E9.47561
G1 X106.555 Y44.214 E9.77179
G1 X112.736 Y41.812 E10.06840
G1 X119.079 Y39.849 E10.36540
G1 X125.553 Y38.336 E10.66279
G1 X132.126 Y37.282 E10.96055
G1 X138.765 Y36.696 E11.25865
G1 X139.675 Y36.680 E11.29939
G1 X139.691 Y36.899 E11.30921
G1 X133.930 Y37.610 E11.56882
G1 X127.345 Y38.887 E11.86887
G1 X120.854 Y40.618 E12.16935
G1 X114.489 Y42.796 E12.47026
G1 X108.280 Y45.412 E12.77163
G1 X102.258 Y48.455 E13.07346
G1 X96.452 Y51.915 E13.37577
G1 X90.891 Y55.774 E13.67855
G1 X85.603 Y60.017 E13.98181
G1 X80.615 Y64.626 E14.28556
G1 X75.953 Y69.578 E14.58979
G1 X71.641 Y74.852 E14.89450
G1 X67.703 Y80.423 E15.19967
G1 X64.158 Y86.265 E15.50531
G1 X61.028 Y92.350 E15.81139
G1 X58.329 Y98.649 E16.11792
G1 X56.077 Y105.131 E16.42487
G1 X54.284 Y111.764 E16.73223
G1 X52.963 Y118.516 E17.03997
G1 X52.121 Y125.353 E17.34809
G1 X51.755 Y132.409 E17.66412
G1 X51.741 Y132.868 F6000.000
G1 E15.66412 F1200.00000
G92 E0
G1 Z0.800 F6000.000
G1 X139.908 Y36.774 F6000.000
G1 Z0.300 F6000.000
G1 E2.00000 F1200.00000
G1 F1800
G1 X140.564 Y36.728 E2.04185
G1 F1800
G1 X141.212 Y36.704 E2.07850
G1 X141.417 Y36.425 E2.09810
G1 E0.09810 F1200.00000
G92 E0
G1 Z0.800 F6000.000
G1 X144.699 Y44.113 F6000.000
G1 Z0.300 F6000.000
G1 E2.00000 F1200.00000
G1 F1800
G1 X142.125 Y35.294 E2.41090
G1 X142.090 Y34.548 E2.44431
G1 X142.090 Y33.101 E2.50903
G1 X149.432 Y33.094 E2.83741
G1 X149.320 Y44.108 E3.33009
G1 X144.759 Y44.113 E3.53411
G1 X144.410 Y44.499 F6000.000
G1 F1800
G1 X141.750 Y35.384 E3.95879
G1 X141.705 Y34.556 E3.99592
G1 X141.705 Y32.716 E4.07820
G1 X149.821 Y32.708 E4.44125
G1 X149.702 Y44.493 E4.96843
G1 X144.470 Y44.499 E5.20246
G1 X144.121 Y44.884 F6000.000
G1 F1800
G1 X141.374 Y35.475 E5.64091
G1 X141.349 Y35.339 E5.64707
G1 X141.319 Y34.563 E5.68183
G1 X141.319 Y32.331 E5.78167
G1 X150.211 Y32.322 E6.17940
G1 X150.083 Y44.879 E6.74108
G1 X144.181 Y44.884 E7.00511
G1 X144.105 Y44.485 F6000.000
G1 E5.00511 F1200.00000
G92 E0
G1 Z0.800 F6000.000
G1 X148.624 Y44.036 F6000.000
G1 Z0.300 F6000.000
G1 E2.00000 F1200.00000
G1 F1800
G1 X149.252 Y43.409 E2.04050
G1 X149.257 Y42.847 E2.06617
G1 X148.067 Y44.037 E2.14302
G1 X147.510 Y44.038 E2.16845
G1 X149.263 Y42.285 E2.28164
G1 X149.269 Y41.722 E2.30731
G1 X146.953 Y44.038 E2.45684
G1 X146.396 Y44.039 E2.48227
G1 X149.275 Y41.160 E2.66814
G1 X149.280 Y40.598 E2.69381
G1 X145.839 Y44.039 E2.91602
G1 X145.281 Y44.040 E2.94146
G1 X149.286 Y40.035 E3.20001
G1 X149.292 Y39.473 E3.22568
G1 X144.724 Y44.040 E3.52057
G1 X144.674 Y44.040 E3.52286
G1 X144.560 Y43.648 E3.54151
G1 X149.297 Y38.911 E3.84739
G1 X149.303 Y38.348 E3.87306
G1 X144.434 Y43.217 E4.18743
G1 X144.308 Y42.786 E4.20792
G1 X149.309 Y37.786 E4.53078
G1 X149.315 Y37.224 E4.55645
G1 X144.183 Y42.356 E4.88779
G1 X144.057 Y41.925 E4.90829
G1 X149.320 Y36.661 E5.24812
G1 X149.326 Y36.099 E5.27379
G1 X143.931 Y41.494 E5.62211
G1 X143.805 Y41.063 E5.64260
G1 X149.332 Y35.537 E5.99940
G1 X149.337 Y34.974 E6.02507
G1 X143.680 Y40.632 E6.39037
G1 X143.554 Y40.201 E6.41086
G1 X149.343 Y34.412 E6.78464
G1 X149.349 Y33.850 E6.81031
G1 X143.428 Y39.770 E7.19257
G1 X143.302 Y39.340 E7.21307
G1 X149.355 Y33.287 E7.60382
G1 X149.356 Y33.166 E7.60934
G1 X148.918 Y33.167 E7.62931
G1 X143.177 Y38.909 E8.00002
G1 X143.051 Y38.478 E8.02051
G1 X148.361 Y33.167 E8.36336
G1 X147.804 Y33.168 E8.38880
G1 X142.925 Y38.047 E8.70380
G1 X142.799 Y37.616 E8.72429
G1 X147.247 Y33.169 E9.01144
G1 X146.690 Y33.169 E9.03687
G1 X142.674 Y37.185 E9.29617
G1 X142.548 Y36.754 E9.31666
G1 X146.133 Y33.170 E9.54810
G1 X145.575 Y33.170 E9.57353
G1 X142.422 Y36.323 E9.77712
G1 X142.296 Y35.893 E9.79761
G1 X145.018 Y33.171 E9.97334
G1 X144.461 Y33.171 E9.99878
G1 X142.190 Y35.442 E10.14541
G1 X142.165 Y34.911 E10.16972
G1 X143.904 Y33.172 E10.28199
G1 X143.347 Y33.172 E10.30742
G1 X142.162 Y34.357 E10.38390
G1 X142.162 Y33.800 E10.40931
G1 X142.790 Y33.173 E10.44981
G1 E8.44981 F1200.00000
G92 E0
G1 Z0.800 F6000.000
G1 X135.231 Y37.228 F6000.000
G1 Z0.300 F6000.000
G1 E2.00000 F1200.00000
G1 F1800
G1 X133.460 Y37.431 E2.00729
G1 F1800
G1 X132.598 Y37.552 E2.01995
G1 F1800
G1 X130.940 Y37.830 E2.06197
G1 F1800
G1 X128.487 Y38.265 E2.14782
G1 F1800
G1 X127.260 Y38.482 E2.20253
G1 X126.737 Y38.593 E2.22600
G1 F1800
G1 X125.721 Y38.809 E2.28212
G1 E0.28212 F1200.00000
G92 E0
G1 Z0.800 F6000.000
G1 X120.165 Y40.215 F6000.000
G1 Z0.300 F6000.000
G1 E2.00000 F1200.00000
G1 F1800
G1 X119.250 Y40.478 E2.00396
G1 F1800
G1 X116.742 Y41.295 E2.04098
G1 F1800
G1 X114.224 Y42.115 E2.10199
G1 F1800
G1 X113.407 Y42.413 E2.13037
G1 F1800
G1 X111.298 Y43.250 E2.22687
G1 F1800
G1 X107.900 Y44.627 E2.42444
G1 E0.42444 F1200.00000
G92 E0
G1 Z0.800 F6000.000
G1 X102.483 Y47.231 F6000.000
G1 Z0.300 F6000.000
G1 E2.00000 F1200.00000
G1 F1800
G1 X101.409 Y47.772 E2.00141
G1 F1800
G1 X99.746 Y48.717 E2.02134
G1 F1800
G1 X97.149 Y50.219 E2.07981
G1 F1800
G1 X95.618 Y51.115 E2.13044
G1 F1800
G1 X94.088 Y52.137 E2.19384
G1 F1800
G1 X91.472 Y53.904 E2.33184
G1 F1800
G1 X90.150 Y54.797 E2.41645
G1 X88.905 Y55.763 E2.49998
G1 F1800
G1 X87.813 Y56.617 E2.58642
G1 E0.58642 F1200.00000
G92 E0
G1 Z0.800 F6000.000
G1 X85.108 Y58.993 F6000.000
G1 Z0.300 F6000.000
G1 E2.00000 F1200.00000
G1 F1800
G1 X87.334 Y56.767 E2.14493
G1 X85.088 Y58.480 E2.27496
G1 X84.859 Y58.681 E2.28898
G1 X71.896 Y71.644 E3.13300
G1 X75.015 Y68.015 E3.35328
G1 X80.207 Y62.771 E3.69302
G1 E1.69302 F1200.00000
G92 E0
G1 Z0.800 F6000.000
G1 X74.484 Y69.617 F6000.000
G1 Z0.300 F6000.000
G1 E2.00000 F1200.00000
G1 F1800
G1 X69.676 Y74.425 E2.31299
G1 X68.034 Y76.628 E2.43952
G1 X71.968 Y72.694 E2.69566
G1 X71.034 Y73.837 E2.76364
G1 X70.182 Y75.041 E2.83152
G1 X66.597 Y78.626 E3.06494
G1 X65.589 Y80.196 E3.15083
G1 X68.828 Y76.957 E3.36172
G1 X67.474 Y78.873 E3.46973
G1 X64.581 Y81.765 E3.65809
G1 X63.573 Y83.335 E3.74398
G1 X66.454 Y80.453 E3.93161
G1 X65.589 Y81.880 E4.00846
G1 X62.845 Y84.623 E4.18707
G1 X62.164 Y85.866 E4.25234
G1 X64.723 Y83.307 E4.41895
G1 X63.857 Y84.735 E4.49580
G1 X61.482 Y87.109 E4.65043
G1 X61.288 Y87.464 E4.66903
G1 X61.550 Y87.603 E4.68270
G1 X63.139 Y86.014 E4.78613
G1 X62.544 Y87.170 E4.84599
G1 X61.916 Y87.798 E4.88684
G1 X62.316 Y88.185 F6000.000
G1 F1800
G1 X61.115 Y90.520 E4.97790
G1 X59.684 Y90.932 F6000.000
G1 F1800
G1 X59.563 Y90.873 E4.98517
G1 X59.407 Y91.209 E5.00506
G1 X60.312 Y90.305 E5.07369
G1 X60.752 Y90.520 E5.09996
G1 X58.847 Y92.425 E5.24456
G1 X58.491 Y93.195 E5.29009
G1 X58.657 Y93.269 E5.29984
G1 X60.228 Y91.698 E5.41909
G1 X59.737 Y92.843 E5.48596
G1 X59.110 Y93.470 E5.53358
G1 X59.572 Y93.856 F6000.000
G1 F1800
G1 X58.489 Y96.383 E5.61932
G1 X57.586 Y96.201 F6000.000
G1 F1800
G1 X56.959 Y96.829 E5.66610
G1 X56.565 Y97.866 E5.72460
G1 X58.044 Y96.386 E5.83491
G1 X58.193 Y96.447 E5.84339
G1 X57.868 Y97.205 E5.88689
G1 X56.170 Y98.903 E6.01349
G1 X55.877 Y99.676 E6.05712
G1 X55.996 Y99.719 E6.06384
G1 X57.437 Y98.278 E6.17130
G1 X57.095 Y99.264 E6.22629
G1 X56.468 Y99.891 E6.27307
G1 X56.999 Y100.272 F6000.000
G1 F1800
G1 X56.404 Y101.984 E6.32049
G1 X55.535 Y101.894 F6000.000
G1 F1800
G1 X54.908 Y102.521 E6.36069
G1 X54.667 Y103.314 E6.39822
G1 X55.952 Y102.029 E6.48053
G1 X56.116 Y102.082 E6.48834
G1 X55.937 Y102.596 E6.51300
G1 X54.427 Y104.106 E6.60975
G1 X54.187 Y104.899 E6.64727
G1 X55.643 Y103.443 E6.74055
G1 X55.349 Y104.290 E6.78117
G1 X53.947 Y105.691 E6.87098
