; generated by Slic3r 1.3.1-dev (Build (Unknown revision)) on 2020-06-19 at 09:11:42

; external perimeters extrusion width = 0.44mm (2.86mm^3/s)
; perimeters extrusion width = 0.56mm (4.14mm^3/s)
; infill extrusion width = 0.50mm (5.48mm^3/s)
; solid infill extrusion width = 0.56mm (3.10mm^3/s)
; top infill extrusion width = 0.45mm (2.44mm^3/s)

M107
G92 E0
;D3D:START:START
T0
M104 S215 T0

G21
G90
M107
T0
G28
G29
M109 T0 S215 T0
G0 F3000
M107
T0
G92 E0
G0 X0 Y149 Z0.1 F3600
G1 Y49 E6.5 F1200
G0 Z1
G92 E0
; Filament gcode

G21 ; set units to millimeters
G90 ; use absolute coordinates
M82 ; use absolute distances for extrusion
G92 E0
G1 Z0.200 F6000.000
G1 E-2.00000 F1200.00000
G92 E0
G1 X18.048 Y12.931 F6000.000
G1 E2.00000 F1200.00000
G1 F1800.000
G1 X19.165 Y11.407 E2.03636
G1 X20.809 Y10.474 E2.07271
G1 X22.166 Y10.265 E2.09914
G1 X127.834 Y10.265 E4.13203
G1 X129.681 Y10.660 E4.16839
G1 X131.206 Y11.778 E4.20475
G1 X132.139 Y13.421 E4.24110
G1 X132.348 Y14.779 E4.26754
G1 X132.348 Y135.221 E6.58468
G1 X131.952 Y137.069 E6.62104
G1 X130.835 Y138.593 E6.65740
G1 X129.191 Y139.526 E6.69375
G1 X127.834 Y139.735 E6.72018
G1 X22.166 Y139.735 E8.75307
G1 X20.319 Y139.340 E8.78943
G1 X18.794 Y138.222 E8.82579
G1 X17.861 Y136.579 E8.86214
G1 X17.652 Y135.221 E8.88858
G1 X17.652 Y14.779 E11.20572
G1 X18.035 Y12.990 E11.24093
G1 X18.305 Y12.987 F6000.000
G1 F1800.000
G1 X19.417 Y11.529 E11.27622
G1 X21.040 Y10.673 E11.31151
G1 X22.166 Y10.522 E11.33338
G1 X127.834 Y10.522 E13.36627
G1 X129.625 Y10.917 E13.40156
G1 X131.084 Y12.030 E13.43686
G1 X131.939 Y13.653 E13.47215
G1 X132.091 Y14.779 E13.49401
G1 X132.091 Y135.221 E15.81116
G1 X131.695 Y137.013 E15.84645
G1 X130.583 Y138.471 E15.88175
G1 X128.960 Y139.327 E15.91704
G1 X127.834 Y139.478 E15.93891
G1 X22.166 Y139.478 E17.97179
G1 X20.375 Y139.083 E18.00709
G1 X18.916 Y137.970 E18.04238
G1 X18.061 Y136.347 E18.07768
G1 X17.909 Y135.221 E18.09954
G1 X17.909 Y14.779 E20.41669
G1 X18.292 Y13.046 E20.45083
G1 E18.45083 F1200.00000
G92 E0
G1 X24.828 Y128.281 F6000.000
G1 E2.00000 F1200.00000
G1 F1800.000
G1 X25.041 Y128.335 E2.00423
G1 X25.245 Y128.416 E2.00846
G1 X25.438 Y128.522 E2.01269
G1 X25.616 Y128.651 E2.01692
G1 X25.776 Y128.802 E2.02114
G1 X25.916 Y128.971 E2.02537
G1 X26.034 Y129.157 E2.02960
G1 X26.127 Y129.356 E2.03383
G1 X26.195 Y129.565 E2.03806
G1 X26.236 Y129.781 E2.04229
G1 X26.250 Y130.000 E2.04652
G1 X26.236 Y130.219 E2.05074
G1 X26.195 Y130.435 E2.05497
G1 X26.127 Y130.644 E2.05920
G1 X26.034 Y130.843 E2.06343
G1 X25.916 Y131.029 E2.06766
G1 X25.776 Y131.198 E2.07189
G1 X25.616 Y131.349 E2.07612
G1 X25.438 Y131.478 E2.08035
G1 X25.245 Y131.584 E2.08457
G1 X25.041 Y131.665 E2.08880
G1 X24.828 Y131.719 E2.09303
G1 X24.610 Y131.747 E2.09726
G1 X24.390 Y131.747 E2.10149
G1 X24.172 Y131.719 E2.10572
G1 X23.959 Y131.665 E2.10995
G1 X23.755 Y131.584 E2.11418
G1 X23.562 Y131.478 E2.11841
G1 X23.384 Y131.349 E2.12263
G1 X23.224 Y131.198 E2.12686
G1 X23.084 Y131.029 E2.13109
G1 X22.966 Y130.843 E2.13532
G1 X22.872 Y130.644 E2.13955
G1 X22.805 Y130.435 E2.14378
G1 X22.763 Y130.219 E2.14801
G1 X22.750 Y130.000 E2.15223
G1 X22.763 Y129.781 E2.15646
G1 X22.805 Y129.565 E2.16069
G1 X22.872 Y129.356 E2.16492
G1 X22.966 Y129.157 E2.16915
G1 X23.084 Y128.971 E2.17338
G1 X23.224 Y128.802 E2.17761
G1 X23.384 Y128.651 E2.18184
G1 X23.562 Y128.522 E2.18606
G1 X23.755 Y128.416 E2.19029
G1 X23.959 Y128.335 E2.19452
G1 X24.172 Y128.281 E2.19875
G1 X24.390 Y128.253 E2.20298
G1 X24.768 Y128.273 E2.21027
G1 X24.971 Y128.114 F6000.000
G1 E0.21027 F1200.00000
G92 E0
G1 X122.234 Y130.000 F6000.000
G1 E2.00000 F1200.00000
G1 F1800.000
G1 X122.254 Y129.694 E2.00589
G1 X122.385 Y129.186 E2.01600
G1 X122.523 Y128.890 E2.02227
G1 X122.833 Y128.464 E2.03242
G1 X123.070 Y128.240 E2.03869
G1 X123.516 Y127.958 E2.04884
G1 X123.800 Y127.845 E2.05472
G1 X124.076 Y127.775 E2.06020
G1 X124.358 Y127.739 E2.06566
G1 X124.642 Y127.739 E2.07114
G1 X124.924 Y127.775 E2.07660
G1 X125.200 Y127.845 E2.08208
G1 X125.465 Y127.950 E2.08756
G1 X125.715 Y128.088 E2.09304
G1 X125.944 Y128.254 E2.09850
G1 X126.151 Y128.449 E2.10397
G1 X126.334 Y128.669 E2.10947
G1 X126.485 Y128.909 E2.11492
G1 X126.615 Y129.184 E2.12078
G1 X126.752 Y129.715 E2.13133
G1 X126.752 Y130.285 E2.14229
G1 X126.610 Y130.835 E2.15323
G1 X126.346 Y131.315 E2.16376
G1 X126.138 Y131.567 E2.17004
G1 X125.733 Y131.903 E2.18017
G1 X125.465 Y132.050 E2.18605
G1 X125.200 Y132.155 E2.19153
G1 X124.924 Y132.225 E2.19701
G1 X124.642 Y132.261 E2.20248
G1 X124.358 Y132.261 E2.20795
G1 X124.076 Y132.225 E2.21341
G1 X123.800 Y132.155 E2.21889
G1 X123.516 Y132.042 E2.22477
G1 X123.053 Y131.749 E2.23532
G1 X122.679 Y131.349 E2.24585
G1 X122.503 Y131.074 E2.25214
G1 X122.310 Y130.584 E2.26226
G1 X122.252 Y130.285 E2.26812
G1 X122.238 Y130.060 E2.27246
G1 X122.492 Y130.000 F6000.000
G1 F1800.000
G1 X122.509 Y129.735 E2.27757
G1 X122.628 Y129.273 E2.28675
G1 X122.745 Y129.021 E2.29209
G1 X123.027 Y128.634 E2.30130
G1 X123.229 Y128.444 E2.30664
G1 X123.633 Y128.188 E2.31585
G1 X123.880 Y128.090 E2.32095
G1 X124.124 Y128.028 E2.32581
G1 X124.374 Y127.996 E2.33065
G1 X124.626 Y127.996 E2.33550
G1 X124.876 Y128.028 E2.34034
G1 X125.120 Y128.090 E2.34520
G1 X125.355 Y128.183 E2.35006
G1 X125.576 Y128.305 E2.35491
G1 X125.779 Y128.453 E2.35975
G1 X125.964 Y128.625 E2.36460
G1 X126.125 Y128.820 E2.36947
G1 X126.259 Y129.033 E2.37430
G1 X126.372 Y129.272 E2.37939
G1 X126.495 Y129.748 E2.38885
G1 X126.495 Y130.252 E2.39855
G1 X126.369 Y130.740 E2.40824
G1 X126.133 Y131.170 E2.41768
G1 X125.956 Y131.384 E2.42303
G1 X125.587 Y131.689 E2.43223
G1 X125.355 Y131.817 E2.43732
G1 X125.120 Y131.910 E2.44218
G1 X124.876 Y131.972 E2.44704
G1 X124.626 Y132.004 E2.45188
G1 X124.374 Y132.004 E2.45673
G1 X124.124 Y131.972 E2.46158
G1 X123.880 Y131.910 E2.46643
G1 X123.633 Y131.812 E2.47154
G1 X123.218 Y131.549 E2.48099
G1 X122.882 Y131.191 E2.49043
G1 X122.733 Y130.956 E2.49578
G1 X122.558 Y130.512 E2.50497
G1 X122.508 Y130.252 E2.51006
G1 X122.495 Y130.060 E2.51377
G1 X122.749 Y130.000 F6000.000
G1 F1800.000
G1 X122.764 Y129.776 E2.51809
G1 X122.871 Y129.360 E2.52635
G1 X122.968 Y129.153 E2.53075
G1 X123.220 Y128.805 E2.53902
G1 X123.387 Y128.648 E2.54342
G1 X123.750 Y128.418 E2.55169
G1 X123.959 Y128.335 E2.55602
G1 X124.172 Y128.281 E2.56025
G1 X124.390 Y128.253 E2.56447
G1 X124.610 Y128.253 E2.56870
G1 X124.828 Y128.281 E2.57293
G1 X125.041 Y128.335 E2.57716
G1 X125.245 Y128.416 E2.58139
G1 X125.438 Y128.522 E2.58562
G1 X125.615 Y128.651 E2.58984
G1 X125.776 Y128.802 E2.59408
G1 X125.916 Y128.971 E2.59831
G1 X126.033 Y129.157 E2.60253
G1 X126.129 Y129.360 E2.60685
G1 X126.237 Y129.781 E2.61521
G1 X126.237 Y130.219 E2.62365
G1 X126.128 Y130.645 E2.63210
G1 X125.919 Y131.025 E2.64045
G1 X125.773 Y131.202 E2.64486
G1 X125.442 Y131.476 E2.65312
G1 X125.245 Y131.584 E2.65744
G1 X125.041 Y131.665 E2.66167
G1 X124.828 Y131.719 E2.66591
G1 X124.610 Y131.747 E2.67013
G1 X124.390 Y131.747 E2.67436
G1 X124.172 Y131.719 E2.67858
G1 X123.959 Y131.665 E2.68282
G1 X123.750 Y131.582 E2.68714
G1 X123.383 Y131.349 E2.69550
G1 X123.086 Y131.033 E2.70384
G1 X122.963 Y130.839 E2.70826
G1 X122.806 Y130.440 E2.71652
G1 X122.753 Y130.060 E2.72390
G1 X122.555 Y129.888 F6000.000
G1 E0.72390 F1200.00000
G92 E0
G1 X116.765 Y130.000 F6000.000
G1 E2.00000 F1200.00000
G1 F1800.000
G1 X116.747 Y130.284 E2.00547
G1 X116.694 Y130.563 E2.01095
G1 X116.606 Y130.834 E2.01642
G1 X116.485 Y131.091 E2.02189
G1 X116.333 Y131.332 E2.02737
G1 X116.151 Y131.551 E2.03284
G1 X115.944 Y131.746 E2.03831
G1 X115.714 Y131.913 E2.04379
G1 X115.464 Y132.050 E2.04926
G1 X115.200 Y132.155 E2.05473
G1 X114.924 Y132.225 E2.06021
G1 X114.642 Y132.261 E2.06568
G1 X114.358 Y132.261 E2.07115
G1 X114.075 Y132.225 E2.07663
G1 X113.800 Y132.155 E2.08210
G1 X113.535 Y132.050 E2.08758
G1 X113.286 Y131.913 E2.09305
G1 X113.056 Y131.746 E2.09852
G1 X112.848 Y131.551 E2.10399
G1 X112.667 Y131.332 E2.10947
G1 X112.515 Y131.091 E2.11494
G1 X112.393 Y130.834 E2.12042
G1 X112.306 Y130.563 E2.12589
G1 X112.252 Y130.284 E2.13136
G1 X112.234 Y130.000 E2.13683
G1 X112.252 Y129.716 E2.14231
G1 X112.306 Y129.437 E2.14778
G1 X112.393 Y129.166 E2.15325
G1 X112.515 Y128.909 E2.15873
G1 X112.667 Y128.668 E2.16420
G1 X112.848 Y128.449 E2.16968
G1 X113.056 Y128.254 E2.17515
G1 X113.286 Y128.087 E2.18062
G1 X113.535 Y127.950 E2.18609
G1 X113.800 Y127.845 E2.19157
G1 X114.075 Y127.775 E2.19704
G1 X114.358 Y127.739 E2.20252
G1 X114.642 Y127.739 E2.20799
G1 X114.924 Y127.775 E2.21346
G1 X115.200 Y127.845 E2.21894
G1 X115.464 Y127.950 E2.22441
G1 X115.714 Y128.087 E2.22988
G1 X115.944 Y128.254 E2.23536
G1 X116.151 Y128.449 E2.24083
G1 X116.333 Y128.668 E2.24630
G1 X116.485 Y128.909 E2.25178
G1 X116.606 Y129.166 E2.25725
G1 X116.715 Y129.500 E2.26400
G1 X116.761 Y129.940 E2.27252
G1 X116.508 Y130.000 F6000.000
G1 F1800.000
G1 X116.492 Y130.252 E2.27737
G1 X116.445 Y130.499 E2.28222
G1 X116.367 Y130.739 E2.28708
G1 X116.259 Y130.967 E2.29192
G1 X116.124 Y131.180 E2.29678
G1 X115.963 Y131.375 E2.30163
G1 X115.780 Y131.547 E2.30648
G1 X115.576 Y131.695 E2.31133
G1 X115.355 Y131.817 E2.31618
G1 X115.120 Y131.910 E2.32103
G1 X114.876 Y131.972 E2.32589
G1 X114.626 Y132.004 E2.33074
G1 X114.374 Y132.004 E2.33558
G1 X114.124 Y131.972 E2.34044
G1 X113.879 Y131.910 E2.34529
G1 X113.645 Y131.817 E2.35014
G1 X113.424 Y131.695 E2.35499
G1 X113.220 Y131.547 E2.35984
G1 X113.036 Y131.375 E2.36469
G1 X112.875 Y131.180 E2.36954
G1 X112.740 Y130.967 E2.37439
G1 X112.633 Y130.739 E2.37925
G1 X112.555 Y130.499 E2.38409
G1 X112.508 Y130.252 E2.38895
G1 X112.492 Y130.000 E2.39380
G1 X112.508 Y129.748 E2.39865
G1 X112.555 Y129.501 E2.40350
G1 X112.633 Y129.261 E2.40835
G1 X112.740 Y129.033 E2.41320
G1 X112.875 Y128.820 E2.41805
G1 X113.036 Y128.625 E2.42291
G1 X113.220 Y128.453 E2.42776
G1 X113.424 Y128.305 E2.43261
G1 X113.645 Y128.183 E2.43746
G1 X113.879 Y128.090 E2.44231
G1 X114.124 Y128.028 E2.44716
G1 X114.374 Y127.996 E2.45201
G1 X114.626 Y127.996 E2.45686
G1 X114.876 Y128.028 E2.46171
G1 X115.120 Y128.090 E2.46657
G1 X115.355 Y128.183 E2.47142
G1 X115.576 Y128.305 E2.47627
G1 X115.780 Y128.453 E2.48112
G1 X115.963 Y128.625 E2.48597
G1 X116.124 Y128.820 E2.49082
G1 X116.259 Y129.033 E2.49567
G1 X116.367 Y129.261 E2.50052
G1 X116.463 Y129.559 E2.50654
G1 X116.504 Y129.940 E2.51393
G1 X116.250 Y130.000 F6000.000
G1 F1800.000
G1 X116.236 Y130.219 E2.51815
G1 X116.195 Y130.435 E2.52238
G1 X116.127 Y130.644 E2.52661
G1 X116.034 Y130.843 E2.53084
G1 X115.916 Y131.029 E2.53507
G1 X115.776 Y131.198 E2.53930
G1 X115.615 Y131.349 E2.54353
G1 X115.438 Y131.478 E2.54775
G1 X115.245 Y131.584 E2.55198
G1 X115.041 Y131.665 E2.55621
G1 X114.828 Y131.719 E2.56044
G1 X114.610 Y131.747 E2.56467
G1 X114.390 Y131.747 E2.56890
G1 X114.172 Y131.719 E2.57313
G1 X113.959 Y131.665 E2.57736
G1 X113.755 Y131.584 E2.58159
G1 X113.562 Y131.478 E2.58581
G1 X113.384 Y131.349 E2.59004
G1 X113.224 Y131.198 E2.59427
G1 X113.084 Y131.029 E2.59850
G1 X112.966 Y130.843 E2.60273
G1 X112.872 Y130.644 E2.60696
G1 X112.805 Y130.435 E2.61119
G1 X112.763 Y130.219 E2.61542
G1 X112.749 Y130.000 E2.61964
G1 X112.763 Y129.781 E2.62387
G1 X112.805 Y129.565 E2.62810
G1 X112.872 Y129.356 E2.63233
G1 X112.966 Y129.157 E2.63656
G1 X113.084 Y128.971 E2.64079
G1 X113.224 Y128.802 E2.64502
G1 X113.384 Y128.651 E2.64925
G1 X113.562 Y128.522 E2.65347
G1 X113.755 Y128.416 E2.65770
G1 X113.959 Y128.335 E2.66193
G1 X114.172 Y128.281 E2.66616
G1 X114.390 Y128.253 E2.67039
G1 X114.610 Y128.253 E2.67462
G1 X114.828 Y128.281 E2.67885
G1 X115.041 Y128.335 E2.68308
G1 X115.245 Y128.416 E2.68730
G1 X115.438 Y128.522 E2.69153
G1 X115.615 Y128.651 E2.69576
G1 X115.776 Y128.802 E2.69999
G1 X115.916 Y128.971 E2.70422
G1 X116.034 Y129.157 E2.70845
G1 X116.127 Y129.356 E2.71268
G1 X116.212 Y129.617 E2.71797
G1 X116.246 Y129.940 E2.72421
G1 X116.439 Y130.112 F6000.000
G1 E0.72421 F1200.00000
G92 E0
G1 X106.765 Y130.000 F6000.000
G1 E2.00000 F1200.00000
G1 F1800.000
G1 X106.747 Y130.284 E2.00547
G1 X106.694 Y130.563 E2.01095
G1 X106.606 Y130.834 E2.01642
G1 X106.485 Y131.091 E2.02189
G1 X106.333 Y131.332 E2.02737
G1 X106.151 Y131.551 E2.03284
G1 X105.944 Y131.746 E2.03831
G1 X105.714 Y131.913 E2.04379
G1 X105.464 Y132.050 E2.04926
G1 X105.200 Y132.155 E2.05473
G1 X104.924 Y132.225 E2.06021
G1 X104.642 Y132.261 E2.06568
G1 X104.358 Y132.261 E2.07115
G1 X104.075 Y132.225 E2.07663
G1 X103.800 Y132.155 E2.08210
G1 X103.535 Y132.050 E2.08758
G1 X103.286 Y131.913 E2.09305
G1 X103.056 Y131.746 E2.09852
G1 X102.848 Y131.551 E2.10399
G1 X102.667 Y131.332 E2.10947
G1 X102.515 Y131.091 E2.11494
G1 X102.393 Y130.834 E2.12042
G1 X102.306 Y130.563 E2.12589
G1 X102.252 Y130.284 E2.13136
G1 X102.234 Y130.000 E2.13683
G1 X102.252 Y129.716 E2.14231
G1 X102.306 Y129.437 E2.14778
G1 X102.393 Y129.166 E2.15325
G1 X102.515 Y128.909 E2.15873
G1 X102.667 Y128.668 E2.16420
G1 X102.848 Y128.449 E2.16968
G1 X103.056 Y128.254 E2.17515
G1 X103.286 Y128.087 E2.18062
G1 X103.535 Y127.950 E2.18609
G1 X103.800 Y127.845 E2.19157
G1 X104.075 Y127.775 E2.19704
G1 X104.358 Y127.739 E2.20252
G1 X104.642 Y127.739 E2.20799
G1 X104.924 Y127.775 E2.21346
G1 X105.200 Y127.845 E2.21894
G1 X105.464 Y127.950 E2.22441
G1 X105.714 Y128.087 E2.22988
G1 X105.944 Y128.254 E2.23536
G1 X106.151 Y128.449 E2.24083
G1 X106.333 Y128.668 E2.24630
G1 X106.485 Y128.909 E2.25178
G1 X106.606 Y129.166 E2.25725
G1 X106.715 Y129.500 E2.26400
G1 X106.761 Y129.940 E2.27252
G1 X106.508 Y130.000 F6000.000
G1 F1800.000
G1 X106.492 Y130.252 E2.27737
G1 X106.445 Y130.499 E2.28222
G1 X106.367 Y130.739 E2.28708
G1 X106.259 Y130.967 E2.29192
G1 X106.124 Y131.180 E2.29678
G1 X105.963 Y131.375 E2.30163
G1 X105.780 Y131.547 E2.30648
G1 X105.576 Y131.695 E2.31133
G1 X105.355 Y131.817 E2.31618
G1 X105.120 Y131.910 E2.32103
G1 X104.876 Y131.972 E2.32589
G1 X104.626 Y132.004 E2.33074
G1 X104.374 Y132.004 E2.33558
G1 X104.124 Y131.972 E2.34044
G1 X103.879 Y131.910 E2.34529
G1 X103.645 Y131.817 E2.35014
G1 X103.424 Y131.695 E2.35499
G1 X103.220 Y131.547 E2.35984
G1 X103.036 Y131.375 E2.36469
G1 X102.875 Y131.180 E2.36954
G1 X102.740 Y130.967 E2.37439
G1 X102.633 Y130.739 E2.37925
G1 X102.555 Y130.499 E2.38409
G1 X102.508 Y130.252 E2.38895
G1 X102.492 Y130.000 E2.39380
G1 X102.508 Y129.748 E2.39865
G1 X102.555 Y129.501 E2.40350
G1 X102.633 Y129.261 E2.40835
G1 X102.740 Y129.033 E2.41320
G1 X102.875 Y128.820 E2.41805
G1 X103.036 Y128.625 E2.42291
G1 X103.220 Y128.453 E2.42776
G1 X103.424 Y128.305 E2.43261
G1 X103.645 Y128.183 E2.43746
G1 X103.879 Y128.090 E2.44231
G1 X104.124 Y128.028 E2.44716
G1 X104.374 Y127.996 E2.45201
G1 X104.626 Y127.996 E2.45686
G1 X104.876 Y128.028 E2.46171
G1 X105.120 Y128.090 E2.46657
G1 X105.355 Y128.183 E2.47142
G1 X105.576 Y128.305 E2.47627
G1 X105.780 Y128.453 E2.48112
G1 X105.963 Y128.625 E2.48597
G1 X106.124 Y128.820 E2.49082
G1 X106.259 Y129.033 E2.49567
G1 X106.367 Y129.261 E2.50052
G1 X106.463 Y129.559 E2.50654
G1 X106.504 Y129.940 E2.51393
G1 X106.250 Y130.000 F6000.000
G1 F1800.000
G1 X106.236 Y130.219 E2.51815
G1 X106.195 Y130.435 E2.52238
G1 X106.127 Y130.644 E2.52661
G1 X106.034 Y130.843 E2.53084
G1 X105.916 Y131.029 E2.53507
G1 X105.776 Y131.198 E2.53930
G1 X105.615 Y131.349 E2.54353
G1 X105.438 Y131.478 E2.54775
G1 X105.245 Y131.584 E2.55198
G1 X105.041 Y131.665 E2.55621
G1 X104.828 Y131.719 E2.56044
G1 X104.610 Y131.747 E2.56467
G1 X104.390 Y131.747 E2.56890
G1 X104.172 Y131.719 E2.57313
G1 X103.959 Y131.665 E2.57736
G1 X103.755 Y131.584 E2.58159
G1 X103.562 Y131.478 E2.58581
G1 X103.384 Y131.349 E2.59004
G1 X103.224 Y131.198 E2.59427
G1 X103.084 Y131.029 E2.59850
G1 X102.966 Y130.843 E2.60273
G1 X102.872 Y130.644 E2.60696
G1 X102.805 Y130.435 E2.61119
G1 X102.763 Y130.219 E2.61542
G1 X102.749 Y130.000 E2.61964
G1 X102.763 Y129.781 E2.62387
G1 X102.805 Y129.565 E2.62810
G1 X102.872 Y129.356 E2.63233
G1 X102.966 Y129.157 E2.63656
G1 X103.084 Y128.971 E2.64079
G1 X103.224 Y128.802 E2.64502
G1 X103.384 Y128.651 E2.64925
G1 X103.562 Y128.522 E2.65347
