; generated by Slic3r 1.3.0 on 2020-04-24 at 11:30:26

; external perimeters extrusion width = 0.44mm (2.86mm^3/s)
; perimeters extrusion width = 0.56mm (4.14mm^3/s)
; infill extrusion width = 0.50mm (5.48mm^3/s)
; solid infill extrusion width = 0.56mm (3.10mm^3/s)
; top infill extrusion width = 0.45mm (2.44mm^3/s)

M107
;D3D:START:START
T0
M104 S215 T0

G21
G90
M107
T0
G28
G29
M109 T0 S215 T0
G0 F3000
M107
T0
G92 E0
G0 X0 Y149 Z0.1 F3600
G1 Y49 E6.5 F1200
G0 Z1
G92 E0
; Filament gcode

G21 ; set units to millimeters
G90 ; use absolute coordinates
M82 ; use absolute distances for extrusion
G92 E0
G1 Z0.200 F6000.000
G1 E-2.00000 F1200.00000
G92 E0
G1 X51.999 Y48.263 F6000.000
G1 E2.00000 F1200.00000
G1 F1800
G1 X53.642 Y47.330 E2.03636
G1 X55.000 Y47.121 E2.06279
G1 X95.000 Y47.121 E2.83234
G1 X96.848 Y47.516 E2.86869
G1 X98.372 Y48.634 E2.90505
G1 X99.305 Y50.277 E2.94141
G1 X99.514 Y51.635 E2.96784
G1 X99.514 Y98.365 E3.86686
G1 X99.119 Y100.213 E3.90322
G1 X98.001 Y101.737 E3.93957
G1 X96.358 Y102.670 E3.97593
G1 X95.000 Y102.879 E4.00236
G1 X55.000 Y102.879 E4.77191
G1 X53.152 Y102.484 E4.80827
G1 X51.628 Y101.366 E4.84462
G1 X50.695 Y99.723 E4.88098
G1 X50.486 Y98.365 E4.90741
G1 X50.486 Y51.635 E5.80644
G1 X50.881 Y49.787 E5.84279
G1 X51.963 Y48.311 E5.87800
G1 X52.251 Y48.385 F6000.000
G1 F1800
G1 X53.874 Y47.529 E5.91329
G1 X55.000 Y47.378 E5.93515
G1 X95.000 Y47.378 E6.70470
G1 X96.792 Y47.773 E6.73999
G1 X98.250 Y48.886 E6.77529
G1 X99.105 Y50.509 E6.81058
G1 X99.257 Y51.635 E6.83244
G1 X99.257 Y98.365 E7.73147
G1 X98.862 Y100.157 E7.76676
G1 X97.749 Y101.615 E7.80206
G1 X96.126 Y102.471 E7.83735
G1 X95.000 Y102.622 E7.85922
G1 X55.000 Y102.622 E8.62876
G1 X53.209 Y102.227 E8.66406
G1 X51.750 Y101.114 E8.69935
G1 X50.895 Y99.491 E8.73465
G1 X50.743 Y98.365 E8.75651
G1 X50.743 Y51.635 E9.65553
G1 X51.138 Y49.843 E9.69083
G1 X52.214 Y48.432 E9.72497
G1 E7.72497 F1200.00000
G92 E0
G1 X88.164 Y90.664 F6000.000
G1 E2.00000 F1200.00000
G1 F1800
G1 X77.985 Y90.664 E2.19583
G1 X78.994 Y89.154 E2.23077
G1 X79.323 Y87.500 E2.26322
G1 X78.994 Y85.846 E2.29567
G1 X78.057 Y84.443 E2.32812
G1 X76.836 Y83.628 E2.35637
G1 X76.836 Y66.372 E2.68833
G1 X78.057 Y65.557 E2.71658
G1 X78.994 Y64.154 E2.74903
G1 X79.323 Y62.500 E2.78148
G1 X78.994 Y60.846 E2.81393
G1 X77.985 Y59.336 E2.84886
G1 X88.164 Y59.336 E3.04470
G1 X88.164 Y90.604 E3.64626
G1 X87.907 Y90.407 F6000.000
G1 F1800
G1 X78.466 Y90.407 E3.82789
G1 X79.236 Y89.255 E3.85456
G1 X79.585 Y87.500 E3.88898
G1 X79.236 Y85.745 E3.92339
G1 X78.242 Y84.258 E3.95781
G1 X77.093 Y83.490 E3.98440
G1 X77.093 Y66.510 E4.31108
G1 X78.242 Y65.742 E4.33766
G1 X79.236 Y64.255 E4.37208
G1 X79.585 Y62.500 E4.40650
G1 X79.236 Y60.745 E4.44092
G1 X78.466 Y59.593 E4.46758
G1 X87.907 Y59.593 E4.64922
G1 X87.907 Y90.347 E5.24089
G1 X87.650 Y90.150 F6000.000
G1 F1800
G1 X78.947 Y90.150 E5.40832
G1 X79.478 Y89.355 E5.42672
G1 X79.847 Y87.500 E5.46311
G1 X79.478 Y85.645 E5.49949
G1 X78.427 Y84.073 E5.53587
G1 X77.350 Y83.353 E5.56080
G1 X77.350 Y66.647 E5.88219
G1 X78.427 Y65.927 E5.90712
G1 X79.478 Y64.355 E5.94351
G1 X79.847 Y62.500 E5.97989
G1 X79.478 Y60.645 E6.01628
G1 X78.947 Y59.850 E6.03467
G1 X87.650 Y59.850 E6.20211
G1 X87.650 Y90.090 E6.78389
G1 X87.687 Y90.548 F6000.000
G1 E4.78389 F1200.00000
G92 E0
G1 X76.134 Y64.464 F6000.000
G1 E2.00000 F1200.00000
G1 F1800
G1 X75.701 Y64.657 E2.00912
G1 X75.237 Y64.755 E2.01824
G1 X74.763 Y64.755 E2.02736
G1 X74.299 Y64.657 E2.03649
G1 X73.866 Y64.464 E2.04561
G1 X73.483 Y64.185 E2.05473
G1 X73.165 Y63.833 E2.06385
G1 X72.927 Y63.420 E2.07301
G1 X72.780 Y62.958 E2.08234
G1 X72.732 Y62.500 E2.09121
G1 X72.782 Y62.028 E2.10033
G1 X72.928 Y61.578 E2.10945
G1 X73.165 Y61.167 E2.11857
G1 X73.483 Y60.815 E2.12769
G1 X73.866 Y60.536 E2.13681
G1 X74.299 Y60.343 E2.14593
G1 X74.763 Y60.245 E2.15506
G1 X75.237 Y60.245 E2.16417
G1 X75.701 Y60.343 E2.17330
G1 X76.134 Y60.536 E2.18242
G1 X76.517 Y60.815 E2.19154
G1 X76.835 Y61.167 E2.20066
G1 X77.072 Y61.578 E2.20978
G1 X77.218 Y62.028 E2.21890
G1 X77.268 Y62.500 E2.22802
G1 X77.218 Y62.972 E2.23715
G1 X77.072 Y63.422 E2.24627
G1 X76.835 Y63.833 E2.25539
G1 X76.517 Y64.185 E2.26451
G1 X76.182 Y64.429 E2.27247
G1 X76.005 Y64.240 F6000.000
G1 F1800
G1 X75.621 Y64.411 E2.28056
G1 X75.210 Y64.498 E2.28864
G1 X74.790 Y64.498 E2.29672
G1 X74.379 Y64.411 E2.30480
G1 X73.995 Y64.240 E2.31288
G1 X73.656 Y63.993 E2.32096
G1 X73.374 Y63.681 E2.32904
G1 X73.164 Y63.316 E2.33715
G1 X73.033 Y62.905 E2.34544
G1 X72.991 Y62.500 E2.35328
G1 X73.035 Y62.082 E2.36137
G1 X73.164 Y61.683 E2.36945
G1 X73.374 Y61.319 E2.37753
G1 X73.656 Y61.007 E2.38561
G1 X73.995 Y60.760 E2.39369
G1 X74.379 Y60.589 E2.40177
G1 X74.790 Y60.502 E2.40985
G1 X75.210 Y60.502 E2.41793
G1 X75.621 Y60.589 E2.42602
G1 X76.005 Y60.760 E2.43410
G1 X76.344 Y61.007 E2.44218
G1 X76.626 Y61.319 E2.45026
G1 X76.836 Y61.683 E2.45834
G1 X76.965 Y62.082 E2.46642
G1 X77.009 Y62.500 E2.47450
G1 X76.965 Y62.918 E2.48259
G1 X76.836 Y63.317 E2.49067
G1 X76.626 Y63.681 E2.49875
G1 X76.344 Y63.993 E2.50683
G1 X76.053 Y64.205 E2.51376
G1 X75.875 Y64.016 F6000.000
G1 F1800
G1 X75.541 Y64.165 E2.52080
G1 X75.183 Y64.241 E2.52784
G1 X74.817 Y64.241 E2.53488
G1 X74.459 Y64.165 E2.54192
G1 X74.125 Y64.016 E2.54897
G1 X73.828 Y63.801 E2.55601
G1 X73.584 Y63.529 E2.56305
G1 X73.400 Y63.212 E2.57010
G1 X73.286 Y62.852 E2.57735
G1 X73.249 Y62.500 E2.58417
G1 X73.287 Y62.136 E2.59121
G1 X73.401 Y61.788 E2.59825
G1 X73.584 Y61.471 E2.60530
G1 X73.828 Y61.199 E2.61234
G1 X74.125 Y60.984 E2.61938
G1 X74.459 Y60.835 E2.62642
G1 X74.817 Y60.759 E2.63346
G1 X75.183 Y60.759 E2.64050
G1 X75.541 Y60.835 E2.64755
G1 X75.875 Y60.984 E2.65459
G1 X76.172 Y61.199 E2.66163
G1 X76.416 Y61.471 E2.66867
G1 X76.599 Y61.788 E2.67571
G1 X76.713 Y62.136 E2.68275
G1 X76.751 Y62.500 E2.68980
G1 X76.713 Y62.864 E2.69684
G1 X76.599 Y63.212 E2.70388
G1 X76.416 Y63.529 E2.71092
G1 X76.172 Y63.801 E2.71796
G1 X75.924 Y63.981 E2.72385
G1 X75.875 Y64.382 F6000.000
G1 E0.72385 F1200.00000
G92 E0
G1 X72.015 Y59.336 F6000.000
G1 E2.00000 F1200.00000
G1 F1800
G1 X71.006 Y60.846 E2.03494
G1 X70.677 Y62.500 E2.06738
G1 X71.006 Y64.154 E2.09983
G1 X71.943 Y65.557 E2.13228
G1 X73.164 Y66.372 E2.16053
G1 X73.164 Y83.628 E2.49250
G1 X71.943 Y84.443 E2.52074
G1 X71.006 Y85.846 E2.55319
G1 X70.677 Y87.500 E2.58564
G1 X71.006 Y89.154 E2.61809
G1 X72.015 Y90.664 E2.65303
G1 X61.836 Y90.664 E2.84886
G1 X61.836 Y59.336 E3.45158
G1 X71.955 Y59.336 E3.64626
G1 X71.534 Y59.593 F6000.000
G1 F1800
G1 X70.764 Y60.745 E3.67292
G1 X70.415 Y62.500 E3.70734
G1 X70.764 Y64.255 E3.74176
G1 X71.758 Y65.742 E3.77617
G1 X72.907 Y66.510 E3.80276
G1 X72.907 Y83.490 E4.12944
G1 X71.758 Y84.258 E4.15603
G1 X70.764 Y85.745 E4.19045
G1 X70.415 Y87.500 E4.22486
G1 X70.764 Y89.255 E4.25928
G1 X71.534 Y90.407 E4.28595
G1 X62.093 Y90.407 E4.46758
G1 X62.093 Y59.593 E5.06040
G1 X71.474 Y59.593 E5.24089
G1 X71.053 Y59.850 F6000.000
G1 F1800
G1 X70.522 Y60.645 E5.25928
G1 X70.153 Y62.500 E5.29567
G1 X70.522 Y64.355 E5.33205
G1 X71.573 Y65.927 E5.36844
G1 X72.650 Y66.647 E5.39337
G1 X72.650 Y83.353 E5.71475
G1 X71.573 Y84.073 E5.73968
G1 X70.522 Y85.645 E5.77607
G1 X70.153 Y87.500 E5.81245
G1 X70.522 Y89.355 E5.84884
G1 X71.053 Y90.150 E5.86723
G1 X62.350 Y90.150 E6.03467
G1 X62.350 Y59.850 E6.61760
G1 X70.993 Y59.850 E6.78389
G1 X70.866 Y60.204 F6000.000
G1 E4.78389 F1200.00000
G92 E0
G1 X74.763 Y85.245 F6000.000
G1 E2.00000 F1200.00000
G1 F1800
G1 X75.237 Y85.245 E2.00912
G1 X75.701 Y85.343 E2.01824
G1 X76.134 Y85.536 E2.02736
G1 X76.517 Y85.815 E2.03648
G1 X76.835 Y86.167 E2.04560
G1 X77.072 Y86.578 E2.05473
G1 X77.218 Y87.028 E2.06385
G1 X77.268 Y87.500 E2.07297
G1 X77.218 Y87.972 E2.08209
G1 X77.072 Y88.422 E2.09121
G1 X76.835 Y88.833 E2.10033
G1 X76.517 Y89.185 E2.10945
G1 X76.134 Y89.464 E2.11857
G1 X75.701 Y89.657 E2.12769
G1 X75.237 Y89.755 E2.13682
G1 X74.763 Y89.755 E2.14594
G1 X74.299 Y89.657 E2.15506
G1 X73.866 Y89.464 E2.16418
G1 X73.483 Y89.185 E2.17330
G1 X73.165 Y88.833 E2.18242
G1 X72.927 Y88.420 E2.19158
G1 X72.780 Y87.958 E2.20092
G1 X72.732 Y87.500 E2.20978
G1 X72.782 Y87.028 E2.21890
G1 X72.928 Y86.578 E2.22802
G1 X73.165 Y86.167 E2.23714
G1 X73.483 Y85.815 E2.24626
G1 X73.866 Y85.536 E2.25538
G1 X74.299 Y85.343 E2.26451
G1 X74.704 Y85.257 E2.27247
G1 X74.790 Y85.502 F6000.000
G1 F1800
G1 X75.210 Y85.502 E2.28055
G1 X75.621 Y85.589 E2.28864
G1 X76.005 Y85.760 E2.29672
G1 X76.344 Y86.007 E2.30480
G1 X76.626 Y86.319 E2.31288
G1 X76.836 Y86.683 E2.32096
G1 X76.965 Y87.082 E2.32904
G1 X77.009 Y87.500 E2.33712
G1 X76.965 Y87.918 E2.34521
G1 X76.836 Y88.317 E2.35329
G1 X76.626 Y88.681 E2.36137
G1 X76.344 Y88.993 E2.36945
G1 X76.005 Y89.240 E2.37753
G1 X75.621 Y89.411 E2.38561
G1 X75.210 Y89.498 E2.39369
G1 X74.790 Y89.498 E2.40177
G1 X74.379 Y89.411 E2.40986
G1 X73.995 Y89.240 E2.41794
G1 X73.656 Y88.993 E2.42602
G1 X73.374 Y88.681 E2.43410
G1 X73.164 Y88.316 E2.44221
G1 X73.033 Y87.905 E2.45050
G1 X72.991 Y87.500 E2.45834
G1 X73.035 Y87.082 E2.46642
G1 X73.164 Y86.683 E2.47450
G1 X73.374 Y86.319 E2.48259
G1 X73.656 Y86.007 E2.49067
G1 X73.995 Y85.760 E2.49875
G1 X74.379 Y85.589 E2.50683
G1 X74.731 Y85.514 E2.51376
G1 X74.817 Y85.759 F6000.000
G1 F1800
G1 X75.183 Y85.759 E2.52080
G1 X75.541 Y85.835 E2.52784
G1 X75.875 Y85.984 E2.53488
G1 X76.172 Y86.199 E2.54192
G1 X76.416 Y86.471 E2.54896
G1 X76.599 Y86.788 E2.55601
G1 X76.713 Y87.136 E2.56305
G1 X76.751 Y87.500 E2.57009
G1 X76.713 Y87.864 E2.57713
G1 X76.599 Y88.212 E2.58417
G1 X76.416 Y88.529 E2.59122
G1 X76.172 Y88.801 E2.59826
G1 X75.875 Y89.016 E2.60530
G1 X75.541 Y89.165 E2.61234
G1 X75.183 Y89.241 E2.61938
G1 X74.817 Y89.241 E2.62642
G1 X74.459 Y89.165 E2.63347
G1 X74.125 Y89.016 E2.64051
G1 X73.828 Y88.801 E2.64755
G1 X73.584 Y88.529 E2.65459
G1 X73.400 Y88.212 E2.66164
G1 X73.286 Y87.852 E2.66889
G1 X73.249 Y87.500 E2.67571
G1 X73.287 Y87.136 E2.68275
G1 X73.401 Y86.788 E2.68980
G1 X73.584 Y86.471 E2.69684
G1 X73.828 Y86.199 E2.70388
G1 X74.125 Y85.984 E2.71092
G1 X74.459 Y85.835 E2.71796
G1 X74.758 Y85.771 E2.72385
G1 X74.966 Y85.424 F6000.000
G1 E0.72385 F1200.00000
G92 E0
G1 X55.664 Y97.701 F6000.000
G1 E2.00000 F1200.00000
G1 F1800
G1 X55.664 Y52.299 E2.87347
G1 X94.336 Y52.299 E3.61746
G1 X94.336 Y97.701 E4.49093
G1 X55.724 Y97.701 E5.23377
G1 X55.407 Y97.958 F6000.000
G1 F1800
G1 X55.407 Y52.042 E6.11713
G1 X94.593 Y52.042 E6.87101
G1 X94.593 Y97.958 E7.75437
G1 X55.467 Y97.958 E8.50710
G1 X55.150 Y98.215 F6000.000
G1 F1800
G1 X55.150 Y51.785 E9.40035
G1 X94.850 Y51.785 E10.16413
G1 X94.850 Y98.215 E11.05738
G1 X55.210 Y98.215 E11.82000
G1 X55.243 Y97.826 F6000.000
G1 E9.82000 F1200.00000
G92 E0
G1 X72.265 Y90.848 F6000.000
G1 E2.00000 F1200.00000
G1 F1800
G1 X73.665 Y89.447 E2.03817
G1 X73.454 Y89.294 E2.04319
G1 X72.119 Y90.629 E2.07959
G1 X71.973 Y90.411 E2.08465
G1 X73.275 Y89.109 E2.12014
G1 X73.102 Y88.917 E2.12511
G1 X71.827 Y90.193 E2.15987
G1 X71.681 Y89.974 E2.16493
G1 X72.961 Y88.695 E2.19981
G1 X72.827 Y88.464 E2.20494
G1 X71.535 Y89.756 E2.24016
G1 X71.390 Y89.538 E2.24522
G1 X72.730 Y88.197 E2.28176
G1 X72.642 Y87.920 E2.28735
G1 X71.244 Y89.319 E2.32548
G1 X71.139 Y89.163 E2.32910
G1 X71.122 Y89.076 E2.33080
G1 X72.604 Y87.594 E2.37120
G1 X72.583 Y87.391 E2.37514
G1 X72.599 Y87.235 E2.37816
G1 X71.062 Y88.773 E2.42007
G1 X71.001 Y88.469 E2.42604
G1 X72.654 Y86.816 E2.47109
G1 X72.801 Y86.363 E2.48026
G1 X72.881 Y86.225 E2.48335
G1 X71.691 Y85.230 F6000.000
G1 F1800
G1 X72.730 Y84.191 E2.51167
G1 X73.530 Y83.656 E2.53023
G1 X73.530 Y83.390 E2.53535
G1 E0.53535 F1200.00000
G92 E0
G1 X76.938 Y89.088 F6000.000
G1 E2.00000 F1200.00000
G1 F1800
G1 X79.081 Y86.945 E2.05841
G1 X79.021 Y86.641 E2.06438
G1 X77.282 Y88.380 E2.11177
G1 X77.362 Y88.134 E2.11674
G1 X77.385 Y87.912 E2.12104
G1 X78.960 Y86.338 E2.16397
G1 X78.900 Y86.034 E2.16994
G1 X77.408 Y87.525 E2.21059
G1 X77.374 Y87.196 E2.21698
G1 X78.809 Y85.760 E2.25611
G1 X78.663 Y85.542 E2.26117
G1 X77.303 Y86.902 E2.29825
G1 X77.214 Y86.627 E2.30382
G1 X78.518 Y85.323 E2.33936
G1 X78.372 Y85.105 E2.34443
G1 X77.088 Y86.389 E2.37942
G1 X76.954 Y86.158 E2.38456
G1 X78.226 Y84.887 E2.41922
G1 X78.080 Y84.668 E2.42428
G1 X76.788 Y85.961 E2.45950
G1 X76.615 Y85.769 E2.46447
G1 X77.911 Y84.473 E2.49980
G1 X77.693 Y84.327 E2.50486
G1 X76.411 Y85.608 E2.53978
G1 X76.200 Y85.455 E2.54480
G1 X77.474 Y84.181 E2.57952
G1 X77.256 Y84.035 E2.58458
G1 X75.958 Y85.334 E2.61997
G1 X75.706 Y85.222 E2.62529
G1 X77.038 Y83.890 E2.66160
G1 X76.819 Y83.744 E2.66666
G1 X75.412 Y85.151 E2.70502
G1 X75.102 Y85.097 E2.71109
G1 X76.688 Y83.511 E2.75431
G1 X76.688 Y83.146 E2.76133
G1 X74.738 Y85.097 E2.81449
G1 X74.627 Y85.097 E2.81663
G1 X74.305 Y85.165 E2.82297
G1 X76.688 Y82.782 E2.88792
G1 X76.688 Y82.418 E2.89494
G1 X73.730 Y85.376 E2.97555
G1 X73.628 Y85.421 E2.97772
G1 X73.201 Y85.732 E2.98789
G1 X72.847 Y86.124 E2.99807
G1 X72.663 Y86.443 E3.00516
G1 X70.941 Y88.165 E3.05211
G1 X70.880 Y87.861 E3.05808
G1 X76.688 Y82.054 E3.21638
G1 X76.688 Y81.690 E3.22340
G1 X70.846 Y87.532 E3.38264
G1 X70.936 Y87.077 E3.39158
G1 X76.688 Y81.325 E3.54836
G1 X76.688 Y80.961 E3.55538
G1 X71.026 Y86.623 E3.70970
G1 X71.117 Y86.168 E3.71863
G1 X76.688 Y80.597 E3.87048
G1 X76.688 Y80.233 E3.87750
G1 X73.312 Y83.608 E3.96951
G1 X73.312 Y83.244 E3.97654
G1 X76.688 Y79.868 E4.06855
G1 X76.688 Y79.504 E4.07557
G1 X73.312 Y82.880 E4.16758
G1 X73.312 Y82.516 E4.17460
G1 X76.688 Y79.140 E4.26661
G1 X76.688 Y78.776 E4.27363
G1 X73.312 Y82.151 E4.36565
G1 X73.312 Y81.787 E4.37267
G1 X76.688 Y78.411 E4.46468
G1 X76.688 Y78.047 E4.47170
G1 X73.312 Y81.423 E4.56371
G1 X73.312 Y81.059 E4.57073
G1 X76.688 Y77.683 E4.66275
G1 X76.688 Y77.319 E4.66977
G1 X73.312 Y80.694 E4.76178
G1 X73.312 Y80.330 E4.76880
G1 X76.688 Y76.955 E4.86081
G1 X76.688 Y76.590 E4.86783
G1 X73.312 Y79.966 E4.95985
G1 X73.312 Y79.602 E4.96687
G1 X76.688 Y76.226 E5.05888
G1 X76.688 Y75.862 E5.06590
G1 X73.312 Y79.238 E5.15791
G1 X73.312 Y78.873 E5.16493
G1 X76.688 Y75.498 E5.25695
G1 X76.688 Y75.133 E5.26397
G1 X73.312 Y78.509 E5.35598
G1 X73.312 Y78.145 E5.36300
G1 X76.688 Y74.769 E5.45501
G1 X76.688 Y74.405 E5.46203
G1 X73.312 Y77.781 E5.55405
G1 X73.312 Y77.416 E5.56107
G1 X76.688 Y74.041 E5.65308
G1 X76.688 Y73.676 E5.66010
G1 X73.312 Y77.052 E5.75211
G1 X73.312 Y76.688 E5.75913
G1 X76.688 Y73.312 E5.85115
G1 X76.688 Y72.948 E5.85817
G1 X73.312 Y76.324 E5.95018
G1 X73.312 Y75.959 E5.95720
G1 X76.688 Y72.584 E6.04921
G1 X76.688 Y72.220 E6.05623
G1 X73.312 Y75.595 E6.14825
G1 X73.312 Y75.231 E6.15527
G1 X76.688 Y71.855 E6.24728
G1 X76.688 Y71.491 E6.25430
G1 X73.312 Y74.867 E6.34631
G1 X73.312 Y74.503 E6.35333
G1 X76.688 Y71.127 E6.44535
G1 X76.688 Y70.763 E6.45237
G1 X73.312 Y74.138 E6.54438
G1 X73.312 Y73.774 E6.55140
G1 X76.688 Y70.398 E6.64341
G1 X76.688 Y70.034 E6.65043
G1 X73.312 Y73.410 E6.74245
G1 X73.312 Y73.046 E6.74947
G1 X76.688 Y69.670 E6.84148
G1 X76.688 Y69.306 E6.84850
G1 X73.312 Y72.681 E6.94051
G1 X73.312 Y72.317 E6.94753
G1 X76.688 Y68.941 E7.03954
G1 X76.688 Y68.577 E7.04657
G1 X73.312 Y71.953 E7.13858
G1 X73.312 Y71.589 E7.14560
G1 X76.688 Y68.213 E7.23761
G1 X76.688 Y67.849 E7.24463
G1 X73.312 Y71.224 E7.33664
G1 X73.312 Y70.860 E7.34366
G1 X76.688 Y67.485 E7.43568
G1 X76.688 Y67.120 E7.44270
G1 X73.312 Y70.496 E7.53471
G1 X73.312 Y70.132 E7.54173
G1 X76.688 Y66.756 E7.63374
G1 X76.688 Y66.392 E7.64076
G1 X73.312 Y69.768 E7.73278
G1 X73.312 Y69.403 E7.73980
G1 X78.883 Y63.832 E7.89165
G1 X78.974 Y63.378 E7.90058
G1 X73.312 Y69.039 E8.05490
G1 X73.312 Y68.675 E8.06192
G1 X79.064 Y62.923 E8.21870
G1 X79.154 Y62.468 E8.22763
G1 X73.312 Y68.311 E8.38688
G1 X73.312 Y67.946 E8.39390
G1 X79.120 Y62.139 E8.55219
G1 X79.059 Y61.835 E8.55816
G1 X77.118 Y63.776 E8.61107
G1 X77.199 Y63.637 E8.61416
G1 X77.346 Y63.184 E8.62333
G1 X78.999 Y61.531 E8.66839
G1 X78.938 Y61.227 E8.67436
G1 X77.401 Y62.765 E8.71627
G1 X77.417 Y62.609 E8.71929
G1 X77.396 Y62.406 E8.72323
G1 X78.878 Y60.924 E8.76363
G1 X78.861 Y60.837 E8.76533
G1 X78.756 Y60.681 E8.76895
