; generated by Slic3r 1.3.1-dev (Build 6eeea77) on 2020-09-17 at 23:55:16

; external perimeters extrusion width = 0.44mm (2.86mm^3/s)
; perimeters extrusion width = 0.56mm (4.14mm^3/s)
; infill extrusion width = 0.50mm (3.66mm^3/s)
; solid infill extrusion width = 0.56mm (3.10mm^3/s)
; top infill extrusion width = 0.45mm (2.44mm^3/s)

M107
G92 E0
;D3D:START:START
T0
M104 S215 T0

G21
G90
M107
T0
G28
G29
M109 T0 S215 T0
G0 F3000
M107
T0
G92 E0
G0 X0 Y149 Z0.1 F3600
G1 Y49 E6.5 F1200
G0 Z1
G92 E0
; Filament gcode

G21 ; set units to millimeters
G90 ; use absolute coordinates
M82 ; use absolute distances for extrusion
G92 E0
G1 Z0.300 F6000.000
G1 E-2.00000 F1200.00000
G92 E0
G1 Z0.800 F6000.000
G1 X95.082 Y4.092 F6000.000
G1 Z0.300 F6000.000
G1 E2.00000 F1200.00000
G1 F1800.000
G1 X97.731 Y2.244 E2.14450
G1 X98.341 Y2.029 E2.17341
G1 X98.848 Y1.897 E2.19686
G1 X99.350 Y1.806 E2.21969
G1 X100.085 Y1.741 E2.25270
G1 X114.422 Y1.240 E2.89436
G1 X116.719 Y1.557 E2.99808
G1 X119.446 Y3.219 E3.14094
G1 X139.446 Y23.219 E4.40609
G1 X140.781 Y25.115 E4.50981
G1 X141.425 Y27.771 E4.63204
G1 X141.741 Y36.813 E5.03673
G1 X141.381 Y39.241 E5.14653
G1 X129.553 Y73.814 E6.78099
G1 X126.972 Y80.230 E7.09030
G1 X126.779 Y80.662 E7.11145
G1 X123.909 Y86.546 E7.40431
G1 X123.687 Y86.964 E7.42545
G1 X120.414 Y92.634 E7.71831
G1 X120.163 Y93.034 E7.73945
G1 X116.502 Y98.463 E8.03231
G1 X116.224 Y98.845 E8.05346
G1 X112.193 Y104.004 E8.34632
G1 X111.889 Y104.366 E8.36746
G1 X107.508 Y109.232 E8.66032
G1 X107.180 Y109.572 E8.68146
G1 X102.470 Y114.120 E8.97432
G1 X102.119 Y114.436 E8.99547
G1 X97.103 Y118.645 E9.28833
G1 X96.731 Y118.936 E9.30947
G1 X91.434 Y122.784 E9.60233
G1 X91.042 Y123.049 E9.62347
G1 X85.313 Y126.625 E9.92559
G1 X44.561 Y150.389 E12.03569
G1 X42.387 Y151.197 E12.13941
G1 X41.150 Y151.311 E12.19500
G1 X35.000 Y151.311 E12.47009
G1 X32.715 Y150.914 E12.57381
G1 X30.212 Y149.328 E12.70637
G1 X10.212 Y129.328 E13.97152
G1 X8.877 Y127.432 E14.07524
G1 X8.229 Y124.540 E14.20780
G1 X8.229 Y105.510 E15.05901
G1 X8.626 Y103.225 E15.16273
G1 X9.913 Y101.041 E15.27614
G1 X95.042 Y4.137 E21.04565
G1 X95.371 Y4.347 F6000.000
G1 F1800.000
G1 X97.870 Y2.603 E21.18193
G1 X98.452 Y2.398 E21.20954
G1 X98.931 Y2.274 E21.23166
G1 X99.405 Y2.188 E21.25322
G1 X100.099 Y2.126 E21.28437
G1 X114.435 Y1.625 E21.92604
G1 X116.664 Y1.945 E22.02674
G1 X119.174 Y3.492 E22.15861
G1 X139.174 Y23.492 E23.42376
G1 X140.460 Y25.339 E23.52446
G1 X141.040 Y27.784 E23.63685
G1 X141.356 Y36.826 E24.04154
G1 X141.016 Y39.116 E24.14509
G1 X129.188 Y73.689 E25.77955
G1 X126.614 Y80.085 E26.08793
G1 X126.433 Y80.493 E26.10787
G1 X123.563 Y86.377 E26.40073
G1 X123.353 Y86.771 E26.42067
G1 X120.080 Y92.441 E26.71353
G1 X119.844 Y92.819 E26.73346
G1 X116.182 Y98.247 E27.02632
G1 X115.920 Y98.608 E27.04627
G1 X111.889 Y103.767 E27.33913
G1 X111.603 Y104.108 E27.35906
G1 X107.222 Y108.974 E27.65192
G1 X106.912 Y109.295 E27.67186
G1 X102.202 Y113.843 E27.96472
G1 X101.871 Y114.141 E27.98466
G1 X96.856 Y118.350 E28.27753
G1 X96.504 Y118.624 E28.29746
G1 X91.207 Y122.472 E28.59032
G1 X90.838 Y122.722 E28.61026
G1 X85.118 Y126.292 E28.91185
G1 X44.367 Y150.056 E31.02195
G1 X41.150 Y150.926 E31.17100
G1 X35.000 Y150.926 E31.44609
G1 X32.784 Y150.529 E31.54679
G1 X30.485 Y149.055 E31.66894
G1 X10.485 Y129.055 E32.93409
G1 X9.198 Y127.208 E33.03479
G1 X8.614 Y124.540 E33.15694
G1 X8.614 Y105.510 E34.00815
G1 X9.011 Y103.294 E34.10885
G1 X10.203 Y101.296 E34.21292
G1 X95.332 Y4.392 E39.98243
G1 E37.98243 F1200.00000
G92 E0
G1 Z0.800 F6000.000
G1 X127.411 Y35.046 F6000.000
G1 Z0.300 F6000.000
G1 E2.00000 F1200.00000
G1 F1800.000
G1 X121.347 Y33.746 E2.27742
G1 X121.197 Y29.474 E2.46862
G1 X133.697 Y29.037 E3.02808
G1 X133.944 Y36.085 E3.34353
G1 X132.527 Y36.131 E3.40694
G1 X127.877 Y35.144 E3.61955
G1 X127.765 Y38.355 E3.76323
G1 X127.806 Y39.540 E3.81628
G1 X127.580 Y46.014 E4.10604
G1 X126.903 Y52.456 E4.39579
G1 X125.778 Y58.835 E4.68553
G1 X124.211 Y65.121 E4.97528
G1 X122.209 Y71.282 E5.26503
G1 X119.783 Y77.288 E5.55479
G1 X116.943 Y83.110 E5.84454
G1 X113.704 Y88.720 E6.13428
G1 X110.082 Y94.090 E6.42404
G1 X106.094 Y99.195 E6.71379
G1 X101.759 Y104.009 E7.00354
G1 X97.100 Y108.509 E7.29329
G1 X92.137 Y112.672 E7.58304
G1 X86.897 Y116.480 E7.87279
G1 X81.403 Y119.913 E8.16254
G1 X75.684 Y122.954 E8.45229
G1 X69.766 Y125.589 E8.74204
G1 X63.679 Y127.804 E9.03179
G1 X57.452 Y129.590 E9.32154
G1 X51.116 Y130.936 E9.61129
G1 X50.404 Y131.036 E9.64342
G1 X46.173 Y131.936 E9.83689
G1 X40.154 Y132.782 E10.10880
G1 X40.154 Y143.544 E10.59019
G1 X35.996 Y143.544 E10.77615
G1 X35.996 Y126.506 E11.53824
G1 X40.154 Y126.506 E11.72420
G1 X40.154 Y131.897 E11.96532
G1 X44.674 Y131.581 E12.16799
G1 X47.369 Y131.202 E12.28974
G1 X52.812 Y130.045 E12.53863
G1 X59.416 Y128.151 E12.84594
G1 X65.872 Y125.801 E13.15324
G1 X72.148 Y123.007 E13.46055
G1 X78.214 Y119.782 E13.76785
G1 X84.041 Y116.141 E14.07515
G1 X89.599 Y112.103 E14.38246
G1 X94.862 Y107.687 E14.68976
G1 X99.804 Y102.914 E14.99707
G1 X104.401 Y97.809 E15.30438
G1 X108.630 Y92.395 E15.61167
G1 X112.472 Y86.699 E15.91898
G1 X115.907 Y80.749 E16.22628
G1 X118.919 Y74.574 E16.53359
G1 X121.493 Y68.205 E16.84089
G1 X123.616 Y61.671 E17.14819
G1 X125.278 Y55.004 E17.45550
G1 X126.471 Y48.239 E17.76280
G1 X127.189 Y41.407 E18.07008
G1 X127.409 Y35.106 E18.35207
G1 X127.014 Y35.356 F6000.000
G1 F1800.000
G1 X120.972 Y34.060 E18.62850
G1 X120.799 Y29.102 E18.85039
G1 X134.069 Y28.639 E19.44435
G1 X134.342 Y36.458 E19.79435
G1 X132.492 Y36.518 E19.87714
G1 X128.246 Y35.617 E20.07129
G1 X128.151 Y38.355 E20.19382
G1 X128.192 Y39.540 E20.24687
G1 X127.965 Y46.041 E20.53783
G1 X127.285 Y52.510 E20.82878
G1 X126.156 Y58.916 E21.11974
G1 X124.582 Y65.227 E21.41069
G1 X122.572 Y71.414 E21.70165
G1 X120.135 Y77.445 E21.99260
G1 X117.284 Y83.291 E22.28356
G1 X114.031 Y88.924 E22.57451
G1 X110.394 Y94.317 E22.86547
G1 X106.389 Y99.443 E23.15642
G1 X102.037 Y104.277 E23.44738
G1 X97.358 Y108.795 E23.73833
G1 X92.375 Y112.976 E24.02929
G1 X87.112 Y116.800 E24.32024
G1 X81.596 Y120.247 E24.61120
G1 X75.853 Y123.301 E24.90215
G1 X69.910 Y125.946 E25.19311
G1 X63.798 Y128.171 E25.48406
G1 X57.545 Y129.964 E25.77502
G1 X51.183 Y131.316 E26.06597
G1 X50.471 Y131.416 E26.09811
G1 X46.240 Y132.316 E26.29157
G1 X40.539 Y133.117 E26.54909
G1 X40.539 Y143.929 E27.03273
G1 X35.611 Y143.929 E27.25319
G1 X35.611 Y126.121 E28.04978
G1 X40.539 Y126.121 E28.27024
G1 X40.539 Y131.483 E28.51011
G1 X44.634 Y131.197 E28.69368
G1 X47.302 Y130.822 E28.81423
G1 X52.719 Y129.671 E29.06191
G1 X59.297 Y127.784 E29.36802
G1 X65.727 Y125.444 E29.67411
G1 X71.979 Y122.660 E29.98021
G1 X78.021 Y119.448 E30.28631
G1 X83.825 Y115.821 E30.59241
G1 X89.361 Y111.799 E30.89852
G1 X94.603 Y107.400 E31.20461
G1 X99.526 Y102.646 E31.51071
G1 X104.105 Y97.561 E31.81681
G1 X108.318 Y92.168 E32.12291
G1 X112.145 Y86.495 E32.42901
G1 X115.567 Y80.568 E32.73511
G1 X118.567 Y74.418 E33.04121
G1 X121.130 Y68.073 E33.34731
G1 X123.245 Y61.564 E33.65340
G1 X124.900 Y54.924 E33.95950
G1 X126.089 Y48.185 E34.26560
G1 X126.804 Y41.380 E34.57168
G1 X127.012 Y35.416 E34.83862
G1 X126.618 Y35.665 F6000.000
G1 F1800.000
G1 X120.597 Y34.374 E35.11405
G1 X120.400 Y28.730 E35.36665
G1 X134.441 Y28.240 E35.99510
G1 X134.741 Y36.831 E36.37964
G1 X132.458 Y36.905 E36.48182
G1 X128.616 Y36.090 E36.65751
G1 X128.537 Y38.355 E36.75889
G1 X128.578 Y39.540 E36.81194
G1 X128.350 Y46.068 E37.10410
G1 X127.667 Y52.564 E37.39626
G1 X126.533 Y58.996 E37.68842
G1 X124.953 Y65.334 E37.98058
G1 X122.935 Y71.546 E38.27274
G1 X120.488 Y77.602 E38.56490
G1 X117.624 Y83.472 E38.85706
G1 X114.359 Y89.129 E39.14922
G1 X110.706 Y94.544 E39.44138
G1 X106.685 Y99.691 E39.73354
G1 X102.314 Y104.545 E40.02570
G1 X97.616 Y109.082 E40.31786
G1 X92.612 Y113.280 E40.61002
G1 X87.328 Y117.120 E40.90218
G1 X81.789 Y120.581 E41.19434
G1 X76.022 Y123.647 E41.48649
G1 X70.055 Y126.304 E41.77866
G1 X63.917 Y128.538 E42.07081
G1 X57.639 Y130.338 E42.36297
G1 X51.250 Y131.696 E42.65513
G1 X50.538 Y131.796 E42.68727
G1 X46.307 Y132.696 E42.88074
G1 X40.925 Y133.452 E43.12386
G1 X40.925 Y144.315 E43.60976
G1 X35.225 Y144.315 E43.86472
G1 X35.225 Y125.735 E44.69580
G1 X40.925 Y125.735 E44.95076
G1 X40.925 Y131.070 E45.18937
G1 X44.593 Y130.813 E45.35385
G1 X47.235 Y130.442 E45.47319
G1 X52.625 Y129.296 E45.71967
G1 X59.178 Y127.417 E46.02457
G1 X65.583 Y125.086 E46.32946
G1 X71.810 Y122.314 E46.63436
G1 X77.828 Y119.113 E46.93925
G1 X83.609 Y115.501 E47.24415
G1 X89.124 Y111.495 E47.54905
G1 X94.345 Y107.113 E47.85394
G1 X99.249 Y102.378 E48.15883
G1 X103.810 Y97.313 E48.46373
G1 X108.006 Y91.941 E48.76862
G1 X111.818 Y86.290 E49.07352
G1 X115.226 Y80.387 E49.37841
G1 X118.214 Y74.261 E49.68331
G1 X120.768 Y67.941 E49.98820
G1 X122.874 Y61.458 E50.29310
G1 X124.523 Y54.844 E50.59799
G1 X125.707 Y48.131 E50.90288
G1 X126.419 Y41.353 E51.20776
G1 X126.616 Y35.725 E51.45964
G1 X126.683 Y35.270 F6000.000
G1 X127.651 Y34.901 F6000.000
G1 F1800.000
G1 X127.530 Y38.353 E51.46734
G1 X127.530 Y38.948 E51.46867
G1 F1800.000
G1 X127.530 Y39.540 E51.47567
G1 X127.464 Y41.423 E51.49794
G1 X127.419 Y42.079 E51.50572
G1 F1800.000
G1 X127.328 Y43.381 E51.53494
G1 F1800.000
G1 X127.237 Y44.682 E51.57795
G1 F1800.000
G1 X127.146 Y45.983 E51.63474
G1 X126.901 Y48.308 E51.73647
G1 F1800.000
G1 X126.682 Y49.863 E51.82142
G1 X126.825 Y49.915 F6000.000
G1 F1800.000
G1 X126.198 Y50.543 E51.86127
G1 X126.081 Y51.207 E51.89161
G1 X127.027 Y50.261 E51.95172
G1 X126.962 Y50.873 E51.97937
G1 X125.963 Y51.872 E52.04285
G1 X125.846 Y52.537 E52.07318
G1 X126.898 Y51.485 E52.14002
G1 X126.833 Y52.098 E52.16771
G1 X125.729 Y53.202 E52.23786
G1 X125.612 Y53.867 E52.26819
G1 X126.716 Y52.763 E52.33835
G1 X126.598 Y53.428 E52.36868
G1 X125.494 Y54.532 E52.43884
G1 X125.377 Y55.197 E52.46917
G1 X126.481 Y54.093 E52.53933
G1 X126.364 Y54.758 E52.56966
G1 X125.215 Y55.908 E52.64268
G1 X125.033 Y56.637 E52.67647
G1 X126.247 Y55.423 E52.75360
G1 X126.129 Y56.088 E52.78393
G1 X124.851 Y57.367 E52.86517
G1 X124.669 Y58.096 E52.89895
G1 X126.012 Y56.753 E52.98430
G1 X125.895 Y57.418 E53.01463
G1 X124.487 Y58.826 E53.10409
G1 X124.305 Y59.556 E53.13787
G1 X125.778 Y58.083 E53.23143
G1 X125.631 Y58.778 E53.26334
G1 X124.123 Y60.285 E53.35911
G1 X123.941 Y61.015 E53.39290
G1 X125.449 Y59.508 E53.48867
G1 X125.267 Y60.237 E53.52246
G1 X123.759 Y61.745 E53.61823
G1 X123.673 Y62.091 E53.63424
G1 X123.534 Y62.517 E53.65440
G1 X125.085 Y60.967 E53.75291
G1 X124.903 Y61.697 E53.78669
G1 X123.271 Y63.329 E53.89039
G1 X123.007 Y64.140 E53.92872
G1 X124.721 Y62.426 E54.03760
G1 X124.539 Y63.156 E54.07139
G1 X122.744 Y64.951 E54.18546
G1 X122.480 Y65.763 E54.22379
G1 X124.357 Y63.886 E54.34306
G1 X124.175 Y64.615 E54.37684
G1 X122.216 Y66.574 E54.50130
G1 X121.953 Y67.385 E54.53963
G1 X123.921 Y65.417 E54.66470
G1 X123.658 Y66.228 E54.70302
G1 X121.689 Y68.197 E54.82809
G1 X121.542 Y68.650 E54.84950
G1 X121.378 Y69.056 E54.86916
G1 X123.394 Y67.040 E54.99724
G1 X123.130 Y67.851 E55.03557
G1 X121.007 Y69.975 E55.17050
G1 X120.635 Y70.894 E55.21503
G1 X122.867 Y68.662 E55.35681
G1 X122.603 Y69.474 E55.39513
G1 X120.264 Y71.813 E55.54375
G1 X119.893 Y72.732 E55.58828
G1 X122.339 Y70.285 E55.74373
G1 X122.160 Y70.836 E55.76976
G1 X122.041 Y71.131 E55.78405
G1 X119.521 Y73.651 E55.94415
G1 X119.150 Y74.570 E55.98869
G1 X121.670 Y72.050 E56.14879
G1 X121.299 Y72.969 E56.19332
G1 X118.706 Y75.562 E56.35804
G1 X118.185 Y76.631 E56.41148
G1 X120.927 Y73.888 E56.58574
G1 X120.556 Y74.807 E56.63027
G1 X117.663 Y77.700 E56.81407
G1 X117.142 Y78.769 E56.86752
G1 X120.185 Y75.726 E57.06086
G1 X119.813 Y76.645 E57.10539
G1 X116.620 Y79.839 E57.30828
G1 X116.098 Y80.908 E57.36173
G1 X119.320 Y77.686 E57.56640
G1 X118.798 Y78.756 E57.61984
G1 X115.422 Y82.132 E57.83439
G1 X114.673 Y83.428 E57.90162
G1 X118.277 Y79.825 E58.13056
G1 X117.755 Y80.894 E58.18401
G1 X113.925 Y84.724 E58.42736
G1 X113.177 Y86.020 E58.49458
G1 X117.234 Y81.963 E58.75234
G1 X116.916 Y82.615 E58.78492
G1 X116.624 Y83.121 E58.81116
G1 X112.399 Y87.346 E59.07957
G1 X111.264 Y89.029 E59.17076
G1 X115.876 Y84.417 E59.46375
G1 X115.128 Y85.713 E59.53098
G1 X110.129 Y90.711 E59.84855
G1 X108.994 Y92.394 E59.93974
G1 X114.379 Y87.009 E60.28188
G1 X113.600 Y88.335 E60.35100
G1 X107.302 Y94.634 E60.75117
G1 X105.345 Y97.138 E60.89393
G1 X112.465 Y90.018 E61.34630
G1 X111.330 Y91.701 E61.43748
G1 X101.867 Y101.164 E62.03873
G1 E60.03873 F1200.00000
G92 E0
G1 Z0.800 F6000.000
G1 X101.164 Y104.058 F6000.000
G1 Z0.300 F6000.000
G1 E2.00000 F1200.00000
G1 F1800.000
G1 X101.797 Y103.426 E2.04019
G1 X106.112 Y98.633 E2.32991
G1 X106.363 Y98.311 E2.34826
G1 X94.112 Y110.562 E3.12660
G1 X91.586 Y112.682 E3.27475
G1 X91.070 Y113.057 E3.30343
G1 X108.320 Y95.807 E4.39940
G1 X110.083 Y93.550 E4.52807
G1 X110.195 Y93.384 E4.53708
G1 X89.067 Y114.512 E5.87947
G1 X87.064 Y115.968 E5.99070
G1 X95.048 Y107.983 E6.49799
G1 X91.644 Y110.840 E6.69763
G1 X85.415 Y117.069 E7.09340
G1 X83.955 Y117.981 E7.17075
G1 X89.026 Y112.910 E7.49296
G1 X87.023 Y114.365 E7.60418
G1 X82.494 Y118.894 E7.89190
G1 X81.034 Y119.806 E7.96926
G1 X85.020 Y115.820 E8.22249
G1 X84.570 Y116.147 E8.24749
G1 X83.438 Y116.855 E8.30745
G1 X79.837 Y120.455 E8.53622
G1 X78.668 Y121.077 E8.59573
G1 X81.978 Y117.767 E8.80603
G1 X80.518 Y118.680 E8.88338
G1 X77.498 Y121.699 E9.07523
G1 X76.328 Y122.321 E9.13474
G1 X79.058 Y119.592 E9.30813
G1 X78.721 Y119.802 E9.32597
G1 X77.821 Y120.281 E9.37176
G1 X75.165 Y122.936 E9.54048
G1 X74.178 Y123.376 E9.58903
G1 X76.651 Y120.903 E9.74616
G1 X75.482 Y121.525 E9.80567
G1 X73.191 Y123.815 E9.95122
G1 X72.203 Y124.255 E9.99977
G1 X74.312 Y122.147 E10.13374
G1 X73.142 Y122.768 E10.19325
G1 X71.216 Y124.695 E10.31563
G1 X70.229 Y125.134 E10.36418
G1 X72.075 Y123.288 E10.48150
G1 X71.088 Y123.727 E10.53005
G1 X69.250 Y125.565 E10.64683
G1 X68.389 Y125.879 E10.68800
G1 X70.101 Y124.167 E10.79677
G1 X69.114 Y124.606 E10.84532
G1 X67.528 Y126.192 E10.94607
G1 X66.667 Y126.506 E10.98724
G1 X68.126 Y125.046 E11.07998
G1 X67.139 Y125.485 E11.12853
G1 X65.805 Y126.819 E11.21326
G1 X64.944 Y127.133 E11.25443
G1 X66.174 Y125.902 E11.33260
G1 X65.313 Y126.216 E11.37377
G1 X64.083 Y127.446 E11.45193
G1 X63.224 Y127.757 E11.49295
G1 X64.452 Y126.529 E11.57095
G1 X63.591 Y126.843 E11.61212
G1 X62.457 Y127.977 E11.68419
G1 X61.689 Y128.197 E11.72008
G1 X62.730 Y127.156 E11.78623
G1 X61.452 Y127.932 F6000.000
G1 F1800.000
G1 X60.187 Y128.343 E11.86510
G1 F1800.000
G1 X59.539 Y128.554 E11.89920
G1 X57.350 Y129.181 E12.01315
G1 X56.711 Y129.341 E12.04611
G1 F1800.000
G1 X55.433 Y129.659 E12.09886
G1 F1800.000
G1 X54.155 Y129.978 E12.13755
G1 F1800.000
G1 X52.877 Y130.296 E12.16221
G1 F1800.000
G1 X51.071 Y130.681 E12.17708
G1 X50.365 Y130.805 E12.18285
G1 F1800.000
G1 X47.411 Y131.433 E12.18959
G1 X46.767 Y131.546 E12.19105
G1 F1800.000
G1 X46.125 Y131.660 E12.19938
G1 X44.706 Y131.859 E12.21770
G1 X44.023 Y131.931 E12.22648
G1 F1800.000
G1 X42.669 Y132.073 E12.25816
G1 F1800.000
G1 X41.315 Y132.216 E12.30407
G1 F1800.000
G1 X39.961 Y132.358 E12.36422
G1 X39.374 Y132.089 F6000.000
G1 F1800.000
G1 X40.082 Y131.381 E12.40905
G1 X40.082 Y130.835 E12.43349
G1 E10.43349 F1200.00000
G92 E0
G1 Z0.800 F6000.000
G1 X36.696 Y126.578 F6000.000
G1 Z0.300 F6000.000
G1 E2.00000 F1200.00000
G1 F1800.000
G1 X36.068 Y127.206 E2.03972
G1 X36.068 Y127.751 E2.06416
G1 X37.241 Y126.578 E2.13845
G1 X37.787 Y126.578 E2.16290
G1 X36.068 Y128.297 E2.27175
G1 X36.068 Y128.843 E2.29619
G1 X38.333 Y126.578 E2.43962
G1 X38.879 Y126.578 E2.46406
G1 X36.068 Y129.389 E2.64205
G1 X36.068 Y129.935 E2.66649
G1 X39.425 Y126.578 E2.87905
G1 X39.971 Y126.578 E2.90349
G1 X36.068 Y130.481 E3.15062
G1 X36.068 Y131.027 E3.17506
G1 X40.082 Y127.013 E3.42920
G1 X40.082 Y127.559 E3.45364
G1 X36.068 Y131.573 E3.70778
G1 X36.068 Y132.119 E3.73222
G1 X40.082 Y128.105 E3.98636
G1 X40.082 Y128.651 E4.01080
G1 X36.068 Y132.665 E4.26494
G1 X36.068 Y133.210 E4.28939
G1 X40.082 Y129.197 E4.54353
