; generated by Slic3r 1.3.1-dev (Build (Unknown revision)) on 2020-05-29 at 10:47:52

; external perimeters extrusion width = 0.44mm (2.86mm^3/s)
; perimeters extrusion width = 0.56mm (4.14mm^3/s)
; infill extrusion width = 0.50mm (5.48mm^3/s)
; solid infill extrusion width = 0.56mm (3.10mm^3/s)
; top infill extrusion width = 0.45mm (2.44mm^3/s)

M107
G92 E0
;D3D:START:START
T0
M104 S215 T0

G21
G90
M107
T0
G28
G29
M109 T0 S215 T0
G0 F3000
M107
T0
G92 E0
G0 X0 Y149 Z0.1 F3600
G1 Y49 E6.5 F1200
G0 Z1
G92 E0
; Filament gcode

G21 ; set units to millimeters
G90 ; use absolute coordinates
M82 ; use absolute distances for extrusion
G92 E0
G1 Z0.200 F6000.000
G1 E-2.00000 F1200.00000
G92 E0
G1 X26.548 Y13.098 F6000.000
G1 E2.00000 F1200.00000
G1 F1800.000
G1 X27.665 Y11.574 E2.03636
G1 X29.309 Y10.640 E2.07271
G1 X30.973 Y10.442 E2.10496
G1 X76.685 Y13.551 E2.98643
G1 X77.317 Y13.639 E2.99871
G1 X79.362 Y14.074 E3.03892
G1 X80.260 Y14.366 E3.05708
G1 X82.170 Y15.216 E3.09730
G1 X82.987 Y15.688 E3.11546
G1 X84.678 Y16.917 E3.15568
G1 X85.133 Y17.295 E3.16707
G1 X103.788 Y35.011 E3.66200
G1 X104.034 Y35.264 E3.66879
G1 X104.918 Y36.260 E3.69442
G1 X122.873 Y58.949 E4.25107
G1 X123.710 Y60.643 E4.28742
G1 X123.848 Y61.750 E4.30888
G1 X123.848 Y88.250 E4.81870
G1 X123.452 Y90.098 E4.85506
G1 X122.873 Y91.051 E4.87652
G1 X104.918 Y113.740 E5.43317
G1 X104.034 Y114.736 E5.45879
G1 X103.788 Y114.989 E5.46558
G1 X85.133 Y132.705 E5.96051
G1 X84.678 Y133.083 E5.97191
G1 X82.987 Y134.312 E6.01213
G1 X82.170 Y134.784 E6.03028
G1 X80.260 Y135.634 E6.07050
G1 X79.362 Y135.926 E6.08866
G1 X77.317 Y136.361 E6.12888
G1 X76.685 Y136.449 E6.14116
G1 X30.973 Y139.558 E7.02263
G1 X29.102 Y139.289 E7.05898
G1 X27.506 Y138.278 E7.09534
G1 X26.464 Y136.701 E7.13170
G1 X26.152 Y135.054 E7.16394
G1 X26.152 Y14.946 E9.47468
G1 X26.535 Y13.156 E9.50988
G1 X26.805 Y13.154 F6000.000
G1 F1800.000
G1 X27.917 Y11.695 E9.54517
G1 X29.540 Y10.840 E9.58047
G1 X30.956 Y10.698 E9.60783
G1 X76.668 Y13.808 E10.48930
G1 X77.264 Y13.891 E10.50088
G1 X79.308 Y14.325 E10.54109
G1 X80.155 Y14.600 E10.55822
G1 X82.065 Y15.451 E10.59844
G1 X82.836 Y15.896 E10.61556
G1 X84.527 Y17.125 E10.65578
G1 X84.956 Y17.482 E10.66652
G1 X103.610 Y35.197 E11.16146
G1 X103.843 Y35.436 E11.16786
G1 X104.717 Y36.419 E11.19317
G1 X122.672 Y59.108 E11.74982
G1 X123.473 Y60.758 E11.78512
G1 X123.590 Y61.750 E11.80433
G1 X123.590 Y88.250 E12.31415
G1 X123.195 Y90.041 E12.34944
G1 X122.672 Y90.892 E12.36865
G1 X104.717 Y113.581 E12.92530
G1 X103.843 Y114.564 E12.95062
G1 X103.610 Y114.803 E12.95702
G1 X84.956 Y132.518 E13.45195
G1 X84.527 Y132.875 E13.46269
G1 X82.836 Y134.104 E13.50291
G1 X82.065 Y134.549 E13.52003
G1 X80.155 Y135.400 E13.56026
G1 X79.308 Y135.675 E13.57738
G1 X77.264 Y136.109 E13.61760
G1 X76.668 Y136.192 E13.62918
G1 X30.956 Y139.302 E14.51065
G1 X29.141 Y139.029 E14.54594
G1 X27.610 Y138.018 E14.58124
G1 X26.647 Y136.457 E14.61653
G1 X26.410 Y135.054 E14.64389
G1 X26.410 Y14.946 E16.95462
G1 X26.792 Y13.213 E16.98877
G1 E14.98877 F1200.00000
G92 E0
G1 X63.176 Y113.339 F6000.000
G1 E2.00000 F1200.00000
G1 F1800.000
G1 X87.491 Y113.339 E2.46779
G1 X87.923 Y113.479 E2.47653
G1 X88.260 Y113.783 E2.48526
G1 X88.418 Y114.056 E2.49132
G1 X88.512 Y114.500 E2.50007
G1 X88.410 Y114.980 E2.50950
G1 X88.166 Y115.316 E2.51750
G1 X76.063 Y126.410 E2.83337
G1 X75.698 Y126.621 E2.84148
G1 X75.210 Y126.673 E2.85092
G1 X74.778 Y126.532 E2.85965
G1 X74.578 Y126.387 E2.86441
G1 X62.501 Y115.316 E3.17961
G1 X62.277 Y115.009 E3.18692
G1 X62.180 Y114.709 E3.19298
G1 X62.180 Y114.291 E3.20103
G1 X62.277 Y113.991 E3.20709
G1 X62.523 Y113.653 E3.21514
G1 X62.778 Y113.468 E3.22119
G1 X63.119 Y113.357 E3.22808
G1 X62.509 Y114.109 F6000.000
G1 F1800.000
G1 X62.707 Y113.837 E3.23457
G1 X62.896 Y113.700 E3.23906
G1 X63.217 Y113.596 E3.24553
G1 X87.450 Y113.596 E3.71175
G1 X87.791 Y113.707 E3.71866
G1 X88.058 Y113.947 E3.72556
G1 X88.175 Y114.149 E3.73006
G1 X88.250 Y114.500 E3.73696
G1 X88.170 Y114.873 E3.74429
G1 X87.973 Y115.144 E3.75075
G1 X75.910 Y126.202 E4.06557
G1 X75.616 Y126.371 E4.07209
G1 X75.238 Y126.411 E4.07943
G1 X74.896 Y126.300 E4.08633
G1 X74.741 Y126.187 E4.09002
G1 X62.693 Y115.144 E4.40444
G1 X62.509 Y114.890 E4.41047
G1 X62.437 Y114.668 E4.41497
G1 X62.437 Y114.332 E4.42144
G1 X62.491 Y114.167 E4.42478
G1 X62.741 Y114.228 F6000.000
G1 F1800.000
G1 X62.891 Y114.021 E4.42970
G1 X63.014 Y113.932 E4.43262
G1 X63.257 Y113.853 E4.43753
G1 X87.409 Y113.853 E4.90219
G1 X87.660 Y113.934 E4.90726
G1 X87.856 Y114.110 E4.91233
G1 X87.932 Y114.242 E4.91525
G1 X87.987 Y114.500 E4.92032
G1 X87.930 Y114.766 E4.92555
G1 X87.780 Y114.972 E4.93046
G1 X75.757 Y125.993 E5.24425
G1 X75.535 Y126.121 E5.24917
G1 X75.265 Y126.150 E5.25440
G1 X75.014 Y126.068 E5.25947
G1 X74.904 Y125.988 E5.26210
G1 X62.886 Y114.972 E5.57574
G1 X62.741 Y114.772 E5.58049
G1 X62.694 Y114.628 E5.58341
G1 X62.694 Y114.372 E5.58833
G1 X62.723 Y114.285 E5.59010
G1 X62.599 Y114.015 F6000.000
G1 E3.59010 F1200.00000
G92 E0
G1 X60.777 Y111.746 F6000.000
G1 E2.00000 F1200.00000
G1 F1800.000
G1 X60.547 Y111.913 E2.00547
G1 X60.298 Y112.050 E2.01094
G1 X60.034 Y112.155 E2.01642
G1 X59.758 Y112.225 E2.02189
G1 X59.475 Y112.261 E2.02737
G1 X59.191 Y112.261 E2.03284
G1 X58.909 Y112.225 E2.03831
G1 X58.633 Y112.155 E2.04379
G1 X58.369 Y112.050 E2.04926
G1 X58.119 Y111.913 E2.05473
G1 X57.889 Y111.746 E2.06021
G1 X57.682 Y111.551 E2.06568
G1 X57.500 Y111.332 E2.07115
G1 X57.348 Y111.091 E2.07663
G1 X57.227 Y110.834 E2.08210
G1 X57.139 Y110.563 E2.08758
G1 X57.086 Y110.284 E2.09305
G1 X57.068 Y110.000 E2.09852
G1 X57.086 Y109.716 E2.10399
G1 X57.139 Y109.437 E2.10946
G1 X57.227 Y109.166 E2.11494
G1 X57.348 Y108.909 E2.12041
G1 X57.500 Y108.668 E2.12589
G1 X57.682 Y108.449 E2.13136
G1 X57.889 Y108.254 E2.13683
G1 X58.119 Y108.087 E2.14231
G1 X58.369 Y107.950 E2.14778
G1 X58.633 Y107.845 E2.15325
G1 X58.909 Y107.775 E2.15873
G1 X59.191 Y107.739 E2.16420
G1 X59.475 Y107.739 E2.16967
G1 X59.758 Y107.775 E2.17515
G1 X60.034 Y107.845 E2.18062
G1 X60.298 Y107.950 E2.18610
G1 X60.547 Y108.087 E2.19157
G1 X60.777 Y108.254 E2.19704
G1 X60.985 Y108.449 E2.20251
G1 X61.166 Y108.668 E2.20799
G1 X61.319 Y108.909 E2.21346
G1 X61.440 Y109.166 E2.21894
G1 X61.528 Y109.437 E2.22441
G1 X61.581 Y109.716 E2.22988
G1 X61.599 Y110.000 E2.23535
G1 X61.581 Y110.284 E2.24083
G1 X61.528 Y110.563 E2.24630
G1 X61.440 Y110.834 E2.25177
G1 X61.319 Y111.091 E2.25725
G1 X61.166 Y111.332 E2.26272
G1 X60.985 Y111.551 E2.26820
G1 X60.821 Y111.705 E2.27252
G1 X60.613 Y111.547 F6000.000
G1 F1800.000
G1 X60.409 Y111.695 E2.27736
G1 X60.188 Y111.817 E2.28222
G1 X59.954 Y111.910 E2.28707
G1 X59.710 Y111.972 E2.29192
G1 X59.459 Y112.004 E2.29677
G1 X59.207 Y112.004 E2.30162
G1 X58.957 Y111.972 E2.30647
G1 X58.713 Y111.910 E2.31132
G1 X58.478 Y111.817 E2.31618
G1 X58.257 Y111.695 E2.32103
G1 X58.053 Y111.547 E2.32588
G1 X57.870 Y111.375 E2.33073
G1 X57.709 Y111.180 E2.33558
G1 X57.574 Y110.967 E2.34043
G1 X57.466 Y110.739 E2.34528
G1 X57.388 Y110.499 E2.35013
G1 X57.341 Y110.252 E2.35498
G1 X57.325 Y110.000 E2.35983
G1 X57.341 Y109.748 E2.36468
G1 X57.388 Y109.501 E2.36953
G1 X57.466 Y109.261 E2.37439
G1 X57.574 Y109.033 E2.37924
G1 X57.709 Y108.820 E2.38409
G1 X57.870 Y108.625 E2.38894
G1 X58.053 Y108.453 E2.39379
G1 X58.257 Y108.305 E2.39864
G1 X58.478 Y108.183 E2.40349
G1 X58.713 Y108.090 E2.40834
G1 X58.957 Y108.028 E2.41320
G1 X59.207 Y107.996 E2.41805
G1 X59.459 Y107.996 E2.42290
G1 X59.710 Y108.028 E2.42775
G1 X59.954 Y108.090 E2.43260
G1 X60.188 Y108.183 E2.43745
G1 X60.409 Y108.305 E2.44230
G1 X60.613 Y108.453 E2.44715
G1 X60.797 Y108.625 E2.45200
G1 X60.958 Y108.820 E2.45685
G1 X61.093 Y109.033 E2.46171
G1 X61.200 Y109.261 E2.46656
G1 X61.278 Y109.501 E2.47141
G1 X61.325 Y109.748 E2.47626
G1 X61.341 Y110.000 E2.48111
G1 X61.325 Y110.252 E2.48596
G1 X61.278 Y110.499 E2.49081
G1 X61.200 Y110.739 E2.49566
G1 X61.093 Y110.967 E2.50051
G1 X60.958 Y111.180 E2.50537
G1 X60.797 Y111.375 E2.51022
G1 X60.657 Y111.506 E2.51391
G1 X60.449 Y111.349 F6000.000
G1 F1800.000
G1 X60.271 Y111.478 E2.51814
G1 X60.079 Y111.584 E2.52237
G1 X59.874 Y111.665 E2.52660
G1 X59.661 Y111.719 E2.53083
G1 X59.443 Y111.747 E2.53506
G1 X59.223 Y111.747 E2.53929
G1 X59.005 Y111.719 E2.54351
G1 X58.792 Y111.665 E2.54774
G1 X58.588 Y111.584 E2.55197
G1 X58.395 Y111.478 E2.55620
G1 X58.218 Y111.349 E2.56043
G1 X58.057 Y111.198 E2.56466
G1 X57.917 Y111.029 E2.56889
G1 X57.800 Y110.843 E2.57312
G1 X57.706 Y110.644 E2.57734
G1 X57.638 Y110.435 E2.58157
G1 X57.597 Y110.219 E2.58580
G1 X57.583 Y110.000 E2.59003
G1 X57.597 Y109.781 E2.59426
G1 X57.638 Y109.565 E2.59849
G1 X57.706 Y109.356 E2.60272
G1 X57.800 Y109.157 E2.60695
G1 X57.917 Y108.971 E2.61117
G1 X58.057 Y108.802 E2.61540
G1 X58.218 Y108.651 E2.61963
G1 X58.395 Y108.522 E2.62386
G1 X58.588 Y108.416 E2.62809
G1 X58.792 Y108.335 E2.63232
G1 X59.005 Y108.281 E2.63655
G1 X59.223 Y108.253 E2.64078
G1 X59.443 Y108.253 E2.64500
G1 X59.661 Y108.281 E2.64923
G1 X59.874 Y108.335 E2.65346
G1 X60.079 Y108.416 E2.65769
G1 X60.271 Y108.522 E2.66192
G1 X60.449 Y108.651 E2.66615
G1 X60.609 Y108.802 E2.67038
G1 X60.749 Y108.971 E2.67460
G1 X60.867 Y109.157 E2.67883
G1 X60.961 Y109.356 E2.68306
G1 X61.029 Y109.565 E2.68729
G1 X61.070 Y109.781 E2.69152
G1 X61.084 Y110.000 E2.69575
G1 X61.070 Y110.219 E2.69998
G1 X61.029 Y110.435 E2.70421
G1 X60.961 Y110.644 E2.70843
G1 X60.867 Y110.843 E2.71266
G1 X60.749 Y111.029 E2.71689
G1 X60.493 Y111.308 E2.72418
G1 X60.486 Y111.565 F6000.000
G1 E0.72418 F1200.00000
G92 E0
G1 X55.063 Y113.590 F6000.000
G1 E2.00000 F1200.00000
G1 F1800.000
G1 X67.166 Y124.684 E2.31587
G1 X67.410 Y125.020 E2.32387
G1 X67.512 Y125.500 E2.33330
G1 X67.410 Y125.980 E2.34274
G1 X67.143 Y126.347 E2.35147
G1 X66.889 Y126.532 E2.35753
G1 X66.491 Y126.661 E2.36558
G1 X42.176 Y126.661 E2.83337
G1 X41.778 Y126.532 E2.84141
G1 X41.523 Y126.347 E2.84747
G1 X41.256 Y125.980 E2.85621
G1 X41.154 Y125.500 E2.86564
G1 X41.256 Y125.020 E2.87507
G1 X41.501 Y124.684 E2.88308
G1 X53.578 Y113.613 E3.19827
G1 X53.778 Y113.468 E3.20303
G1 X54.210 Y113.327 E3.21177
G1 X54.698 Y113.379 E3.22121
G1 X55.011 Y113.560 E3.22816
G1 X54.910 Y113.798 F6000.000
G1 F1800.000
G1 X66.973 Y124.856 E3.54299
G1 X67.170 Y125.127 E3.54944
G1 X67.250 Y125.500 E3.55678
G1 X67.170 Y125.873 E3.56411
G1 X66.959 Y126.163 E3.57101
G1 X66.770 Y126.300 E3.57550
G1 X66.450 Y126.404 E3.58198
G1 X42.217 Y126.404 E4.04820
G1 X41.896 Y126.300 E4.05468
G1 X41.707 Y126.163 E4.05917
G1 X41.496 Y125.873 E4.06608
G1 X41.417 Y125.500 E4.07341
G1 X41.496 Y125.127 E4.08074
G1 X41.693 Y124.856 E4.08719
G1 X53.741 Y113.813 E4.40161
G1 X53.896 Y113.700 E4.40530
G1 X54.238 Y113.589 E4.41221
G1 X54.616 Y113.629 E4.41954
G1 X54.858 Y113.768 E4.42490
G1 E2.42490 F1200.00000
G92 E0
G1 X66.775 Y125.979 F6000.000
G1 E2.00000 F1200.00000
G1 F1800.000
G1 X66.652 Y126.068 E2.00292
G1 X66.409 Y126.147 E2.00784
G1 X42.257 Y126.147 E2.47249
G1 X42.014 Y126.068 E2.47740
G1 X41.891 Y125.979 E2.48033
G1 X41.736 Y125.766 E2.48540
G1 X41.680 Y125.500 E2.49063
G1 X41.736 Y125.234 E2.49585
G1 X41.886 Y125.028 E2.50076
G1 X53.904 Y114.012 E2.81440
G1 X54.014 Y113.932 E2.81703
G1 X54.265 Y113.850 E2.82210
G1 X54.535 Y113.879 E2.82732
G1 X54.757 Y114.007 E2.83225
G1 X66.780 Y125.028 E3.14604
G1 X66.930 Y125.234 E3.15094
G1 X66.987 Y125.500 E3.15617
G1 X66.930 Y125.766 E3.16140
G1 X66.810 Y125.930 E3.16532
G1 X66.817 Y126.125 F6000.000
G1 E1.16532 F1200.00000
G92 E0
G1 X50.985 Y111.551 F6000.000
G1 E2.00000 F1200.00000
G1 F1800.000
G1 X50.777 Y111.746 E2.00547
G1 X50.547 Y111.913 E2.01094
G1 X50.298 Y112.050 E2.01642
G1 X50.034 Y112.155 E2.02189
G1 X49.758 Y112.225 E2.02737
G1 X49.475 Y112.261 E2.03284
G1 X49.191 Y112.261 E2.03831
G1 X48.909 Y112.225 E2.04378
G1 X48.633 Y112.155 E2.04926
G1 X48.369 Y112.050 E2.05473
G1 X48.119 Y111.913 E2.06021
G1 X47.889 Y111.746 E2.06568
G1 X47.682 Y111.551 E2.07115
G1 X47.500 Y111.332 E2.07663
G1 X47.348 Y111.091 E2.08210
G1 X47.227 Y110.834 E2.08757
G1 X47.139 Y110.563 E2.09305
G1 X47.086 Y110.284 E2.09852
G1 X47.068 Y110.000 E2.10399
G1 X47.086 Y109.716 E2.10946
G1 X47.139 Y109.437 E2.11494
G1 X47.227 Y109.166 E2.12041
G1 X47.348 Y108.909 E2.12588
G1 X47.500 Y108.668 E2.13136
G1 X47.682 Y108.449 E2.13683
G1 X47.889 Y108.254 E2.14231
G1 X48.119 Y108.087 E2.14778
G1 X48.369 Y107.950 E2.15325
G1 X48.633 Y107.845 E2.15872
G1 X48.909 Y107.775 E2.16420
G1 X49.191 Y107.739 E2.16967
G1 X49.475 Y107.739 E2.17514
G1 X49.758 Y107.775 E2.18062
G1 X50.034 Y107.845 E2.18610
G1 X50.298 Y107.950 E2.19157
G1 X50.547 Y108.087 E2.19704
G1 X50.777 Y108.254 E2.20251
G1 X50.985 Y108.449 E2.20798
G1 X51.166 Y108.668 E2.21346
G1 X51.319 Y108.909 E2.21893
G1 X51.440 Y109.166 E2.22441
G1 X51.528 Y109.437 E2.22988
G1 X51.581 Y109.716 E2.23535
G1 X51.599 Y110.000 E2.24083
G1 X51.581 Y110.284 E2.24630
G1 X51.528 Y110.563 E2.25177
G1 X51.440 Y110.834 E2.25725
G1 X51.319 Y111.091 E2.26272
G1 X51.166 Y111.332 E2.26819
G1 X51.023 Y111.505 E2.27252
G1 X50.797 Y111.375 F6000.000
G1 F1800.000
G1 X50.613 Y111.547 E2.27737
G1 X50.409 Y111.695 E2.28221
G1 X50.188 Y111.817 E2.28707
G1 X49.954 Y111.910 E2.29192
G1 X49.710 Y111.972 E2.29677
G1 X49.459 Y112.004 E2.30162
G1 X49.207 Y112.004 E2.30647
G1 X48.957 Y111.972 E2.31132
G1 X48.713 Y111.910 E2.31617
G1 X48.478 Y111.817 E2.32102
G1 X48.257 Y111.695 E2.32588
G1 X48.053 Y111.547 E2.33073
G1 X47.870 Y111.375 E2.33558
G1 X47.709 Y111.180 E2.34043
G1 X47.574 Y110.967 E2.34528
G1 X47.466 Y110.739 E2.35013
G1 X47.388 Y110.499 E2.35498
G1 X47.341 Y110.252 E2.35983
G1 X47.325 Y110.000 E2.36468
G1 X47.341 Y109.748 E2.36953
G1 X47.388 Y109.501 E2.37438
G1 X47.466 Y109.261 E2.37924
G1 X47.574 Y109.033 E2.38409
G1 X47.709 Y108.820 E2.38894
G1 X47.870 Y108.625 E2.39379
G1 X48.053 Y108.453 E2.39864
G1 X48.257 Y108.305 E2.40349
G1 X48.478 Y108.183 E2.40834
G1 X48.713 Y108.090 E2.41319
G1 X48.957 Y108.028 E2.41805
G1 X49.207 Y107.996 E2.42290
G1 X49.459 Y107.996 E2.42774
G1 X49.710 Y108.028 E2.43260
G1 X49.954 Y108.090 E2.43745
G1 X50.188 Y108.183 E2.44230
G1 X50.409 Y108.305 E2.44715
G1 X50.613 Y108.453 E2.45200
G1 X50.797 Y108.625 E2.45685
G1 X50.958 Y108.820 E2.46170
G1 X51.093 Y109.033 E2.46656
G1 X51.200 Y109.261 E2.47141
G1 X51.278 Y109.501 E2.47626
G1 X51.325 Y109.748 E2.48111
G1 X51.341 Y110.000 E2.48596
G1 X51.325 Y110.252 E2.49081
G1 X51.278 Y110.499 E2.49566
G1 X51.200 Y110.739 E2.50051
G1 X51.093 Y110.967 E2.50536
G1 X50.958 Y111.180 E2.51022
G1 X50.835 Y111.328 E2.51391
G1 X50.609 Y111.198 F6000.000
G1 F1800.000
G1 X50.449 Y111.349 E2.51814
G1 X50.271 Y111.478 E2.52237
G1 X50.079 Y111.584 E2.52660
G1 X49.874 Y111.665 E2.53083
G1 X49.661 Y111.719 E2.53506
G1 X49.443 Y111.747 E2.53929
G1 X49.223 Y111.747 E2.54351
G1 X49.005 Y111.719 E2.54774
G1 X48.792 Y111.665 E2.55197
G1 X48.588 Y111.584 E2.55620
G1 X48.395 Y111.478 E2.56043
G1 X48.218 Y111.349 E2.56466
G1 X48.057 Y111.198 E2.56889
G1 X47.917 Y111.029 E2.57312
G1 X47.800 Y110.843 E2.57734
G1 X47.706 Y110.644 E2.58157
G1 X47.638 Y110.435 E2.58580
G1 X47.597 Y110.219 E2.59003
G1 X47.583 Y110.000 E2.59426
G1 X47.597 Y109.781 E2.59849
G1 X47.638 Y109.565 E2.60272
G1 X47.706 Y109.356 E2.60695
G1 X47.800 Y109.157 E2.61117
G1 X47.917 Y108.971 E2.61540
G1 X48.057 Y108.802 E2.61963
G1 X48.218 Y108.651 E2.62386
G1 X48.395 Y108.522 E2.62809
G1 X48.588 Y108.416 E2.63232
G1 X48.792 Y108.335 E2.63655
G1 X49.005 Y108.281 E2.64078
G1 X49.223 Y108.253 E2.64500
G1 X49.443 Y108.253 E2.64923
G1 X49.661 Y108.281 E2.65346
G1 X49.874 Y108.335 E2.65769
G1 X50.079 Y108.416 E2.66192
G1 X50.271 Y108.522 E2.66615
G1 X50.449 Y108.651 E2.67038
G1 X50.609 Y108.802 E2.67460
G1 X50.749 Y108.971 E2.67883
G1 X50.867 Y109.157 E2.68306
G1 X50.961 Y109.356 E2.68729
G1 X51.029 Y109.565 E2.69152
G1 X51.070 Y109.781 E2.69575
G1 X51.084 Y110.000 E2.69998
G1 X51.070 Y110.219 E2.70421
G1 X51.029 Y110.435 E2.70843
G1 X50.961 Y110.644 E2.71266
G1 X50.867 Y110.843 E2.71689
G1 X50.647 Y111.152 E2.72418
G1 X50.673 Y111.409 F6000.000
G1 E0.72418 F1200.00000
G92 E0
