; generated by Slic3r 1.3.1-dev (Build (Unknown revision)) on 2020-10-01 at 11:15:41

; external perimeters extrusion width = 0.44mm (2.86mm^3/s)
; perimeters extrusion width = 0.56mm (4.14mm^3/s)
; infill extrusion width = 0.50mm (3.66mm^3/s)
; solid infill extrusion width = 0.56mm (3.10mm^3/s)
; top infill extrusion width = 0.45mm (2.44mm^3/s)

M107
G92 E0
;D3D:START:START
T0
M104 S215 T0

G21
G90
M107
T0
G28
G29
M109 T0 S215 T0
G0 F3000
M107
T0
G92 E0
G0 X0 Y149 Z0.1 F3600
G1 Y49 E6.5 F1200
G0 Z1
G92 E0
; Filament gcode

G21 ; set units to millimeters
G90 ; use absolute coordinates
M82 ; use absolute distances for extrusion
G92 E0
G1 Z0.300 F6000.000
G1 E-2.00000 F1200.00000
G92 E0
G1 Z0.800 F6000.000
G1 X52.770 Y55.199 F6000.000
G1 Z0.300 F6000.000
G1 E2.00000 F1200.00000
G1 F1800.000
G1 X54.528 Y53.687 E2.10372
G1 X56.693 Y52.856 E2.20744
G1 X58.000 Y52.729 E2.26617
G1 X92.000 Y52.729 E3.78698
G1 X94.285 Y53.126 E3.89070
G1 X96.301 Y54.270 E3.99442
G1 X97.813 Y56.028 E4.09815
G1 X98.644 Y58.193 E4.20187
G1 X98.771 Y59.500 E4.26059
G1 X98.771 Y84.500 E5.37884
G1 X98.374 Y86.785 E5.48256
G1 X97.230 Y88.801 E5.58628
G1 X95.472 Y90.313 E5.69000
G1 X93.307 Y91.144 E5.79372
G1 X92.000 Y91.271 E5.85245
G1 X58.000 Y91.271 E7.37326
G1 X55.715 Y90.874 E7.47698
G1 X53.699 Y89.730 E7.58070
G1 X52.187 Y87.972 E7.68442
G1 X51.356 Y85.807 E7.78815
G1 X51.229 Y84.500 E7.84687
G1 X51.229 Y59.500 E8.96512
G1 X51.626 Y57.215 E9.06884
G1 X52.741 Y55.251 E9.16988
G1 X53.153 Y55.343 F6000.000
G1 F1800.000
G1 X54.896 Y53.919 E9.27058
G1 X58.000 Y53.114 E9.41400
G1 X92.000 Y53.114 E10.93481
G1 X94.216 Y53.511 E11.03551
G1 X96.157 Y54.653 E11.13621
G1 X97.581 Y56.396 E11.23692
G1 X98.386 Y59.500 E11.38034
G1 X98.386 Y84.500 E12.49858
G1 X97.989 Y86.716 E12.59928
G1 X96.847 Y88.657 E12.69998
G1 X95.104 Y90.081 E12.80069
G1 X92.000 Y90.886 E12.94411
G1 X58.000 Y90.886 E14.46492
G1 X55.784 Y90.489 E14.56562
G1 X53.843 Y89.347 E14.66632
G1 X52.419 Y87.604 E14.76702
G1 X51.614 Y84.500 E14.91044
G1 X51.614 Y59.500 E16.02869
G1 X52.011 Y57.284 E16.12939
G1 X53.122 Y55.395 E16.22741
G1 E14.22741 F1200.00000
G92 E0
G1 Z0.800 F6000.000
G1 X59.389 Y83.889 F6000.000
G1 Z0.300 F6000.000
G1 E2.00000 F1200.00000
G1 F1800.000
G1 X58.611 Y83.889 E2.03483
G1 X58.611 Y60.111 E3.09845
G1 X59.389 Y60.111 E3.13329
G1 X59.389 Y83.829 E4.19422
G1 X59.775 Y84.275 F6000.000
G1 F1800.000
G1 X58.225 Y84.275 E4.26355
G1 X58.225 Y59.725 E5.36167
G1 X59.775 Y59.725 E5.43100
G1 X59.775 Y84.215 E6.52644
G1 X59.424 Y84.082 F6000.000
G1 E4.52644 F1200.00000
G92 E0
G1 Z0.800 F6000.000
G1 X90.611 Y83.889 F6000.000
G1 Z0.300 F6000.000
G1 E2.00000 F1200.00000
G1 F1800.000
G1 X90.611 Y60.111 E3.06362
G1 X91.389 Y60.111 E3.09845
G1 X91.389 Y83.889 E4.16207
G1 X90.671 Y83.889 E4.19422
G1 X90.225 Y84.275 F6000.000
G1 F1800.000
G1 X90.225 Y59.725 E5.29234
G1 X91.775 Y59.725 E5.36167
G1 X91.775 Y84.275 E6.45979
G1 X90.285 Y84.275 E6.52644
G1 X90.233 Y83.875 F6000.000
G1 X91.000 Y83.697 F6000.000
G1 F1800.000
G1 X91.000 Y60.303 E7.41853
G1 E5.41853 F1200.00000
G92 E0
G1 Z0.800 F6000.000
G1 X59.000 Y60.303 F6000.000
G1 Z0.300 F6000.000
G1 E2.00000 F1200.00000
G1 F1800.000
G1 X59.000 Y83.697 E2.89209
G1 Z0.500 F6000.000
G1 X59.323 Y83.823 F6000.000
G1 F2400.000
G1 X58.677 Y83.823 E2.91792
G1 X58.677 Y60.177 E3.86341
G1 X59.323 Y60.177 E3.88924
G1 X59.323 Y83.763 E4.83233
G1 X59.780 Y84.280 F6000.000
G1 F2160.000
G1 X58.220 Y84.280 E4.88023
G1 X58.220 Y59.720 E5.63438
G1 X59.780 Y59.720 E5.68228
G1 X59.780 Y84.220 E6.43458
G1 X59.429 Y84.087 F6000.000
G1 X59.780 Y84.404 F6000.000
G1 F2160.000
G1 X90.220 Y84.404 E6.78594
G1 X90.677 Y83.823 F6000.000
G1 F2400.000
G1 X90.677 Y60.177 E7.73143
G1 X91.323 Y60.177 E7.75726
G1 X91.323 Y83.823 E8.70275
G1 X90.737 Y83.823 E8.72618
G1 X90.220 Y84.280 F6000.000
G1 F2160.000
G1 X90.220 Y59.720 E9.48032
G1 X91.780 Y59.720 E9.52822
G1 X91.780 Y84.280 E10.28236
G1 X90.280 Y84.280 E10.32842
G1 X90.228 Y83.880 F6000.000
G1 E8.32842 F1200.00000
G92 E0
G1 Z1.000 F6000.000
G1 X90.220 Y59.596 F6000.000
G1 Z0.500 F6000.000
G1 E2.00000 F1200.00000
G1 F2160.000
G1 X59.780 Y59.596 E2.35136
G1 X59.000 Y60.436 F6000.000
G1 F1200.000
G1 X59.000 Y83.564 E2.50490
G1 E0.50490 F1200.00000
G92 E0
G1 Z1.000 F6000.000
G1 X91.000 Y83.564 F6000.000
G1 Z0.500 F6000.000
G1 E2.00000 F1200.00000
G1 F1200.000
G1 X91.000 Y60.436 E2.15354
G1 Z0.700 F6000.000
G1 E0.15354 F1200.00000
G92 E0
G1 Z1.200 F6000.000
G1 X59.323 Y83.823 F6000.000
G1 Z0.700 F6000.000
G1 E2.00000 F1200.00000
G1 F2400.000
G1 X58.677 Y83.823 E2.02582
G1 X58.677 Y60.177 E2.97132
G1 X59.323 Y60.177 E2.99714
G1 X59.323 Y83.763 E3.94024
G1 X59.780 Y84.280 F6000.000
G1 F2160.000
G1 X58.220 Y84.280 E3.98814
G1 X58.220 Y59.720 E4.74228
G1 X59.780 Y59.720 E4.79018
G1 X59.780 Y84.220 E5.54248
G1 X59.429 Y84.087 F6000.000
G1 X59.780 Y84.356 F6000.000
G1 F2160.000
G1 X90.220 Y84.356 E6.11906
G1 X90.677 Y83.823 F6000.000
G1 F2400.000
G1 X90.677 Y60.177 E7.06455
G1 X91.323 Y60.177 E7.09038
G1 X91.323 Y83.823 E8.03587
G1 X90.737 Y83.823 E8.05930
G1 X90.220 Y84.280 F6000.000
G1 F2160.000
G1 X90.220 Y59.720 E8.81344
G1 X91.780 Y59.720 E8.86134
G1 X91.780 Y84.280 E9.61548
G1 X90.280 Y84.280 E9.66154
G1 X90.228 Y83.880 F6000.000
G1 E7.66154 F1200.00000
G92 E0
G1 Z1.200 F6000.000
G1 X90.220 Y59.644 F6000.000
G1 Z0.700 F6000.000
G1 E2.00000 F1200.00000
G1 F2160.000
G1 X59.780 Y59.644 E2.57657
G1 X59.000 Y60.436 F6000.000
G1 F1200.000
G1 X59.000 Y83.564 E2.73011
G1 E0.73011 F1200.00000
G92 E0
G1 Z1.200 F6000.000
G1 X91.000 Y83.564 F6000.000
G1 Z0.700 F6000.000
G1 E2.00000 F1200.00000
G1 F1200.000
G1 X91.000 Y60.436 E2.15354
G1 Z0.900 F6000.000
G1 E0.15354 F1200.00000
G92 E0
G1 Z1.400 F6000.000
G1 X59.323 Y83.823 F6000.000
G1 Z0.900 F6000.000
G1 E2.00000 F1200.00000
G1 F2400.000
G1 X58.677 Y83.823 E2.02582
G1 X58.677 Y60.177 E2.97132
G1 X59.323 Y60.177 E2.99714
G1 X59.323 Y83.763 E3.94024
G1 X59.780 Y84.280 F6000.000
G1 F2160.000
G1 X58.220 Y84.280 E3.98814
G1 X58.220 Y59.720 E4.74228
G1 X59.780 Y59.720 E4.79018
G1 X59.780 Y84.220 E5.54248
G1 X59.429 Y84.087 F6000.000
G1 X59.780 Y84.309 F6000.000
G1 F2160.000
G1 X90.220 Y84.309 E6.34221
G1 X90.677 Y83.823 F6000.000
G1 F2400.000
G1 X90.677 Y60.177 E7.28771
G1 X91.323 Y60.177 E7.31353
G1 X91.323 Y83.823 E8.25903
G1 X90.737 Y83.823 E8.28245
G1 X90.220 Y84.280 F6000.000
G1 F2160.000
G1 X90.220 Y59.720 E9.03659
G1 X91.780 Y59.720 E9.08450
G1 X91.780 Y84.280 E9.83864
G1 X90.280 Y84.280 E9.88470
G1 X90.228 Y83.880 F6000.000
G1 E7.88470 F1200.00000
G92 E0
G1 Z1.400 F6000.000
G1 X90.220 Y59.691 F6000.000
G1 Z0.900 F6000.000
G1 E2.00000 F1200.00000
G1 F2160.000
G1 X59.780 Y59.691 E2.79973
G1 X59.000 Y60.436 F6000.000
G1 F1200.000
G1 X59.000 Y83.564 E2.95327
G1 E0.95327 F1200.00000
G92 E0
G1 Z1.400 F6000.000
G1 X91.000 Y83.564 F6000.000
G1 Z0.900 F6000.000
G1 E2.00000 F1200.00000
G1 F1200.000
G1 X91.000 Y60.436 E2.15354
M106 S255
G1 Z1.100 F6000.000
G1 E0.15354 F1200.00000
G92 E0
G1 Z1.600 F6000.000
G1 X59.323 Y83.823 F6000.000
G1 Z1.100 F6000.000
G1 E2.00000 F1200.00000
G1 F2400.000
G1 X58.677 Y83.823 E2.02582
G1 X58.677 Y60.177 E2.97132
G1 X59.323 Y60.177 E2.99714
G1 X59.323 Y83.763 E3.94024
G1 X59.780 Y84.280 F6000.000
G1 F2160.000
G1 X58.220 Y84.280 E3.98814
G1 X58.220 Y59.720 E4.74228
G1 X59.780 Y59.720 E4.79018
G1 X59.780 Y84.220 E5.54248
G1 X59.429 Y84.087 F6000.000
G1 X59.780 Y84.262 F6000.000
G1 F2160.000
G1 X90.220 Y84.262 E6.56302
G1 X90.677 Y83.823 F6000.000
G1 F2400.000
G1 X90.677 Y60.177 E7.50851
G1 X91.323 Y60.177 E7.53434
G1 X91.323 Y83.823 E8.47983
G1 X90.737 Y83.823 E8.50326
G1 X90.220 Y84.280 F6000.000
G1 F2160.000
G1 X90.220 Y59.720 E9.25740
G1 X91.780 Y59.720 E9.30530
G1 X91.780 Y84.280 E10.05944
G1 X90.280 Y84.280 E10.10550
G1 X90.228 Y83.880 F6000.000
G1 E8.10550 F1200.00000
G92 E0
G1 Z1.600 F6000.000
G1 X90.220 Y59.738 F6000.000
G1 Z1.100 F6000.000
G1 E2.00000 F1200.00000
G1 F2160.000
G1 X59.780 Y59.738 E3.02054
G1 X59.000 Y60.436 F6000.000
G1 F1200.000
G1 X59.000 Y83.564 E3.17407
G1 E1.17407 F1200.00000
G92 E0
G1 Z1.600 F6000.000
G1 X91.000 Y83.564 F6000.000
G1 Z1.100 F6000.000
G1 E2.00000 F1200.00000
G1 F1200.000
G1 X91.000 Y60.436 E2.15354
G1 Z1.300 F6000.000
G1 E0.15354 F1200.00000
G92 E0
G1 Z1.800 F6000.000
G1 X59.323 Y83.823 F6000.000
G1 Z1.300 F6000.000
G1 E2.00000 F1200.00000
G1 F2400.000
G1 X58.677 Y83.823 E2.02582
G1 X58.677 Y60.177 E2.97132
G1 X59.323 Y60.177 E2.99714
G1 X59.323 Y83.763 E3.94024
G1 X59.780 Y84.280 F6000.000
G1 F2160.000
G1 X58.220 Y84.280 E3.98814
G1 X58.220 Y59.720 E4.74228
G1 X59.780 Y59.720 E4.79018
G1 X59.780 Y84.220 E5.54248
G1 X59.429 Y84.087 F6000.000
G1 X59.780 Y84.215 F6000.000
G1 F2160.000
G1 X90.220 Y84.215 E6.78383
G1 X90.677 Y83.823 F6000.000
G1 F2400.000
G1 X90.677 Y60.177 E7.72932
G1 X91.323 Y60.177 E7.75515
G1 X91.323 Y83.823 E8.70064
G1 X90.737 Y83.823 E8.72407
G1 X90.220 Y84.280 F6000.000
G1 F2160.000
G1 X90.220 Y59.720 E9.47821
G1 X91.780 Y59.720 E9.52611
G1 X91.780 Y84.280 E10.28025
G1 X90.280 Y84.280 E10.32631
G1 X90.228 Y83.880 F6000.000
G1 E8.32631 F1200.00000
G92 E0
G1 Z1.800 F6000.000
G1 X90.220 Y59.785 F6000.000
G1 Z1.300 F6000.000
G1 E2.00000 F1200.00000
G1 F2160.000
G1 X59.780 Y59.785 E3.24134
G1 X59.000 Y60.436 F6000.000
G1 F1200.000
G1 X59.000 Y83.564 E3.39488
G1 E1.39488 F1200.00000
G92 E0
G1 Z1.800 F6000.000
G1 X91.000 Y83.564 F6000.000
G1 Z1.300 F6000.000
G1 E2.00000 F1200.00000
G1 F1200.000
G1 X91.000 Y60.436 E2.15354
G1 Z1.500 F6000.000
G1 E0.15354 F1200.00000
G92 E0
G1 Z2.000 F6000.000
G1 X59.323 Y83.823 F6000.000
G1 Z1.500 F6000.000
G1 E2.00000 F1200.00000
G1 F2400.000
G1 X58.677 Y83.823 E2.02582
G1 X58.677 Y60.177 E2.97132
G1 X59.323 Y60.177 E2.99714
G1 X59.323 Y83.763 E3.94024
G1 X59.780 Y84.280 F6000.000
G1 F2160.000
G1 X58.220 Y84.280 E3.98814
G1 X58.220 Y59.720 E4.74228
G1 X59.780 Y59.720 E4.79018
G1 X59.780 Y84.220 E5.54248
G1 X59.429 Y84.087 F6000.000
G1 X59.780 Y84.168 F6000.000
G1 F2160.000
G1 X90.220 Y84.168 E7.00463
G1 X90.677 Y83.823 F6000.000
G1 F2400.000
G1 X90.677 Y60.177 E7.95013
G1 X91.323 Y60.177 E7.97595
G1 X91.323 Y83.823 E8.92145
G1 X90.737 Y83.823 E8.94487
G1 X90.220 Y84.280 F6000.000
G1 F2160.000
G1 X90.220 Y59.720 E9.69901
G1 X91.780 Y59.720 E9.74692
G1 X91.780 Y84.280 E10.50106
G1 X90.280 Y84.280 E10.54712
G1 X90.228 Y83.880 F6000.000
G1 E8.54712 F1200.00000
G92 E0
G1 Z2.000 F6000.000
G1 X90.220 Y59.832 F6000.000
G1 Z1.500 F6000.000
G1 E2.00000 F1200.00000
G1 F2160.000
G1 X59.780 Y59.832 E3.46215
G1 X59.000 Y60.436 F6000.000
G1 F1200.000
G1 X59.000 Y83.564 E3.61569
G1 E1.61569 F1200.00000
G92 E0
G1 Z2.000 F6000.000
G1 X91.000 Y83.564 F6000.000
G1 Z1.500 F6000.000
G1 E2.00000 F1200.00000
G1 F1200.000
G1 X91.000 Y60.436 E2.15354
G1 Z1.700 F6000.000
G1 E0.15354 F1200.00000
G92 E0
G1 Z2.200 F6000.000
G1 X90.220 Y83.962 F6000.000
G1 Z1.700 F6000.000
G1 E2.00000 F1200.00000
G1 F2160.000
G1 X59.780 Y83.962 E2.93469
G1 X59.780 Y60.038 E3.66933
G1 X90.220 Y60.038 E4.60402
G1 X90.220 Y83.902 E5.33682
G1 X90.339 Y84.344 F6000.000
G1 E3.33682 F1200.00000
G92 E0
G1 Z2.200 F6000.000
G1 X59.323 Y83.823 F6000.000
G1 Z1.700 F6000.000
G1 E2.00000 F1200.00000
G1 F2400.000
G1 X58.677 Y83.823 E2.02582
G1 X58.677 Y60.177 E2.97132
G1 X59.323 Y60.177 E2.99714
G1 X59.323 Y83.763 E3.94024
G1 E1.94024 F1200.00000
G92 E0
G1 Z2.200 F6000.000
G1 X90.677 Y83.823 F6000.000
G1 Z1.700 F6000.000
G1 E2.00000 F1200.00000
G1 F2400.000
G1 X90.677 Y60.177 E2.94549
G1 X91.323 Y60.177 E2.97132
G1 X91.323 Y83.823 E3.91681
G1 X90.737 Y83.823 E3.94024
G1 X91.780 Y84.280 F6000.000
G1 F2160.000
G1 X58.220 Y84.280 E4.97074
G1 X58.220 Y59.720 E5.72488
G1 X91.780 Y59.720 E6.75537
G1 X91.780 Y84.220 E7.50767
G1 X91.389 Y84.196 F6000.000
G1 X91.000 Y83.564 F6000.000
G1 F1200.000
G1 X91.000 Y60.436 E7.66121
G1 E5.66121 F1200.00000
G92 E0
G1 Z2.200 F6000.000
G1 X59.000 Y60.436 F6000.000
G1 Z1.700 F6000.000
G1 E2.00000 F1200.00000
G1 F1200.000
G1 X59.000 Y83.564 E2.15354
G1 Z1.900 F6000.000
G1 E0.15354 F1200.00000
G92 E0
G1 Z2.400 F6000.000
G1 X90.220 Y83.871 F6000.000
G1 Z1.900 F6000.000
G1 E2.00000 F1200.00000
G1 F2160.000
G1 X59.780 Y83.871 E2.93469
G1 X59.780 Y60.129 E3.66374
G1 X90.220 Y60.129 E4.59843
G1 X90.220 Y83.811 E5.32563
G1 X90.339 Y84.253 F6000.000
G1 E3.32563 F1200.00000
G92 E0
G1 Z2.400 F6000.000
G1 X59.323 Y83.823 F6000.000
G1 Z1.900 F6000.000
G1 E2.00000 F1200.00000
G1 F2400.000
G1 X58.677 Y83.823 E2.02582
G1 X58.677 Y60.177 E2.97132
G1 X59.323 Y60.177 E2.99714
G1 X59.323 Y83.763 E3.94024
G1 E1.94024 F1200.00000
G92 E0
G1 Z2.400 F6000.000
G1 X90.677 Y83.823 F6000.000
G1 Z1.900 F6000.000
G1 E2.00000 F1200.00000
G1 F2400.000
G1 X90.677 Y60.177 E2.94549
G1 X91.323 Y60.177 E2.97132
G1 X91.323 Y83.823 E3.91681
G1 X90.737 Y83.823 E3.94024
G1 X91.780 Y84.280 F6000.000
G1 F2160.000
G1 X58.220 Y84.280 E4.97074
G1 X58.220 Y59.720 E5.72488
G1 X91.780 Y59.720 E6.75537
G1 X91.780 Y84.220 E7.50767
G1 X91.389 Y84.196 F6000.000
G1 X91.000 Y83.564 F6000.000
G1 F1200.000
G1 X91.000 Y60.436 E7.66121
G1 E5.66121 F1200.00000
G92 E0
G1 Z2.400 F6000.000
G1 X59.000 Y60.436 F6000.000
G1 Z1.900 F6000.000
G1 E2.00000 F1200.00000
G1 F1200.000
G1 X59.000 Y83.564 E2.15354
G1 Z2.100 F6000.000
G1 E0.15354 F1200.00000
G92 E0
G1 Z2.600 F6000.000
G1 X90.220 Y83.780 F6000.000
G1 Z2.100 F6000.000
G1 E2.00000 F1200.00000
G1 F2160.000
G1 X59.780 Y83.780 E2.93469
G1 X59.780 Y60.220 E3.65814
G1 X90.220 Y60.220 E4.59284
G1 X90.220 Y83.720 E5.31444
G1 X90.340 Y84.162 F6000.000
G1 E3.31444 F1200.00000
G92 E0
G1 Z2.600 F6000.000
G1 X59.323 Y83.823 F6000.000
G1 Z2.100 F6000.000
G1 E2.00000 F1200.00000
G1 F2400.000
G1 X58.677 Y83.823 E2.02582
G1 X58.677 Y60.177 E2.97132
G1 X59.323 Y60.177 E2.99714
G1 X59.323 Y83.763 E3.94024
G1 E1.94024 F1200.00000
G92 E0
G1 Z2.600 F6000.000
G1 X90.677 Y83.823 F6000.000
G1 Z2.100 F6000.000
G1 E2.00000 F1200.00000
G1 F2400.000
G1 X90.677 Y60.177 E2.94549
G1 X91.323 Y60.177 E2.97132
G1 X91.323 Y83.823 E3.91681
G1 X90.737 Y83.823 E3.94024
G1 X91.780 Y84.280 F6000.000
G1 F2160.000
G1 X58.220 Y84.280 E4.97074
G1 X58.220 Y59.720 E5.72488
G1 X91.780 Y59.720 E6.75537
G1 X91.780 Y84.220 E7.50767
G1 X91.389 Y84.196 F6000.000
G1 X91.000 Y83.564 F6000.000
G1 F1200.000
G1 X91.000 Y60.436 E7.66121
G1 E5.66121 F1200.00000
G92 E0
G1 Z2.600 F6000.000
G1 X59.000 Y60.436 F6000.000
G1 Z2.100 F6000.000
G1 E2.00000 F1200.00000
G1 F1200.000
G1 X59.000 Y83.564 E2.15354
G1 Z2.300 F6000.000
G1 E0.15354 F1200.00000
G92 E0
G1 Z2.800 F6000.000
G1 X90.220 Y83.689 F6000.000
G1 Z2.300 F6000.000
G1 E2.00000 F1200.00000
G1 F2160.000
G1 X59.780 Y83.689 E2.93469
G1 X59.780 Y60.311 E3.65255
G1 X90.220 Y60.311 E4.58724
G1 X90.220 Y83.629 E5.30326
G1 X90.340 Y84.071 F6000.000
G1 E3.30326 F1200.00000
G92 E0
G1 Z2.800 F6000.000
G1 X59.323 Y83.823 F6000.000
G1 Z2.300 F6000.000
G1 E2.00000 F1200.00000
G1 F2400.000
G1 X58.677 Y83.823 E2.02582
G1 X58.677 Y60.177 E2.97132
G1 X59.323 Y60.177 E2.99714
G1 X59.323 Y83.763 E3.94024
G1 E1.94024 F1200.00000
G92 E0
G1 Z2.800 F6000.000
G1 X90.677 Y83.823 F6000.000
G1 Z2.300 F6000.000
G1 E2.00000 F1200.00000
G1 F2400.000
G1 X90.677 Y60.177 E2.94549
G1 X91.323 Y60.177 E2.97132
G1 X91.323 Y83.823 E3.91681
G1 X90.737 Y83.823 E3.94024
G1 X91.780 Y84.280 F6000.000
G1 F2160.000
G1 X58.220 Y84.280 E4.97074
G1 X58.220 Y59.720 E5.72488
G1 X91.780 Y59.720 E6.75537
G1 X91.780 Y84.220 E7.50767
G1 X91.389 Y84.196 F6000.000
G1 X91.000 Y83.564 F6000.000
G1 F1200.000
G1 X91.000 Y60.436 E7.66121
G1 X90.449 Y60.015 F6000.000
G1 F1200.000
G1 X59.551 Y60.015 E7.87829
G1 X59.000 Y60.436 F6000.000
G1 F1200.000
G1 X59.000 Y83.564 E8.03182
G1 X59.551 Y83.985 F6000.000
G1 F1200.000
G1 X90.449 Y83.985 E8.24890
G1 Z2.500 F6000.000
G1 X90.220 Y83.598 F6000.000
G1 F2160.000
G1 X59.780 Y83.598 E9.18360
G1 X59.780 Y60.402 E9.89586
G1 X90.220 Y60.402 E10.83055
G1 X90.220 Y83.538 E11.54097
G1 X90.341 Y83.979 F6000.000
G1 E9.54097 F1200.00000
G92 E0
G1 Z3.000 F6000.000
G1 X59.323 Y83.823 F6000.000
G1 Z2.500 F6000.000
G1 E2.00000 F1200.00000
G1 F2400.000
G1 X58.677 Y83.823 E2.02582
G1 X58.677 Y60.177 E2.97132
G1 X59.323 Y60.177 E2.99714
