; generated by Slic3r 1.3.0 on 2020-04-16 at 21:23:50

; external perimeters extrusion width = 0.44mm (2.86mm^3/s)
; perimeters extrusion width = 0.56mm (4.14mm^3/s)
; infill extrusion width = 0.50mm (5.48mm^3/s)
; solid infill extrusion width = 0.56mm (3.10mm^3/s)
; top infill extrusion width = 0.45mm (2.44mm^3/s)

M107
;D3D:START:START
T0
M104 S215 T0

G21
G90
M107
T0
G28
G29
M109 T0 S215 T0
G0 F3000
M107
T0
G92 E0
G0 X0 Y149 Z0.1 F3600
G1 Y49 E6.5 F1200
G0 Z1
G92 E0
; Filament gcode

G21 ; set units to millimeters
G90 ; use absolute coordinates
M82 ; use absolute distances for extrusion
G92 E0
G1 Z0.200 F6000.000
G1 E-2.00000 F1200.00000
G92 E0
G1 X56.299 Y44.628 F6000.000
G1 E2.00000 F1200.00000
G1 F1800
G1 X57.942 Y43.695 E2.03636
G1 X59.300 Y43.486 E2.06279
G1 X67.300 Y43.486 E2.21670
G1 X69.148 Y43.881 E2.25305
G1 X70.266 Y44.597 E2.27860
G1 X93.666 Y64.997 E2.87584
G1 X94.799 Y66.510 E2.91220
G1 X95.214 Y68.400 E2.94943
G1 X95.214 Y81.600 E3.20338
G1 X94.819 Y83.448 E3.23974
G1 X93.666 Y85.003 E3.27697
G1 X70.266 Y105.403 E3.87421
G1 X68.614 Y106.319 E3.91056
G1 X67.300 Y106.514 E3.93611
G1 X59.300 Y106.514 E4.09002
G1 X57.452 Y106.119 E4.12638
G1 X55.928 Y105.001 E4.16274
G1 X54.995 Y103.358 E4.19909
G1 X54.786 Y102.000 E4.22552
G1 X54.786 Y48.000 E5.26441
G1 X55.181 Y46.152 E5.30077
G1 X56.263 Y44.676 E5.33597
G1 X56.551 Y44.750 F6000.000
G1 F1800
G1 X58.174 Y43.895 E5.37126
G1 X59.300 Y43.743 E5.39313
G1 X67.300 Y43.743 E5.54704
G1 X69.091 Y44.138 E5.58233
G1 X70.097 Y44.791 E5.60540
G1 X93.497 Y65.191 E6.20264
G1 X94.588 Y66.666 E6.23794
G1 X94.957 Y68.400 E6.27204
G1 X94.957 Y81.600 E6.52599
G1 X94.562 Y83.391 E6.56128
G1 X93.497 Y84.809 E6.59538
G1 X70.097 Y105.209 E7.19263
G1 X68.487 Y106.088 E7.22792
G1 X67.300 Y106.257 E7.25099
G1 X59.300 Y106.257 E7.40490
G1 X57.509 Y105.862 E7.44020
G1 X56.050 Y104.749 E7.47549
G1 X55.195 Y103.126 E7.51079
G1 X55.043 Y102.000 E7.53265
G1 X55.043 Y48.000 E8.57154
G1 X55.438 Y46.209 E8.60683
G1 X56.514 Y44.797 E8.64097
G1 E6.64097 F1200.00000
G92 E0
G1 X89.151 Y77.777 F6000.000
G1 E2.00000 F1200.00000
G1 F1800
G1 X88.962 Y78.098 E2.00717
G1 X88.542 Y78.675 E2.02090
G1 X88.047 Y79.203 E2.03483
G1 X87.497 Y79.658 E2.04855
G1 X87.180 Y79.873 E2.05592
G1 X86.555 Y80.217 E2.06965
G1 X85.893 Y80.479 E2.08334
G1 X85.524 Y80.586 E2.09075
G1 X84.833 Y80.718 E2.10427
G1 X84.452 Y80.754 E2.11164
G1 X83.748 Y80.754 E2.12517
G1 X83.367 Y80.718 E2.13254
G1 X82.676 Y80.586 E2.14607
G1 X82.309 Y80.479 E2.15344
G1 X81.655 Y80.221 E2.16696
G1 X81.314 Y80.047 E2.17433
G1 X80.720 Y79.670 E2.18786
G1 X80.416 Y79.434 E2.19526
G1 X79.897 Y78.947 E2.20896
G1 X79.442 Y78.397 E2.22268
G1 X79.227 Y78.080 E2.23005
G1 X78.883 Y77.455 E2.24378
G1 X78.621 Y76.791 E2.25751
G1 X78.434 Y76.062 E2.27199
G1 X78.346 Y75.362 E2.28557
G1 X78.346 Y74.648 E2.29929
G1 X78.382 Y74.267 E2.30666
G1 X78.514 Y73.576 E2.32019
G1 X78.621 Y73.207 E2.32759
G1 X78.883 Y72.545 E2.34129
G1 X79.232 Y71.911 E2.35521
G1 X79.651 Y71.333 E2.36894
G1 X79.905 Y71.046 E2.37631
G1 X80.417 Y70.565 E2.38984
G1 X81.020 Y70.127 E2.40417
G1 X81.645 Y69.783 E2.41790
G1 X82.309 Y69.521 E2.43162
G1 X82.676 Y69.414 E2.43899
G1 X83.367 Y69.282 E2.45252
G1 X83.750 Y69.246 E2.45992
G1 X84.462 Y69.246 E2.47362
G1 X85.180 Y69.337 E2.48755
G1 X85.871 Y69.514 E2.50127
G1 X86.564 Y69.788 E2.51560
G1 X87.180 Y70.127 E2.52913
G1 X87.497 Y70.342 E2.53650
G1 X88.047 Y70.797 E2.55023
G1 X88.535 Y71.317 E2.56396
G1 X88.973 Y71.920 E2.57828
G1 X89.317 Y72.545 E2.59201
G1 X89.579 Y73.207 E2.60570
G1 X89.765 Y73.930 E2.62007
G1 X89.854 Y74.638 E2.63379
G1 X89.855 Y75.337 E2.64725
G1 X89.761 Y76.090 E2.66185
G1 X89.583 Y76.782 E2.67558
G1 X89.321 Y77.445 E2.68931
G1 X89.179 Y77.724 E2.69532
G1 X88.926 Y77.653 F6000.000
G1 F1800
G1 X88.747 Y77.956 E2.70210
G1 X88.344 Y78.511 E2.71529
G1 X87.870 Y79.015 E2.72859
G1 X87.342 Y79.452 E2.74178
G1 X87.046 Y79.654 E2.74868
G1 X86.445 Y79.984 E2.76186
G1 X85.810 Y80.235 E2.77501
G1 X85.464 Y80.336 E2.78195
G1 X84.797 Y80.463 E2.79501
G1 X84.439 Y80.497 E2.80191
G1 X83.761 Y80.497 E2.81497
G1 X83.403 Y80.463 E2.82187
G1 X82.737 Y80.336 E2.83493
G1 X82.392 Y80.236 E2.84184
G1 X81.761 Y79.986 E2.85490
G1 X81.441 Y79.823 E2.86180
G1 X80.868 Y79.459 E2.87486
G1 X80.583 Y79.238 E2.88180
G1 X80.085 Y78.770 E2.89495
G1 X79.648 Y78.242 E2.90813
G1 X79.446 Y77.946 E2.91503
G1 X79.116 Y77.345 E2.92822
G1 X78.864 Y76.708 E2.94140
G1 X78.688 Y76.018 E2.95510
G1 X78.603 Y75.346 E2.96814
G1 X78.603 Y74.661 E2.98132
G1 X78.637 Y74.303 E2.98822
G1 X78.764 Y73.636 E3.00128
G1 X78.865 Y73.290 E3.00822
G1 X79.116 Y72.655 E3.02137
G1 X79.450 Y72.049 E3.03468
G1 X79.852 Y71.494 E3.04786
G1 X80.090 Y71.225 E3.05476
G1 X80.584 Y70.760 E3.06782
G1 X81.154 Y70.346 E3.08137
G1 X81.755 Y70.016 E3.09456
G1 X82.392 Y69.764 E3.10774
G1 X82.737 Y69.664 E3.11464
G1 X83.403 Y69.537 E3.12770
G1 X83.762 Y69.503 E3.13464
G1 X84.446 Y69.503 E3.14779
G1 X85.132 Y69.590 E3.16110
G1 X85.796 Y69.760 E3.17428
G1 X86.451 Y70.019 E3.18783
G1 X87.046 Y70.346 E3.20089
G1 X87.342 Y70.548 E3.20780
G1 X87.870 Y70.985 E3.22098
G1 X88.340 Y71.484 E3.23416
G1 X88.754 Y72.054 E3.24771
G1 X89.084 Y72.655 E3.26090
G1 X89.335 Y73.290 E3.27405
G1 X89.511 Y73.974 E3.28763
G1 X89.597 Y74.654 E3.30082
G1 X89.597 Y75.325 E3.31373
G1 X89.509 Y76.038 E3.32755
G1 X89.338 Y76.702 E3.34074
G1 X89.086 Y77.339 E3.35392
G1 X88.953 Y77.600 E3.35954
G1 X88.701 Y77.529 F6000.000
G1 F1800
G1 X88.532 Y77.815 E3.36594
G1 X88.145 Y78.347 E3.37857
G1 X87.694 Y78.827 E3.39126
G1 X87.188 Y79.246 E3.40390
G1 X86.911 Y79.434 E3.41033
G1 X86.335 Y79.751 E3.42297
G1 X85.726 Y79.992 E3.43558
G1 X85.403 Y80.086 E3.44205
G1 X84.760 Y80.208 E3.45464
G1 X84.427 Y80.240 E3.46108
G1 X83.773 Y80.240 E3.47367
G1 X83.440 Y80.208 E3.48011
G1 X82.797 Y80.086 E3.49270
G1 X82.475 Y79.992 E3.49914
G1 X81.867 Y79.751 E3.51173
G1 X81.569 Y79.600 E3.51817
G1 X81.016 Y79.249 E3.53076
G1 X80.750 Y79.043 E3.53723
G1 X80.273 Y78.594 E3.54984
G1 X79.854 Y78.088 E3.56248
G1 X79.666 Y77.811 E3.56891
G1 X79.349 Y77.235 E3.58155
G1 X79.108 Y76.625 E3.59419
G1 X78.941 Y75.974 E3.60711
G1 X78.860 Y75.330 E3.61961
G1 X78.860 Y74.673 E3.63224
G1 X78.892 Y74.340 E3.63868
G1 X79.014 Y73.697 E3.65128
G1 X79.108 Y73.374 E3.65774
G1 X79.349 Y72.765 E3.67035
G1 X79.667 Y72.187 E3.68303
G1 X80.053 Y71.655 E3.69567
G1 X80.274 Y71.404 E3.70211
G1 X80.752 Y70.956 E3.71470
G1 X81.289 Y70.566 E3.72748
G1 X81.865 Y70.249 E3.74012
G1 X82.475 Y70.008 E3.75276
G1 X82.797 Y69.914 E3.75919
G1 X83.440 Y69.792 E3.77179
G1 X83.774 Y69.760 E3.77826
G1 X84.430 Y69.760 E3.79086
G1 X85.084 Y69.843 E3.80355
G1 X85.720 Y70.006 E3.81619
G1 X86.338 Y70.251 E3.82896
G1 X86.911 Y70.566 E3.84156
G1 X87.188 Y70.754 E3.84799
G1 X87.694 Y71.173 E3.86063
G1 X88.144 Y71.652 E3.87327
G1 X88.534 Y72.189 E3.88604
G1 X88.851 Y72.765 E3.89868
G1 X89.092 Y73.374 E3.91129
G1 X89.258 Y74.019 E3.92410
G1 X89.340 Y74.670 E3.93674
G1 X89.340 Y75.314 E3.94912
G1 X89.257 Y75.986 E3.96215
G1 X89.093 Y76.622 E3.97479
G1 X88.851 Y77.233 E3.98743
G1 X88.728 Y77.476 E3.99267
G1 X88.876 Y77.812 F6000.000
G1 E1.99267 F1200.00000
G92 E0
G1 X78.538 Y80.936 F6000.000
G1 E2.00000 F1200.00000
G1 F1800
G1 X75.164 Y80.936 E2.06490
G1 X75.164 Y77.905 E2.12321
G1 X77.164 Y77.905 E2.16168
G1 X77.164 Y72.095 E2.27348
G1 X75.164 Y72.095 E2.31195
G1 X75.164 Y69.064 E2.37025
G1 X78.538 Y69.064 E2.43516
G1 X59.964 Y51.712 E2.92417
G1 X59.964 Y48.664 E2.98280
G1 X67.015 Y48.664 E3.11846
G1 X86.440 Y69.064 E3.66038
G1 X90.036 Y69.064 E3.72957
G1 X90.036 Y80.936 E3.95796
G1 X86.440 Y80.936 E4.02715
G1 X67.015 Y101.336 E4.56907
G1 X59.964 Y101.336 E4.70473
G1 X59.964 Y98.288 E4.76335
G1 X78.494 Y80.977 E5.25121
G1 X77.886 Y81.193 F6000.000
G1 F1800
G1 X74.907 Y81.193 E5.30853
G1 X74.907 Y77.648 E5.37672
G1 X76.907 Y77.648 E5.41520
G1 X76.907 Y72.352 E5.51710
G1 X74.907 Y72.352 E5.55557
G1 X74.907 Y68.807 E5.62377
G1 X77.886 Y68.807 E5.68108
G1 X59.707 Y51.823 E6.15970
G1 X59.707 Y48.407 E6.22542
G1 X67.126 Y48.407 E6.36815
G1 X86.550 Y68.807 E6.91007
G1 X90.293 Y68.807 E6.98208
G1 X90.293 Y81.193 E7.22037
G1 X86.550 Y81.193 E7.29238
G1 X67.126 Y101.593 E7.83430
G1 X59.707 Y101.593 E7.97702
G1 X59.707 Y98.177 E8.04274
G1 X77.842 Y81.234 E8.52021
G1 X77.234 Y81.450 F6000.000
G1 F1800
G1 X74.650 Y81.450 E8.56993
G1 X74.650 Y77.391 E8.64802
G1 X76.650 Y77.391 E8.68650
G1 X76.650 Y72.609 E8.77850
G1 X74.650 Y72.609 E8.81698
G1 X74.650 Y68.550 E8.89507
G1 X77.234 Y68.550 E8.94479
G1 X59.450 Y51.935 E9.41302
G1 X59.450 Y48.150 E9.48583
G1 X67.236 Y48.150 E9.63562
G1 X86.660 Y68.550 E10.17754
G1 X90.550 Y68.550 E10.25238
G1 X90.550 Y81.450 E10.50056
G1 X86.660 Y81.450 E10.57540
G1 X67.236 Y101.850 E11.11732
G1 X59.450 Y101.850 E11.26711
G1 X59.450 Y98.065 E11.33992
G1 X77.191 Y81.491 E11.80700
G1 X77.329 Y81.061 F6000.000
G1 X78.721 Y80.788 F6000.000
G1 F1800
G1 X80.167 Y79.341 E11.84651
G1 X79.979 Y79.165 E11.85150
G1 X78.356 Y80.788 E11.89583
G1 X77.991 Y80.788 E11.90288
G1 X79.794 Y78.984 E11.95214
G1 X79.629 Y78.785 E11.95714
G1 X77.626 Y80.788 E12.01185
G1 X77.261 Y80.788 E12.01890
G1 X79.464 Y78.585 E12.07907
G1 X79.303 Y78.380 E12.08409
G1 X76.896 Y80.788 E12.14985
G1 X76.531 Y80.788 E12.15690
G1 X79.156 Y78.163 E12.22859
G1 X79.021 Y77.932 E12.23375
G1 X76.166 Y80.788 E12.31174
G1 X75.801 Y80.788 E12.31879
G1 X78.892 Y77.697 E12.40322
G1 X78.762 Y77.461 E12.40841
G1 X75.436 Y80.788 E12.49927
G1 X75.312 Y80.788 E12.50166
G1 X75.312 Y80.547 E12.50632
G1 X78.658 Y77.200 E12.59771
G1 X78.555 Y76.939 E12.60314
G1 X77.312 Y78.182 E12.63708
G1 X77.312 Y77.817 E12.64413
G1 X78.461 Y76.668 E12.67550
G1 X78.386 Y76.377 E12.68129
G1 X77.312 Y77.452 E12.71063
G1 X77.312 Y77.087 E12.71768
G1 X78.312 Y76.087 E12.74499
G1 X78.261 Y75.772 E12.75114
G1 X77.312 Y76.722 E12.77706
G1 X77.312 Y76.357 E12.78411
G1 X78.221 Y75.448 E12.80892
G1 X78.198 Y75.106 E12.81555
G1 X77.312 Y75.992 E12.83974
G1 X77.312 Y75.627 E12.84679
G1 X78.198 Y74.741 E12.87098
G1 X78.214 Y74.360 E12.87834
G1 X77.312 Y75.262 E12.90296
G1 X77.312 Y74.897 E12.91001
G1 X78.271 Y73.938 E12.93621
G1 X78.357 Y73.487 E12.94508
G1 X77.312 Y74.532 E12.97363
G1 X77.312 Y74.167 E12.98068
G1 X78.501 Y72.978 E13.01316
G1 X78.741 Y72.373 E13.02571
G1 X77.312 Y73.802 E13.06473
G1 X77.312 Y73.437 E13.07177
G1 E11.07177 F1200.00000
G92 E0
G1 X75.479 Y69.430 F6000.000
G1 E2.00000 F1200.00000
G1 F1800
G1 X75.312 Y69.430 E2.00323
G1 X75.312 Y69.597 E2.00646
G1 X75.697 Y69.212 E2.01698
G1 X76.062 Y69.212 E2.02403
G1 X75.312 Y69.962 E2.04452
G1 X75.312 Y70.327 E2.05157
G1 X76.427 Y69.212 E2.08203
G1 X76.792 Y69.212 E2.08908
G1 X75.312 Y70.692 E2.12951
G1 X75.312 Y71.057 E2.13656
G1 X77.157 Y69.212 E2.18695
G1 X77.522 Y69.212 E2.19400
G1 X75.312 Y71.422 E2.25437
G1 X75.312 Y71.787 E2.26142
G1 X77.887 Y69.212 E2.33175
G1 X78.252 Y69.212 E2.33880
G1 X75.518 Y71.947 E2.41348
G1 X75.883 Y71.947 E2.42053
G1 X78.617 Y69.212 E2.49522
G1 X78.982 Y69.212 E2.50226
G1 X76.248 Y71.947 E2.57695
G1 X76.613 Y71.947 E2.58400
G1 X82.980 Y65.580 E2.75790
G1 X83.158 Y65.767 E2.76288
G1 X76.978 Y71.947 E2.93168
G1 X77.312 Y71.947 E2.93814
G1 X77.312 Y71.977 E2.93873
G1 X83.336 Y65.953 E3.10325
G1 X83.514 Y66.140 E3.10823
G1 X77.312 Y72.342 E3.27761
G1 X77.312 Y72.707 E3.28466
G1 X83.692 Y66.327 E3.45891
G1 X83.870 Y66.514 E3.46389
G1 X77.312 Y73.072 E3.64300
G1 X77.312 Y73.437 E3.65005
G1 X79.007 Y71.742 E3.69633
G1 X79.342 Y71.282 E3.70733
G1 X79.611 Y70.976 E3.71520
G1 X80.144 Y70.475 E3.72932
G1 X80.618 Y70.131 E3.74064
G1 X84.048 Y66.701 E3.83431
G1 X84.226 Y66.888 E3.83930
G1 X81.473 Y69.641 E3.91447
G1 X82.078 Y69.401 E3.92702
G1 X84.404 Y67.075 E3.99056
G1 X84.582 Y67.262 E3.99554
G1 X82.587 Y69.257 E4.05004
G1 X83.038 Y69.171 E4.05891
G1 X84.760 Y67.449 E4.10594
G1 X84.938 Y67.636 E4.11093
G1 X83.460 Y69.114 E4.15129
G1 X83.841 Y69.098 E4.15865
G1 X85.116 Y67.823 E4.19347
G1 X85.294 Y68.010 E4.19846
G1 X84.206 Y69.098 E4.22817
G1 X84.548 Y69.121 E4.23480
G1 X85.472 Y68.197 E4.26002
G1 X85.650 Y68.384 E4.26501
G1 X84.872 Y69.161 E4.28624
G1 X85.188 Y69.210 E4.29242
G1 X85.828 Y68.571 E4.30989
G1 X86.006 Y68.758 E4.31487
G1 X85.479 Y69.285 E4.32927
G1 X85.769 Y69.360 E4.33506
G1 X86.184 Y68.945 E4.34639
G1 X86.362 Y69.132 E4.35138
G1 X86.038 Y69.456 E4.36023
G1 X86.299 Y69.559 E4.36566
G1 X86.647 Y69.212 E4.37514
G1 X87.011 Y69.212 E4.38219
G1 X86.561 Y69.663 E4.39450
G1 X86.797 Y69.792 E4.39969
G1 X87.376 Y69.212 E4.41552
G1 X87.741 Y69.212 E4.42257
G1 X87.032 Y69.921 E4.44194
G1 X87.263 Y70.056 E4.44710
G1 X88.106 Y69.212 E4.47014
G1 X88.471 Y69.212 E4.47719
G1 X87.480 Y70.203 E4.50426
G1 X87.685 Y70.364 E4.50928
G1 X88.836 Y69.212 E4.54073
G1 X89.201 Y69.212 E4.54777
G1 X87.885 Y70.529 E4.58373
G1 X88.084 Y70.694 E4.58874
G1 X89.566 Y69.212 E4.62921
G1 X89.888 Y69.212 E4.63543
G1 X89.888 Y69.256 E4.63626
G1 X88.265 Y70.879 E4.68060
G1 X88.441 Y71.067 E4.68559
G1 X89.888 Y69.621 E4.72509
G1 X89.888 Y69.985 E4.73214
G1 X88.618 Y71.255 E4.76682
G1 X88.773 Y71.466 E4.77187
G1 X89.888 Y70.350 E4.80233
G1 X89.888 Y70.715 E4.80938
G1 X88.926 Y71.677 E4.83565
G1 X89.080 Y71.889 E4.84069
G1 X89.888 Y71.080 E4.86277
G1 X89.888 Y71.445 E4.86982
G1 X89.209 Y72.124 E4.88835
G1 X89.339 Y72.359 E4.89354
G1 X89.888 Y71.810 E4.90853
G1 X89.888 Y72.175 E4.91558
G1 X89.463 Y72.600 E4.92719
G1 E2.92719 F1200.00000
G92 E0
G1 X89.616 Y77.556 F6000.000
G1 E2.00000 F1200.00000
G1 F1800
G1 X89.496 Y77.534 E2.00236
G1 X89.377 Y77.796 E2.00793
G1 X89.834 Y77.338 E2.02042
G1 X89.888 Y77.349 E2.02147
G1 X89.888 Y77.650 E2.02729
G1 X88.744 Y78.793 E2.05852
G1 E0.05852 F1200.00000
G92 E0
G1 X89.670 Y80.788 F6000.000
G1 E2.00000 F1200.00000
G1 F1800
G1 X89.888 Y80.570 E2.00596
G1 X89.888 Y80.205 E2.01301
G1 X89.305 Y80.788 E2.02894
G1 X88.940 Y80.788 E2.03599
G1 X89.888 Y79.840 E2.06189
G1 X89.888 Y79.475 E2.06894
G1 X88.575 Y80.788 E2.10480
G1 X88.210 Y80.788 E2.11185
G1 X89.888 Y79.110 E2.15769
G1 X89.888 Y78.745 E2.16473
G1 X87.845 Y80.788 E2.22054
G1 X87.480 Y80.788 E2.22759
G1 X89.888 Y78.380 E2.29336
G1 X89.888 Y78.015 E2.30041
G1 X87.115 Y80.788 E2.37615
G1 X86.750 Y80.788 E2.38319
G1 X87.892 Y79.645 E2.41440
G1 X87.424 Y79.983 E2.42555
G1 X86.903 Y80.269 E2.43702
G1 X86.385 Y80.788 E2.45118
G1 X86.220 Y80.788 E2.45436
G1 X82.947 Y84.226 E2.54605
G1 X65.985 Y101.188 E3.00932
G1 X65.620 Y101.188 E3.01636
G1 X86.266 Y80.542 E3.58026
G1 X85.725 Y80.718 E3.59126
G1 X65.255 Y101.188 E4.15034
G1 X64.890 Y101.188 E4.15739
G1 X85.270 Y80.808 E4.71401
G1 X84.836 Y80.877 E4.72250
G1 X64.525 Y101.188 E5.27723
G1 X64.160 Y101.188 E5.28428
G1 X84.446 Y80.902 E5.83834
G1 X84.081 Y80.902 E5.84539
G1 X63.795 Y101.188 E6.39944
G1 X63.430 Y101.188 E6.40649
G1 X83.727 Y80.891 E6.96085
G1 X83.397 Y80.856 E6.96726
G1 X63.065 Y101.188 E7.52258
G1 X62.700 Y101.188 E7.52963
G1 X83.091 Y80.797 E8.08655
G1 X82.784 Y80.739 E8.09258
G1 X62.335 Y101.188 E8.65110
G1 X61.970 Y101.188 E8.65815
G1 X82.497 Y80.661 E9.21879
G1 X82.223 Y80.570 E9.22436
G1 X61.605 Y101.188 E9.78749
G1 X61.240 Y101.188 E9.79454
G1 X81.962 Y80.466 E10.36050
G1 X81.700 Y80.363 E10.36593
G1 X60.875 Y101.188 E10.93471
G1 X60.510 Y101.188 E10.94176
G1 X81.455 Y80.243 E11.51383
G1 X81.220 Y80.113 E11.51902
G1 X60.145 Y101.188 E12.09461
G1 X60.112 Y101.188 E12.09526
G1 X60.112 Y100.856 E12.10166
G1 X80.997 Y79.972 E12.67207
G1 X80.773 Y79.830 E12.67718
G1 X60.112 Y100.491 E13.24149
G1 X60.112 Y100.126 E13.24853
G1 X80.560 Y79.678 E13.80703
G1 X80.355 Y79.518 E13.81205
G1 X60.112 Y99.761 E14.36494
G1 X60.112 Y99.396 E14.37199
G1 X73.824 Y85.685 E14.74648
G1 X68.272 Y90.871 E14.89321
G1 X60.112 Y99.031 E15.11608
G1 X60.112 Y98.666 E15.12313
G1 X62.721 Y96.058 E15.19437
G1 E13.19437 F1200.00000
G92 E0
G1 X65.985 Y101.188 F6000.000
G1 E2.00000 F1200.00000
G1 F1800
G1 X66.350 Y101.188 E2.00705
G1 X75.899 Y91.639 E2.26785
G1 X68.632 Y99.270 E2.47135
G1 X66.715 Y101.188 E2.52372
G1 E0.52372 F1200.00000
G92 E0
G1 X75.312 Y80.182 F6000.000
G1 E2.00000 F1200.00000
G1 F1800
G1 X77.440 Y78.053 E2.05813
G1 X77.075 Y78.053 E2.06517
