; generated by Slic3r 1.3.0 on 2020-09-04 at 12:05:05

; external perimeters extrusion width = 0.44mm (2.86mm^3/s)
; perimeters extrusion width = 0.56mm (4.14mm^3/s)
; infill extrusion width = 0.50mm (3.66mm^3/s)
; solid infill extrusion width = 0.56mm (3.10mm^3/s)
; top infill extrusion width = 0.45mm (2.44mm^3/s)

M107
;D3D:START:START
T0
M104 S215 T0

G21
G90
M107
T0
G28
G29
M109 T0 S215 T0
G0 F3000
M107
T0
G92 E0
G0 X0 Y149 Z0.1 F3600
G1 Y49 E6.5 F1200
G0 Z1
G92 E0
; Filament gcode

G21 ; set units to millimeters
G90 ; use absolute coordinates
M82 ; use absolute distances for extrusion
G92 E0
G1 Z0.300 F6000.000
G1 E-2.00000 F1200.00000
G92 E0
G1 Z0.800 F6000.000
G1 X99.582 Y3.931 F6000.000
G1 Z0.300 F6000.000
G1 E2.00000 F1200.00000
G1 F1800
G1 X100.108 Y3.396 E2.03354
G1 X100.782 Y2.846 E2.07245
G1 X101.688 Y2.301 E2.11974
G1 X102.725 Y1.884 E2.16974
G1 X103.956 Y1.627 E2.22598
G1 X104.490 Y1.587 E2.24994
G1 X114.422 Y1.240 E2.69447
G1 X116.719 Y1.557 E2.79819
G1 X119.446 Y3.219 E2.94105
G1 X139.446 Y23.219 E4.20620
G1 X140.781 Y25.115 E4.30992
G1 X141.425 Y27.771 E4.43214
G1 X141.741 Y36.813 E4.83685
G1 X141.381 Y39.241 E4.94664
G1 X129.553 Y73.814 E6.58110
G1 X126.972 Y80.230 E6.89041
G1 X126.779 Y80.661 E6.91155
G1 X123.909 Y86.546 E7.20442
G1 X123.687 Y86.963 E7.22556
G1 X120.414 Y92.634 E7.51842
G1 X120.163 Y93.034 E7.53956
G1 X116.502 Y98.463 E7.83242
G1 X116.224 Y98.845 E7.85357
G1 X112.193 Y104.004 E8.14643
G1 X111.890 Y104.366 E8.16756
G1 X107.508 Y109.232 E8.46043
G1 X107.180 Y109.572 E8.48157
G1 X102.470 Y114.120 E8.77443
G1 X101.445 Y115.002 E8.83490
G1 X97.103 Y118.645 E9.08843
G1 X96.731 Y118.936 E9.10957
G1 X91.434 Y122.784 E9.40243
G1 X91.043 Y123.048 E9.42353
G1 X85.313 Y126.625 E9.72569
G1 X44.561 Y150.389 E11.83579
G1 X42.387 Y151.197 E11.93951
G1 X41.150 Y151.311 E11.99510
G1 X35.000 Y151.311 E12.27019
G1 X32.715 Y150.914 E12.37391
G1 X30.212 Y149.328 E12.50647
G1 X10.212 Y129.328 E13.77162
G1 X8.877 Y127.432 E13.87534
G1 X8.229 Y124.540 E14.00790
G1 X8.229 Y110.310 E14.64441
G1 X8.626 Y108.025 E14.74813
G1 X9.916 Y105.837 E14.86177
G1 X99.543 Y3.976 E20.93063
G1 X99.872 Y4.186 F6000.000
G1 F1800
G1 X100.370 Y3.679 E20.96243
G1 X101.006 Y3.160 E20.99912
G1 X101.860 Y2.646 E21.04373
G1 X102.839 Y2.253 E21.09090
G1 X103.999 Y2.010 E21.14393
G1 X104.503 Y1.972 E21.16654
G1 X114.435 Y1.625 E21.61106
G1 X116.664 Y1.945 E21.71177
G1 X119.174 Y3.492 E21.84364
G1 X139.174 Y23.492 E23.10879
G1 X140.460 Y25.339 E23.20949
G1 X141.040 Y27.784 E23.32188
G1 X141.356 Y36.826 E23.72658
G1 X141.016 Y39.116 E23.83012
G1 X129.188 Y73.689 E25.46458
G1 X126.614 Y80.085 E25.77296
G1 X126.433 Y80.492 E25.79289
G1 X123.563 Y86.377 E26.08576
G1 X123.353 Y86.771 E26.10569
G1 X120.080 Y92.441 E26.39856
G1 X119.844 Y92.819 E26.41849
G1 X116.182 Y98.247 E26.71136
G1 X115.920 Y98.608 E26.73130
G1 X111.889 Y103.767 E27.02416
G1 X111.603 Y104.108 E27.04408
G1 X107.222 Y108.974 E27.33696
G1 X106.912 Y109.295 E27.35689
G1 X102.202 Y113.843 E27.64975
G1 X101.198 Y114.706 E27.70902
G1 X96.856 Y118.350 E27.96255
G1 X96.504 Y118.624 E27.98248
G1 X91.207 Y122.472 E28.27534
G1 X90.839 Y122.721 E28.29524
G1 X85.118 Y126.292 E28.59688
G1 X44.367 Y150.056 E30.70698
G1 X41.150 Y150.926 E30.85602
G1 X35.000 Y150.926 E31.13111
G1 X32.784 Y150.529 E31.23181
G1 X30.485 Y149.055 E31.35396
G1 X10.485 Y129.055 E32.61911
G1 X9.198 Y127.208 E32.71982
G1 X8.614 Y124.540 E32.84197
G1 X8.614 Y110.310 E33.47847
G1 X9.011 Y108.094 E33.57917
G1 X10.206 Y106.092 E33.68346
G1 X99.832 Y4.231 E39.75232
G1 E37.75232 F1200.00000
G92 E0
G1 Z0.800 F6000.000
G1 X40.154 Y131.897 F6000.000
G1 Z0.300 F6000.000
G1 E2.00000 F1200.00000
G1 F1800
G1 X44.674 Y131.581 E2.20267
G1 X51.071 Y130.682 E2.49161
G1 X57.389 Y129.339 E2.78056
G1 X63.599 Y127.558 E3.06950
G1 X69.669 Y125.349 E3.35845
G1 X75.570 Y122.721 E3.64740
G1 X81.274 Y119.689 E3.93633
G1 X86.752 Y116.266 E4.22527
G1 X91.978 Y112.469 E4.51422
G1 X96.926 Y108.316 E4.80316
G1 X101.573 Y103.829 E5.09210
G1 X105.896 Y99.028 E5.38105
G1 X109.873 Y93.938 E5.66999
G1 X113.485 Y88.583 E5.95893
G1 X116.715 Y82.988 E6.24787
G1 X119.547 Y77.182 E6.53682
G1 X121.966 Y71.193 E6.82576
G1 X123.963 Y65.049 E7.11471
G1 X125.525 Y58.782 E7.40365
G1 X126.647 Y52.420 E7.69260
G1 X127.322 Y45.996 E7.98153
G1 X127.548 Y39.540 E8.27047
G1 X127.443 Y36.536 E8.40491
G1 X127.701 Y36.536 E8.41649
G1 X127.806 Y39.540 E8.55092
G1 X127.580 Y46.014 E8.84068
G1 X126.903 Y52.456 E9.13043
G1 X125.778 Y58.835 E9.42017
G1 X124.211 Y65.121 E9.70993
G1 X122.209 Y71.282 E9.99967
G1 X119.783 Y77.288 E10.28943
G1 X119.448 Y77.975 E10.32362
G1 X116.943 Y83.110 E10.57918
G1 X113.704 Y88.720 E10.86893
G1 X110.082 Y94.090 E11.15868
G1 X106.094 Y99.195 E11.44843
G1 X101.759 Y104.009 E11.73818
G1 X97.100 Y108.509 E12.02793
G1 X92.137 Y112.672 E12.31768
G1 X86.897 Y116.480 E12.60743
G1 X81.403 Y119.913 E12.89718
G1 X75.684 Y122.954 E13.18693
G1 X69.766 Y125.589 E13.47668
G1 X63.679 Y127.804 E13.76643
G1 X57.452 Y129.590 E14.05618
G1 X51.116 Y130.936 E14.34593
G1 X44.701 Y131.838 E14.63568
G1 X40.154 Y132.156 E14.83957
G1 X40.154 Y143.544 E15.34895
G1 X35.996 Y143.544 E15.53491
G1 X35.996 Y131.306 E16.08229
G1 X40.154 Y131.306 E16.26826
G1 X40.154 Y131.837 E16.29199
G1 X40.539 Y131.483 F6000.000
G1 F1800
G1 X44.633 Y131.197 E16.47556
G1 X51.004 Y130.302 E16.76329
G1 X57.296 Y128.964 E17.05103
G1 X63.480 Y127.191 E17.33878
G1 X69.524 Y124.991 E17.62652
G1 X75.401 Y122.374 E17.91426
G1 X81.081 Y119.354 E18.20199
G1 X86.536 Y115.946 E18.48973
G1 X91.740 Y112.164 E18.77747
G1 X96.668 Y108.030 E19.06520
G1 X101.296 Y103.561 E19.35294
G1 X105.600 Y98.780 E19.64068
G1 X109.560 Y93.711 E19.92842
G1 X113.158 Y88.378 E20.21615
G1 X116.374 Y82.807 E20.50390
G1 X119.194 Y77.026 E20.79164
G1 X121.604 Y71.061 E21.07937
G1 X123.592 Y64.943 E21.36712
G1 X125.148 Y58.702 E21.65485
G1 X126.265 Y52.366 E21.94260
G1 X126.937 Y45.969 E22.23032
G1 X127.162 Y39.540 E22.51806
G1 X127.043 Y36.151 E22.66976
G1 X128.074 Y36.151 E22.71585
G1 X128.192 Y39.540 E22.86755
G1 X127.965 Y46.041 E23.15851
G1 X127.285 Y52.510 E23.44946
G1 X126.156 Y58.916 E23.74041
G1 X124.582 Y65.227 E24.03137
G1 X122.572 Y71.414 E24.32232
G1 X120.135 Y77.445 E24.61328
G1 X119.794 Y78.144 E24.64807
G1 X117.284 Y83.291 E24.90423
G1 X114.031 Y88.924 E25.19519
G1 X110.394 Y94.317 E25.48614
G1 X106.389 Y99.443 E25.77710
G1 X102.037 Y104.277 E26.06805
G1 X97.358 Y108.795 E26.35901
G1 X92.375 Y112.976 E26.64996
G1 X87.112 Y116.800 E26.94092
G1 X81.596 Y120.247 E27.23187
G1 X75.853 Y123.301 E27.52283
G1 X69.910 Y125.946 E27.81379
G1 X63.798 Y128.171 E28.10474
G1 X57.545 Y129.964 E28.39569
G1 X51.183 Y131.316 E28.68665
G1 X44.741 Y132.222 E28.97760
G1 X40.539 Y132.516 E29.16601
G1 X40.539 Y143.929 E29.67655
G1 X35.611 Y143.929 E29.89701
G1 X35.611 Y130.921 E30.47889
G1 X40.539 Y130.921 E30.69936
G1 X40.539 Y131.423 E30.72183
G1 E28.72183 F1200.00000
G92 E0
G1 Z0.800 F6000.000
G1 X125.848 Y33.715 F6000.000
G1 Z0.300 F6000.000
G1 E2.00000 F1200.00000
G1 F1800
G1 X125.695 Y29.317 E2.19680
G1 X133.698 Y29.043 E2.55498
G1 X133.943 Y36.085 E2.87019
G1 X132.592 Y36.128 E2.93068
G1 X125.905 Y33.735 E3.24837
G1 X125.472 Y33.989 F6000.000
G1 F1800
G1 X125.296 Y28.945 E3.47413
G1 X134.069 Y28.644 E3.86681
G1 X134.342 Y36.458 E4.21656
G1 X132.531 Y36.516 E4.29763
G1 X125.529 Y34.010 E4.63030
G1 E2.63030 F1200.00000
G92 E0
G1 Z0.800 F6000.000
G1 X128.014 Y35.309 F6000.000
G1 Z0.300 F6000.000
G1 E2.00000 F1200.00000
G1 F1800
G1 X125.096 Y34.264 E2.13865
G1 X124.897 Y28.573 E2.39337
G1 X134.441 Y28.245 E2.82054
G1 X134.741 Y36.831 E3.20483
G1 X132.470 Y36.904 E3.30648
G1 X128.436 Y35.460 E3.49814
G1 X128.578 Y39.540 E3.68074
G1 X128.350 Y46.068 E3.97290
G1 X127.667 Y52.564 E4.26506
G1 X126.533 Y58.996 E4.55722
G1 X124.953 Y65.334 E4.84938
G1 X122.935 Y71.546 E5.14154
G1 X120.488 Y77.602 E5.43370
G1 X120.141 Y78.313 E5.46909
G1 X117.624 Y83.472 E5.72586
G1 X114.359 Y89.129 E6.01801
G1 X110.706 Y94.544 E6.31018
G1 X106.685 Y99.691 E6.60234
G1 X102.314 Y104.545 E6.89449
G1 X97.616 Y109.082 E7.18665
G1 X92.612 Y113.280 E7.47881
G1 X87.328 Y117.120 E7.77097
G1 X81.789 Y120.581 E8.06313
G1 X76.022 Y123.647 E8.35529
G1 X70.055 Y126.304 E8.64745
G1 X63.917 Y128.538 E8.93961
G1 X57.639 Y130.338 E9.23177
G1 X51.250 Y131.696 E9.52393
G1 X44.782 Y132.605 E9.81609
G1 X40.925 Y132.875 E9.98902
G1 X40.925 Y144.315 E10.50072
G1 X35.225 Y144.315 E10.75568
G1 X35.225 Y130.535 E11.37206
G1 X40.925 Y130.535 E11.62702
G1 X40.925 Y131.070 E11.65093
G1 X44.593 Y130.813 E11.81541
G1 X50.937 Y129.922 E12.10194
G1 X57.203 Y128.590 E12.38847
G1 X63.360 Y126.824 E12.67501
G1 X69.380 Y124.633 E12.96155
G1 X75.232 Y122.028 E13.24808
G1 X80.888 Y119.020 E13.53461
G1 X86.320 Y115.626 E13.82114
G1 X91.503 Y111.860 E14.10768
G1 X96.410 Y107.743 E14.39421
G1 X101.018 Y103.293 E14.68074
G1 X105.305 Y98.532 E14.96728
G1 X109.248 Y93.485 E15.25381
G1 X112.830 Y88.174 E15.54034
G1 X116.033 Y82.626 E15.82688
G1 X118.842 Y76.869 E16.11341
G1 X121.241 Y70.929 E16.39995
G1 X123.221 Y64.837 E16.68648
G1 X124.770 Y58.621 E16.97301
G1 X125.883 Y52.312 E17.25956
G1 X126.552 Y45.942 E17.54607
G1 X126.776 Y39.540 E17.83261
G1 X126.644 Y35.765 E18.00157
G1 X127.935 Y35.765 E18.05931
G1 X128.004 Y35.368 E18.07731
G1 X128.255 Y34.990 F6000.000
G1 X128.217 Y35.411 F6000.000
G1 F1800
G1 X128.179 Y35.958 E18.08253
G1 E16.08253 F1200.00000
G92 E0
G1 Z0.800 F6000.000
G1 X133.231 Y36.026 F6000.000
G1 Z0.300 F6000.000
G1 E2.00000 F1200.00000
G1 F1800
G1 X133.858 Y35.398 E2.04085
G1 X133.839 Y34.856 E2.06584
G1 X132.651 Y36.044 E2.14322
G1 X132.339 Y36.054 E2.15759
G1 X132.148 Y35.986 E2.16693
G1 X133.820 Y34.314 E2.27583
G1 X133.801 Y33.771 E2.30082
G1 X131.735 Y35.838 E2.43540
G1 X131.321 Y35.690 E2.45562
G1 X133.782 Y33.229 E2.61589
G1 X133.763 Y32.686 E2.64088
G1 X130.908 Y35.542 E2.82684
G1 X130.494 Y35.394 E2.84706
G1 X133.745 Y32.144 E3.05870
G1 X133.726 Y31.601 E3.08370
G1 X130.081 Y35.246 E3.32103
G1 X129.668 Y35.098 E3.34125
G1 X133.707 Y31.059 E3.60426
G1 X133.688 Y30.516 E3.62926
G1 X129.254 Y34.950 E3.91796
G1 X128.841 Y34.802 E3.93818
G1 X133.669 Y29.974 E4.25257
G1 X133.650 Y29.432 E4.27756
G1 X128.427 Y34.654 E4.61764
G1 X128.014 Y34.506 E4.63786
G1 X133.384 Y29.136 E4.98753
G1 X132.802 Y29.156 E5.01431
G1 X127.601 Y34.358 E5.35304
G1 X127.187 Y34.210 E5.37326
G1 X132.221 Y29.176 E5.70105
G1 X131.640 Y29.196 E5.72784
G1 X126.774 Y34.062 E6.04469
G1 X126.360 Y33.914 E6.06491
G1 X131.058 Y29.216 E6.37083
G1 X130.477 Y29.236 E6.39761
G1 X125.947 Y33.766 E6.69260
G1 X125.911 Y33.753 E6.69435
G1 X125.894 Y33.258 E6.71717
G1 X129.895 Y29.256 E6.97776
G1 X129.314 Y29.276 E7.00455
G1 X125.875 Y32.715 E7.22852
G1 X125.856 Y32.173 E7.25351
G1 X128.733 Y29.296 E7.44085
G1 X128.151 Y29.316 E7.46764
G1 X125.837 Y31.631 E7.61836
G1 X125.818 Y31.088 E7.64335
G1 X127.570 Y29.336 E7.75745
G1 X126.989 Y29.356 E7.78423
G1 X125.799 Y30.546 E7.86170
G1 X125.780 Y30.003 E7.88669
G1 X126.407 Y29.376 E7.92754
G1 E5.92754 F1200.00000
G92 E0
G1 Z0.800 F6000.000
G1 X36.068 Y132.005 F6000.000
G1 Z0.300 F6000.000
G1 E2.00000 F1200.00000
G1 F1800
G1 X36.696 Y131.378 E2.04002
G1 X37.246 Y131.378 E2.06484
G1 X36.068 Y132.556 E2.13996
G1 X36.068 Y133.106 E2.16478
G1 X37.796 Y131.378 E2.27501
G1 X38.346 Y131.378 E2.29983
G1 X36.068 Y133.656 E2.44515
G1 X36.068 Y134.206 E2.46997
G1 X38.896 Y131.378 E2.65040
G1 X39.446 Y131.378 E2.67522
G1 X36.068 Y134.756 E2.89074
G1 X36.068 Y135.306 E2.91556
G1 X39.996 Y131.378 E3.16619
G1 X40.082 Y131.378 E3.17005
G1 X40.082 Y131.843 E3.19100
G1 X36.068 Y135.856 E3.44709
G1 X36.068 Y136.406 E3.47191
G1 X40.082 Y132.393 E3.72800
G1 X40.082 Y132.943 E3.75282
G1 X36.068 Y136.956 E4.00891
G1 X36.068 Y137.506 E4.03373
G1 X40.082 Y133.493 E4.28982
G1 X40.082 Y134.043 E4.31463
G1 X36.068 Y138.057 E4.57072
G1 X36.068 Y138.607 E4.59554
G1 X40.082 Y134.593 E4.85163
G1 X40.082 Y135.143 E4.87645
G1 X36.068 Y139.157 E5.13254
G1 X36.068 Y139.707 E5.15736
G1 X40.082 Y135.693 E5.41345
G1 X40.082 Y136.243 E5.43827
G1 X36.068 Y140.257 E5.69435
G1 X36.068 Y140.807 E5.71917
G1 X40.082 Y136.793 E5.97526
G1 X40.082 Y137.344 E6.00008
G1 X36.068 Y141.357 E6.25617
G1 X36.068 Y141.907 E6.28099
G1 X40.082 Y137.894 E6.53708
G1 X40.082 Y138.444 E6.56190
G1 X36.068 Y142.457 E6.81799
G1 X36.068 Y143.007 E6.84280
G1 X40.082 Y138.994 E7.09889
G1 X40.082 Y139.544 E7.12371
G1 X36.154 Y143.472 E7.37433
G1 X36.704 Y143.472 E7.39915
G1 X40.082 Y140.094 E7.61468
G1 X40.082 Y140.644 E7.63950
G1 X37.254 Y143.472 E7.81992
G1 X37.804 Y143.472 E7.84474
G1 X40.082 Y141.194 E7.99006
G1 X40.082 Y141.744 E8.01488
G1 X38.354 Y143.472 E8.12511
G1 X38.904 Y143.472 E8.14993
G1 X40.082 Y142.294 E8.22505
G1 X40.082 Y142.844 E8.24987
G1 X39.454 Y143.472 E8.28990
G1 E6.28990 F1200.00000
G92 E0
G1 Z0.800 F6000.000
G1 X20.154 Y111.897 F6000.000
G1 Z0.300 F6000.000
G1 E2.00000 F1200.00000
G1 F1800
G1 X24.674 Y111.581 E2.20267
G1 X31.071 Y110.682 E2.49161
G1 X37.389 Y109.339 E2.78056
G1 X43.599 Y107.558 E3.06950
G1 X49.669 Y105.349 E3.35845
G1 X55.570 Y102.721 E3.64740
G1 X61.274 Y99.689 E3.93633
G1 X66.752 Y96.266 E4.22527
G1 X71.978 Y92.469 E4.51422
G1 X76.926 Y88.316 E4.80316
G1 X81.573 Y83.829 E5.09210
G1 X85.896 Y79.028 E5.38105
G1 X89.873 Y73.938 E5.66999
G1 X93.485 Y68.583 E5.95893
G1 X96.715 Y62.988 E6.24787
G1 X99.546 Y57.182 E6.53682
G1 X101.966 Y51.193 E6.82576
G1 X103.963 Y45.049 E7.11471
G1 X105.525 Y38.781 E7.40366
G1 X106.647 Y32.419 E7.69263
G1 X107.322 Y25.996 E7.98154
G1 X107.548 Y19.540 E8.27047
G1 X107.443 Y16.536 E8.40491
G1 X107.701 Y16.536 E8.41648
G1 X107.806 Y19.540 E8.55092
G1 X107.580 Y26.014 E8.84067
G1 X106.903 Y32.456 E9.13042
G1 X105.778 Y38.836 E9.42018
G1 X104.211 Y45.121 E9.70992
G1 X102.209 Y51.282 E9.99967
G1 X99.783 Y57.288 E10.28943
G1 X96.943 Y63.110 E10.57918
G1 X93.704 Y68.720 E10.86893
G1 X90.082 Y74.090 E11.15868
G1 X86.094 Y79.195 E11.44843
G1 X81.759 Y84.009 E11.73818
G1 X77.100 Y88.509 E12.02793
G1 X72.137 Y92.672 E12.31768
G1 X66.897 Y96.480 E12.60743
G1 X61.403 Y99.913 E12.89718
G1 X55.684 Y102.954 E13.18693
G1 X49.766 Y105.589 E13.47668
G1 X43.679 Y107.804 E13.76643
G1 X37.452 Y109.590 E14.05618
G1 X31.116 Y110.936 E14.34593
G1 X24.701 Y111.838 E14.63568
G1 X20.154 Y112.156 E14.83957
G1 X20.154 Y123.544 E15.34894
G1 X15.996 Y123.544 E15.53491
G1 X15.996 Y111.306 E16.08229
G1 X20.154 Y111.306 E16.26826
G1 X20.154 Y111.837 E16.29199
G1 X20.539 Y111.483 F6000.000
G1 F1800
G1 X24.633 Y111.197 E16.47556
G1 X31.004 Y110.302 E16.76329
G1 X37.296 Y108.964 E17.05103
G1 X43.480 Y107.191 E17.33878
G1 X49.524 Y104.991 E17.62652
G1 X55.401 Y102.374 E17.91426
G1 X61.081 Y99.354 E18.20199
G1 X66.536 Y95.946 E18.48973
G1 X71.740 Y92.164 E18.77747
G1 X76.668 Y88.030 E19.06520
G1 X81.296 Y83.561 E19.35294
G1 X85.600 Y78.780 E19.64068
G1 X89.560 Y73.711 E19.92842
G1 X93.158 Y68.378 E20.21615
G1 X96.374 Y62.807 E20.50389
G1 X99.194 Y57.026 E20.79164
G1 X101.604 Y51.061 E21.07937
G1 X103.592 Y44.943 E21.36712
G1 X105.148 Y38.701 E21.65486
G1 X106.265 Y32.365 E21.94263
G1 X106.937 Y25.969 E22.23033
G1 X107.162 Y19.540 E22.51806
G1 X107.043 Y16.151 E22.66976
G1 X108.074 Y16.151 E22.71585
G1 X108.192 Y19.540 E22.86755
G1 X107.965 Y26.041 E23.15850
G1 X107.285 Y32.510 E23.44945
G1 X106.156 Y38.916 E23.74042
G1 X104.582 Y45.227 E24.03137
G1 X102.572 Y51.414 E24.32232
G1 X100.135 Y57.445 E24.61328
G1 X97.284 Y63.291 E24.90423
G1 X94.031 Y68.924 E25.19519
G1 X90.394 Y74.317 E25.48614
G1 X86.389 Y79.443 E25.77710
G1 X82.037 Y84.277 E26.06805
G1 X77.358 Y88.795 E26.35901
G1 X72.375 Y92.976 E26.64996
G1 X67.112 Y96.800 E26.94092
G1 X61.596 Y100.247 E27.23187
G1 X55.853 Y103.301 E27.52283
G1 X49.910 Y105.946 E27.81378
G1 X49.180 Y106.212 E27.84854
G1 X43.798 Y108.171 E28.10474
G1 X37.545 Y109.964 E28.39569
G1 X31.183 Y111.316 E28.68665
G1 X24.741 Y112.222 E28.97760
G1 X20.539 Y112.516 E29.16601
G1 X20.539 Y123.929 E29.67655
G1 X15.611 Y123.929 E29.89701
G1 X15.611 Y110.921 E30.47889
G1 X20.539 Y110.921 E30.69935
G1 X20.539 Y111.423 E30.72183
G1 E28.72183 F1200.00000
G92 E0
