; generated by Slic3r 1.3.0 on 2020-04-16 at 20:56:25

; external perimeters extrusion width = 0.44mm (2.86mm^3/s)
; perimeters extrusion width = 0.56mm (4.14mm^3/s)
; infill extrusion width = 0.50mm (3.66mm^3/s)
; solid infill extrusion width = 0.56mm (3.10mm^3/s)
; top infill extrusion width = 0.45mm (2.44mm^3/s)

M107
;D3D:START:START
T0
M104 S215 T0

G21
G90
M107
T0
G28
G29
M109 T0 S215 T0
G0 F3000
M107
T0
G92 E0
G0 X0 Y149 Z0.1 F3600
G1 Y49 E6.5 F1200
G0 Z1
G92 E0
; Filament gcode

G21 ; set units to millimeters
G90 ; use absolute coordinates
M82 ; use absolute distances for extrusion
G92 E0
G1 Z0.200 F6000.000
G1 E-2.00000 F1200.00000
G92 E0
G1 Z0.700 F6000.000
G1 X125.524 Y83.889 F6000.000
G1 Z0.200 F6000.000
G1 E2.00000 F1200.00000
G1 F1800
G1 X125.833 Y83.464 E2.01011
G1 X126.071 Y83.240 E2.01639
G1 X126.534 Y82.947 E2.02694
G1 X127.054 Y82.777 E2.03747
G1 X127.358 Y82.739 E2.04336
G1 X137.642 Y82.739 E2.24120
G1 X137.946 Y82.777 E2.24709
G1 X138.466 Y82.947 E2.25762
G1 X138.929 Y83.240 E2.26817
G1 X139.167 Y83.464 E2.27444
G1 X139.476 Y83.889 E2.28455
G1 X139.607 Y84.166 E2.29044
G1 X139.701 Y84.457 E2.29634
G1 X139.764 Y84.958 E2.30606
G1 X139.764 Y95.042 E2.50005
G1 X139.701 Y95.543 E2.50977
G1 X139.607 Y95.834 E2.51566
G1 X139.485 Y96.092 E2.52115
G1 X139.321 Y96.349 E2.52702
G1 X138.947 Y96.749 E2.53754
G1 X138.484 Y97.042 E2.54809
G1 X138.200 Y97.154 E2.55396
G1 X137.925 Y97.225 E2.55943
G1 X137.642 Y97.261 E2.56492
G1 X127.358 Y97.261 E2.76275
G1 X127.055 Y97.223 E2.76864
G1 X126.534 Y97.053 E2.77918
G1 X126.071 Y96.760 E2.78973
G1 X125.833 Y96.536 E2.79600
G1 X125.524 Y96.111 E2.80611
G1 X125.393 Y95.834 E2.81200
G1 X125.299 Y95.543 E2.81789
G1 X125.236 Y95.042 E2.82762
G1 X125.236 Y84.978 E3.02122
G1 X125.253 Y84.716 E3.02627
G1 X125.305 Y84.438 E3.03173
G1 X125.393 Y84.166 E3.03723
G1 X125.499 Y83.943 E3.04196
G1 X125.746 Y84.021 F6000.000
G1 F1800
G1 X126.027 Y83.635 E3.05115
G1 X126.229 Y83.444 E3.05649
G1 X126.644 Y83.181 E3.06595
G1 X127.111 Y83.029 E3.07538
G1 X127.374 Y82.996 E3.08050
G1 X137.626 Y82.996 E3.27771
G1 X137.889 Y83.029 E3.28282
G1 X138.356 Y83.181 E3.29226
G1 X138.771 Y83.444 E3.30172
G1 X138.973 Y83.635 E3.30706
G1 X139.254 Y84.021 E3.31624
G1 X139.367 Y84.261 E3.32135
G1 X139.449 Y84.513 E3.32646
G1 X139.507 Y84.975 E3.33540
G1 X139.507 Y95.025 E3.52877
G1 X139.449 Y95.487 E3.53772
G1 X139.367 Y95.739 E3.54283
G1 X139.259 Y95.968 E3.54769
G1 X139.117 Y96.191 E3.55278
G1 X138.782 Y96.549 E3.56221
G1 X138.366 Y96.812 E3.57167
G1 X138.120 Y96.910 E3.57677
G1 X137.876 Y96.972 E3.58161
G1 X137.625 Y97.004 E3.58648
G1 X127.375 Y97.004 E3.78369
G1 X127.111 Y96.971 E3.78880
G1 X126.644 Y96.819 E3.79824
G1 X126.229 Y96.556 E3.80770
G1 X126.027 Y96.366 E3.81303
G1 X125.746 Y95.979 E3.82222
G1 X125.633 Y95.739 E3.82733
G1 X125.551 Y95.487 E3.83244
G1 X125.493 Y95.025 E3.84138
G1 X125.493 Y84.987 E4.03451
G1 X125.508 Y84.749 E4.03910
G1 X125.555 Y84.501 E4.04394
G1 X125.633 Y84.261 E4.04882
G1 X125.721 Y84.075 E4.05277
G1 X125.968 Y84.152 F6000.000
G1 F1800
G1 X126.221 Y83.805 E4.06103
G1 X126.388 Y83.648 E4.06543
G1 X126.755 Y83.415 E4.07379
G1 X127.167 Y83.281 E4.08214
G1 X127.391 Y83.253 E4.08647
G1 X137.609 Y83.253 E4.28307
G1 X137.833 Y83.281 E4.28740
G1 X138.245 Y83.415 E4.29574
G1 X138.612 Y83.648 E4.30410
G1 X138.779 Y83.805 E4.30851
G1 X139.032 Y84.152 E4.31677
G1 X139.128 Y84.356 E4.32109
G1 X139.197 Y84.569 E4.32542
G1 X139.250 Y84.991 E4.33359
G1 X139.250 Y95.009 E4.52633
G1 X139.197 Y95.431 E4.53450
G1 X139.128 Y95.644 E4.53883
G1 X139.034 Y95.843 E4.54306
G1 X138.913 Y96.033 E4.54738
G1 X138.616 Y96.349 E4.55572
G1 X138.249 Y96.582 E4.56409
G1 X138.040 Y96.665 E4.56841
G1 X137.828 Y96.719 E4.57263
G1 X137.609 Y96.747 E4.57687
G1 X127.391 Y96.747 E4.77346
G1 X127.167 Y96.719 E4.77780
G1 X126.755 Y96.584 E4.78614
G1 X126.388 Y96.352 E4.79450
G1 X126.221 Y96.195 E4.79891
G1 X125.968 Y95.848 E4.80717
G1 X125.872 Y95.644 E4.81149
G1 X125.803 Y95.431 E4.81581
G1 X125.750 Y95.009 E4.82398
G1 X125.750 Y84.995 E5.01664
G1 X125.764 Y84.781 E5.02078
G1 X125.804 Y84.565 E5.02500
G1 X125.943 Y84.207 E5.03239
G1 X125.776 Y83.802 F6000.000
G1 E3.03239 F1200.00000
G92 E0
G1 Z0.700 F6000.000
G1 X127.075 Y77.225 F6000.000
G1 Z0.200 F6000.000
G1 E2.00000 F1200.00000
G1 F1800
G1 X126.800 Y77.155 E2.00546
G1 X126.516 Y77.042 E2.01134
G1 X126.053 Y76.749 E2.02189
G1 X125.679 Y76.349 E2.03241
G1 X125.515 Y76.092 E2.03827
G1 X125.393 Y75.834 E2.04376
G1 X125.299 Y75.543 E2.04966
G1 X125.231 Y75.000 E2.06019
G1 X125.299 Y74.457 E2.07072
G1 X125.393 Y74.166 E2.07661
G1 X125.524 Y73.889 E2.08250
G1 X125.833 Y73.464 E2.09261
G1 X126.071 Y73.240 E2.09888
G1 X126.534 Y72.947 E2.10944
G1 X127.054 Y72.777 E2.11997
G1 X127.358 Y72.739 E2.12586
G1 X127.642 Y72.739 E2.13131
G1 X127.925 Y72.775 E2.13680
G1 X128.200 Y72.845 E2.14226
G1 X128.484 Y72.958 E2.14813
G1 X128.947 Y73.251 E2.15869
G1 X129.321 Y73.651 E2.16921
G1 X129.485 Y73.908 E2.17507
G1 X129.607 Y74.166 E2.18056
G1 X129.701 Y74.457 E2.18646
G1 X129.769 Y75.000 E2.19699
G1 X129.701 Y75.543 E2.20752
G1 X129.607 Y75.834 E2.21341
G1 X129.476 Y76.111 E2.21930
G1 X129.167 Y76.536 E2.22941
G1 X128.929 Y76.760 E2.23568
G1 X128.466 Y77.053 E2.24623
G1 X127.946 Y77.223 E2.25676
G1 X127.642 Y77.261 E2.26266
G1 X127.358 Y77.261 E2.26811
G1 X127.135 Y77.233 E2.27244
G1 X127.123 Y76.972 F6000.000
G1 F1800
G1 X126.880 Y76.910 E2.27728
G1 X126.634 Y76.812 E2.28238
G1 X126.218 Y76.549 E2.29184
G1 X125.883 Y76.191 E2.30127
G1 X125.741 Y75.968 E2.30636
G1 X125.633 Y75.739 E2.31122
G1 X125.551 Y75.487 E2.31633
G1 X125.490 Y75.000 E2.32577
G1 X125.551 Y74.513 E2.33521
G1 X125.633 Y74.261 E2.34032
G1 X125.746 Y74.021 E2.34543
G1 X126.027 Y73.635 E2.35461
G1 X126.229 Y73.444 E2.35995
G1 X126.644 Y73.181 E2.36941
G1 X127.111 Y73.029 E2.37885
G1 X127.374 Y72.996 E2.38396
G1 X127.626 Y72.996 E2.38879
G1 X127.876 Y73.028 E2.39366
G1 X128.120 Y73.090 E2.39850
G1 X128.366 Y73.188 E2.40359
G1 X128.782 Y73.451 E2.41305
G1 X129.117 Y73.809 E2.42248
G1 X129.259 Y74.032 E2.42757
G1 X129.367 Y74.261 E2.43244
G1 X129.449 Y74.513 E2.43754
G1 X129.510 Y75.000 E2.44699
G1 X129.449 Y75.487 E2.45643
G1 X129.367 Y75.739 E2.46153
G1 X129.254 Y75.979 E2.46664
G1 X128.973 Y76.365 E2.47583
G1 X128.771 Y76.556 E2.48117
G1 X128.356 Y76.819 E2.49062
G1 X127.889 Y76.971 E2.50006
G1 X127.626 Y77.004 E2.50517
G1 X127.374 Y77.004 E2.51000
G1 X127.183 Y76.980 E2.51371
G1 X127.172 Y76.719 F6000.000
G1 F1800
G1 X126.960 Y76.665 E2.51793
G1 X126.751 Y76.582 E2.52225
G1 X126.384 Y76.349 E2.53061
G1 X126.087 Y76.033 E2.53896
G1 X125.966 Y75.843 E2.54328
G1 X125.872 Y75.644 E2.54751
G1 X125.803 Y75.431 E2.55184
G1 X125.749 Y75.000 E2.56019
G1 X125.803 Y74.569 E2.56854
G1 X125.872 Y74.356 E2.57286
G1 X125.968 Y74.152 E2.57719
G1 X126.221 Y73.805 E2.58545
G1 X126.388 Y73.648 E2.58985
G1 X126.755 Y73.415 E2.59821
G1 X127.167 Y73.281 E2.60656
G1 X127.391 Y73.253 E2.61089
G1 X127.609 Y73.253 E2.61510
G1 X127.828 Y73.281 E2.61934
G1 X128.040 Y73.335 E2.62356
G1 X128.249 Y73.418 E2.62788
G1 X128.616 Y73.651 E2.63624
G1 X128.913 Y73.967 E2.64459
G1 X129.034 Y74.157 E2.64891
G1 X129.128 Y74.356 E2.65314
G1 X129.197 Y74.569 E2.65746
G1 X129.251 Y75.000 E2.66581
G1 X129.197 Y75.431 E2.67417
G1 X129.128 Y75.644 E2.67849
G1 X129.032 Y75.848 E2.68281
G1 X128.779 Y76.195 E2.69107
G1 X128.612 Y76.352 E2.69548
G1 X128.245 Y76.585 E2.70384
G1 X127.833 Y76.719 E2.71218
G1 X127.609 Y76.747 E2.71652
G1 X127.231 Y76.727 E2.72380
G1 X127.028 Y76.885 F6000.000
G1 E0.72380 F1200.00000
G92 E0
G1 Z0.700 F6000.000
G1 X119.701 Y75.543 F6000.000
G1 Z0.200 F6000.000
G1 E2.00000 F1200.00000
G1 F1800
G1 X119.607 Y75.834 E2.00589
G1 X119.476 Y76.111 E2.01178
G1 X119.167 Y76.536 E2.02189
G1 X118.929 Y76.760 E2.02817
G1 X118.466 Y77.053 E2.03872
G1 X117.946 Y77.223 E2.04925
G1 X117.642 Y77.261 E2.05514
G1 X117.358 Y77.261 E2.06059
G1 X117.075 Y77.225 E2.06608
G1 X116.800 Y77.155 E2.07154
G1 X116.516 Y77.042 E2.07742
G1 X116.053 Y76.749 E2.08797
G1 X115.679 Y76.349 E2.09849
G1 X115.515 Y76.092 E2.10435
G1 X115.393 Y75.834 E2.10984
G1 X115.299 Y75.543 E2.11574
G1 X115.231 Y75.000 E2.12627
G1 X115.299 Y74.457 E2.13680
G1 X115.393 Y74.166 E2.14269
G1 X115.524 Y73.889 E2.14858
G1 X115.833 Y73.464 E2.15869
G1 X116.071 Y73.240 E2.16496
G1 X116.534 Y72.947 E2.17552
G1 X117.054 Y72.777 E2.18605
G1 X117.358 Y72.739 E2.19194
G1 X117.642 Y72.739 E2.19739
G1 X117.925 Y72.775 E2.20288
G1 X118.200 Y72.845 E2.20834
G1 X118.484 Y72.958 E2.21421
G1 X118.947 Y73.251 E2.22477
G1 X119.321 Y73.651 E2.23529
G1 X119.485 Y73.908 E2.24115
G1 X119.607 Y74.166 E2.24664
G1 X119.701 Y74.457 E2.25254
G1 X119.769 Y75.000 E2.26307
G1 X119.709 Y75.484 E2.27244
G1 X119.449 Y75.487 F6000.000
G1 F1800
G1 X119.367 Y75.739 E2.27755
G1 X119.254 Y75.979 E2.28266
G1 X118.973 Y76.365 E2.29184
G1 X118.771 Y76.556 E2.29718
G1 X118.356 Y76.819 E2.30664
G1 X117.889 Y76.971 E2.31608
G1 X117.626 Y77.004 E2.32119
G1 X117.374 Y77.004 E2.32602
G1 X117.123 Y76.972 E2.33088
G1 X116.880 Y76.910 E2.33572
G1 X116.634 Y76.812 E2.34082
G1 X116.218 Y76.549 E2.35028
G1 X115.883 Y76.191 E2.35971
G1 X115.741 Y75.968 E2.36480
G1 X115.633 Y75.739 E2.36967
G1 X115.551 Y75.487 E2.37477
G1 X115.490 Y75.000 E2.38421
G1 X115.551 Y74.513 E2.39366
G1 X115.633 Y74.261 E2.39876
G1 X115.746 Y74.021 E2.40387
G1 X116.027 Y73.635 E2.41305
G1 X116.229 Y73.444 E2.41839
G1 X116.644 Y73.181 E2.42785
G1 X117.111 Y73.029 E2.43729
G1 X117.374 Y72.996 E2.44240
G1 X117.626 Y72.996 E2.44723
G1 X117.876 Y73.028 E2.45210
G1 X118.120 Y73.090 E2.45694
G1 X118.366 Y73.188 E2.46203
G1 X118.782 Y73.451 E2.47149
G1 X119.117 Y73.809 E2.48093
G1 X119.259 Y74.032 E2.48602
G1 X119.367 Y74.261 E2.49088
G1 X119.449 Y74.513 E2.49599
G1 X119.510 Y75.000 E2.50543
G1 X119.457 Y75.427 E2.51371
G1 X119.197 Y75.431 F6000.000
G1 F1800
G1 X119.128 Y75.644 E2.51804
G1 X119.032 Y75.848 E2.52236
G1 X118.779 Y76.195 E2.53062
G1 X118.612 Y76.352 E2.53503
G1 X118.245 Y76.585 E2.54339
G1 X117.833 Y76.719 E2.55173
G1 X117.609 Y76.747 E2.55607
G1 X117.391 Y76.747 E2.56027
G1 X117.172 Y76.719 E2.56452
G1 X116.960 Y76.665 E2.56873
G1 X116.751 Y76.582 E2.57306
G1 X116.384 Y76.349 E2.58142
G1 X116.087 Y76.033 E2.58976
G1 X115.966 Y75.843 E2.59408
G1 X115.872 Y75.644 E2.59832
G1 X115.803 Y75.431 E2.60264
G1 X115.749 Y75.000 E2.61099
G1 X115.803 Y74.569 E2.61934
G1 X115.872 Y74.356 E2.62366
G1 X115.968 Y74.152 E2.62799
G1 X116.221 Y73.805 E2.63625
G1 X116.388 Y73.648 E2.64065
G1 X116.755 Y73.415 E2.64901
G1 X117.167 Y73.281 E2.65736
G1 X117.391 Y73.253 E2.66169
G1 X117.609 Y73.253 E2.66590
G1 X117.828 Y73.281 E2.67014
G1 X118.040 Y73.335 E2.67436
G1 X118.249 Y73.418 E2.67868
G1 X118.616 Y73.651 E2.68704
G1 X118.913 Y73.967 E2.69539
G1 X119.034 Y74.157 E2.69971
G1 X119.128 Y74.356 E2.70394
G1 X119.197 Y74.569 E2.70827
G1 X119.251 Y75.000 E2.71662
G1 X119.205 Y75.371 E2.72381
G1 X119.364 Y75.581 F6000.000
G1 E0.72381 F1200.00000
G92 E0
G1 Z0.700 F6000.000
G1 X109.769 Y75.000 F6000.000
G1 Z0.200 F6000.000
G1 E2.00000 F1200.00000
G1 F1800
G1 X109.701 Y75.543 E2.01053
G1 X109.607 Y75.834 E2.01642
G1 X109.476 Y76.111 E2.02231
G1 X109.167 Y76.536 E2.03242
G1 X108.929 Y76.760 E2.03870
G1 X108.466 Y77.053 E2.04925
G1 X107.946 Y77.223 E2.05978
G1 X107.642 Y77.261 E2.06567
G1 X107.358 Y77.261 E2.07112
G1 X107.075 Y77.225 E2.07661
G1 X106.800 Y77.155 E2.08207
G1 X106.516 Y77.042 E2.08795
G1 X106.053 Y76.749 E2.09850
G1 X105.679 Y76.349 E2.10902
G1 X105.515 Y76.092 E2.11489
G1 X105.393 Y75.834 E2.12037
G1 X105.299 Y75.543 E2.12627
G1 X105.231 Y75.000 E2.13680
G1 X105.299 Y74.457 E2.14733
G1 X105.393 Y74.166 E2.15322
G1 X105.524 Y73.889 E2.15911
G1 X105.833 Y73.464 E2.16922
G1 X106.071 Y73.240 E2.17550
G1 X106.534 Y72.947 E2.18605
G1 X107.054 Y72.777 E2.19658
G1 X107.358 Y72.739 E2.20247
G1 X107.642 Y72.739 E2.20792
G1 X107.925 Y72.775 E2.21341
G1 X108.200 Y72.845 E2.21887
G1 X108.484 Y72.958 E2.22474
G1 X108.947 Y73.251 E2.23530
G1 X109.321 Y73.651 E2.24582
G1 X109.485 Y73.908 E2.25168
G1 X109.607 Y74.166 E2.25717
G1 X109.701 Y74.457 E2.26307
G1 X109.762 Y74.940 E2.27244
G1 X109.510 Y75.000 F6000.000
G1 F1800
G1 X109.449 Y75.487 E2.28188
G1 X109.367 Y75.739 E2.28699
G1 X109.254 Y75.979 E2.29210
G1 X108.973 Y76.365 E2.30128
G1 X108.771 Y76.556 E2.30662
G1 X108.356 Y76.819 E2.31608
G1 X107.889 Y76.971 E2.32552
G1 X107.626 Y77.004 E2.33063
G1 X107.374 Y77.004 E2.33546
G1 X107.123 Y76.972 E2.34033
G1 X106.880 Y76.910 E2.34517
G1 X106.634 Y76.812 E2.35026
G1 X106.218 Y76.549 E2.35972
G1 X105.883 Y76.191 E2.36915
G1 X105.741 Y75.968 E2.37424
G1 X105.633 Y75.739 E2.37911
G1 X105.551 Y75.487 E2.38421
G1 X105.490 Y75.000 E2.39366
G1 X105.551 Y74.513 E2.40310
G1 X105.633 Y74.261 E2.40820
G1 X105.746 Y74.021 E2.41331
G1 X106.027 Y73.635 E2.42250
G1 X106.229 Y73.444 E2.42784
G1 X106.644 Y73.181 E2.43729
G1 X107.111 Y73.029 E2.44673
G1 X107.374 Y72.996 E2.45184
G1 X107.626 Y72.996 E2.45667
G1 X107.876 Y73.028 E2.46154
G1 X108.120 Y73.090 E2.46638
G1 X108.366 Y73.188 E2.47148
G1 X108.782 Y73.451 E2.48093
G1 X109.117 Y73.809 E2.49037
G1 X109.259 Y74.032 E2.49546
G1 X109.367 Y74.261 E2.50032
G1 X109.449 Y74.513 E2.50543
G1 X109.503 Y74.940 E2.51371
G1 X109.251 Y75.000 F6000.000
G1 F1800
G1 X109.197 Y75.431 E2.52206
G1 X109.128 Y75.644 E2.52639
G1 X109.032 Y75.848 E2.53071
G1 X108.779 Y76.195 E2.53897
G1 X108.612 Y76.352 E2.54338
G1 X108.245 Y76.585 E2.55174
G1 X107.833 Y76.719 E2.56008
G1 X107.609 Y76.747 E2.56442
G1 X107.391 Y76.747 E2.56863
G1 X107.172 Y76.719 E2.57287
G1 X106.960 Y76.665 E2.57709
G1 X106.751 Y76.582 E2.58141
G1 X106.384 Y76.349 E2.58977
G1 X106.087 Y76.033 E2.59811
G1 X105.966 Y75.843 E2.60243
G1 X105.872 Y75.644 E2.60667
G1 X105.803 Y75.431 E2.61099
G1 X105.749 Y75.000 E2.61934
G1 X105.803 Y74.569 E2.62769
G1 X105.872 Y74.356 E2.63202
G1 X105.968 Y74.152 E2.63634
G1 X106.221 Y73.805 E2.64460
G1 X106.388 Y73.648 E2.64900
G1 X106.755 Y73.415 E2.65737
G1 X107.167 Y73.281 E2.66571
G1 X107.391 Y73.253 E2.67004
G1 X107.609 Y73.253 E2.67425
G1 X107.828 Y73.281 E2.67850
G1 X108.040 Y73.335 E2.68271
G1 X108.249 Y73.418 E2.68703
G1 X108.616 Y73.651 E2.69540
G1 X108.913 Y73.967 E2.70374
G1 X109.034 Y74.157 E2.70806
G1 X109.128 Y74.356 E2.71229
G1 X109.197 Y74.569 E2.71662
G1 X109.244 Y74.940 E2.72381
G1 X109.593 Y75.207 F6000.000
G1 E0.72381 F1200.00000
G92 E0
G1 Z0.700 F6000.000
G1 X107.358 Y82.739 F6000.000
G1 Z0.200 F6000.000
G1 E2.00000 F1200.00000
G1 F1800
G1 X117.642 Y82.739 E2.19784
G1 X117.946 Y82.777 E2.20373
G1 X118.466 Y82.947 E2.21426
G1 X118.929 Y83.240 E2.22481
G1 X119.167 Y83.464 E2.23108
G1 X119.476 Y83.889 E2.24120
G1 X119.607 Y84.166 E2.24708
G1 X119.701 Y84.457 E2.25298
G1 X119.764 Y84.958 E2.26270
G1 X119.764 Y95.042 E2.45669
G1 X119.701 Y95.543 E2.46641
G1 X119.607 Y95.834 E2.47231
G1 X119.485 Y96.092 E2.47779
G1 X119.321 Y96.349 E2.48366
G1 X118.947 Y96.749 E2.49418
G1 X118.484 Y97.042 E2.50473
G1 X118.200 Y97.154 E2.51060
G1 X117.925 Y97.225 E2.51607
G1 X117.642 Y97.261 E2.52156
G1 X107.358 Y97.261 E2.71939
G1 X107.055 Y97.223 E2.72529
G1 X106.534 Y97.053 E2.73582
G1 X106.071 Y96.760 E2.74637
G1 X105.833 Y96.536 E2.75264
G1 X105.524 Y96.111 E2.76275
G1 X105.393 Y95.834 E2.76864
G1 X105.299 Y95.543 E2.77454
G1 X105.236 Y95.042 E2.78426
G1 X105.236 Y84.978 E2.97786
G1 X105.253 Y84.716 E2.98291
G1 X105.305 Y84.438 E2.98837
G1 X105.393 Y84.166 E2.99387
G1 X105.524 Y83.889 E2.99976
G1 X105.833 Y83.464 E3.00987
G1 X106.071 Y83.240 E3.01615
G1 X106.534 Y82.947 E3.02670
G1 X107.054 Y82.777 E3.03723
G1 X107.299 Y82.746 E3.04196
G1 X107.374 Y82.996 F6000.000
G1 F1800
G1 X117.626 Y82.996 E3.23918
G1 X117.889 Y83.029 E3.24429
G1 X118.356 Y83.181 E3.25373
G1 X118.771 Y83.444 E3.26319
G1 X118.973 Y83.635 E3.26853
G1 X119.254 Y84.021 E3.27771
G1 X119.367 Y84.261 E3.28282
G1 X119.449 Y84.513 E3.28793
G1 X119.507 Y84.975 E3.29687
G1 X119.507 Y95.025 E3.49024
G1 X119.449 Y95.487 E3.49919
G1 X119.367 Y95.739 E3.50430
G1 X119.259 Y95.968 E3.50916
G1 X119.117 Y96.191 E3.51425
G1 X118.782 Y96.549 E3.52368
G1 X118.367 Y96.812 E3.53314
