; generated by Slic3r 1.3.0 on 2020-07-16 at 14:07:49

; external perimeters extrusion width = 0.44mm (2.86mm^3/s)
; perimeters extrusion width = 0.56mm (4.14mm^3/s)
; infill extrusion width = 0.50mm (5.48mm^3/s)
; solid infill extrusion width = 0.56mm (3.10mm^3/s)
; top infill extrusion width = 0.45mm (2.44mm^3/s)

M107
;D3D:START:START
T0
M104 S215 T0

G21
G90
M107
T0
G28
G29
M109 T0 S215 T0
G0 F3000
M107
T0
G92 E0
G0 X0 Y149 Z0.1 F3600
G1 Y49 E6.5 F1200
G0 Z1
G92 E0
; Filament gcode

G21 ; set units to millimeters
G90 ; use absolute coordinates
M82 ; use absolute distances for extrusion
G92 E0
G1 Z0.200 F6000.000
G1 E-2.00000 F1200.00000
G92 E0
G1 X30.855 Y29.342 F6000.000
G1 E2.00000 F1200.00000
G1 F1800
G1 X33.500 Y28.486 E2.05348
G1 X94.500 Y28.486 E3.22704
G1 X96.924 Y29.192 E3.27560
G1 X118.924 Y43.192 E3.77728
G1 X120.270 Y44.517 E3.81364
G1 X120.991 Y46.543 E3.85501
G1 X124.396 Y80.039 E4.50275
G1 X124.488 Y81.105 E4.52332
G1 X124.512 Y82.142 E4.54328
G1 X124.470 Y83.178 E4.56323
G1 X124.396 Y83.961 E4.57835
G1 X120.991 Y117.457 E5.22609
G1 X120.411 Y119.255 E5.26245
G1 X119.145 Y120.658 E5.29880
G1 X116.500 Y121.514 E5.35228
G1 X55.500 Y121.514 E6.52584
G1 X53.076 Y120.808 E6.57440
G1 X31.076 Y106.808 E7.07608
G1 X29.730 Y105.483 E7.11244
G1 X29.009 Y103.457 E7.15381
G1 X25.604 Y69.961 E7.80155
G1 X25.512 Y68.896 E7.82212
G1 X25.488 Y67.858 E7.84208
G1 X25.530 Y66.822 E7.86203
G1 X25.604 Y66.039 E7.87715
G1 X29.009 Y32.543 E8.52489
G1 X29.589 Y30.745 E8.56125
G1 X30.815 Y29.386 E8.59645
G1 X31.094 Y29.488 F6000.000
G1 F1800
G1 X33.500 Y28.743 E8.64492
G1 X94.500 Y28.743 E9.81848
G1 X96.786 Y29.408 E9.86427
G1 X118.786 Y43.408 E10.36595
G1 X120.085 Y44.704 E10.40125
G1 X120.735 Y46.569 E10.43926
G1 X124.141 Y80.065 E11.08700
G1 X124.231 Y81.113 E11.10722
G1 X124.255 Y82.134 E11.12687
G1 X124.215 Y83.154 E11.14651
G1 X124.141 Y83.935 E11.16160
G1 X120.735 Y117.431 E11.80934
G1 X120.161 Y119.173 E11.84463
G1 X118.906 Y120.512 E11.87993
G1 X116.500 Y121.257 E11.92840
G1 X55.500 Y121.257 E13.10195
G1 X53.214 Y120.592 E13.14775
G1 X31.214 Y106.592 E13.64943
G1 X29.915 Y105.296 E13.68473
G1 X29.265 Y103.431 E13.72274
G1 X25.859 Y69.935 E14.37048
G1 X25.769 Y68.887 E14.39070
G1 X25.745 Y67.866 E14.41035
G1 X25.785 Y66.846 E14.42999
G1 X25.859 Y66.065 E14.44508
G1 X29.265 Y32.569 E15.09282
G1 X29.839 Y30.827 E15.12811
G1 X31.053 Y29.532 E15.16225
G1 E13.16225 F1200.00000
G92 E0
G1 X114.933 Y83.474 F6000.000
G1 E2.00000 F1200.00000
G1 F1800
G1 X115.159 Y82.886 E2.01211
G1 X115.555 Y82.397 E2.02422
G1 X116.083 Y82.054 E2.03634
G1 X116.652 Y81.901 E2.04768
G1 X117.315 Y81.922 E2.06044
G1 X117.907 Y82.149 E2.07264
G1 X118.396 Y82.546 E2.08475
G1 X118.739 Y83.074 E2.09686
G1 X118.902 Y83.682 E2.10897
G1 X118.869 Y84.310 E2.12108
G1 X118.644 Y84.898 E2.13320
G1 X118.248 Y85.387 E2.14531
G1 X117.720 Y85.730 E2.15742
G1 X117.111 Y85.893 E2.16953
G1 X116.483 Y85.860 E2.18164
G1 X115.895 Y85.635 E2.19375
G1 X115.406 Y85.238 E2.20586
G1 X115.063 Y84.710 E2.21798
G1 X114.900 Y84.102 E2.23009
G1 X114.930 Y83.534 E2.24104
G1 X115.188 Y83.528 F6000.000
G1 F1800
G1 X115.384 Y83.016 E2.25159
G1 X115.729 Y82.590 E2.26213
G1 X116.189 Y82.292 E2.27268
G1 X116.682 Y82.159 E2.28251
G1 X117.264 Y82.178 E2.29371
G1 X117.777 Y82.375 E2.30428
G1 X118.203 Y82.720 E2.31483
G1 X118.502 Y83.179 E2.32537
G1 X118.643 Y83.709 E2.33592
G1 X118.615 Y84.256 E2.34646
G1 X118.418 Y84.768 E2.35701
G1 X118.073 Y85.194 E2.36755
G1 X117.614 Y85.492 E2.37810
G1 X117.084 Y85.634 E2.38864
G1 X116.537 Y85.606 E2.39919
G1 X116.025 Y85.409 E2.40973
G1 X115.599 Y85.064 E2.42028
G1 X115.301 Y84.605 E2.43082
G1 X115.159 Y84.075 E2.44136
G1 X115.184 Y83.588 E2.45076
G1 X114.890 Y83.260 F6000.000
G1 E0.45076 F1200.00000
G92 E0
G1 X101.067 Y80.526 F6000.000
G1 E2.00000 F1200.00000
G1 F1800
G1 X100.841 Y81.114 E2.01211
G1 X100.445 Y81.603 E2.02422
G1 X99.917 Y81.946 E2.03634
G1 X99.309 Y82.109 E2.04845
G1 X98.680 Y82.076 E2.06056
G1 X98.093 Y81.851 E2.07267
G1 X97.604 Y81.454 E2.08478
G1 X97.261 Y80.926 E2.09689
G1 X97.098 Y80.318 E2.10900
G1 X97.131 Y79.690 E2.12112
G1 X97.356 Y79.102 E2.13323
G1 X97.752 Y78.613 E2.14534
G1 X98.280 Y78.270 E2.15745
G1 X98.850 Y78.117 E2.16879
G1 X99.513 Y78.138 E2.18156
G1 X100.105 Y78.365 E2.19375
G1 X100.594 Y78.762 E2.20587
G1 X100.937 Y79.290 E2.21798
G1 X101.100 Y79.898 E2.23009
G1 X101.070 Y80.466 E2.24105
G1 X100.812 Y80.472 F6000.000
G1 F1800
G1 X100.616 Y80.984 E2.25159
G1 X100.271 Y81.410 E2.26213
G1 X99.811 Y81.708 E2.27268
G1 X99.282 Y81.850 E2.28322
G1 X98.735 Y81.822 E2.29377
G1 X98.223 Y81.625 E2.30431
G1 X97.797 Y81.280 E2.31486
G1 X97.498 Y80.821 E2.32540
G1 X97.357 Y80.291 E2.33595
G1 X97.385 Y79.744 E2.34649
G1 X97.582 Y79.232 E2.35704
G1 X97.927 Y78.806 E2.36758
G1 X98.386 Y78.508 E2.37813
G1 X98.880 Y78.375 E2.38795
G1 X99.462 Y78.394 E2.39916
G1 X99.975 Y78.591 E2.40973
G1 X100.401 Y78.936 E2.42028
G1 X100.699 Y79.395 E2.43082
G1 X100.841 Y79.925 E2.44137
G1 X100.816 Y80.412 E2.45076
G1 X101.110 Y80.740 F6000.000
G1 E0.45076 F1200.00000
G92 E0
G1 X107.298 Y110.504 F6000.000
G1 E2.00000 F1200.00000
G1 F1800
G1 X107.958 Y110.399 E2.01285
G1 X108.696 Y110.501 E2.02719
G1 X109.336 Y110.827 E2.04100
G1 X109.838 Y111.329 E2.05468
G1 X110.142 Y111.925 E2.06754
G1 X110.274 Y112.658 E2.08187
G1 X110.161 Y113.367 E2.09569
G1 X109.838 Y114.001 E2.10936
G1 X109.336 Y114.503 E2.12304
G1 X108.702 Y114.826 E2.13672
G1 X107.993 Y114.939 E2.15053
G1 X107.260 Y114.807 E2.16487
G1 X106.664 Y114.503 E2.17773
G1 X106.162 Y114.001 E2.19140
G1 X105.839 Y113.367 E2.20508
G1 X105.728 Y112.665 E2.21876
G1 X105.839 Y111.963 E2.23244
G1 X106.162 Y111.329 E2.24612
G1 X106.664 Y110.827 E2.25979
G1 X107.244 Y110.531 E2.27232
G1 X107.378 Y110.751 F6000.000
G1 F1800
G1 X107.960 Y110.659 E2.28366
G1 X108.618 Y110.749 E2.29643
G1 X109.183 Y111.037 E2.30862
G1 X109.628 Y111.482 E2.32073
G1 X109.895 Y112.008 E2.33207
G1 X110.013 Y112.661 E2.34484
G1 X109.914 Y113.287 E2.35704
G1 X109.628 Y113.848 E2.36915
G1 X109.183 Y114.293 E2.38126
G1 X108.622 Y114.579 E2.39337
G1 X107.996 Y114.678 E2.40556
G1 X107.343 Y114.560 E2.41833
G1 X106.817 Y114.293 E2.42967
G1 X106.372 Y113.848 E2.44178
G1 X106.086 Y113.287 E2.45390
G1 X105.988 Y112.665 E2.46601
G1 X106.086 Y112.043 E2.47812
G1 X106.372 Y111.482 E2.49023
G1 X106.817 Y111.037 E2.50234
G1 X107.325 Y110.779 E2.51330
G1 X107.459 Y110.999 F6000.000
G1 F1800
G1 X107.963 Y110.919 E2.52313
G1 X108.540 Y110.998 E2.53433
G1 X109.030 Y111.248 E2.54490
G1 X109.417 Y111.635 E2.55545
G1 X109.649 Y112.090 E2.56527
G1 X109.752 Y112.663 E2.57648
G1 X109.666 Y113.206 E2.58705
G1 X109.417 Y113.695 E2.59760
G1 X109.030 Y114.082 E2.60814
G1 X108.541 Y114.331 E2.61869
G1 X107.998 Y114.417 E2.62926
G1 X107.425 Y114.314 E2.64046
G1 X106.970 Y114.082 E2.65029
G1 X106.583 Y113.695 E2.66083
G1 X106.334 Y113.206 E2.67138
G1 X106.248 Y112.665 E2.68192
G1 X106.334 Y112.124 E2.69247
G1 X106.583 Y111.635 E2.70301
G1 X106.970 Y111.248 E2.71356
G1 X107.405 Y111.026 E2.72295
G1 X107.542 Y110.608 F6000.000
G1 E0.72295 F1200.00000
G92 E0
G1 X108.000 Y100.772 F6000.000
G1 E2.00000 F1200.00000
G1 F1800
G1 X107.298 Y100.661 E2.01368
G1 X106.664 Y100.338 E2.02736
G1 X106.162 Y99.836 E2.04103
G1 X105.839 Y99.202 E2.05471
G1 X105.728 Y98.500 E2.06839
G1 X105.839 Y97.798 E2.08207
G1 X106.162 Y97.164 E2.09575
G1 X106.664 Y96.662 E2.10942
G1 X107.298 Y96.339 E2.12310
G1 X107.958 Y96.234 E2.13596
G1 X108.696 Y96.336 E2.15029
G1 X109.336 Y96.662 E2.16411
G1 X109.838 Y97.164 E2.17778
G1 X110.142 Y97.760 E2.19064
G1 X110.275 Y98.500 E2.20511
G1 X110.142 Y99.240 E2.21958
G1 X109.838 Y99.836 E2.23244
G1 X109.336 Y100.338 E2.24612
G1 X108.702 Y100.661 E2.25980
G1 X108.059 Y100.763 E2.27232
G1 X108.000 Y100.512 F6000.000
G1 F1800
G1 X107.378 Y100.414 E2.28443
G1 X106.817 Y100.128 E2.29654
G1 X106.372 Y99.683 E2.30865
G1 X106.086 Y99.122 E2.32077
G1 X105.988 Y98.500 E2.33288
G1 X106.086 Y97.878 E2.34499
G1 X106.372 Y97.317 E2.35710
G1 X106.817 Y96.872 E2.36921
G1 X107.378 Y96.586 E2.38132
G1 X107.960 Y96.494 E2.39266
G1 X108.618 Y96.584 E2.40543
G1 X109.183 Y96.872 E2.41763
G1 X109.628 Y97.317 E2.42974
G1 X109.895 Y97.843 E2.44108
G1 X110.014 Y98.500 E2.45393
G1 X109.895 Y99.157 E2.46678
G1 X109.628 Y99.683 E2.47812
G1 X109.183 Y100.128 E2.49023
G1 X108.622 Y100.414 E2.50235
G1 X108.059 Y100.503 E2.51330
G1 X108.000 Y100.252 F6000.000
G1 F1800
G1 X107.459 Y100.166 E2.52385
G1 X106.970 Y99.917 E2.53439
G1 X106.583 Y99.530 E2.54494
G1 X106.334 Y99.041 E2.55548
G1 X106.248 Y98.500 E2.56603
G1 X106.334 Y97.959 E2.57657
G1 X106.583 Y97.470 E2.58712
G1 X106.970 Y97.083 E2.59766
G1 X107.459 Y96.834 E2.60821
G1 X107.963 Y96.754 E2.61803
G1 X108.540 Y96.833 E2.62923
G1 X109.030 Y97.083 E2.63981
G1 X109.417 Y97.470 E2.65035
G1 X109.649 Y97.925 E2.66018
G1 X109.752 Y98.500 E2.67141
G1 X109.649 Y99.075 E2.68264
G1 X109.417 Y99.530 E2.69247
G1 X109.030 Y99.917 E2.70301
G1 X108.541 Y100.166 E2.71356
G1 X108.059 Y100.242 E2.72295
G1 X107.800 Y100.598 F6000.000
G1 E0.72295 F1200.00000
G92 E0
G1 X108.000 Y84.272 F6000.000
G1 E2.00000 F1200.00000
G1 F1800
G1 X107.301 Y84.162 E2.01362
G1 X106.676 Y83.851 E2.02704
G1 X106.162 Y83.336 E2.04105
G1 X105.839 Y82.702 E2.05473
G1 X105.728 Y82.000 E2.06840
G1 X105.839 Y81.298 E2.08208
G1 X106.162 Y80.664 E2.09576
G1 X106.676 Y80.149 E2.10977
G1 X107.301 Y79.838 E2.12319
G1 X107.958 Y79.734 E2.13599
G1 X108.696 Y79.836 E2.15032
G1 X109.336 Y80.162 E2.16414
G1 X109.838 Y80.664 E2.17781
G1 X110.142 Y81.260 E2.19067
G1 X110.275 Y82.000 E2.20514
G1 X110.142 Y82.740 E2.21961
G1 X109.838 Y83.336 E2.23247
G1 X109.336 Y83.838 E2.24614
G1 X108.702 Y84.161 E2.25982
G1 X108.059 Y84.263 E2.27235
G1 X108.000 Y84.012 F6000.000
G1 F1800
G1 X107.380 Y83.914 E2.28442
G1 X106.829 Y83.639 E2.29628
G1 X106.372 Y83.183 E2.30869
G1 X106.086 Y82.622 E2.32081
G1 X105.988 Y82.000 E2.33292
G1 X106.086 Y81.378 E2.34503
G1 X106.372 Y80.817 E2.35714
G1 X106.829 Y80.361 E2.36956
G1 X107.380 Y80.086 E2.38141
G1 X107.960 Y79.994 E2.39272
G1 X108.618 Y80.084 E2.40549
G1 X109.183 Y80.372 E2.41768
G1 X109.628 Y80.817 E2.42979
G1 X109.895 Y81.342 E2.44113
G1 X110.014 Y82.000 E2.45398
G1 X109.895 Y82.657 E2.46684
G1 X109.628 Y83.183 E2.47818
G1 X109.183 Y83.628 E2.49029
G1 X108.622 Y83.914 E2.50240
G1 X108.059 Y84.003 E2.51336
G1 X108.000 Y83.752 F6000.000
G1 F1800
G1 X107.459 Y83.666 E2.52389
G1 X106.981 Y83.428 E2.53418
G1 X106.583 Y83.030 E2.54501
G1 X106.334 Y82.541 E2.55555
G1 X106.248 Y82.000 E2.56610
G1 X106.334 Y81.459 E2.57664
G1 X106.583 Y80.970 E2.58719
G1 X106.981 Y80.572 E2.59801
G1 X107.459 Y80.334 E2.60830
G1 X107.963 Y80.254 E2.61811
G1 X108.540 Y80.333 E2.62932
G1 X109.030 Y80.583 E2.63989
G1 X109.417 Y80.970 E2.65044
G1 X109.649 Y81.425 E2.66026
G1 X109.752 Y82.000 E2.67149
G1 X109.649 Y82.575 E2.68273
G1 X109.417 Y83.030 E2.69255
G1 X109.030 Y83.417 E2.70310
G1 X108.541 Y83.666 E2.71364
G1 X108.059 Y83.742 E2.72303
G1 X107.800 Y84.098 F6000.000
G1 E0.72303 F1200.00000
G92 E0
G1 X108.000 Y67.772 F6000.000
G1 E2.00000 F1200.00000
G1 F1800
G1 X107.301 Y67.662 E2.01362
G1 X106.676 Y67.351 E2.02704
G1 X106.162 Y66.836 E2.04105
G1 X105.839 Y66.202 E2.05473
G1 X105.728 Y65.500 E2.06840
G1 X105.839 Y64.798 E2.08208
G1 X106.162 Y64.164 E2.09576
G1 X106.664 Y63.662 E2.10944
G1 X107.298 Y63.339 E2.12312
G1 X107.958 Y63.234 E2.13597
G1 X108.696 Y63.336 E2.15031
G1 X109.336 Y63.662 E2.16412
G1 X109.838 Y64.164 E2.17780
G1 X110.142 Y64.760 E2.19065
G1 X110.275 Y65.500 E2.20513
G1 X110.142 Y66.240 E2.21960
G1 X109.838 Y66.836 E2.23245
G1 X109.336 Y67.338 E2.24613
G1 X108.702 Y67.661 E2.25981
G1 X108.059 Y67.763 E2.27233
G1 X108.000 Y67.512 F6000.000
G1 F1800
G1 X107.380 Y67.414 E2.28441
G1 X106.829 Y67.139 E2.29626
G1 X106.372 Y66.683 E2.30868
G1 X106.086 Y66.122 E2.32079
G1 X105.988 Y65.500 E2.33290
G1 X106.086 Y64.878 E2.34502
G1 X106.372 Y64.317 E2.35713
G1 X106.817 Y63.872 E2.36924
G1 X107.378 Y63.586 E2.38135
G1 X107.960 Y63.494 E2.39269
G1 X108.618 Y63.584 E2.40546
G1 X109.183 Y63.872 E2.41765
G1 X109.628 Y64.317 E2.42976
G1 X109.895 Y64.843 E2.44111
G1 X110.014 Y65.500 E2.45396
G1 X109.895 Y66.157 E2.46681
G1 X109.628 Y66.683 E2.47815
G1 X109.183 Y67.128 E2.49026
G1 X108.622 Y67.414 E2.50237
G1 X108.059 Y67.503 E2.51333
G1 X108.000 Y67.252 F6000.000
G1 F1800
G1 X107.459 Y67.166 E2.52386
G1 X106.981 Y66.928 E2.53415
G1 X106.583 Y66.530 E2.54498
G1 X106.334 Y66.041 E2.55552
G1 X106.248 Y65.500 E2.56607
G1 X106.334 Y64.959 E2.57661
G1 X106.583 Y64.470 E2.58716
G1 X106.970 Y64.083 E2.59770
G1 X107.459 Y63.834 E2.60825
G1 X107.963 Y63.754 E2.61807
G1 X108.540 Y63.833 E2.62927
G1 X109.030 Y64.083 E2.63985
G1 X109.417 Y64.470 E2.65039
G1 X109.649 Y64.925 E2.66022
G1 X109.752 Y65.500 E2.67145
G1 X109.649 Y66.075 E2.68269
G1 X109.417 Y66.530 E2.69251
G1 X109.030 Y66.917 E2.70306
G1 X108.541 Y67.166 E2.71360
G1 X108.059 Y67.242 E2.72299
G1 X107.800 Y67.598 F6000.000
G1 E0.72299 F1200.00000
G92 E0
G1 X108.000 Y53.607 F6000.000
G1 E2.00000 F1200.00000
G1 F1800
G1 X107.298 Y53.496 E2.01368
G1 X106.664 Y53.173 E2.02736
G1 X106.162 Y52.671 E2.04103
G1 X105.839 Y52.037 E2.05471
G1 X105.728 Y51.335 E2.06839
G1 X105.839 Y50.633 E2.08207
G1 X106.162 Y49.999 E2.09575
G1 X106.664 Y49.497 E2.10942
G1 X107.298 Y49.174 E2.12310
G1 X107.958 Y49.069 E2.13596
G1 X108.696 Y49.171 E2.15029
G1 X109.336 Y49.497 E2.16411
G1 X109.838 Y49.999 E2.17778
G1 X110.142 Y50.595 E2.19064
G1 X110.274 Y51.328 E2.20498
G1 X110.161 Y52.037 E2.21879
G1 X109.838 Y52.671 E2.23247
G1 X109.336 Y53.173 E2.24615
G1 X108.702 Y53.496 E2.25983
G1 X108.059 Y53.598 E2.27235
G1 X108.000 Y53.347 F6000.000
G1 F1800
G1 X107.378 Y53.249 E2.28446
G1 X106.817 Y52.963 E2.29657
G1 X106.372 Y52.518 E2.30868
G1 X106.086 Y51.957 E2.32079
G1 X105.988 Y51.335 E2.33291
G1 X106.086 Y50.713 E2.34502
G1 X106.372 Y50.152 E2.35713
G1 X106.817 Y49.707 E2.36924
G1 X107.378 Y49.421 E2.38135
G1 X107.960 Y49.329 E2.39269
G1 X108.618 Y49.419 E2.40546
G1 X109.183 Y49.707 E2.41766
G1 X109.628 Y50.152 E2.42977
G1 X109.895 Y50.678 E2.44111
G1 X110.013 Y51.331 E2.45388
G1 X109.914 Y51.957 E2.46607
G1 X109.628 Y52.518 E2.47818
G1 X109.183 Y52.963 E2.49029
G1 X108.622 Y53.249 E2.50241
G1 X108.059 Y53.338 E2.51336
G1 X108.000 Y53.087 F6000.000
G1 F1800
G1 X107.459 Y53.001 E2.52391
G1 X106.970 Y52.752 E2.53445
G1 X106.583 Y52.365 E2.54500
G1 X106.334 Y51.876 E2.55554
G1 X106.248 Y51.335 E2.56609
G1 X106.334 Y50.794 E2.57663
G1 X106.583 Y50.305 E2.58718
G1 X106.970 Y49.918 E2.59772
G1 X107.459 Y49.669 E2.60827
G1 X107.963 Y49.589 E2.61809
G1 X108.540 Y49.668 E2.62929
G1 X109.030 Y49.918 E2.63987
G1 X109.417 Y50.305 E2.65041
G1 X109.649 Y50.760 E2.66024
G1 X109.752 Y51.333 E2.67144
G1 X109.666 Y51.876 E2.68202
G1 X109.417 Y52.365 E2.69256
G1 X109.030 Y52.752 E2.70311
G1 X108.541 Y53.001 E2.71365
G1 X108.059 Y53.077 E2.72304
G1 X107.800 Y53.433 F6000.000
G1 E0.72304 F1200.00000
G92 E0
G1 X115.836 Y47.664 F6000.000
G1 E2.00000 F1200.00000
G1 F1800
G1 X115.836 Y63.367 E2.30210
G1 X115.586 Y63.399 E2.30696
G1 X115.080 Y63.599 E2.31742
G1 X114.640 Y63.919 E2.32788
G1 X114.293 Y64.338 E2.33834
G1 X114.062 Y64.830 E2.34881
G1 X113.960 Y65.364 E2.35927
G1 X113.994 Y65.907 E2.36973
G1 X114.162 Y66.424 E2.38019
G1 X114.453 Y66.883 E2.39065
G1 X114.850 Y67.255 E2.40112
G1 X115.326 Y67.517 E2.41158
G1 X115.853 Y67.652 E2.42204
G1 X116.397 Y67.652 E2.43250
G1 X116.528 Y67.619 E2.43511
G1 X119.134 Y79.873 E2.67613
G1 X119.246 Y80.579 E2.68990
G1 X119.313 Y81.288 E2.70360
G1 X119.336 Y82.000 E2.71730
G1 X119.313 Y82.712 E2.73100
G1 X119.242 Y83.465 E2.74556
G1 X119.113 Y83.476 E2.74804
G1 X118.977 Y82.968 E2.75817
G1 X118.590 Y82.371 E2.77185
G1 X118.037 Y81.924 E2.78553
G1 X117.367 Y81.667 E2.79934
G1 X116.622 Y81.643 E2.81368
G1 X115.977 Y81.816 E2.82653
G1 X115.381 Y82.203 E2.84021
G1 X114.933 Y82.756 E2.85389
G1 X114.678 Y83.420 E2.86757
G1 X114.641 Y84.130 E2.88124
G1 X114.825 Y84.816 E2.89492
G1 X115.212 Y85.413 E2.90860
G1 X115.765 Y85.860 E2.92228
G1 X116.429 Y86.115 E2.93596
G1 X117.139 Y86.152 E2.94963
G1 X117.825 Y85.968 E2.96331
