; generated by Slic3r 1.3.1-dev (Build (Unknown revision)) on 2020-06-30 at 09:33:50

; external perimeters extrusion width = 0.44mm (2.86mm^3/s)
; perimeters extrusion width = 0.56mm (4.14mm^3/s)
; infill extrusion width = 0.50mm (5.48mm^3/s)
; solid infill extrusion width = 0.56mm (3.10mm^3/s)
; top infill extrusion width = 0.45mm (2.44mm^3/s)

M107
G92 E0
;D3D:START:START
T0
M104 S215 T0

G21
G90
M107
T0
G28
G29
M109 T0 S215 T0
G0 F3000
M107
T0
G92 E0
G0 X0 Y149 Z0.1 F3600
G1 Y49 E6.5 F1200
G0 Z1
G92 E0
; Filament gcode

G21 ; set units to millimeters
G90 ; use absolute coordinates
M82 ; use absolute distances for extrusion
G92 E0
G1 Z0.200 F6000.000
G1 E-2.00000 F1200.00000
G92 E0
G1 X31.409 Y29.303 F6000.000
G1 E2.00000 F1200.00000
G1 F1800.000
G1 X34.000 Y28.486 E2.05226
G1 X94.000 Y28.486 E3.20658
G1 X96.424 Y29.192 E3.25514
G1 X118.424 Y43.192 E3.75682
G1 X119.770 Y44.517 E3.79318
G1 X120.484 Y46.477 E3.83330
G1 X124.389 Y79.973 E4.48209
G1 X124.488 Y81.105 E4.50394
G1 X124.512 Y82.142 E4.52390
G1 X124.470 Y83.178 E4.54385
G1 X124.389 Y84.027 E4.56025
G1 X120.484 Y117.523 E5.20903
G1 X119.877 Y119.312 E5.24539
G1 X118.591 Y120.697 E5.28175
G1 X116.000 Y121.514 E5.33401
G1 X56.000 Y121.514 E6.48832
G1 X53.576 Y120.808 E6.53689
G1 X31.576 Y106.808 E7.03857
G1 X30.230 Y105.483 E7.07493
G1 X29.516 Y103.523 E7.11505
G1 X25.611 Y70.027 E7.76383
G1 X25.512 Y68.895 E7.78568
G1 X25.488 Y67.858 E7.80565
G1 X25.530 Y66.822 E7.82560
G1 X25.611 Y65.973 E7.84200
G1 X29.516 Y32.477 E8.49078
G1 X30.123 Y30.688 E8.52714
G1 X31.369 Y29.347 E8.56234
G1 X31.646 Y29.453 F6000.000
G1 F1800.000
G1 X34.000 Y28.743 E8.60965
G1 X94.000 Y28.743 E9.76397
G1 X96.286 Y29.408 E9.80977
G1 X118.286 Y43.408 E10.31145
G1 X119.585 Y44.704 E10.34674
G1 X120.228 Y46.507 E10.38358
G1 X124.134 Y80.003 E11.03236
G1 X124.231 Y81.113 E11.05379
G1 X124.255 Y82.134 E11.07344
G1 X124.215 Y83.154 E11.09309
G1 X124.134 Y83.997 E11.10938
G1 X120.228 Y117.493 E11.75816
G1 X119.628 Y119.227 E11.79346
G1 X118.354 Y120.547 E11.82875
G1 X116.000 Y121.257 E11.87606
G1 X56.000 Y121.257 E13.03038
G1 X53.714 Y120.592 E13.07618
G1 X31.714 Y106.592 E13.57786
G1 X30.415 Y105.296 E13.61315
G1 X29.772 Y103.493 E13.64999
G1 X25.866 Y69.997 E14.29877
G1 X25.769 Y68.887 E14.32020
G1 X25.745 Y67.866 E14.33985
G1 X25.785 Y66.846 E14.35949
G1 X25.866 Y66.003 E14.37579
G1 X29.772 Y32.507 E15.02457
G1 X30.372 Y30.773 E15.05987
G1 X31.604 Y29.496 E15.09401
G1 E13.09401 F1200.00000
G92 E0
G1 X115.159 Y82.886 F6000.000
G1 E2.00000 F1200.00000
G1 F1800.000
G1 X115.555 Y82.397 E2.01211
G1 X116.083 Y82.054 E2.02422
G1 X116.691 Y81.891 E2.03633
G1 X117.319 Y81.924 E2.04845
G1 X117.907 Y82.149 E2.06056
G1 X118.396 Y82.546 E2.07267
G1 X118.739 Y83.074 E2.08478
G1 X118.902 Y83.682 E2.09689
G1 X118.869 Y84.310 E2.10900
G1 X118.644 Y84.898 E2.12112
G1 X118.248 Y85.387 E2.13323
G1 X117.720 Y85.730 E2.14534
G1 X117.111 Y85.893 E2.15745
G1 X116.483 Y85.860 E2.16956
G1 X115.895 Y85.635 E2.18167
G1 X115.406 Y85.238 E2.19378
G1 X115.063 Y84.710 E2.20590
G1 X114.900 Y84.102 E2.21801
G1 X114.933 Y83.474 E2.23012
G1 X115.137 Y82.942 E2.24108
G1 X115.384 Y83.016 F6000.000
G1 F1800.000
G1 X115.729 Y82.590 E2.25162
G1 X116.189 Y82.292 E2.26217
G1 X116.718 Y82.150 E2.27271
G1 X117.265 Y82.178 E2.28325
G1 X117.777 Y82.375 E2.29380
G1 X118.203 Y82.720 E2.30434
G1 X118.502 Y83.179 E2.31489
G1 X118.643 Y83.709 E2.32543
G1 X118.615 Y84.256 E2.33598
G1 X118.418 Y84.768 E2.34652
G1 X118.073 Y85.194 E2.35707
G1 X117.614 Y85.492 E2.36761
G1 X117.084 Y85.634 E2.37816
G1 X116.537 Y85.606 E2.38870
G1 X116.025 Y85.409 E2.39925
G1 X115.599 Y85.064 E2.40979
G1 X115.301 Y84.605 E2.42034
G1 X115.159 Y84.075 E2.43088
G1 X115.188 Y83.528 E2.44143
G1 X115.362 Y83.072 E2.45082
G1 X115.184 Y82.670 F6000.000
G1 E0.45082 F1200.00000
G92 E0
G1 X108.702 Y110.504 F6000.000
G1 E2.00000 F1200.00000
G1 F1800.000
G1 X109.336 Y110.827 E2.01368
G1 X109.838 Y111.329 E2.02736
G1 X110.161 Y111.963 E2.04104
G1 X110.272 Y112.665 E2.05471
G1 X110.161 Y113.367 E2.06839
G1 X109.838 Y114.001 E2.08207
G1 X109.336 Y114.503 E2.09575
G1 X108.702 Y114.826 E2.10943
G1 X108.000 Y114.937 E2.12310
G1 X107.298 Y114.826 E2.13678
G1 X106.664 Y114.503 E2.15046
G1 X106.162 Y114.001 E2.16414
G1 X105.839 Y113.367 E2.17782
G1 X105.728 Y112.665 E2.19149
G1 X105.839 Y111.963 E2.20517
G1 X106.162 Y111.329 E2.21885
G1 X106.664 Y110.827 E2.23253
G1 X107.298 Y110.504 E2.24621
G1 X108.000 Y110.393 E2.25989
G1 X108.643 Y110.494 E2.27241
G1 X108.622 Y110.751 F6000.000
G1 F1800.000
G1 X109.183 Y111.037 E2.28452
G1 X109.628 Y111.482 E2.29663
G1 X109.914 Y112.043 E2.30874
G1 X110.012 Y112.665 E2.32086
G1 X109.914 Y113.287 E2.33297
G1 X109.628 Y113.848 E2.34508
G1 X109.183 Y114.293 E2.35719
G1 X108.622 Y114.579 E2.36930
G1 X108.000 Y114.677 E2.38141
G1 X107.378 Y114.579 E2.39352
G1 X106.817 Y114.293 E2.40564
G1 X106.372 Y113.848 E2.41775
G1 X106.086 Y113.287 E2.42986
G1 X105.988 Y112.665 E2.44197
G1 X106.086 Y112.043 E2.45408
G1 X106.372 Y111.482 E2.46619
G1 X106.817 Y111.037 E2.47830
G1 X107.378 Y110.751 E2.49042
G1 X108.000 Y110.653 E2.50253
G1 X108.563 Y110.742 E2.51348
G1 X108.541 Y110.999 F6000.000
G1 F1800.000
G1 X109.030 Y111.248 E2.52403
G1 X109.417 Y111.635 E2.53457
G1 X109.666 Y112.124 E2.54512
G1 X109.752 Y112.665 E2.55566
G1 X109.666 Y113.206 E2.56621
G1 X109.417 Y113.695 E2.57675
G1 X109.030 Y114.082 E2.58730
G1 X108.541 Y114.331 E2.59784
G1 X108.000 Y114.417 E2.60839
G1 X107.459 Y114.331 E2.61893
G1 X106.970 Y114.082 E2.62948
G1 X106.583 Y113.695 E2.64002
G1 X106.334 Y113.206 E2.65057
G1 X106.248 Y112.665 E2.66111
G1 X106.334 Y112.124 E2.67166
G1 X106.583 Y111.635 E2.68220
G1 X106.970 Y111.248 E2.69275
G1 X107.459 Y110.999 E2.70329
G1 X108.000 Y110.913 E2.71384
G1 X108.482 Y110.989 E2.72323
G1 X108.839 Y110.731 F6000.000
G1 E0.72323 F1200.00000
G92 E0
G1 X108.000 Y100.772 F6000.000
G1 E2.00000 F1200.00000
G1 F1800.000
G1 X107.298 Y100.661 E2.01368
G1 X106.664 Y100.338 E2.02736
G1 X106.162 Y99.836 E2.04103
G1 X105.839 Y99.202 E2.05471
G1 X105.728 Y98.500 E2.06839
G1 X105.839 Y97.798 E2.08207
G1 X106.162 Y97.164 E2.09575
G1 X106.664 Y96.662 E2.10942
G1 X107.298 Y96.339 E2.12310
G1 X108.000 Y96.228 E2.13678
G1 X108.702 Y96.339 E2.15046
G1 X109.336 Y96.662 E2.16414
G1 X109.838 Y97.164 E2.17782
G1 X110.161 Y97.798 E2.19150
G1 X110.272 Y98.500 E2.20517
G1 X110.161 Y99.202 E2.21885
G1 X109.838 Y99.836 E2.23253
G1 X109.336 Y100.338 E2.24621
G1 X108.702 Y100.661 E2.25989
G1 X108.059 Y100.763 E2.27241
G1 X108.000 Y100.512 F6000.000
G1 F1800.000
G1 X107.378 Y100.414 E2.28452
G1 X106.817 Y100.128 E2.29663
G1 X106.372 Y99.683 E2.30874
G1 X106.086 Y99.122 E2.32086
G1 X105.988 Y98.500 E2.33297
G1 X106.086 Y97.878 E2.34508
G1 X106.372 Y97.317 E2.35719
G1 X106.817 Y96.872 E2.36930
G1 X107.378 Y96.586 E2.38141
G1 X108.000 Y96.488 E2.39352
G1 X108.622 Y96.586 E2.40564
G1 X109.183 Y96.872 E2.41775
G1 X109.628 Y97.317 E2.42986
G1 X109.914 Y97.878 E2.44197
G1 X110.012 Y98.500 E2.45408
G1 X109.914 Y99.122 E2.46619
G1 X109.628 Y99.683 E2.47831
G1 X109.183 Y100.128 E2.49042
G1 X108.622 Y100.414 E2.50253
G1 X108.059 Y100.503 E2.51348
G1 X108.000 Y100.252 F6000.000
G1 F1800.000
G1 X107.459 Y100.166 E2.52403
G1 X106.970 Y99.917 E2.53458
G1 X106.583 Y99.530 E2.54512
G1 X106.334 Y99.041 E2.55566
G1 X106.248 Y98.500 E2.56621
G1 X106.334 Y97.959 E2.57675
G1 X106.583 Y97.470 E2.58730
G1 X106.970 Y97.083 E2.59784
G1 X107.459 Y96.834 E2.60839
G1 X108.000 Y96.748 E2.61893
G1 X108.541 Y96.834 E2.62948
G1 X109.030 Y97.083 E2.64002
G1 X109.417 Y97.470 E2.65057
G1 X109.666 Y97.959 E2.66111
G1 X109.752 Y98.500 E2.67166
G1 X109.666 Y99.041 E2.68220
G1 X109.417 Y99.530 E2.69275
G1 X109.030 Y99.917 E2.70329
G1 X108.541 Y100.166 E2.71384
G1 X108.059 Y100.242 E2.72323
G1 X107.800 Y100.598 F6000.000
G1 E0.72323 F1200.00000
G92 E0
G1 X108.000 Y84.272 F6000.000
G1 E2.00000 F1200.00000
G1 F1800.000
G1 X107.298 Y84.161 E2.01368
G1 X106.664 Y83.838 E2.02736
G1 X106.162 Y83.336 E2.04103
G1 X105.839 Y82.702 E2.05471
G1 X105.728 Y82.000 E2.06839
G1 X105.839 Y81.298 E2.08207
G1 X106.162 Y80.664 E2.09575
G1 X106.664 Y80.162 E2.10942
G1 X107.298 Y79.839 E2.12310
G1 X108.000 Y79.728 E2.13678
G1 X108.702 Y79.839 E2.15046
G1 X109.336 Y80.162 E2.16414
G1 X109.838 Y80.664 E2.17782
G1 X110.161 Y81.298 E2.19149
G1 X110.272 Y82.000 E2.20517
G1 X110.161 Y82.702 E2.21885
G1 X109.838 Y83.336 E2.23253
G1 X109.336 Y83.838 E2.24621
G1 X108.702 Y84.161 E2.25989
G1 X108.059 Y84.263 E2.27241
G1 X108.000 Y84.012 F6000.000
G1 F1800.000
G1 X107.378 Y83.914 E2.28452
G1 X106.817 Y83.628 E2.29663
G1 X106.372 Y83.183 E2.30874
G1 X106.086 Y82.622 E2.32086
G1 X105.988 Y82.000 E2.33297
G1 X106.086 Y81.378 E2.34508
G1 X106.372 Y80.817 E2.35719
G1 X106.817 Y80.372 E2.36930
G1 X107.378 Y80.086 E2.38141
G1 X108.000 Y79.988 E2.39352
G1 X108.622 Y80.086 E2.40564
G1 X109.183 Y80.372 E2.41775
G1 X109.628 Y80.817 E2.42986
G1 X109.914 Y81.378 E2.44197
G1 X110.012 Y82.000 E2.45408
G1 X109.914 Y82.622 E2.46619
G1 X109.628 Y83.183 E2.47831
G1 X109.183 Y83.628 E2.49042
G1 X108.622 Y83.914 E2.50253
G1 X108.059 Y84.003 E2.51349
G1 X108.000 Y83.752 F6000.000
G1 F1800.000
G1 X107.459 Y83.666 E2.52403
G1 X106.970 Y83.417 E2.53458
G1 X106.583 Y83.030 E2.54512
G1 X106.334 Y82.541 E2.55566
G1 X106.248 Y82.000 E2.56621
G1 X106.334 Y81.459 E2.57675
G1 X106.583 Y80.970 E2.58730
G1 X106.970 Y80.583 E2.59784
G1 X107.459 Y80.334 E2.60839
G1 X108.000 Y80.248 E2.61893
G1 X108.541 Y80.334 E2.62948
G1 X109.030 Y80.583 E2.64002
G1 X109.417 Y80.970 E2.65057
G1 X109.666 Y81.459 E2.66111
G1 X109.752 Y82.000 E2.67166
G1 X109.666 Y82.541 E2.68220
G1 X109.417 Y83.030 E2.69275
G1 X109.030 Y83.417 E2.70329
G1 X108.541 Y83.666 E2.71384
G1 X108.059 Y83.742 E2.72323
G1 X107.800 Y84.098 F6000.000
G1 E0.72323 F1200.00000
G92 E0
G1 X108.000 Y67.772 F6000.000
G1 E2.00000 F1200.00000
G1 F1800.000
G1 X107.298 Y67.661 E2.01368
G1 X106.664 Y67.338 E2.02736
G1 X106.162 Y66.836 E2.04103
G1 X105.839 Y66.202 E2.05471
G1 X105.728 Y65.500 E2.06839
G1 X105.839 Y64.798 E2.08207
G1 X106.162 Y64.164 E2.09575
G1 X106.664 Y63.662 E2.10942
G1 X107.298 Y63.339 E2.12310
G1 X108.000 Y63.228 E2.13678
G1 X108.702 Y63.339 E2.15046
G1 X109.336 Y63.662 E2.16414
G1 X109.838 Y64.164 E2.17782
G1 X110.161 Y64.798 E2.19149
G1 X110.272 Y65.500 E2.20517
G1 X110.161 Y66.202 E2.21885
G1 X109.838 Y66.836 E2.23253
G1 X109.336 Y67.338 E2.24621
G1 X108.702 Y67.661 E2.25989
G1 X108.059 Y67.763 E2.27241
G1 X108.000 Y67.512 F6000.000
G1 F1800.000
G1 X107.378 Y67.414 E2.28452
G1 X106.817 Y67.128 E2.29663
G1 X106.372 Y66.683 E2.30874
G1 X106.086 Y66.122 E2.32086
G1 X105.988 Y65.500 E2.33297
G1 X106.086 Y64.878 E2.34508
G1 X106.372 Y64.317 E2.35719
G1 X106.817 Y63.872 E2.36930
G1 X107.378 Y63.586 E2.38141
G1 X108.000 Y63.488 E2.39352
G1 X108.622 Y63.586 E2.40564
G1 X109.183 Y63.872 E2.41775
G1 X109.628 Y64.317 E2.42986
G1 X109.914 Y64.878 E2.44197
G1 X110.012 Y65.500 E2.45408
G1 X109.914 Y66.122 E2.46619
G1 X109.628 Y66.683 E2.47831
G1 X109.183 Y67.128 E2.49042
G1 X108.622 Y67.414 E2.50253
G1 X108.059 Y67.503 E2.51349
G1 X108.000 Y67.252 F6000.000
G1 F1800.000
G1 X107.459 Y67.166 E2.52403
G1 X106.970 Y66.917 E2.53458
G1 X106.583 Y66.530 E2.54512
G1 X106.334 Y66.041 E2.55566
G1 X106.248 Y65.500 E2.56621
G1 X106.334 Y64.959 E2.57675
G1 X106.583 Y64.470 E2.58730
G1 X106.970 Y64.083 E2.59784
G1 X107.459 Y63.834 E2.60839
G1 X108.000 Y63.748 E2.61893
G1 X108.541 Y63.834 E2.62948
G1 X109.030 Y64.083 E2.64002
G1 X109.417 Y64.470 E2.65057
G1 X109.666 Y64.959 E2.66111
G1 X109.752 Y65.500 E2.67166
G1 X109.666 Y66.041 E2.68220
G1 X109.417 Y66.530 E2.69275
G1 X109.030 Y66.917 E2.70329
G1 X108.541 Y67.166 E2.71384
G1 X108.059 Y67.242 E2.72323
G1 X107.800 Y67.598 F6000.000
G1 E0.72323 F1200.00000
G92 E0
G1 X108.000 Y53.607 F6000.000
G1 E2.00000 F1200.00000
G1 F1800.000
G1 X107.298 Y53.496 E2.01368
G1 X106.664 Y53.173 E2.02736
G1 X106.162 Y52.671 E2.04103
G1 X105.839 Y52.037 E2.05471
G1 X105.728 Y51.335 E2.06839
G1 X105.839 Y50.633 E2.08207
G1 X106.162 Y49.999 E2.09575
G1 X106.664 Y49.497 E2.10942
G1 X107.298 Y49.174 E2.12310
G1 X108.000 Y49.063 E2.13678
G1 X108.702 Y49.174 E2.15046
G1 X109.336 Y49.497 E2.16414
G1 X109.838 Y49.999 E2.17782
G1 X110.161 Y50.633 E2.19150
G1 X110.272 Y51.335 E2.20517
G1 X110.161 Y52.037 E2.21885
G1 X109.838 Y52.671 E2.23253
G1 X109.336 Y53.173 E2.24621
G1 X108.702 Y53.496 E2.25989
G1 X108.059 Y53.598 E2.27241
G1 X108.000 Y53.347 F6000.000
G1 F1800.000
G1 X107.378 Y53.249 E2.28452
G1 X106.817 Y52.963 E2.29663
G1 X106.372 Y52.518 E2.30874
G1 X106.086 Y51.957 E2.32086
G1 X105.988 Y51.335 E2.33297
G1 X106.086 Y50.713 E2.34508
G1 X106.372 Y50.152 E2.35719
G1 X106.817 Y49.707 E2.36930
G1 X107.378 Y49.421 E2.38141
G1 X108.000 Y49.323 E2.39352
G1 X108.622 Y49.421 E2.40564
G1 X109.183 Y49.707 E2.41775
G1 X109.628 Y50.152 E2.42986
G1 X109.914 Y50.713 E2.44197
G1 X110.012 Y51.335 E2.45408
G1 X109.914 Y51.957 E2.46619
G1 X109.628 Y52.518 E2.47831
G1 X109.183 Y52.963 E2.49042
G1 X108.622 Y53.249 E2.50253
G1 X108.059 Y53.338 E2.51348
G1 X108.000 Y53.087 F6000.000
G1 F1800.000
G1 X107.459 Y53.001 E2.52403
G1 X106.970 Y52.752 E2.53458
G1 X106.583 Y52.365 E2.54512
G1 X106.334 Y51.876 E2.55566
G1 X106.248 Y51.335 E2.56621
G1 X106.334 Y50.794 E2.57675
G1 X106.583 Y50.305 E2.58730
G1 X106.970 Y49.918 E2.59784
G1 X107.459 Y49.669 E2.60839
G1 X108.000 Y49.583 E2.61893
G1 X108.541 Y49.669 E2.62948
G1 X109.030 Y49.918 E2.64002
G1 X109.417 Y50.305 E2.65057
G1 X109.666 Y50.794 E2.66111
G1 X109.752 Y51.335 E2.67166
G1 X109.666 Y51.876 E2.68220
G1 X109.417 Y52.365 E2.69275
G1 X109.030 Y52.752 E2.70329
G1 X108.541 Y53.001 E2.71384
G1 X108.059 Y53.077 E2.72323
G1 X107.800 Y53.433 F6000.000
G1 E0.72323 F1200.00000
G92 E0
G1 X100.664 Y47.664 F6000.000
G1 E2.00000 F1200.00000
G1 F1800.000
G1 X115.336 Y47.664 E2.28226
G1 X115.336 Y66.862 E2.65161
G1 X115.138 Y66.871 E2.65542
G1 X114.628 Y67.025 E2.66567
G1 X114.272 Y67.225 E2.67352
G1 X114.035 Y67.413 E2.67936
G1 X113.707 Y67.793 E2.68901
G1 X113.555 Y68.056 E2.69485
G1 X113.409 Y68.437 E2.70269
G1 X113.334 Y68.943 E2.71254
G1 X113.347 Y69.246 E2.71838
G1 X113.425 Y69.636 E2.72603
G1 X113.584 Y70.023 E2.73408
G1 X113.882 Y70.453 E2.74413
G1 X114.190 Y70.736 E2.75218
G1 X114.536 Y70.951 E2.76003
G1 X114.917 Y71.097 E2.76788
G1 X115.336 Y71.172 E2.77606
G1 X115.336 Y73.363 E2.81821
G1 X115.760 Y73.737 E2.82908
G1 X116.263 Y74.240 E2.84278
G1 X116.734 Y74.774 E2.85648
G1 X117.171 Y75.337 E2.87018
G1 X117.571 Y75.926 E2.88388
G1 X117.933 Y76.539 E2.89758
G1 X118.257 Y77.174 E2.91128
G1 X118.539 Y77.827 E2.92498
G1 X118.781 Y78.497 E2.93868
G1 X118.979 Y79.181 E2.95238
G1 X119.135 Y79.876 E2.96608
G1 X119.246 Y80.579 E2.97978
G1 X119.313 Y81.288 E2.99348
G1 X119.336 Y82.000 E3.00718
G1 X119.313 Y82.712 E3.02088
G1 X119.242 Y83.465 E3.03545
G1 X119.113 Y83.476 E3.03793
G1 X118.977 Y82.968 E3.04806
G1 X118.590 Y82.371 E3.06174
G1 X118.037 Y81.924 E3.07541
G1 X117.374 Y81.669 E3.08909
G1 X116.664 Y81.632 E3.10277
G1 X115.977 Y81.816 E3.11645
G1 X115.381 Y82.203 E3.13013
G1 X114.933 Y82.756 E3.14380
G1 X114.678 Y83.420 E3.15748
G1 X114.641 Y84.130 E3.17116
G1 X114.825 Y84.816 E3.18484
G1 X115.212 Y85.413 E3.19852
G1 X115.765 Y85.860 E3.21219
G1 X116.429 Y86.115 E3.22587
G1 X117.139 Y86.152 E3.23955
G1 X117.825 Y85.968 E3.25323
G1 X118.422 Y85.581 E3.26691
G1 X118.745 Y85.181 E3.27680
G1 X118.857 Y85.240 E3.27923
G1 X118.539 Y86.173 E3.29820
G1 X118.257 Y86.826 E3.31190
G1 X117.933 Y87.461 E3.32560
G1 X117.571 Y88.074 E3.33930
G1 X117.171 Y88.663 E3.35300
G1 X116.734 Y89.226 E3.36670
G1 X116.263 Y89.760 E3.38040
G1 X115.760 Y90.263 E3.39410
G1 X115.336 Y90.637 E3.40497
G1 X115.336 Y92.841 E3.44737
G1 X115.194 Y92.844 E3.45011
G1 X114.777 Y92.946 E3.45836
G1 X114.299 Y93.183 E3.46862
G1 X113.896 Y93.532 E3.47888
G1 X113.640 Y93.876 E3.48713
G1 X113.427 Y94.354 E3.49718
G1 X113.343 Y94.774 E3.50544
G1 X113.354 Y95.307 E3.51570
G1 X113.500 Y95.831 E3.52616
G1 X113.772 Y96.302 E3.53662
G1 X114.152 Y96.691 E3.54708
G1 X114.618 Y96.972 E3.55754
G1 X115.138 Y97.129 E3.56801
